%
(RHU_LETTERPLATER_11_11_ALU_1MM)
(T1  D=1. CR=0. - ZMIN=-1.1 - FLAT END MILL)
N10 G90 G94 G17 G91.1
N15 G21
(POCKET1 2)
N20 T1 M6
N25 S10000 M3
N30 G54
N35 G0 X113.434 Y114.793
N40 G43 Z15. H1
N45 G0 Z2.5
N50 G1 Z0.497 F25.
N55 X113.439 Z0.464 F50.
N60 X113.454 Z0.436
N65 X113.478 Z0.413
N70 X113.508 Z0.4
N75 X118.76 Y114.792 Z-1.007
N80 X118.821 Y114.784 Z-1.024
N85 X118.902 Y114.764 Z-1.046
N90 X118.937 Y114.752 Z-1.056
N95 X118.97 Y114.735 Z-1.066
N100 X119.027 Y114.7 Z-1.084
N105 X119.074 Y114.663 Z-1.1
N110 X119.09 Y114.645 F56.
N115 X119.153 Y114.568
N120 X119.18 Y114.528
N125 X119.199 Y114.484
N130 X119.226 Y114.396
N135 X119.234 Y114.36
N140 X119.237 Y114.322
N145 X119.239 Y112.457
N150 X119.5
N155 Y117.543
N160 X119.239
N165 X119.237 Y115.678
N170 X119.234 Y115.64
N175 X119.226 Y115.604
N180 X119.199 Y115.516
N185 X119.18 Y115.472
N190 X119.153 Y115.432
N195 X119.09 Y115.355
N200 X119.057 Y115.321
N205 X119.018 Y115.295
N210 X118.943 Y115.253
N215 X118.909 Y115.237
N220 X118.873 Y115.227
N225 X118.811 Y115.214
N230 X118.759 Y115.208
N235 X111.149
N240 X111.115 Y115.21
N245 X111.081 Y115.217
N250 X110.99 Y115.243
N255 X110.95 Y115.258
N260 X110.913 Y115.279
N265 X110.851 Y115.323
N270 X110.823 Y115.347
N275 X110.798 Y115.374
N280 X110.755 Y115.43
N285 X110.734 Y115.461
N290 X110.718 Y115.495
N295 X110.691 Y115.568
N300 X110.678 Y115.611
N305 X110.674 Y115.656
N310 X110.67 Y117.543
N315 X110.408
N320 Y112.457
N325 X110.67
N330 X110.674 Y114.344
N335 X110.678 Y114.389
N340 X110.691 Y114.432
N345 X110.718 Y114.505
N350 X110.738 Y114.545
N355 X110.763 Y114.581
N360 X110.828 Y114.655
N365 X110.86 Y114.686
N370 X110.897 Y114.711
N375 X110.969 Y114.749
N380 X111.009 Y114.766
N385 X111.051 Y114.777
N390 X111.142 Y114.79
N395 X111.179 Y114.793
N400 X118.76 Y114.792
N405 X118.821 Y114.784
N410 X118.902 Y114.764
N415 X118.937 Y114.752
N420 X118.97 Y114.735
N425 X119.027 Y114.7
N430 X119.074 Y114.663
N435 X119.093 Y114.648 Z-1.093 F50.
N440 X119.116 Y114.638 Z-1.087
N445 X119.152 Y114.634 Z-1.05
N450 X119.166 Y114.636 Z-1.
N455 G0 Z5.
N460 X129.08 Y118.078
N465 Z0.497
N470 G1 X129.075 Y118.08 Z0.464 F50.
N475 X129.061 Y118.085 Z0.436
N480 X129.039 Y118.094 Z0.413
N485 X129.011 Y118.104 Z0.4
N490 X127.074 Y118.823 Z-0.153
N495 Y118.458 Z-0.251
N500 X129.605 Y117.541 Z-0.972
N505 X129.644 Y117.522 Z-0.984
N510 X129.68 Y117.498 Z-0.996
N515 X129.751 Y117.438 Z-1.021
N520 X129.785 Y117.403 Z-1.034
N525 X129.812 Y117.363 Z-1.047
N530 X129.859 Y117.274 Z-1.074
N535 X129.875 Y117.236 Z-1.085
N540 X129.885 Y117.197 Z-1.096
N545 X129.888 Y117.18 Z-1.1
N550 X129.895 Y117.135 F56.
N555 X129.898 Y117.095
N560 Y115.119
N565 X130.002 Y115.154
N570 X130.004 Y116.757
N575 X130.007 Y116.795
N580 X130.016 Y116.833
N585 X130.046 Y116.926
N590 X130.065 Y116.97
N595 X130.093 Y117.01
N600 X130.155 Y117.084
N605 X130.185 Y117.114
N610 X130.219 Y117.138
N615 X130.281 Y117.175
N620 X130.319 Y117.193
N625 X130.359 Y117.204
N630 X130.451 Y117.223
N635 X130.498 Y117.227
N640 X130.545 Y117.223
N645 X130.637 Y117.206
N650 X130.674 Y117.197
N655 X135.416 Y115.561
N660 X135.659 Y115.485
N665 X135.696 Y115.47
N670 X135.731 Y115.449
N675 X135.815 Y115.389
N680 X135.849 Y115.359
N685 X135.877 Y115.324
N690 X135.919 Y115.262
N695 X135.939 Y115.225
N700 X135.953 Y115.184
N705 X135.976 Y115.092
N710 X135.984 Y115.045
N715 X135.982 Y114.998
N720 X135.969 Y114.905
N725 X135.958 Y114.857
N730 X135.937 Y114.812
N735 X135.884 Y114.722
N740 X135.858 Y114.685
N745 X135.826 Y114.654
N750 X135.769 Y114.608
N755 X135.733 Y114.584
N760 X135.695 Y114.566
N765 X135.545 Y114.513
N770 X135.539 Y114.511
N775 X133.655 Y113.9
N780 X127.074 Y111.56
N785 Y111.187
N790 X136.049 Y114.579
N795 Y115.493
N800 X127.074 Y118.823
N805 Y118.458
N810 X129.605 Y117.541
N815 X129.644 Y117.522
N820 X129.68 Y117.498
N825 X129.751 Y117.438
N830 X129.785 Y117.403
N835 X129.812 Y117.363
N840 X129.859 Y117.274
N845 X129.875 Y117.236
N850 X129.885 Y117.197
N855 X129.888 Y117.18
N860 X129.895 Y117.156 Z-1.093 F50.
N865 X129.907 Y117.135 Z-1.087
N870 X129.934 Y117.111 Z-1.05
N875 X129.946 Y117.104 Z-1.
N880 G0 Z5.
N885 X128.819 Y134.492
N890 Z0.497
N895 G1 X128.824 Y134.49 Z0.464 F50.
N900 X128.838 Y134.485 Z0.436
N905 X128.861 Y134.476 Z0.413
N910 X128.889 Y134.466 Z0.4
N915 X129.609 Y134.205 Z0.195
N920 X129.648 Y134.187 Z0.183
N925 X129.684 Y134.162 Z0.171
N930 X129.75 Y134.106 Z0.148
N935 X129.783 Y134.073 Z0.136
N940 X129.809 Y134.035 Z0.123
N945 X129.856 Y133.948 Z0.097
N950 X129.875 Y133.905 Z0.084
N955 X129.885 Y133.859 Z0.072
N960 X129.896 Y133.766 Z0.047
N965 X129.898 Y133.736 Z0.038
N970 Y131.785 Z-0.484
N975 X130. Y131.82 Z-0.513
N980 X130.004 Y133.428 Z-0.944
N985 X130.008 Y133.469 Z-0.955
N990 X130.018 Y133.509 Z-0.966
N995 X130.05 Y133.602 Z-0.992
N1000 X130.069 Y133.644 Z-1.005
N1005 X130.096 Y133.683 Z-1.017
N1010 X130.154 Y133.75 Z-1.041
N1015 X130.183 Y133.779 Z-1.052
N1020 X130.216 Y133.803 Z-1.063
N1025 X130.28 Y133.841 Z-1.083
N1030 X130.338 Y133.866 Z-1.1
N1035 X130.355 Y133.87 F56.
N1040 X130.441 Y133.888
N1045 X130.484 Y133.894
N1050 X130.527 Y133.892
N1055 X130.612 Y133.88
N1060 X130.66 Y133.868
N1065 X135.418 Y132.227
N1070 X135.686 Y132.139
N1075 X135.725 Y132.122
N1080 X135.761 Y132.098
N1085 X135.82 Y132.053
N1090 X135.847 Y132.028
N1095 X135.871 Y131.999
N1100 X135.914 Y131.937
N1105 X135.935 Y131.9
N1110 X135.95 Y131.86
N1115 X135.975 Y131.768
N1120 X135.983 Y131.723
N1125 X135.982 Y131.677
N1130 X135.974 Y131.592
N1135 X135.967 Y131.553
N1140 X135.953 Y131.515
N1145 X135.922 Y131.445
N1150 X135.903 Y131.41
N1155 X135.879 Y131.379
N1160 X135.824 Y131.319
N1165 X135.793 Y131.29
N1170 X135.757 Y131.267
N1175 X135.678 Y131.225
N1180 X135.637 Y131.208
N1185 X133.693 Y130.581
N1190 X127.074 Y128.226
N1195 Y127.854
N1200 X136.049 Y131.246
N1205 Y132.159
N1210 X127.074 Y135.489
N1215 Y135.125
N1220 X129.609 Y134.205
N1225 X129.648 Y134.187
N1230 X129.684 Y134.162
N1235 X129.75 Y134.106
N1240 X129.783 Y134.073
N1245 X129.809 Y134.035
N1250 X129.856 Y133.948
N1255 X129.875 Y133.905
N1260 X129.885 Y133.859
N1265 X129.896 Y133.766
N1270 X129.898 Y133.736
N1275 Y131.785
N1280 X130. Y131.82
N1285 X130.004 Y133.428
N1290 X130.008 Y133.469
N1295 X130.018 Y133.509
N1300 X130.05 Y133.602
N1305 X130.069 Y133.644
N1310 X130.096 Y133.683
N1315 X130.154 Y133.75
N1320 X130.183 Y133.779
N1325 X130.216 Y133.803
N1330 X130.28 Y133.841
N1335 X130.338 Y133.866
N1340 X130.361 Y133.876 Z-1.093 F50.
N1345 X130.381 Y133.891 Z-1.087
N1350 X130.401 Y133.921 Z-1.05
N1355 X130.406 Y133.933 Z-1.
N1360 G0 Z5.
N1365 X110.408 Y129.545
N1370 Z0.497
N1375 G1 Y129.54 Z0.464 F50.
N1380 Y129.525 Z0.436
N1385 Y129.501 Z0.413
N1390 Y129.471 Z0.4
N1395 Y128.828 Z0.228
N1400 X115.362 Z-1.1
N1405 X119.5 F56.
N1410 Y134.624
N1415 X119.239
N1420 X119.235 Y129.699
N1425 X119.231 Y129.653
N1430 X119.218 Y129.608
N1435 X119.182 Y129.517
N1440 X119.159 Y129.472
N1445 X119.128 Y129.433
N1450 X119.057 Y129.36
N1455 X119.019 Y129.328
N1460 X118.975 Y129.304
N1465 X118.887 Y129.267
N1470 X118.84 Y129.253
N1475 X118.791 Y129.248
N1480 X117.59 Y129.242
N1485 X115.862 Y129.245
N1490 X115.824 Y129.248
N1495 X115.787 Y129.257
N1500 X115.711 Y129.281
N1505 X115.67 Y129.299
N1510 X115.632 Y129.323
N1515 X115.554 Y129.385
N1520 X115.518 Y129.42
N1525 X115.49 Y129.461
N1530 X115.442 Y129.548
N1535 X115.426 Y129.585
N1540 X115.415 Y129.625
N1545 X115.404 Y129.686
N1550 X115.401 Y129.73
N1555 X115.4 Y134.18
N1560 X115.138
N1565 X115.135 Y129.699
N1570 X115.131 Y129.654
N1575 X115.119 Y129.61
N1580 X115.085 Y129.523
N1585 X115.066 Y129.483
N1590 X115.04 Y129.447
N1595 X114.984 Y129.384
N1600 X114.954 Y129.354
N1605 X114.919 Y129.331
N1610 X114.845 Y129.289
N1615 X114.805 Y129.271
N1620 X114.762 Y129.26
N1625 X114.669 Y129.245
N1630 X114.63 Y129.242
N1635 X111.148 Y129.243
N1640 X111.113 Y129.246
N1645 X111.079 Y129.253
N1650 X110.987 Y129.279
N1655 X110.945 Y129.295
N1660 X110.907 Y129.319
N1665 X110.84 Y129.368
N1670 X110.807 Y129.397
N1675 X110.78 Y129.431
N1680 X110.731 Y129.506
N1685 X110.709 Y129.546
N1690 X110.696 Y129.588
N1695 X110.676 Y129.674
N1700 X110.669 Y129.73
N1705 Y134.924
N1710 X110.408
N1715 Y128.828
N1720 X115.362
N1725 X115.387 Y128.831 Z-1.093 F50.
N1730 X115.41 Y128.84 Z-1.087
N1735 X115.438 Y128.863 Z-1.05
N1740 X115.446 Y128.874 Z-1.
N1745 G0 Z5.
N1750 X115.785 Y145.894
N1755 Z0.497
N1760 G1 X115.78 Z0.464 F50.
N1765 X115.764 Z0.436
N1770 X115.74 Z0.413
N1775 X115.711 Z0.4
N1780 X110.408 Z-1.021
N1785 Y145.599 Z-1.1
N1790 Y145.495 F56.
N1795 X119.382
N1800 Y145.894
N1805 X110.408
N1810 Y145.599
N1815 Z-1. F50.
N1820 G0 Z5.
N1825 X118.462 Y151.002
N1830 Z0.497
N1835 G1 X118.458 Y151.005 Z0.464 F50.
N1840 X118.447 Y151.016 Z0.436
N1845 X118.43 Y151.032 Z0.413
N1850 X118.408 Y151.053 Z0.4
N1855 X118.174 Y151.28 Z0.313
N1860 X118.149 Y151.295 Z0.305
N1865 X117.673 Y151.514 Z0.164
N1870 X117.128 Y151.582 Z0.017
N1875 X116.205 Y151.455 Z-0.232
N1880 X115.829 Y151.303 Z-0.341
N1885 X115.493 Y151.068 Z-0.451
N1890 X115.22 Y150.747 Z-0.564
N1895 X115.042 Y150.411 Z-0.666
N1900 X114.799 Y149.394 Z-0.946
N1905 X114.786 Y149.354 Z-0.957
N1910 X114.767 Y149.318 Z-0.968
N1915 X114.717 Y149.238 Z-0.993
N1920 X114.692 Y149.206 Z-1.004
N1925 X114.662 Y149.178 Z-1.015
N1930 X114.609 Y149.135 Z-1.034
N1935 X114.58 Y149.114 Z-1.043
N1940 X114.548 Y149.098 Z-1.053
N1945 X114.48 Y149.07 Z-1.073
N1950 X114.44 Y149.057 Z-1.084
N1955 X114.398 Y149.051 Z-1.095
N1960 X114.38 Y149.05 Z-1.1
N1965 X114.306 Y149.046 F56.
N1970 X114.258 Y149.048
N1975 X114.212 Y149.058
N1980 X114.119 Y149.089
N1985 X114.088 Y149.102
N1990 X114.06 Y149.119
N1995 X110.408 Y151.564
N2000 Y151.148
N2005 X114.454 Y148.572
N2010 X114.482 Y148.551
N2015 X114.508 Y148.526
N2020 X114.56 Y148.466
N2025 X114.585 Y148.432
N2030 X114.604 Y148.394
N2035 X114.637 Y148.313
N2040 X114.65 Y148.27
N2045 X114.655 Y148.225
N2050 X114.802
N2055 X114.835 Y148.788
N2060 X114.84 Y148.826
N2065 X114.879 Y149.01
N2070 X114.881 Y149.02
N2075 X115.091 Y149.838
N2080 X115.106 Y149.88
N2085 X115.156 Y149.988
N2090 X115.166 Y150.007
N2095 X115.399 Y150.415
N2100 X115.417 Y150.442
N2105 X115.438 Y150.466
N2110 X115.802 Y150.838
N2115 X115.848 Y150.875
N2120 X115.934 Y150.929
N2125 X115.957 Y150.942
N2130 X116.379 Y151.148
N2135 X116.413 Y151.161
N2140 X116.448 Y151.17
N2145 X116.963 Y151.253
N2150 X117.002 Y151.256
N2155 X117.095 Y151.257
N2160 X117.125 Y151.255
N2165 X117.587 Y151.2
N2170 X117.647 Y151.185
N2175 X117.758 Y151.142
N2180 X117.781 Y151.132
N2185 X118.164 Y150.938
N2190 X118.216 Y150.903
N2195 X118.321 Y150.81
N2200 X118.341 Y150.791
N2205 X118.62 Y150.482
N2210 X118.648 Y150.444
N2215 X118.723 Y150.321
N2220 X118.732 Y150.306
N2225 X118.89 Y149.997
N2230 X118.904 Y149.965
N2235 X118.968 Y149.78
N2240 X118.975 Y149.756
N2245 X119.166 Y148.955
N2250 X119.172 Y148.924
N2255 X119.198 Y148.677
N2260 X119.199 Y148.664
N2265 X119.223 Y148.225
N2270 X119.321
N2275 X119.231 Y149.127
N2280 X118.869 Y150.383
N2285 X118.564 Y150.902
N2290 X118.174 Y151.28
N2295 X118.149 Y151.295
N2300 X117.673 Y151.514
N2305 X117.128 Y151.582
N2310 X116.205 Y151.455
N2315 X115.829 Y151.303
N2320 X115.493 Y151.068
N2325 X115.22 Y150.747
N2330 X115.042 Y150.411
N2335 X114.799 Y149.394
N2340 X114.786 Y149.354
N2345 X114.767 Y149.318
N2350 X114.717 Y149.238
N2355 X114.692 Y149.206
N2360 X114.662 Y149.178
N2365 X114.609 Y149.135
N2370 X114.58 Y149.114
N2375 X114.548 Y149.098
N2380 X114.48 Y149.07
N2385 X114.44 Y149.057
N2390 X114.398 Y149.051
N2395 X114.38 Y149.05
N2400 X114.355 Y149.045 Z-1.093 F50.
N2405 X114.333 Y149.035 Z-1.087
N2410 X114.306 Y149.01 Z-1.05
N2415 X114.298 Y148.999 Z-1.
N2420 G0 Z5.
N2425 X119.237 Y164.603
N2430 Z0.497
N2435 G1 Y164.598 Z0.464 F50.
N2440 Y164.582 Z0.436
N2445 Y164.558 Z0.413
N2450 Y164.529 Z0.4
N2455 X119.236 Y163.041 Z0.001
N2460 X119.233 Y163. Z-0.01
N2465 X119.223 Y162.959 Z-0.021
N2470 X119.191 Y162.867 Z-0.047
N2475 X119.17 Y162.822 Z-0.06
N2480 X119.14 Y162.782 Z-0.074
N2485 X119.074 Y162.708 Z-0.1
N2490 X119.042 Y162.678 Z-0.112
N2495 X119.005 Y162.654 Z-0.124
N2500 X118.938 Y162.619 Z-0.144
N2505 X118.906 Y162.605 Z-0.154
N2510 X118.873 Y162.595 Z-0.163
N2515 X118.811 Y162.582 Z-0.18
N2520 X118.759 Y162.576 Z-0.194
N2525 X115.863 Y162.578 Z-0.97
N2530 X115.82 Y162.582 Z-0.981
N2535 X115.779 Y162.593 Z-0.993
N2540 X115.69 Y162.624 Z-1.018
N2545 X115.648 Y162.644 Z-1.031
N2550 X115.609 Y162.672 Z-1.043
N2555 X115.539 Y162.733 Z-1.068
N2560 X115.506 Y162.768 Z-1.081
N2565 X115.48 Y162.809 Z-1.094
N2570 X115.471 Y162.828 Z-1.1
N2575 X115.435 Y162.899 F56.
N2580 X115.42 Y162.936
N2585 X115.411 Y162.976
N2590 X115.403 Y163.038
N2595 X115.4 Y163.072
N2600 Y167.514
N2605 X115.139
N2610 X115.137 Y163.048
N2615 X115.135 Y163.016
N2620 X115.129 Y162.984
N2625 X115.109 Y162.909
N2630 X115.097 Y162.875
N2635 X115.08 Y162.843
N2640 X115.044 Y162.784
N2645 X115.022 Y162.754
N2650 X114.995 Y162.728
N2655 X114.934 Y162.674
N2660 X114.9 Y162.649
N2665 X114.861 Y162.63
N2670 X114.777 Y162.597
N2675 X114.733 Y162.585
N2680 X114.686 Y162.58
N2685 X111.123
N2690 X111.077 Y162.584
N2695 X111.032 Y162.597
N2700 X110.948 Y162.63
N2705 X110.909 Y162.649
N2710 X110.874 Y162.674
N2715 X110.813 Y162.727
N2720 X110.783 Y162.758
N2725 X110.759 Y162.794
N2730 X110.714 Y162.874
N2735 X110.695 Y162.917
N2740 X110.685 Y162.963
N2745 X110.671 Y163.063
N2750 X110.669 Y163.095
N2755 Y168.258
N2760 X110.408
N2765 Y163.095
N2770 Y162.161
N2775 X119.5
N2780 Y167.957
N2785 X119.239
N2790 X119.236 Y163.041
N2795 X119.233 Y163.
N2800 X119.223 Y162.959
N2805 X119.191 Y162.867
N2810 X119.17 Y162.822
N2815 X119.14 Y162.782
N2820 X119.074 Y162.708
N2825 X119.042 Y162.678
N2830 X119.005 Y162.654
N2835 X118.938 Y162.619
N2840 X118.906 Y162.605
N2845 X118.873 Y162.595
N2850 X118.811 Y162.582
N2855 X118.759 Y162.576
N2860 X115.863 Y162.578
N2865 X115.82 Y162.582
N2870 X115.779 Y162.593
N2875 X115.69 Y162.624
N2880 X115.648 Y162.644
N2885 X115.609 Y162.672
N2890 X115.539 Y162.733
N2895 X115.506 Y162.768
N2900 X115.48 Y162.809
N2905 X115.471 Y162.828
N2910 X115.457 Y162.849 Z-1.093 F50.
N2915 X115.438 Y162.866 Z-1.087
N2920 X115.405 Y162.881 Z-1.05
N2925 X115.392 Y162.883 Z-1.
N2930 G0 Z5.
N2935 X110.408 Y179.543
N2940 Z0.497
N2945 G1 Y179.538 Z0.464 F50.
N2950 Y179.523 Z0.436
N2955 Y179.499 Z0.413
N2960 Y179.469 Z0.4
N2965 Y178.828 Z0.228
N2970 X115.364 Z-1.1
N2975 X119.5 F56.
N2980 Y184.624
N2985 X119.239
N2990 X119.237 Y179.713
N2995 X119.235 Y179.678
N3000 X119.227 Y179.643
N3005 X119.205 Y179.566
N3010 X119.189 Y179.524
N3015 X119.165 Y179.485
N3020 X119.105 Y179.406
N3025 X119.072 Y179.369
N3030 X119.032 Y179.34
N3035 X118.948 Y179.291
N3040 X118.912 Y179.273
N3045 X118.873 Y179.262
N3050 X118.811 Y179.249
N3055 X118.759 Y179.243
N3060 X115.863 Y179.245
N3065 X115.821 Y179.249
N3070 X115.781 Y179.259
N3075 X115.696 Y179.288
N3080 X115.656 Y179.306
N3085 X115.619 Y179.331
N3090 X115.552 Y179.386
N3095 X115.52 Y179.417
N3100 X115.494 Y179.454
N3105 X115.449 Y179.533
N3110 X115.43 Y179.573
N3115 X115.418 Y179.616
N3120 X115.404 Y179.701
N3125 X115.4 Y179.743
N3130 Y184.18
N3135 X115.138
N3140 X115.137 Y179.713
N3145 X115.134 Y179.676
N3150 X115.126 Y179.64
N3155 X115.101 Y179.558
N3160 X115.087 Y179.521
N3165 X115.067 Y179.486
N3170 X115.025 Y179.427
N3175 X115. Y179.397
N3180 X114.971 Y179.371
N3185 X114.904 Y179.321
N3190 X114.866 Y179.297
N3195 X114.823 Y179.28
N3200 X114.731 Y179.253
N3205 X114.696 Y179.246
N3210 X114.661 Y179.243
N3215 X111.148
N3220 X111.113 Y179.246
N3225 X111.079 Y179.253
N3230 X110.987 Y179.279
N3235 X110.945 Y179.295
N3240 X110.907 Y179.319
N3245 X110.84 Y179.368
N3250 X110.807 Y179.397
N3255 X110.78 Y179.431
N3260 X110.731 Y179.506
N3265 X110.711 Y179.542
N3270 X110.698 Y179.58
N3275 X110.679 Y179.648
N3280 X110.673 Y179.68
N3285 X110.671 Y179.713
N3290 X110.669 Y184.924
N3295 X110.408
N3300 Y178.828
N3305 X115.364
N3310 X115.389 Y178.831 Z-1.093 F50.
N3315 X115.412 Y178.84 Z-1.087
N3320 X115.441 Y178.863 Z-1.05
N3325 X115.449 Y178.874 Z-1.
N3330 G0 Z5.
N3335 X118.716 Y195.509
N3340 Z0.497
N3345 G1 X118.725 Y195.511 Z0.454 F50.
N3350 X118.75 Y195.518 Z0.42
N3355 X118.787 Y195.53 Z0.4
N3360 G3 X118.453 Y196.419 Z0. I-0.167 J0.445
N3365 X118.787 Y195.53 Z-0.4 I0.167 J-0.445
N3370 X118.453 Y196.419 Z-0.8 I-0.167 J0.445
N3375 X118.425 Y195.541 Z-1.1 I0.167 J-0.445
N3380 X118.934 Y195.735 I0.158 J0.351
N3385 X118.74 Y196.243 I-0.351 J0.158
N3390 G1 X118.718 Y196.254 F56.
N3395 G3 X118.486 Y196.132 I-0.068 J-0.152
N3400 G1 X118.478 Y196.094
N3405 G3 X118.639 Y195.887 I0.162 J-0.04
N3410 G1 X118.757
N3415 G3 X118.825 Y196.205 I0. J0.166
N3420 G1 X118.74 Y196.243
N3425 G2 X118.552 Y196.543 I0.131 J0.291
N3430 G3 X118.364 Y196.843 I-0.319 J0.009
N3435 G1 X111.493 Y199.926
N3440 X111.458 Y199.946
N3445 X111.426 Y199.971
N3450 X111.371 Y200.021
N3455 X111.341 Y200.054
N3460 X111.318 Y200.092
N3465 X111.271 Y200.185
N3470 X111.253 Y200.231
N3475 X111.245 Y200.279
N3480 X111.238 Y200.372
N3485 X111.239 Y200.415
N3490 X111.247 Y200.457
N3495 X111.268 Y200.534
N3500 X111.282 Y200.571
N3505 X111.301 Y200.605
N3510 X111.343 Y200.669
N3515 X111.366 Y200.697
N3520 X111.392 Y200.723
N3525 X111.445 Y200.766
N3530 X111.473 Y200.787
N3535 X111.505 Y200.803
N3540 X111.573 Y200.833
N3545 X111.613 Y200.846
N3550 X111.656 Y200.852
N3555 X111.779 Y200.86
N3560 X111.797 Y200.861
N3565 X119.382 Y200.82
N3570 Y201.177
N3575 X110.408
N3580 Y200.002
N3585 X117.835 Y196.719
N3590 X117.87 Y196.7
N3595 X117.902 Y196.676
N3600 X117.973 Y196.611
N3605 X118.006 Y196.575
N3610 X118.031 Y196.533
N3615 X118.073 Y196.446
N3620 X118.089 Y196.402
N3625 X118.097 Y196.356
N3630 X118.103 Y196.265
N3635 Y196.224
N3640 X118.095 Y196.184
N3645 X118.077 Y196.113
N3650 X118.061 Y196.071
N3655 X118.039 Y196.033
N3660 X117.978 Y195.947
N3665 X117.949 Y195.913
N3670 X117.914 Y195.884
N3675 X117.851 Y195.842
N3680 X117.814 Y195.821
N3685 X117.773 Y195.807
N3690 X117.681 Y195.784
N3695 X117.62 Y195.776
N3700 X110.408 Y195.767
N3705 Y195.495
N3710 X119.382
N3715 Y196.386
N3720 X118.364 Y196.843
N3725 X118.34 Y196.85 Z-1.093 F50.
N3730 X118.315 Y196.851 Z-1.087
N3735 X118.28 Y196.842 Z-1.05
N3740 X118.268 Y196.835 Z-1.
N3745 G0 Z5.
N3750 X135.905 Y197.944
N3755 Z0.497
N3760 G1 Y197.939 Z0.464 F50.
N3765 Y197.924 Z0.436
N3770 Y197.9 Z0.413
N3775 Y197.87 Z0.4
N3780 X135.904 Y196.386 Z0.002
N3785 X135.902 Y196.35 Z-0.007
N3790 X135.894 Y196.316 Z-0.017
N3795 X135.868 Y196.225 Z-0.042
N3800 X135.852 Y196.184 Z-0.054
N3805 X135.829 Y196.147 Z-0.066
N3810 X135.781 Y196.081 Z-0.087
N3815 X135.755 Y196.052 Z-0.098
N3820 X135.726 Y196.027 Z-0.108
N3825 X135.665 Y195.983 Z-0.128
N3830 X135.629 Y195.962 Z-0.14
N3835 X135.589 Y195.946 Z-0.151
N3840 X135.499 Y195.92 Z-0.176
N3845 X135.464 Y195.913 Z-0.186
N3850 X135.429 Y195.91 Z-0.195
N3855 X132.539 Y195.911 Z-0.97
N3860 X132.502 Y195.913 Z-0.98
N3865 X132.466 Y195.921 Z-0.99
N3870 X132.378 Y195.948 Z-1.014
N3875 X132.336 Y195.966 Z-1.026
N3880 X132.297 Y195.99 Z-1.039
N3885 X132.226 Y196.046 Z-1.063
N3890 X132.191 Y196.079 Z-1.076
N3895 X132.163 Y196.118 Z-1.089
N3900 X132.142 Y196.155 Z-1.1
N3905 X132.113 Y196.206 F56.
N3910 X132.093 Y196.249
N3915 X132.082 Y196.295
N3920 X132.069 Y196.382
N3925 X132.067 Y196.418
N3930 Y200.847
N3935 X131.805
N3940 X131.804 Y196.384
N3945 X131.801 Y196.347
N3950 X131.793 Y196.311
N3955 X131.765 Y196.219
N3960 X131.749 Y196.178
N3965 X131.726 Y196.141
N3970 X131.679 Y196.08
N3975 X131.654 Y196.05
N3980 X131.624 Y196.025
N3985 X131.559 Y195.98
N3990 X131.524 Y195.959
N3995 X131.485 Y195.944
N4000 X131.402 Y195.92
N4005 X131.367 Y195.913
N4010 X131.332 Y195.91
N4015 X127.788 Y195.913
N4020 X127.74 Y195.918
N4025 X127.693 Y195.932
N4030 X127.6 Y195.971
N4035 X127.559 Y195.992
N4040 X127.523 Y196.021
N4045 X127.462 Y196.08
N4050 X127.431 Y196.116
N4055 X127.407 Y196.156
N4060 X127.365 Y196.249
N4065 X127.349 Y196.293
N4070 X127.342 Y196.34
N4075 X127.336 Y196.463
N4080 Y196.476
N4085 Y201.591
N4090 X127.074
N4095 Y195.495
N4100 X136.167
N4105 Y201.29
N4110 X135.905
N4115 X135.904 Y196.386
N4120 X135.902 Y196.35
N4125 X135.894 Y196.316
N4130 X135.868 Y196.225
N4135 X135.852 Y196.184
N4140 X135.829 Y196.147
N4145 X135.781 Y196.081
N4150 X135.755 Y196.052
N4155 X135.726 Y196.027
N4160 X135.665 Y195.983
N4165 X135.629 Y195.962
N4170 X135.589 Y195.946
N4175 X135.499 Y195.92
N4180 X135.464 Y195.913
N4185 X135.429 Y195.91
N4190 X132.539 Y195.911
N4195 X132.502 Y195.913
N4200 X132.466 Y195.921
N4205 X132.378 Y195.948
N4210 X132.336 Y195.966
N4215 X132.297 Y195.99
N4220 X132.226 Y196.046
N4225 X132.191 Y196.079
N4230 X132.163 Y196.118
N4235 X132.142 Y196.155
N4240 X132.127 Y196.175 Z-1.093 F50.
N4245 X132.108 Y196.19 Z-1.087
N4250 X132.074 Y196.203 Z-1.05
N4255 X132.06 Y196.205 Z-1.
N4260 G0 Z5.
N4265 X152.432 Y198.34
N4270 Z0.497
N4275 G1 X152.433 Y198.335 Z0.464 F50.
N4280 X152.434 Y198.319 Z0.436
N4285 X152.437 Y198.296 Z0.413
N4290 X152.44 Y198.266 Z0.4
N4295 X152.441 Y198.254 Z0.397
N4300 X152.622 Z0.348
N4305 X152.594 Y198.62 Z0.25
N4310 X152.397 Y199.424 Z0.028
N4315 X152.048 Y200.125 Z-0.182
N4320 X151.514 Y200.721 Z-0.396
N4325 X150.852 Y201.143 Z-0.606
N4330 X150.036 Y201.428 Z-0.838
N4335 X149.179 Y201.573 Z-1.071
N4340 X149.07 Y201.578 Z-1.1
N4345 X148.281 Y201.613 F56.
N4350 X147.383 Y201.569
N4355 X146.491 Y201.423
N4360 X145.987 Y201.259
N4365 X145.685 Y201.161
N4370 X144.961 Y200.736
N4375 X144.401 Y200.163
N4380 X144.025 Y199.466
N4385 X143.805 Y198.623
N4390 X143.778 Y198.254
N4395 X144.
N4400 X144.032 Y198.538
N4405 X144.044 Y198.589
N4410 X144.28 Y199.298
N4415 X144.292 Y199.329
N4420 X144.309 Y199.357
N4425 X144.721 Y199.975
N4430 X144.743 Y200.003
N4435 X144.768 Y200.028
N4440 X145.347 Y200.514
N4445 X145.399 Y200.548
N4450 X146.077 Y200.875
N4455 X146.12 Y200.891
N4460 X146.829 Y201.084
N4465 X146.872 Y201.092
N4470 X148.29 Y201.215
N4475 X148.335
N4480 X149.752 Y201.083
N4485 X149.801 Y201.073
N4490 X150.479 Y200.869
N4495 X150.526 Y200.85
N4500 X151.173 Y200.501
N4505 X151.2 Y200.485
N4510 X151.224 Y200.464
N4515 X151.748 Y199.977
N4520 X151.772 Y199.952
N4525 X151.792 Y199.923
N4530 X152.175 Y199.286
N4535 X152.19 Y199.258
N4540 X152.201 Y199.228
N4545 X152.41 Y198.519
N4550 X152.419 Y198.473
N4555 X152.441 Y198.254
N4560 X152.622
N4565 X152.594 Y198.62
N4570 X152.397 Y199.424
N4575 X152.048 Y200.125
N4580 X151.514 Y200.721
N4585 X150.852 Y201.143
N4590 X150.036 Y201.428
N4595 X149.179 Y201.573
N4600 X149.07 Y201.578
N4605 X149.046 Y201.576 Z-1.093 F50.
N4610 X149.022 Y201.568 Z-1.087
N4615 X148.993 Y201.546 Z-1.05
N4620 X148.984 Y201.536 Z-1.
N4625 G0 Z5.
N4630 X147.353 Y195.495
N4635 Z0.497
N4640 G1 X147.358 Z0.464 F50.
N4645 X147.374 Z0.436
N4650 X147.397 Z0.413
N4655 X147.427 Z0.4
N4660 X152.715 Z-1.017
N4665 Y195.804 Z-1.1
N4670 Y195.924 F56.
N4675 X143.741
N4680 Y195.495
N4685 X152.715
N4690 Y195.804
N4695 Z-1. F50.
N4700 G0 Z5.
N4705 X144.36 Y179.479
N4710 Z0.497
N4715 G1 X144.355 Z0.464 F50.
N4720 X144.339 Z0.436
N4725 X144.315 Z0.413
N4730 X144.286 Z0.4
N4735 X143.741 Z0.254
N4740 Y179.064 Z0.143
N4745 X148.38 Z-1.1
N4750 X152.834 F56.
N4755 Y184.653
N4760 X152.572
N4765 X152.567 Y179.93
N4770 X152.563 Y179.883
N4775 X152.55 Y179.838
N4780 X152.515 Y179.752
N4785 X152.493 Y179.71
N4790 X152.464 Y179.672
N4795 X152.396 Y179.601
N4800 X152.358 Y179.569
N4805 X152.315 Y179.545
N4810 X152.224 Y179.505
N4815 X152.177 Y179.49
N4820 X152.127 Y179.484
N4825 X151.612 Y179.479
N4830 X148.873 Y179.483
N4835 X148.832 Y179.486
N4840 X148.792 Y179.496
N4845 X148.721 Y179.521
N4850 X148.682 Y179.538
N4855 X148.646 Y179.562
N4860 X148.571 Y179.622
N4865 X148.537 Y179.655
N4870 X148.509 Y179.695
N4875 X148.462 Y179.78
N4880 X148.446 Y179.815
N4885 X148.435 Y179.853
N4890 X148.424 Y179.91
N4895 X148.419 Y179.959
N4900 X148.418 Y184.476
N4905 X148.161
N4910 X148.153 Y179.934
N4915 X148.149 Y179.893
N4920 X148.139 Y179.853
N4925 X148.114 Y179.78
N4930 X148.096 Y179.74
N4935 X148.071 Y179.703
N4940 X148.008 Y179.626
N4945 X147.972 Y179.591
N4950 X147.93 Y179.563
N4955 X147.84 Y179.517
N4960 X147.803 Y179.501
N4965 X147.763 Y179.491
N4970 X147.703 Y179.482
N4975 X147.664 Y179.479
N4980 X143.741
N4985 Y179.064
N4990 X148.38
N4995 X148.404 Y179.068 Z-1.093 F50.
N5000 X148.428 Y179.077 Z-1.087
N5005 X148.456 Y179.1 Z-1.05
N5010 X148.464 Y179.11 Z-1.
N5015 G0 Z5.
N5020 X144.002 Y167.871
N5025 Z0.497
N5030 G1 Y167.876 Z0.464 F50.
N5035 Y167.892 Z0.436
N5040 Y167.915 Z0.413
N5045 Y167.945 Z0.4
N5050 Y168.095 Z0.36
N5055 X143.741 Z0.29
N5060 Y162.909 Z-1.1
N5065 Y162.718 F56.
N5070 X152.834
N5075 Y163.128
N5080 X144.46 Y163.131
N5085 X144.413 Y163.136
N5090 X144.368 Y163.149
N5095 X144.275 Y163.185
N5100 X144.234 Y163.206
N5105 X144.198 Y163.233
N5110 X144.138 Y163.288
N5115 X144.106 Y163.322
N5120 X144.082 Y163.362
N5125 X144.036 Y163.454
N5130 X144.019 Y163.501
N5135 X144.011 Y163.549
N5140 X144.003 Y163.673
N5145 X144.002 Y163.689
N5150 Y168.095
N5155 X143.741
N5160 Y162.909
N5165 Z-1. F50.
N5170 G0 Z5.
N5175 X131.751 Y167.362
N5180 Z0.497
N5185 G1 Y167.367 Z0.464 F50.
N5190 Y167.383 Z0.436
N5195 Y167.407 Z0.413
N5200 Y167.436 Z0.4
N5205 Y167.809 Z0.3
N5210 X131.49 Z0.23
N5215 X131.489 Y163.288 Z-0.982
N5220 X131.486 Y163.252 Z-0.991
N5225 X131.478 Y163.216 Z-1.001
N5230 X131.45 Y163.124 Z-1.027
N5235 X131.435 Y163.084 Z-1.038
N5240 X131.413 Y163.048 Z-1.05
N5245 X131.371 Y162.99 Z-1.069
N5250 X131.342 Y162.958 Z-1.08
N5255 X131.309 Y162.93 Z-1.092
N5260 X131.284 Y162.914 Z-1.1
N5265 X131.226 Y162.874 F56.
N5270 X131.183 Y162.851
N5275 X131.136 Y162.836
N5280 X131.044 Y162.817
N5285 X130.993 Y162.812
N5290 X127.074
N5295 Y162.398
N5300 X136.167
N5305 Y167.987
N5310 X135.905
N5315 X135.904 Y163.288
N5320 X135.902 Y163.252
N5325 X135.894 Y163.216
N5330 X135.866 Y163.124
N5335 X135.851 Y163.085
N5340 X135.829 Y163.049
N5345 X135.787 Y162.991
N5350 X135.763 Y162.963
N5355 X135.735 Y162.938
N5360 X135.673 Y162.892
N5365 X135.636 Y162.869
N5370 X135.596 Y162.852
N5375 X135.503 Y162.824
N5380 X135.467 Y162.816
N5385 X135.431 Y162.813
N5390 X132.226
N5395 X132.189 Y162.816
N5400 X132.153 Y162.824
N5405 X132.06 Y162.853
N5410 X132.018 Y162.87
N5415 X131.98 Y162.894
N5420 X131.913 Y162.946
N5425 X131.88 Y162.977
N5430 X131.853 Y163.014
N5435 X131.803 Y163.097
N5440 X131.782 Y163.14
N5445 X131.77 Y163.186
N5450 X131.755 Y163.278
N5455 X131.751 Y163.319
N5460 Y167.809
N5465 X131.49
N5470 X131.489 Y163.288
N5475 X131.486 Y163.252
N5480 X131.478 Y163.216
N5485 X131.45 Y163.124
N5490 X131.435 Y163.084
N5495 X131.413 Y163.048
N5500 X131.371 Y162.99
N5505 X131.342 Y162.958
N5510 X131.309 Y162.93
N5515 X131.284 Y162.914
N5520 X131.265 Y162.897 Z-1.093 F50.
N5525 X131.251 Y162.877 Z-1.087
N5530 X131.241 Y162.842 Z-1.05
N5535 X131.24 Y162.829 Z-1.
N5540 G0 Z5.
N5545 X127.074 Y151.343
N5550 Z0.497
N5555 G1 Y151.338 Z0.464 F50.
N5560 Y151.322 Z0.436
N5565 Y151.299 Z0.413
N5570 Y151.269 Z0.4
N5575 Y146.051 Z-0.998
N5580 X127.455 Z-1.1
N5585 X136.167 F56.
N5590 Y146.461
N5595 X127.788 Y146.465
N5600 X127.74 Y146.47
N5605 X127.693 Y146.484
N5610 X127.6 Y146.523
N5615 X127.558 Y146.545
N5620 X127.521 Y146.576
N5625 X127.455 Y146.64
N5630 X127.425 Y146.675
N5635 X127.403 Y146.716
N5640 X127.364 Y146.801
N5645 X127.349 Y146.846
N5650 X127.343 Y146.892
N5655 X127.336 Y147.037
N5660 Y147.048
N5665 Y151.428
N5670 X127.074
N5675 Y146.051
N5680 X127.455
N5685 X127.479 Y146.055 Z-1.093 F50.
N5690 X127.503 Y146.064 Z-1.087
N5695 X127.531 Y146.087 Z-1.05
N5700 X127.539 Y146.097 Z-1.
N5705 G0 Z5.
N5710 X145.768 Y151.404
N5715 Z0.497
N5720 G1 X145.763 Y151.406 Z0.464 F50.
N5725 X145.749 Y151.411 Z0.436
N5730 X145.726 Y151.419 Z0.413
N5735 X145.699 Y151.429 Z0.4
N5740 X143.741 Y152.156 Z-0.159
N5745 Y151.791 Z-0.257
N5750 X146.271 Y150.874 Z-0.978
N5755 X146.306 Y150.858 Z-0.989
N5760 X146.338 Y150.837 Z-0.999
N5765 X146.4 Y150.79 Z-1.02
N5770 X146.428 Y150.764 Z-1.03
N5775 X146.452 Y150.734 Z-1.04
N5780 X146.495 Y150.673 Z-1.06
N5785 X146.516 Y150.635 Z-1.072
N5790 X146.531 Y150.595 Z-1.083
N5795 X146.547 Y150.535 Z-1.1
N5800 X146.556 Y150.503 F56.
N5805 X146.562 Y150.471
N5810 X146.564 Y150.438
N5815 X146.565 Y148.452
N5820 X146.669 Y148.487
N5825 X146.67 Y150.087
N5830 X146.672 Y150.121
N5835 X146.679 Y150.155
N5840 X146.702 Y150.235
N5845 X146.715 Y150.272
N5850 X146.735 Y150.306
N5855 X146.775 Y150.367
N5860 X146.8 Y150.398
N5865 X146.829 Y150.425
N5870 X146.896 Y150.477
N5875 X146.934 Y150.502
N5880 X146.975 Y150.519
N5885 X147.066 Y150.548
N5890 X147.113 Y150.558
N5895 X147.16
N5900 X147.252 Y150.552
N5905 X147.284 Y150.547
N5910 X147.315 Y150.539
N5915 X152.103 Y148.888
N5920 X152.331 Y148.816
N5925 X152.363 Y148.803
N5930 X152.393 Y148.786
N5935 X152.455 Y148.746
N5940 X152.484 Y148.723
N5945 X152.51 Y148.696
N5950 X152.558 Y148.638
N5955 X152.581 Y148.606
N5960 X152.598 Y148.571
N5965 X152.628 Y148.496
N5970 X152.639 Y148.458
N5975 X152.645 Y148.419
N5980 X152.649 Y148.341
N5985 Y148.302
N5990 X152.642 Y148.263
N5995 X152.621 Y148.185
N6000 X152.607 Y148.146
N6005 X152.587 Y148.109
N6010 X152.539 Y148.038
N6015 X152.511 Y148.003
N6020 X152.477 Y147.974
N6025 X152.404 Y147.922
N6030 X152.37 Y147.901
N6035 X152.334 Y147.887
N6040 X150.456 Y147.282
N6045 X143.741 Y144.893
N6050 Y144.521
N6055 X152.715 Y147.913
N6060 Y148.826
N6065 X143.741 Y152.156
N6070 Y151.791
N6075 X146.271 Y150.874
N6080 X146.306 Y150.858
N6085 X146.338 Y150.837
N6090 X146.4 Y150.79
N6095 X146.428 Y150.764
N6100 X146.452 Y150.734
N6105 X146.495 Y150.673
N6110 X146.516 Y150.635
N6115 X146.531 Y150.595
N6120 X146.547 Y150.535
N6125 X146.556 Y150.512 Z-1.093 F50.
N6130 X146.571 Y150.492 Z-1.087
N6135 X146.601 Y150.471 Z-1.05
N6140 X146.613 Y150.466 Z-1.
N6145 G0 Z5.
N6150 X147.411 Y134.099
N6155 Z0.497
N6160 G1 X147.417 Z0.464 F50.
N6165 X147.432 Z0.436
N6170 X147.456 Z0.413
N6175 X147.486 Z0.4
N6180 X148.004 Z0.261
N6185 X148.044 Y134.096 Z0.25
N6190 X148.083 Y134.086 Z0.24
N6195 X148.175 Y134.055 Z0.214
N6200 X148.221 Y134.034 Z0.2
N6205 X148.262 Y134.005 Z0.186
N6210 X148.34 Y133.936 Z0.159
N6215 X148.372 Y133.901 Z0.146
N6220 X148.398 Y133.86 Z0.133
N6225 X148.436 Y133.782 Z0.11
N6230 X148.45 Y133.748 Z0.1
N6235 X148.459 Y133.712 Z0.09
N6240 X148.468 Y133.654 Z0.074
N6245 X148.472 Y133.612 Z0.063
N6250 X148.468 Y129.699 Z-0.986
N6255 X148.465 Y129.657 Z-0.997
N6260 X148.454 Y129.616 Z-1.008
N6265 X148.427 Y129.538 Z-1.031
N6270 X148.408 Y129.497 Z-1.043
N6275 X148.381 Y129.46 Z-1.055
N6280 X148.317 Y129.384 Z-1.081
N6285 X148.293 Y129.359 Z-1.091
N6290 X148.266 Y129.338 Z-1.1
N6295 X148.238 Y129.322 F56.
N6300 X148.145 Y129.276
N6305 X148.099 Y129.259
N6310 X148.05 Y129.251
N6315 X147.927 Y129.243
N6320 X147.911 Y129.242
N6325 X143.741
N6330 Y128.828
N6335 X152.834
N6340 Y129.242
N6345 X149.205 Y129.244
N6350 X149.168 Y129.247
N6355 X149.131 Y129.255
N6360 X149.043 Y129.282
N6365 X149.006 Y129.297
N6370 X148.972 Y129.317
N6375 X148.918 Y129.356
N6380 X148.889 Y129.38
N6385 X148.864 Y129.409
N6390 X148.811 Y129.478
N6395 X148.79 Y129.512
N6400 X148.774 Y129.549
N6405 X148.75 Y129.62
N6410 X148.741 Y129.659
N6415 X148.737 Y129.699
N6420 Y133.64
N6425 X148.74 Y133.682
N6430 X148.75 Y133.722
N6435 X148.779 Y133.806
N6440 X148.799 Y133.848
N6445 X148.826 Y133.886
N6450 X148.89 Y133.961
N6455 X148.921 Y133.991
N6460 X148.956 Y134.015
N6465 X149.02 Y134.052
N6470 X149.058 Y134.069
N6475 X149.099 Y134.08
N6480 X149.192 Y134.097
N6485 X149.236 Y134.101
N6490 X152.834
N6495 Y134.51
N6500 X143.741
N6505 Y134.101
N6510 X148.004 Y134.099
N6515 X148.044 Y134.096
N6520 X148.083 Y134.086
N6525 X148.175 Y134.055
N6530 X148.221 Y134.034
N6535 X148.262 Y134.005
N6540 X148.34 Y133.936
N6545 X148.372 Y133.901
N6550 X148.398 Y133.86
N6555 X148.436 Y133.782
N6560 X148.45 Y133.748
N6565 X148.459 Y133.712
N6570 X148.468 Y133.654
N6575 X148.472 Y133.612
N6580 X148.468 Y129.699
N6585 X148.465 Y129.657
N6590 X148.454 Y129.616
N6595 X148.427 Y129.538
N6600 X148.408 Y129.497
N6605 X148.381 Y129.46
N6610 X148.317 Y129.384
N6615 X148.293 Y129.359
N6620 X148.266 Y129.338
N6625 X148.247 Y129.322 Z-1.093 F50.
N6630 X148.233 Y129.301 Z-1.087
N6635 X148.222 Y129.267 Z-1.05
N6640 Y129.253 Z-1.
N6645 G0 Z5.
N6650 X165.035 Y133.802
N6655 Z0.497
N6660 G1 X165.03 Y133.801 Z0.464 F50.
N6665 X165.016 Y133.795 Z0.436
N6670 X164.994 Y133.787 Z0.413
N6675 X164.966 Y133.777 Z0.4
N6680 X160.408 Y132.085 Z-0.903
N6685 Y131.349 Z-1.1
N6690 Y131.258 F56.
N6695 X169.382 Y127.923
N6700 Y128.368
N6705 X161.202 Y131.239
N6710 X161.171 Y131.252
N6715 X161.142 Y131.27
N6720 X161.08 Y131.313
N6725 X161.05 Y131.337
N6730 X161.025 Y131.366
N6735 X160.978 Y131.427
N6740 X160.955 Y131.464
N6745 X160.938 Y131.504
N6750 X160.909 Y131.595
N6755 X160.899 Y131.64
N6760 X160.898 Y131.687
N6765 X160.904 Y131.777
N6770 X160.912 Y131.824
N6775 X160.928 Y131.868
N6780 X160.971 Y131.958
N6785 X160.996 Y131.998
N6790 X161.027 Y132.033
N6795 X161.091 Y132.093
N6800 X161.129 Y132.122
N6805 X161.172 Y132.143
N6810 X161.381 Y132.222
N6815 X161.388 Y132.225
N6820 X169.382 Y134.978
N6825 Y135.415
N6830 X160.408 Y132.085
N6835 Y131.349
N6840 X160.411 Y131.325 Z-1.093 F50.
N6845 X160.42 Y131.301 Z-1.087
N6850 X160.443 Y131.273 Z-1.05
N6855 X160.454 Y131.265 Z-1.
N6860 G0 Z5.
N6865 X168.114 Y145.636
N6870 Z0.497
N6875 G1 X168.118 Y145.638 Z0.464 F50.
N6880 X168.131 Y145.646 Z0.436
N6885 X168.151 Y145.659 Z0.413
N6890 X168.177 Y145.674 Z0.4
N6895 X168.641 Y145.959 Z0.254
N6900 X169.073 Y146.42 Z0.085
N6905 X169.251 Y146.785 Z-0.024
N6910 X169.363 Y147.032 Z-0.097
N6915 X169.388 Y147.189 Z-0.139
N6920 X168.995 Y147.194 Z-0.244
N6925 X168.957 Y147.028 Z-0.29
N6930 X168.946 Y146.992 Z-0.3
N6935 X168.929 Y146.957 Z-0.311
N6940 X168.877 Y146.87 Z-0.338
N6945 X168.862 Y146.847 Z-0.345
N6950 X168.546 Y146.429 Z-0.485
N6955 X168.526 Y146.405 Z-0.494
N6960 X168.502 Y146.384 Z-0.502
N6965 X168.412 Y146.312 Z-0.533
N6970 X168.393 Y146.298 Z-0.54
N6975 X167.977 Y146.027 Z-0.673
N6980 X167.936 Y146.006 Z-0.685
N6985 X167.728 Y145.92 Z-0.745
N6990 X167.717 Y145.916 Z-0.749
N6995 X167.286 Y145.762 Z-0.871
N7000 X167.245 Y145.751 Z-0.883
N7005 X166.446 Y145.611 Z-1.1
N7010 X166.135 Y145.556 F56.
N7015 X166.103 Y145.553
N7020 X164.932 Y145.501
N7025 X164.91
N7030 X163.677 Y145.557
N7035 X163.658 Y145.559
N7040 X163.411 Y145.589
N7045 X163.395 Y145.592
N7050 X162.532 Y145.757
N7055 X162.5 Y145.765
N7060 X162.13 Y145.89
N7065 X162.113 Y145.896
N7070 X161.867 Y145.999
N7075 X161.843 Y146.01
N7080 X161.658 Y146.111
N7085 X161.636 Y146.125
N7090 X161.328 Y146.337
N7095 X161.299 Y146.36
N7100 X161.19 Y146.462
N7105 X161.158 Y146.498
N7110 X160.867 Y146.902
N7115 X160.839 Y146.95
N7120 X160.8 Y147.043
N7125 X160.786 Y147.085
N7130 X160.765 Y147.18
N7135 X160.474
N7140 X160.499 Y146.993
N7145 X160.759 Y146.401
N7150 X161.02 Y146.108
N7155 X161.194 Y145.926
N7160 X161.619 Y145.661
N7165 X161.793 Y145.563
N7170 X162.29 Y145.381
N7175 X162.519 Y145.31
N7180 X163.18 Y145.172
N7185 X164.951 Y145.053
N7190 X166.611 Y145.18
N7195 X167.348 Y145.338
N7200 X168.037 Y145.589
N7205 X168.641 Y145.959
N7210 X169.073 Y146.42
N7215 X169.251 Y146.785
N7220 X169.363 Y147.032
N7225 X169.388 Y147.189
N7230 X168.995 Y147.194
N7235 X168.957 Y147.028
N7240 X168.946 Y146.992
N7245 X168.929 Y146.957
N7250 X168.877 Y146.87
N7255 X168.862 Y146.847
N7260 X168.546 Y146.429
N7265 X168.526 Y146.405
N7270 X168.502 Y146.384
N7275 X168.412 Y146.312
N7280 X168.393 Y146.298
N7285 X167.977 Y146.027
N7290 X167.936 Y146.006
N7295 X167.728 Y145.92
N7300 X167.717 Y145.916
N7305 X167.286 Y145.762
N7310 X167.245 Y145.751
N7315 X166.446 Y145.611
N7320 X166.422 Y145.603 Z-1.093 F50.
N7325 X166.4 Y145.59 Z-1.087
N7330 X166.377 Y145.563 Z-1.05
N7335 X166.371 Y145.551 Z-1.
N7340 G0 Z5.
N7345 X165.344 Y151.257
N7350 Z0.497
N7355 G1 X165.349 Z0.464 F50.
N7360 X165.364 Y151.256 Z0.436
N7365 X165.388 Y151.255 Z0.413
N7370 X165.418 Y151.254 Z0.4
N7375 X166.163 Y151.227 Z0.2
N7380 X166.184 Y151.225 Z0.195
N7385 X166.369 Y151.203 Z0.145
N7390 X166.388 Y151.2 Z0.139
N7395 X167.375 Y150.999 Z-0.13
N7400 X167.409 Y150.99 Z-0.14
N7405 X167.594 Y150.923 Z-0.193
N7410 X167.611 Y150.916 Z-0.198
N7415 X167.981 Y150.752 Z-0.306
N7420 X168.005 Y150.74 Z-0.313
N7425 X168.114 Y150.677 Z-0.347
N7430 X168.142 Y150.657 Z-0.356
N7435 X168.527 Y150.356 Z-0.487
N7440 X168.559 Y150.326 Z-0.499
N7445 X168.641 Y150.234 Z-0.532
N7450 X168.668 Y150.197 Z-0.544
N7455 X168.946 Y149.735 Z-0.689
N7460 X168.961 Y149.705 Z-0.698
N7465 X168.972 Y149.674 Z-0.706
N7470 X168.998 Y149.582 Z-0.732
N7475 X169.004 Y149.556 Z-0.739
N7480 X169.017 Y149.481 Z-0.759
N7485 X169.402 Z-0.863
N7490 X169.376 Y149.661 Z-0.911
N7495 X169.117 Y150.244 Z-1.082
N7500 X169.074 Y150.296 Z-1.1
N7505 X169.042 Y150.335 F56.
N7510 X168.673 Y150.736
N7515 X168.244 Y151.005
N7520 X168.052 Y151.114
N7525 X167.384 Y151.354
N7530 X166.644 Y151.508
N7535 X164.923 Y151.618
N7540 X163.231 Y151.49
N7545 X162.493 Y151.333
N7550 X161.823 Y151.096
N7555 X161.239 Y150.75
N7560 X161.212 Y150.733
N7565 X160.77 Y150.262
N7570 X160.497 Y149.66
N7575 X160.474 Y149.481
N7580 X160.783
N7585 X160.829 Y149.643
N7590 X160.843 Y149.681
N7595 X160.863 Y149.716
N7600 X161.017 Y149.942
N7605 X161.021 Y149.948
N7610 X161.205 Y150.2
N7615 X161.245 Y150.243
N7620 X161.336 Y150.32
N7625 X161.35 Y150.332
N7630 X161.748 Y150.622
N7635 X161.792 Y150.647
N7640 X162.293 Y150.875
N7645 X162.315 Y150.884
N7650 X162.375 Y150.904
N7655 X162.4 Y150.911
N7660 X163.509 Y151.166
N7665 X163.548 Y151.171
N7670 X164.966 Y151.269
N7675 X164.992 Y151.27
N7680 X166.163 Y151.227
N7685 X166.184 Y151.225
N7690 X166.369 Y151.203
N7695 X166.388 Y151.2
N7700 X167.375 Y150.999
N7705 X167.409 Y150.99
N7710 X167.594 Y150.923
N7715 X167.611 Y150.916
N7720 X167.981 Y150.752
N7725 X168.005 Y150.74
N7730 X168.114 Y150.677
N7735 X168.142 Y150.657
N7740 X168.527 Y150.356
N7745 X168.559 Y150.326
N7750 X168.641 Y150.234
N7755 X168.668 Y150.197
N7760 X168.946 Y149.735
N7765 X168.961 Y149.705
N7770 X168.972 Y149.674
N7775 X168.998 Y149.582
N7780 X169.004 Y149.556
N7785 X169.017 Y149.481
N7790 X169.402
N7795 X169.376 Y149.661
N7800 X169.117 Y150.244
N7805 X169.074 Y150.296
N7810 X169.056 Y150.313 Z-1.093 F50.
N7815 X169.034 Y150.325 Z-1.087
N7820 X168.999 Y150.332 Z-1.05
N7825 X168.985 Y150.331 Z-1.
N7830 G0 Z5.
N7835 X168.114 Y162.302
N7840 Z0.497
N7845 G1 X168.119 Y162.305 Z0.464 F50.
N7850 X168.132 Y162.313 Z0.436
N7855 X168.152 Y162.326 Z0.413
N7860 X168.177 Y162.341 Z0.4
N7865 X168.639 Y162.624 Z0.255
N7870 X169.077 Y163.091 Z0.083
N7875 X169.364 Y163.7 Z-0.097
N7880 X169.388 Y163.855 Z-0.139
N7885 X168.995 Y163.861 Z-0.244
N7890 X168.957 Y163.694 Z-0.29
N7895 X168.947 Y163.662 Z-0.299
N7900 X168.933 Y163.632 Z-0.308
N7905 X168.9 Y163.57 Z-0.327
N7910 X168.88 Y163.539 Z-0.337
N7915 X168.554 Y163.103 Z-0.483
N7920 X168.519 Y163.065 Z-0.497
N7925 X168.453 Y163.008 Z-0.52
N7930 X168.423 Y162.985 Z-0.53
N7935 X167.953 Y162.682 Z-0.68
N7940 X167.908 Y162.659 Z-0.693
N7945 X167.417 Y162.469 Z-0.835
N7950 X167.391 Y162.461 Z-0.842
N7955 X167.205 Y162.411 Z-0.893
N7960 X167.183 Y162.406 Z-0.899
N7965 X166.446 Y162.277 Z-1.1
N7970 X166.135 Y162.223 F56.
N7975 X166.103 Y162.219
N7980 X164.932 Y162.168
N7985 X164.91
N7990 X163.677 Y162.224
N7995 X163.658 Y162.225
N8000 X163.411 Y162.256
N8005 X163.395 Y162.258
N8010 X162.539 Y162.422
N8015 X162.507 Y162.43
N8020 X162.13 Y162.556
N8025 X162.113 Y162.562
N8030 X161.867 Y162.665
N8035 X161.844 Y162.676
N8040 X161.669 Y162.771
N8045 X161.646 Y162.785
N8050 X161.328 Y163.004
N8055 X161.296 Y163.03
N8060 X161.176 Y163.146
N8065 X161.146 Y163.18
N8070 X160.864 Y163.574
N8075 X160.836 Y163.624
N8080 X160.798 Y163.716
N8085 X160.785 Y163.757
N8090 X160.765 Y163.847
N8095 X160.473
N8100 X160.497 Y163.663
N8105 X160.748 Y163.083
N8110 X160.931 Y162.87
N8115 X161.198 Y162.59
N8120 X161.598 Y162.34
N8125 X161.791 Y162.23
N8130 X162.29 Y162.048
N8135 X162.518 Y161.977
N8140 X163.198 Y161.837
N8145 X164.962 Y161.72
N8150 X166.611 Y161.846
N8155 X167.348 Y162.005
N8160 X168.047 Y162.261
N8165 X168.639 Y162.624
N8170 X169.077 Y163.091
N8175 X169.364 Y163.7
N8180 X169.388 Y163.855
N8185 X168.995 Y163.861
N8190 X168.957 Y163.694
N8195 X168.947 Y163.662
N8200 X168.933 Y163.632
N8205 X168.9 Y163.57
N8210 X168.88 Y163.539
N8215 X168.554 Y163.103
N8220 X168.519 Y163.065
N8225 X168.453 Y163.008
N8230 X168.423 Y162.985
N8235 X167.953 Y162.682
N8240 X167.908 Y162.659
N8245 X167.417 Y162.469
N8250 X167.391 Y162.461
N8255 X167.205 Y162.411
N8260 X167.183 Y162.406
N8265 X166.446 Y162.277
N8270 X166.422 Y162.27 Z-1.093 F50.
N8275 X166.401 Y162.257 Z-1.087
N8280 X166.377 Y162.229 Z-1.05
N8285 X166.371 Y162.217 Z-1.
N8290 G0 Z5.
N8295 X163.554 Y167.839
N8300 Z0.497
N8305 G1 X163.559 Z0.464 F50.
N8310 X163.575 Y167.84 Z0.436
N8315 X163.598 Y167.842 Z0.413
N8320 X163.628 Y167.844 Z0.4
N8325 X164.966 Y167.936 Z0.041
N8330 X164.992 Z0.034
N8335 X166.163 Y167.894 Z-0.28
N8340 X166.183 Y167.892 Z-0.286
N8345 X166.36 Y167.871 Z-0.333
N8350 X166.38 Y167.868 Z-0.339
N8355 X167.375 Y167.666 Z-0.611
N8360 X167.411 Y167.656 Z-0.621
N8365 X167.617 Y167.58 Z-0.68
N8370 X167.633 Y167.574 Z-0.684
N8375 X167.981 Y167.419 Z-0.787
N8380 X168.009 Y167.404 Z-0.795
N8385 X168.137 Y167.327 Z-0.835
N8390 X168.162 Y167.309 Z-0.843
N8395 X168.527 Y167.023 Z-0.968
N8400 X168.559 Y166.993 Z-0.979
N8405 X168.639 Y166.903 Z-1.012
N8410 X168.667 Y166.866 Z-1.024
N8415 X168.813 Y166.623 Z-1.1
N8420 X168.944 Y166.406 F56.
N8425 X168.96 Y166.374
N8430 X168.972 Y166.341
N8435 X169.004 Y166.217
N8440 X169.009 Y166.196
N8445 X169.017 Y166.148
N8450 X169.401
N8455 X169.375 Y166.33
N8460 X169.111 Y166.923
N8465 X168.663 Y167.411
N8470 X168.079 Y167.77
N8475 X167.433 Y168.004
N8480 X167.328 Y168.033
N8485 X166.614 Y168.177
N8490 X164.923 Y168.284
N8495 X163.521 Y168.178
N8500 X163.231 Y168.156
N8505 X162.494 Y168.
N8510 X161.8 Y167.751
N8515 X161.204 Y167.392
N8520 X160.759 Y166.914
N8525 X160.499 Y166.332
N8530 X160.475 Y166.148
N8535 X160.784
N8540 X160.831 Y166.315
N8545 X160.846 Y166.354
N8550 X160.867 Y166.39
N8555 X161.195 Y166.855
N8560 X161.231 Y166.896
N8565 X161.301 Y166.96
N8570 X161.321 Y166.977
N8575 X161.722 Y167.273
N8580 X161.766 Y167.299
N8585 X162.29 Y167.54
N8590 X162.313 Y167.55
N8595 X162.374 Y167.571
N8600 X162.4 Y167.578
N8605 X163.509 Y167.832
N8610 X163.548 Y167.838
N8615 X164.966 Y167.936
N8620 X164.992
N8625 X166.163 Y167.894
N8630 X166.183 Y167.892
N8635 X166.36 Y167.871
N8640 X166.38 Y167.868
N8645 X167.375 Y167.666
N8650 X167.411 Y167.656
N8655 X167.617 Y167.58
N8660 X167.633 Y167.574
N8665 X167.981 Y167.419
N8670 X168.009 Y167.404
N8675 X168.137 Y167.327
N8680 X168.162 Y167.309
N8685 X168.527 Y167.023
N8690 X168.559 Y166.993
N8695 X168.639 Y166.903
N8700 X168.667 Y166.866
N8705 X168.813 Y166.623
N8710 X168.829 Y166.603 Z-1.093 F50.
N8715 X168.848 Y166.588 Z-1.087
N8720 X168.883 Y166.576 Z-1.05
N8725 X168.896 Y166.574 Z-1.
N8730 G0 Z5.
N8735 X164.404 Y178.828
N8740 Z0.497
N8745 G1 X164.41 Z0.464 F50.
N8750 X164.425 Z0.436
N8755 X164.449 Z0.413
N8760 X164.478 Z0.4
N8765 X169.382 Z-0.914
N8770 Y179.227 Z-1.021
N8775 X169.087 Z-1.1
N8780 X160.408 F56.
N8785 Y178.828
N8790 X169.382
N8795 Y179.227
N8800 X169.087
N8805 X169.063 Y179.224 Z-1.093 F50.
N8810 X169.039 Y179.215 Z-1.087
N8815 X169.011 Y179.192 Z-1.05
N8820 X169.003 Y179.182 Z-1.
N8825 G0 Z5.
N8830 X168.466 Y184.33
N8835 Z0.497
N8840 G1 X168.462 Y184.334 Z0.464 F50.
N8845 X168.451 Y184.345 Z0.436
N8850 X168.434 Y184.361 Z0.413
N8855 X168.412 Y184.381 Z0.4
N8860 X168.158 Y184.624 Z0.306
N8865 X167.687 Y184.843 Z0.166
N8870 X167.112 Y184.913 Z0.011
N8875 X166.189 Y184.784 Z-0.238
N8880 X165.815 Y184.628 Z-0.347
N8885 X165.487 Y184.395 Z-0.455
N8890 X165.233 Y184.101 Z-0.559
N8895 X165.035 Y183.723 Z-0.673
N8900 X164.803 Y182.737 Z-0.945
N8905 X164.792 Y182.702 Z-0.954
N8910 X164.776 Y182.67 Z-0.964
N8915 X164.73 Y182.59 Z-0.989
N8920 X164.705 Y182.553 Z-1.001
N8925 X164.673 Y182.522 Z-1.013
N8930 X164.606 Y182.467 Z-1.036
N8935 X164.57 Y182.442 Z-1.048
N8940 X164.531 Y182.424 Z-1.059
N8945 X164.451 Y182.395 Z-1.082
N8950 X164.419 Y182.386 Z-1.091
N8955 X164.385 Y182.381 Z-1.1
N8960 X164.363 Y182.38 F56.
N8965 X164.271 Y182.381
N8970 X164.223 Y182.387
N8975 X164.176 Y182.401
N8980 X164.083 Y182.441
N8985 X164.042 Y182.463
N8990 X160.408 Y184.897
N8995 Y184.482
N9000 X164.465 Y181.896
N9005 X164.499 Y181.87
N9010 X164.527 Y181.839
N9015 X164.576 Y181.777
N9020 X164.6 Y181.74
N9025 X164.617 Y181.7
N9030 X164.647 Y181.607
N9035 X164.657 Y181.558
N9040 X164.803
N9045 X164.84 Y182.162
N9050 X164.847 Y182.208
N9055 X165.089 Y183.164
N9060 X165.106 Y183.212
N9065 X165.19 Y183.382
N9070 X165.196 Y183.395
N9075 X165.377 Y183.718
N9080 X165.401 Y183.753
N9085 X165.467 Y183.834
N9090 X165.485 Y183.854
N9095 X165.824 Y184.189
N9100 X165.853 Y184.214
N9105 X165.887 Y184.234
N9110 X166.349 Y184.469
N9115 X166.382 Y184.483
N9120 X166.444 Y184.503
N9125 X166.487 Y184.514
N9130 X167.011 Y184.591
N9135 X167.044 Y184.594
N9140 X167.077 Y184.592
N9145 X167.601 Y184.529
N9150 X167.653 Y184.517
N9155 X167.715 Y184.496
N9160 X167.745 Y184.483
N9165 X168.145 Y184.283
N9170 X168.187 Y184.257
N9175 X168.28 Y184.185
N9180 X168.31 Y184.156
N9185 X168.613 Y183.826
N9190 X168.641 Y183.789
N9195 X168.717 Y183.665
N9200 X168.728 Y183.647
N9205 X168.897 Y183.314
N9210 X168.91 Y183.284
N9215 X168.966 Y183.123
N9220 X168.973 Y183.097
N9225 X169.174 Y182.235
N9230 X169.18 Y182.195
N9235 X169.215 Y181.702
N9240 X169.223 Y181.558
N9245 X169.32
N9250 X169.229 Y182.469
N9255 X168.869 Y183.716
N9260 X168.598 Y184.181
N9265 X168.563 Y184.238
N9270 X168.158 Y184.624
N9275 X167.687 Y184.843
N9280 X167.112 Y184.913
N9285 X166.189 Y184.784
N9290 X165.815 Y184.628
N9295 X165.487 Y184.395
N9300 X165.233 Y184.101
N9305 X165.035 Y183.723
N9310 X164.803 Y182.737
N9315 X164.792 Y182.702
N9320 X164.776 Y182.67
N9325 X164.73 Y182.59
N9330 X164.705 Y182.553
N9335 X164.673 Y182.522
N9340 X164.606 Y182.467
N9345 X164.57 Y182.442
N9350 X164.531 Y182.424
N9355 X164.451 Y182.395
N9360 X164.419 Y182.386
N9365 X164.385 Y182.381
N9370 X164.361 Y182.376 Z-1.093 F50.
N9375 X164.338 Y182.365 Z-1.087
N9380 X164.312 Y182.34 Z-1.05
N9385 X164.305 Y182.329 Z-1.
N9390 G0 Z5.
N9395 X169.303 Y196.249
N9400 Z0.497
N9405 G1 X169.299 Y196.257 Z0.454 F50.
N9410 X169.286 Y196.28 Z0.42
N9415 X169.265 Y196.313 Z0.4
N9420 G3 X168.49 Y195.763 Z0. I-0.388 J-0.275
N9425 X169.265 Y196.313 Z-0.4 I0.388 J0.275
N9430 X168.49 Y195.763 Z-0.8 I-0.388 J-0.275
N9435 X169.346 Y195.96 Z-1.1 I0.388 J0.275
N9440 X168.48 Y196.104 I-0.433 J0.072
N9445 G1 X168.477 Y196.086 F56.
N9450 G3 X168.64 Y195.887 I0.163 J-0.032
N9455 G1 X168.757
N9460 G3 X168.825 Y196.205 I0. J0.166
N9465 G1 X168.716 Y196.254
N9470 G3 X168.483 Y196.124 I-0.068 J-0.152
N9475 G1 X168.48 Y196.104
N9480 G2 X168.139 Y195.813 I-0.343 J0.057
N9485 G3 X167.691 Y195.784 I0.02 J-3.758
N9490 G1 X167.666 Y195.782
N9495 X167.392 Y195.776
N9500 X167.387
N9505 X160.408 Y195.767
N9510 Y195.495
N9515 X169.382
N9520 Y196.386
N9525 X161.504 Y199.919
N9530 X161.472 Y199.937
N9535 X161.442 Y199.959
N9540 X161.376 Y200.017
N9545 X161.343 Y200.052
N9550 X161.318 Y200.092
N9555 X161.271 Y200.185
N9560 X161.253 Y200.231
N9565 X161.245 Y200.279
N9570 X161.238 Y200.372
N9575 X161.239 Y200.418
N9580 X161.249 Y200.464
N9585 X161.276 Y200.552
N9590 X161.293 Y200.593
N9595 X161.316 Y200.63
N9600 X161.367 Y200.696
N9605 X161.395 Y200.727
N9610 X161.427 Y200.752
N9615 X161.494 Y200.797
N9620 X161.531 Y200.817
N9625 X161.57 Y200.831
N9630 X161.654 Y200.853
N9635 X161.686 Y200.859
N9640 X161.718 Y200.861
N9645 X169.382 Y200.82
N9650 Y201.177
N9655 X160.408
N9660 Y200.006
N9665 X167.826 Y196.724
N9670 X167.878 Y196.693
N9675 X167.943 Y196.643
N9680 X167.971 Y196.616
N9685 X167.996 Y196.586
N9690 X168.038 Y196.524
N9695 X168.059 Y196.487
N9700 X168.073 Y196.447
N9705 X168.097 Y196.354
N9710 X168.104 Y196.31
N9715 Y196.265
N9720 X168.095 Y196.183
N9725 X168.087 Y196.141
N9730 X168.071 Y196.1
N9735 X168.032 Y196.019
N9740 X168.008 Y195.98
N9745 X167.978 Y195.946
N9750 X167.914 Y195.885
N9755 X167.879 Y195.857
N9760 X167.839 Y195.836
N9765 X167.757 Y195.802
N9770 X167.725 Y195.791
N9775 X167.691 Y195.784
N9780 X167.667 Y195.778 Z-1.093 F50.
N9785 X167.645 Y195.766 Z-1.087
N9790 X167.62 Y195.739 Z-1.05
N9795 X167.614 Y195.728 Z-1.
N9800 G0 Z5.
N9805 X185.382 Y195.509
N9810 Z0.497
N9815 G1 X185.391 Y195.511 Z0.454 F50.
N9820 X185.417 Y195.518 Z0.42
N9825 X185.453 Y195.53 Z0.4
N9830 G3 X185.119 Y196.419 Z0. I-0.167 J0.445
N9835 X185.453 Y195.53 Z-0.4 I0.167 J-0.445
N9840 X185.119 Y196.419 Z-0.8 I-0.167 J0.445
N9845 X185.092 Y195.541 Z-1.1 I0.167 J-0.445
N9850 X185.6 Y195.735 I0.158 J0.351
N9855 X185.407 Y196.243 I-0.351 J0.158
N9860 G1 X185.383 Y196.254 F56.
N9865 G3 X185.15 Y196.124 I-0.068 J-0.152
N9870 G1 X185.143 Y196.085
N9875 G3 X185.307 Y195.887 I0.163 J-0.032
N9880 G1 X185.423
N9885 G3 X185.492 Y196.205 I0. J0.166
N9890 G1 X185.407 Y196.243
N9895 G2 X185.219 Y196.543 I0.131 J0.291
N9900 G3 X185.03 Y196.843 I-0.319 J0.009
N9905 G1 X178.165 Y199.923
N9910 X178.13 Y199.942
N9915 X178.099 Y199.967
N9920 X178.037 Y200.023
N9925 X178.005 Y200.058
N9930 X177.981 Y200.097
N9935 X177.936 Y200.189
N9940 X177.919 Y200.234
N9945 X177.911 Y200.282
N9950 X177.905 Y200.373
N9955 X177.906 Y200.421
N9960 X177.916 Y200.467
N9965 X177.946 Y200.56
N9970 X177.964 Y200.601
N9975 X177.988 Y200.638
N9980 X178.037 Y200.7
N9985 X178.063 Y200.729
N9990 X178.094 Y200.753
N9995 X178.155 Y200.794
N10000 X178.192 Y200.815
N10005 X178.233 Y200.829
N10010 X178.325 Y200.853
N10015 X178.357 Y200.859
N10020 X178.389 Y200.861
N10025 X186.049 Y200.82
N10030 Y201.177
N10035 X177.074
N10040 Y200.005
N10045 X184.498 Y196.721
N10050 X184.526 Y196.706
N10055 X184.552 Y196.688
N10060 X184.612 Y196.641
N10065 X184.639 Y196.615
N10070 X184.663 Y196.586
N10075 X184.704 Y196.524
N10080 X184.725 Y196.487
N10085 X184.739 Y196.447
N10090 X184.763 Y196.354
N10095 X184.771 Y196.31
N10100 X184.77 Y196.265
N10105 X184.761 Y196.182
N10110 X184.754 Y196.144
N10115 X184.742 Y196.108
N10120 X184.714 Y196.044
N10125 X184.694 Y196.007
N10130 X184.668 Y195.974
N10135 X184.602 Y195.903
N10140 X184.566 Y195.872
N10145 X184.525 Y195.847
N10150 X184.442 Y195.808
N10155 X184.405 Y195.794
N10160 X184.367 Y195.786
N10165 X184.306 Y195.778
N10170 X184.274 Y195.776
N10175 X177.074 Y195.767
N10180 Y195.495
N10185 X186.049
N10190 Y196.386
N10195 X185.03 Y196.843
N10200 X185.006 Y196.85 Z-1.093 F50.
N10205 X184.981 Y196.851 Z-1.087
N10210 X184.946 Y196.842 Z-1.05
N10215 X184.935 Y196.835 Z-1.
N10220 G0 Z5.
N10225 X195.759 Y201.407
N10230 Z0.497
N10235 G1 X195.754 Y201.409 Z0.464 F50.
N10240 X195.74 Y201.414 Z0.436
N10245 X195.718 Y201.422 Z0.413
N10250 X195.69 Y201.433 Z0.4
N10255 X193.741 Y202.156 Z-0.157
N10260 Y201.792 Z-0.255
N10265 X196.259 Y200.881 Z-0.972
N10270 X196.293 Y200.865 Z-0.982
N10275 X196.325 Y200.844 Z-0.993
N10280 X196.405 Y200.784 Z-1.019
N10285 X196.439 Y200.752 Z-1.032
N10290 X196.466 Y200.716 Z-1.044
N10295 X196.509 Y200.645 Z-1.066
N10300 X196.529 Y200.605 Z-1.078
N10305 X196.542 Y200.562 Z-1.09
N10310 X196.549 Y200.526 Z-1.1
N10315 X196.56 Y200.469 F56.
N10320 X196.565 Y200.421
N10325 Y198.452
N10330 X196.669 Y198.487
N10335 X196.67 Y200.082
N10340 X196.672 Y200.116
N10345 X196.679 Y200.15
N10350 X196.705 Y200.243
N10355 X196.722 Y200.286
N10360 X196.747 Y200.326
N10365 X196.801 Y200.397
N10370 X196.829 Y200.427
N10375 X196.861 Y200.453
N10380 X196.922 Y200.494
N10385 X196.96 Y200.515
N10390 X197. Y200.529
N10395 X197.092 Y200.553
N10400 X197.139 Y200.56
N10405 X197.187 Y200.558
N10410 X197.279 Y200.546
N10415 X197.328 Y200.535
N10420 X201.979 Y198.927
N10425 X202.34 Y198.812
N10430 X202.375 Y198.798
N10435 X202.408 Y198.778
N10440 X202.467 Y198.737
N10445 X202.5 Y198.708
N10450 X202.528 Y198.675
N10455 X202.586 Y198.591
N10460 X202.611 Y198.547
N10465 X202.626 Y198.498
N10470 X202.646 Y198.401
N10475 X202.651 Y198.354
N10480 X202.647 Y198.308
N10485 X202.632 Y198.223
N10490 X202.623 Y198.184
N10495 X202.607 Y198.148
N10500 X202.572 Y198.084
N10505 X202.548 Y198.047
N10510 X202.518 Y198.015
N10515 X202.441 Y197.946
N10520 X202.402 Y197.918
N10525 X202.358 Y197.898
N10530 X202.23 Y197.852
N10535 X202.223 Y197.85
N10540 X200.299 Y197.226
N10545 X193.741 Y194.893
N10550 Y194.521
N10555 X202.715 Y197.913
N10560 Y198.826
N10565 X193.741 Y202.156
N10570 Y201.792
N10575 X196.259 Y200.881
N10580 X196.293 Y200.865
N10585 X196.325 Y200.844
N10590 X196.405 Y200.784
N10595 X196.439 Y200.752
N10600 X196.466 Y200.716
N10605 X196.509 Y200.645
N10610 X196.529 Y200.605
N10615 X196.542 Y200.562
N10620 X196.549 Y200.526
N10625 X196.557 Y200.502 Z-1.093 F50.
N10630 X196.57 Y200.481 Z-1.087
N10635 X196.598 Y200.458 Z-1.05
N10640 X196.61 Y200.452 Z-1.
N10645 G0 Z5.
N10650 X202.047 Y178.843
N10655 Z0.497
N10660 G1 X202.056 Y178.845 Z0.454 F50.
N10665 X202.082 Y178.852 Z0.42
N10670 X202.118 Y178.864 Z0.4
N10675 G3 X201.784 Y179.753 Z0. I-0.167 J0.445
N10680 X202.118 Y178.864 Z-0.4 I0.167 J-0.445
N10685 X201.784 Y179.753 Z-0.8 I-0.167 J0.445
N10690 X201.757 Y178.875 Z-1.1 I0.167 J-0.445
N10695 X202.072 Y179.577 I0.158 J0.351
N10700 G1 X202.049 Y179.588 F56.
N10705 G3 X201.817 Y179.468 I-0.068 J-0.152
N10710 G1 X201.808 Y179.419
N10715 G3 X201.971 Y179.221 I0.163 J-0.032
N10720 G1 X202.089
N10725 G3 X202.157 Y179.539 I0. J0.166
N10730 G1 X202.072 Y179.577
N10735 G2 X201.883 Y179.877 I0.131 J0.291
N10740 G3 X201.695 Y180.177 I-0.319 J0.009
N10745 G1 X194.827 Y183.259
N10750 X194.788 Y183.282
N10755 X194.753 Y183.311
N10760 X194.685 Y183.378
N10765 X194.656 Y183.413
N10770 X194.634 Y183.452
N10775 X194.599 Y183.529
N10780 X194.585 Y183.569
N10785 X194.578 Y183.612
N10790 X194.571 Y183.699
N10795 X194.572 Y183.745
N10800 X194.581 Y183.79
N10805 X194.608 Y183.883
N10810 X194.625 Y183.925
N10815 X194.65 Y183.963
N10820 X194.701 Y184.03
N10825 X194.729 Y184.061
N10830 X194.761 Y184.086
N10835 X194.826 Y184.129
N10840 X194.864 Y184.151
N10845 X194.906 Y184.165
N10850 X195. Y184.187
N10855 X195.06 Y184.194
N10860 X202.715 Y184.155
N10865 Y184.51
N10870 X193.741
N10875 Y183.335
N10880 X201.169 Y180.052
N10885 X201.203 Y180.034
N10890 X201.233 Y180.01
N10895 X201.301 Y179.95
N10900 X201.332 Y179.918
N10905 X201.357 Y179.88
N10910 X201.398 Y179.802
N10915 X201.415 Y179.762
N10920 X201.424 Y179.721
N10925 X201.436 Y179.638
N10930 X201.439 Y179.597
N10935 X201.434 Y179.555
N10940 X201.418 Y179.473
N10945 X201.405 Y179.429
N10950 X201.384 Y179.388
N10955 X201.331 Y179.304
N10960 X201.304 Y179.268
N10965 X201.271 Y179.238
N10970 X201.209 Y179.19
N10975 X201.173 Y179.168
N10980 X201.134 Y179.151
N10985 X201.048 Y179.123
N10990 X201.01 Y179.114
N10995 X200.972 Y179.111
N11000 X193.741 Y179.1
N11005 Y178.828
N11010 X202.715
N11015 Y179.719
N11020 X201.695 Y180.177
N11025 X201.671 Y180.184 Z-1.093 F50.
N11030 X201.646 Y180.186 Z-1.087
N11035 X201.611 Y180.176 Z-1.05
N11040 X201.599 Y180.17 Z-1.
N11045 G0 Z5.
N11050 X196.751 Y168.111
N11055 Z0.497
N11060 G1 X196.756 Z0.464 F50.
N11065 X196.771 Z0.436
N11070 X196.795 Z0.413
N11075 X196.825 Z0.4
N11080 X197.708 Y168.114 Z0.163
N11085 X202.085 Y168.113 Z-1.009
N11090 X202.121 Y168.111 Z-1.019
N11095 X202.156 Y168.103 Z-1.029
N11100 X202.25 Y168.075 Z-1.055
N11105 X202.295 Y168.057 Z-1.068
N11110 X202.335 Y168.031 Z-1.081
N11115 X202.391 Y167.986 Z-1.1
N11120 X202.407 Y167.974 F56.
N11125 X202.438 Y167.945
N11130 X202.463 Y167.911
N11135 X202.503 Y167.848
N11140 X202.522 Y167.812
N11145 X202.534 Y167.774
N11150 X202.554 Y167.693
N11155 X202.562 Y167.633
N11160 Y166.109
N11165 X202.715
N11170 Y168.519
N11175 X196.367 Y168.518
N11180 X195.2 Y168.385
N11185 X194.737 Y168.223
N11190 X194.326 Y167.965
N11195 X193.995 Y167.602
N11200 X193.773 Y167.169
N11205 X193.642 Y166.666
N11210 X193.597 Y166.125
N11215 X193.671 Y165.377
N11220 X193.751 Y165.156
N11225 X193.792 Y165.058
N11230 X193.954 Y164.816
N11235 X194.189 Y164.608
N11240 X194.469 Y164.46
N11245 X194.77 Y164.391
N11250 X194.845 Y164.758
N11255 X194.807 Y164.769
N11260 X194.761 Y164.787
N11265 X194.363 Y164.988
N11270 X194.333 Y165.006
N11275 X194.306 Y165.028
N11280 X194.223 Y165.105
N11285 X194.204 Y165.125
N11290 X193.93 Y165.443
N11295 X193.904 Y165.478
N11300 X193.886 Y165.516
N11305 X193.853 Y165.602
N11310 X193.842 Y165.638
N11315 X193.748 Y166.068
N11320 X193.743 Y166.106
N11325 Y166.144
N11330 X193.751 Y166.228
N11335 X193.756 Y166.26
N11340 X193.913 Y166.97
N11345 X193.923 Y167.002
N11350 X193.937 Y167.033
N11355 X193.972 Y167.1
N11360 X193.992 Y167.131
N11365 X194.213 Y167.428
N11370 X194.235 Y167.454
N11375 X194.26 Y167.476
N11380 X194.546 Y167.698
N11385 X194.572 Y167.716
N11390 X194.685 Y167.783
N11395 X194.733 Y167.805
N11400 X195.411 Y168.032
N11405 X195.464 Y168.044
N11410 X195.711 Y168.07
N11415 X195.718
N11420 X196.211 Y168.108
N11425 X196.229 Y168.109
N11430 X197.708 Y168.114
N11435 X202.085 Y168.113
N11440 X202.121 Y168.111
N11445 X202.156 Y168.103
N11450 X202.25 Y168.075
N11455 X202.295 Y168.057
N11460 X202.335 Y168.031
N11465 X202.391 Y167.986
N11470 X202.412 Y167.973 Z-1.093 F50.
N11475 X202.436 Y167.966 Z-1.087
N11480 X202.473 Y167.967 Z-1.05
N11485 X202.485 Y167.97 Z-1.
N11490 G0 Z5.
N11495 X197.345 Y161.688
N11500 Z0.497
N11505 G1 X197.351 Z0.464 F50.
N11510 X197.366 Z0.436
N11515 X197.39 Z0.413
N11520 X197.42 Z0.4
N11525 X202.715 Z-1.019
N11530 Y161.99 Z-1.1
N11535 Y162.103 F56.
N11540 X193.741
N11545 Y161.688
N11550 X202.715
N11555 Y161.99
N11560 Z-1. F50.
N11565 G0 Z5.
N11570 X193.776 Y148.244
N11575 Z0.497
N11580 G1 X193.782 Z0.464 F50.
N11585 X193.797 Z0.436
N11590 X193.821 Z0.413
N11595 X193.85 Z0.4
N11600 X193.899 Z0.387
N11605 X193.936 Y148.911 Z0.208
N11610 X193.94 Y148.94 Z0.2
N11615 X193.982 Y149.186 Z0.133
N11620 X193.984 Y149.197 Z0.13
N11625 X194.146 Y149.937 Z-0.073
N11630 X194.155 Y149.968 Z-0.081
N11635 X194.222 Y150.153 Z-0.134
N11640 X194.229 Y150.172 Z-0.139
N11645 X194.37 Y150.48 Z-0.23
N11650 X194.386 Y150.51 Z-0.239
N11655 X194.494 Y150.681 Z-0.293
N11660 X194.511 Y150.704 Z-0.301
N11665 X194.745 Y150.995 Z-0.401
N11670 X194.781 Y151.031 Z-0.415
N11675 X194.9 Y151.129 Z-0.456
N11680 X194.931 Y151.151 Z-0.466
N11685 X195.296 Y151.369 Z-0.58
N11690 X195.345 Y151.391 Z-0.595
N11695 X195.442 Y151.423 Z-0.622
N11700 X195.483 Y151.433 Z-0.634
N11705 X195.976 Y151.509 Z-0.767
N11710 X196.011 Y151.512 Z-0.776
N11715 X196.045 Y151.51 Z-0.786
N11720 X196.6 Y151.44 Z-0.936
N11725 X196.654 Y151.427 Z-0.95
N11730 X196.746 Y151.394 Z-0.977
N11735 X196.768 Y151.385 Z-0.983
N11740 X197.162 Y151.198 Z-1.1
N11745 X197.189 Y151.185 F56.
N11750 X197.238 Y151.154
N11755 X197.35 Y151.065
N11760 X197.374 Y151.043
N11765 X197.69 Y150.718
N11770 X197.718 Y150.682
N11775 X197.792 Y150.571
N11780 X197.805 Y150.55
N11785 X197.947 Y150.284
N11790 X197.895 Y150.682
N11795 X197.757 Y151.024
N11800 X197.528 Y151.334
N11805 X197.243 Y151.554
N11810 X196.904 Y151.697
N11815 X196.04 Y151.81
N11820 X195.481 Y151.756
N11825 X194.986 Y151.589
N11830 X194.564 Y151.294
N11835 X194.533 Y151.261
N11840 X194.227 Y150.867
N11845 X193.989 Y150.33
N11850 X193.846 Y149.751
N11855 X193.741 Y148.394
N11860 Y148.244
N11865 X193.899
N11870 X193.936 Y148.911
N11875 X193.94 Y148.94
N11880 X193.982 Y149.186
N11885 X193.984 Y149.197
N11890 X194.146 Y149.937
N11895 X194.155 Y149.968
N11900 X194.222 Y150.153
N11905 X194.229 Y150.172
N11910 X194.37 Y150.48
N11915 X194.386 Y150.51
N11920 X194.494 Y150.681
N11925 X194.511 Y150.704
N11930 X194.745 Y150.995
N11935 X194.781 Y151.031
N11940 X194.9 Y151.129
N11945 X194.931 Y151.151
N11950 X195.296 Y151.369
N11955 X195.345 Y151.391
N11960 X195.442 Y151.423
N11965 X195.483 Y151.433
N11970 X195.976 Y151.509
N11975 X196.011 Y151.512
N11980 X196.045 Y151.51
N11985 X196.6 Y151.44
N11990 X196.654 Y151.427
N11995 X196.746 Y151.394
N12000 X196.768 Y151.385
N12005 X197.162 Y151.198
N12010 X197.186 Y151.19 Z-1.093 F50.
N12015 X197.211 Y151.188 Z-1.087
N12020 X197.246 Y151.197 Z-1.05
N12025 X197.258 Y151.203 Z-1.
N12030 G0 Z5.
N12035 X198.313 Y148.814
N12040 Z0.497
N12045 G1 Y148.809 Z0.464 F50.
N12050 X198.314 Y148.793 Z0.436
N12055 X198.315 Y148.77 Z0.413
N12060 X198.317 Y148.74 Z0.4
N12065 X198.333 Y148.416 Z0.313
N12070 X198.338 Y148.244 Z0.267
N12075 X198.607 Z0.195
N12080 X198.643 Y148.76 Z0.056
N12085 X198.651 Y148.806 Z0.044
N12090 X198.805 Y149.397 Z-0.12
N12095 X198.785 Y149.381 Z-0.126
N12100 X198.748 Y149.358 Z-0.138
N12105 X198.708 Y149.341 Z-0.15
N12110 X198.615 Y149.312 Z-0.176
N12115 X198.569 Y149.303 Z-0.188
N12120 X198.521 Y149.302 Z-0.201
N12125 X198.429 Y149.309 Z-0.226
N12130 X198.425 Z-0.227
N12135 X198.387 Y149.316 Z-0.237
N12140 X198.351 Y149.328 Z-0.248
N12145 X198.289 Y149.354 Z-0.266
N12150 X198.256 Y149.371 Z-0.276
N12155 X198.226 Y149.393 Z-0.286
N12160 X198.21 Y149.407 Z-0.291
N12165 X198.299 Y149.014 Z-0.399
N12170 X198.305 Y148.971 Z-0.411
N12175 X198.333 Y148.416 Z-0.56
N12180 X198.338 Y148.244 Z-0.606
N12185 X198.607 Z-0.678
N12190 X198.643 Y148.76 Z-0.816
N12195 X198.651 Y148.806 Z-0.829
N12200 X198.805 Y149.397 Z-0.992
N12205 X198.785 Y149.381 Z-0.999
N12210 X198.748 Y149.358 Z-1.011
N12215 X198.708 Y149.341 Z-1.023
N12220 X198.615 Y149.312 Z-1.049
N12225 X198.569 Y149.303 Z-1.061
N12230 X198.521 Y149.302 Z-1.074
N12235 X198.429 Y149.309 Z-1.099
N12240 X198.425 Z-1.1
N12245 X198.387 Y149.316 F56.
N12250 X198.351 Y149.328
N12255 X198.289 Y149.354
N12260 X198.256 Y149.371
N12265 X198.226 Y149.393
N12270 X198.21 Y149.407
N12275 X198.299 Y149.014
N12280 X198.305 Y148.971
N12285 X198.333 Y148.416
N12290 X198.338 Y148.244
N12295 X198.607
N12300 X198.643 Y148.76
N12305 X198.651 Y148.806
N12310 X198.805 Y149.397
N12315 X198.785 Y149.381
N12320 X198.748 Y149.358
N12325 X198.708 Y149.341
N12330 X198.615 Y149.312
N12335 X198.569 Y149.303
N12340 X198.521 Y149.302
N12345 X198.429 Y149.309
N12350 X198.425
N12355 X198.4 Z-1.093 F50.
N12360 X198.376 Y149.302 Z-1.087
N12365 X198.346 Y149.282 Z-1.05
N12370 X198.337 Y149.272 Z-1.
N12375 G0 Z5.
N12380 X200.895 Y150.941
N12385 Z0.497
N12390 G1 X200.901 Y150.94 Z0.464 F50.
N12395 X200.916 Y150.937 Z0.436
N12400 X200.939 Y150.933 Z0.413
N12405 X200.968 Y150.928 Z0.4
N12410 X201.233 Y150.88 Z0.328
N12415 X201.266 Y150.871 Z0.319
N12420 X201.297 Y150.859 Z0.31
N12425 X201.373 Y150.822 Z0.287
N12430 X201.401 Y150.806 Z0.278
N12435 X201.74 Y150.586 Z0.17
N12440 X201.786 Y150.546 Z0.154
N12445 X201.855 Y150.472 Z0.127
N12450 X201.889 Y150.425 Z0.111
N12455 X202.3 Y149.698 Z-0.113
N12460 X202.315 Y149.668 Z-0.122
N12465 X202.325 Y149.636 Z-0.131
N12470 X202.372 Y149.451 Z-0.182
N12475 X202.375 Y149.437 Z-0.185
N12480 X202.517 Y148.698 Z-0.387
N12485 X202.521 Y148.663 Z-0.397
N12490 X202.543 Y148.244 Z-0.509
N12495 X202.686 Z-0.547
N12500 X202.632 Y149.035 Z-0.759
N12505 X202.313 Y150.149 Z-1.07
N12510 X202.252 Y150.243 Z-1.1
N12515 X202.036 Y150.58 F56.
N12520 X201.65 Y150.911
N12525 X201.191 Y151.095
N12530 X200.669 Y151.153
N12535 X200.034 Y151.073
N12540 X199.534 Y150.813
N12545 X199.388 Y150.622
N12550 X199.186 Y150.348
N12555 X199.128 Y150.142
N12560 X199.158 Y150.194
N12565 X199.185 Y150.231
N12570 X199.245 Y150.301
N12575 X199.262 Y150.319
N12580 X199.57 Y150.613
N12585 X199.599 Y150.636
N12590 X199.63 Y150.655
N12595 X199.815 Y150.748
N12600 X199.825 Y150.753
N12605 X200.102 Y150.877
N12610 X200.136 Y150.89
N12615 X200.172 Y150.897
N12620 X200.634 Y150.958
N12625 X200.666 Y150.961
N12630 X200.758
N12635 X200.804 Y150.957
N12640 X201.233 Y150.88
N12645 X201.266 Y150.871
N12650 X201.297 Y150.859
N12655 X201.373 Y150.822
N12660 X201.401 Y150.806
N12665 X201.74 Y150.586
N12670 X201.786 Y150.546
N12675 X201.855 Y150.472
N12680 X201.889 Y150.425
N12685 X202.3 Y149.698
N12690 X202.315 Y149.668
N12695 X202.325 Y149.636
N12700 X202.372 Y149.451
N12705 X202.375 Y149.437
N12710 X202.517 Y148.698
N12715 X202.521 Y148.663
N12720 X202.543 Y148.244
N12725 X202.686
N12730 X202.632 Y149.035
N12735 X202.313 Y150.149
N12740 X202.252 Y150.243
N12745 X202.232 Y150.275 Z-1.092 F50.
N12750 X202.214 Y150.303 Z-1.071
N12755 X202.202 Y150.321 Z-1.038
N12760 X202.198 Y150.327 Z-1.
N12765 G0 Z5.
N12770 X197.76 Y145.495
N12775 Z0.497
N12780 G1 X197.765 Z0.464 F50.
N12785 X197.781 Z0.436
N12790 X197.804 Z0.413
N12795 X197.834 Z0.4
N12800 X202.715 Z-0.908
N12805 Y145.909 Z-1.019
N12810 X202.413 Z-1.1
N12815 X193.741 F56.
N12820 Y145.495
N12825 X202.715
N12830 Y145.909
N12835 X202.413
N12840 X202.389 Y145.906 Z-1.093 F50.
N12845 X202.365 Y145.897 Z-1.087
N12850 X202.337 Y145.874 Z-1.05
N12855 X202.329 Y145.863 Z-1.
N12860 G0 Z5.
N12865 X194.588 Y134.134
N12870 Z0.497
N12875 G1 X194.592 Y134.138 Z0.464 F50.
N12880 X194.601 Y134.15 Z0.436
N12885 X194.616 Y134.169 Z0.413
N12890 X194.635 Y134.192 Z0.4
N12895 X194.738 Y134.321 Z0.356
N12900 X194.77 Y134.355 Z0.343
N12905 X194.884 Y134.452 Z0.303
N12910 X194.919 Y134.478 Z0.291
N12915 X195.301 Y134.704 Z0.172
N12920 X195.329 Y134.719 Z0.164
N12925 X195.36 Y134.73 Z0.155
N12930 X195.483 Y134.765 Z0.121
N12935 X195.514 Y134.772 Z0.112
N12940 X195.976 Y134.842 Z-0.013
N12945 X196.011 Y134.845 Z-0.022
N12950 X196.045 Y134.843 Z-0.031
N12955 X196.6 Y134.774 Z-0.181
N12960 X196.654 Y134.761 Z-0.196
N12965 X196.746 Y134.727 Z-0.223
N12970 X196.769 Y134.718 Z-0.229
N12975 X197.201 Y134.511 Z-0.357
N12980 X197.248 Y134.481 Z-0.372
N12985 X197.34 Y134.408 Z-0.404
N12990 X197.363 Y134.387 Z-0.412
N12995 X197.674 Y134.071 Z-0.531
N13000 X197.7 Y134.041 Z-0.542
N13005 X197.77 Y133.942 Z-0.574
N13010 X197.786 Y133.916 Z-0.582
N13015 X197.949 Y133.614 Z-0.674
N13020 X197.896 Y134.01 Z-0.781
N13025 X197.75 Y134.368 Z-0.885
N13030 X197.527 Y134.669 Z-0.985
N13035 X197.245 Y134.887 Z-1.081
N13040 X197.179 Y134.915 Z-1.1
N13045 X196.904 Y135.03 F56.
N13050 X196.041 Y135.143
N13055 X195.476 Y135.088
N13060 X194.98 Y134.92
N13065 X194.561 Y134.625
N13070 X194.227 Y134.2
N13075 X193.988 Y133.657
N13080 X193.845 Y133.079
N13085 X193.771 Y132.166
N13090 X193.747 Y131.875
N13095 X193.744 Y131.578
N13100 X193.898
N13105 X193.925 Y132.145
N13110 X193.927 Y132.167
N13115 X193.96 Y132.413
N13120 X193.963 Y132.432
N13125 X194.134 Y133.233
N13130 X194.142 Y133.262
N13135 X194.205 Y133.447
N13140 X194.215 Y133.471
N13145 X194.386 Y133.841
N13150 X194.4 Y133.867
N13155 X194.475 Y133.99
N13160 X194.493 Y134.015
N13165 X194.738 Y134.321
N13170 X194.77 Y134.355
N13175 X194.884 Y134.452
N13180 X194.919 Y134.478
N13185 X195.301 Y134.704
N13190 X195.329 Y134.719
N13195 X195.36 Y134.73
N13200 X195.483 Y134.765
N13205 X195.514 Y134.772
N13210 X195.976 Y134.842
N13215 X196.011 Y134.845
N13220 X196.045 Y134.843
N13225 X196.6 Y134.774
N13230 X196.654 Y134.761
N13235 X196.746 Y134.727
N13240 X196.769 Y134.718
N13245 X197.201 Y134.511
N13250 X197.248 Y134.481
N13255 X197.34 Y134.408
N13260 X197.363 Y134.387
N13265 X197.674 Y134.071
N13270 X197.7 Y134.041
N13275 X197.77 Y133.942
N13280 X197.786 Y133.916
N13285 X197.949 Y133.614
N13290 X197.896 Y134.01
N13295 X197.75 Y134.368
N13300 X197.527 Y134.669
N13305 X197.245 Y134.887
N13310 X197.179 Y134.915
N13315 X197.155 Y134.921 Z-1.093 F50.
N13320 X197.13 Y134.922 Z-1.087
N13325 X197.095 Y134.912 Z-1.05
N13330 X197.083 Y134.905 Z-1.
N13335 G0 Z5.
N13340 X198.291 Y132.689
N13345 Z0.497
N13350 G1 X198.285 Y132.691 Z0.462 F50.
N13355 X198.269 Y132.699 Z0.432
N13360 X198.226 Y132.724 Z0.4
N13365 X198.213 Y132.735 Z0.396
N13370 X198.296 Y132.375 Z0.297
N13375 X198.301 Y132.343 Z0.288
N13380 X198.32 Y132.158 Z0.238
N13385 X198.321 Y132.141 Z0.234
N13390 X198.338 Y131.578 Z0.083
N13395 X198.607 Z0.01
N13400 X198.643 Y132.089 Z-0.127
N13405 X198.65 Y132.135 Z-0.139
N13410 X198.807 Y132.731 Z-0.304
N13415 X198.785 Y132.715 Z-0.312
N13420 X198.748 Y132.691 Z-0.323
N13425 X198.708 Y132.675 Z-0.335
N13430 X198.615 Y132.646 Z-0.361
N13435 X198.569 Y132.636 Z-0.374
N13440 X198.521 Y132.635 Z-0.387
N13445 X198.429 Y132.642 Z-0.412
N13450 X198.385 Y132.65 Z-0.423
N13455 X198.344 Y132.664 Z-0.435
N13460 X198.269 Y132.699 Z-0.457
N13465 X198.24 Y132.715 Z-0.466
N13470 X198.213 Y132.735 Z-0.475
N13475 X198.296 Y132.375 Z-0.574
N13480 X198.301 Y132.343 Z-0.583
N13485 X198.32 Y132.158 Z-0.633
N13490 X198.321 Y132.141 Z-0.637
N13495 X198.338 Y131.578 Z-0.788
N13500 X198.607 Z-0.86
N13505 X198.643 Y132.089 Z-0.998
N13510 X198.65 Y132.135 Z-1.01
N13515 X198.735 Y132.46 Z-1.1
N13520 X198.807 Y132.731 F56.
N13525 X198.785 Y132.715
N13530 X198.748 Y132.691
N13535 X198.708 Y132.675
N13540 X198.615 Y132.646
N13545 X198.569 Y132.636
N13550 X198.521 Y132.635
N13555 X198.429 Y132.642
N13560 X198.385 Y132.65
N13565 X198.344 Y132.664
N13570 X198.269 Y132.699
N13575 X198.24 Y132.715
N13580 X198.213 Y132.735
N13585 X198.296 Y132.375
N13590 X198.301 Y132.343
N13595 X198.32 Y132.158
N13600 X198.321 Y132.141
N13605 X198.338 Y131.578
N13610 X198.607
N13615 X198.643 Y132.089
N13620 X198.65 Y132.135
N13625 X198.735 Y132.46
N13630 X198.739 Y132.484 Z-1.093 F50.
N13635 X198.736 Y132.509 Z-1.087
N13640 X198.721 Y132.542 Z-1.05
N13645 X198.712 Y132.553 Z-1.
N13650 G0 Z5.
N13655 X200.891 Y134.275
N13660 Z0.497
N13665 G1 X200.896 Y134.274 Z0.464 F50.
N13670 X200.911 Y134.271 Z0.436
N13675 X200.935 Y134.267 Z0.413
N13680 X200.964 Y134.262 Z0.4
N13685 X201.231 Y134.214 Z0.327
N13690 X201.264 Y134.205 Z0.318
N13695 X201.296 Y134.193 Z0.309
N13700 X201.377 Y134.154 Z0.285
N13705 X201.404 Y134.138 Z0.277
N13710 X201.728 Y133.928 Z0.173
N13715 X201.771 Y133.892 Z0.158
N13720 X201.851 Y133.81 Z0.127
N13725 X201.872 Y133.786 Z0.119
N13730 X201.889 Y133.759 Z0.11
N13735 X202.302 Y133.027 Z-0.115
N13740 X202.316 Y132.998 Z-0.124
N13745 X202.326 Y132.967 Z-0.132
N13750 X202.365 Y132.818 Z-0.174
N13755 X202.368 Y132.803 Z-0.178
N13760 X202.514 Y132.058 Z-0.381
N13765 X202.519 Y132.024 Z-0.39
N13770 X202.543 Y131.578 Z-0.51
N13775 X202.686 Z-0.548
N13780 X202.632 Y132.367 Z-0.761
N13785 X202.314 Y133.478 Z-1.07
N13790 X202.254 Y133.572 Z-1.1
N13795 X202.038 Y133.91 F56.
N13800 X201.681 Y134.222
N13805 X201.653 Y134.243
N13810 X201.191 Y134.428
N13815 X200.669 Y134.486
N13820 X200.034 Y134.406
N13825 X199.524 Y134.139
N13830 X199.19 Y133.686
N13835 X199.128 Y133.472
N13840 X199.172 Y133.546
N13845 X199.191 Y133.573
N13850 X199.213 Y133.598
N13855 X199.568 Y133.944
N13860 X199.598 Y133.969
N13865 X199.631 Y133.988
N13870 X199.818 Y134.083
N13875 X199.827 Y134.087
N13880 X200.102 Y134.211
N13885 X200.137 Y134.223
N13890 X200.172 Y134.231
N13895 X200.634 Y134.292
N13900 X200.666 Y134.294
N13905 X200.758
N13910 X200.804 Y134.291
N13915 X201.231 Y134.214
N13920 X201.264 Y134.205
N13925 X201.296 Y134.193
N13930 X201.377 Y134.154
N13935 X201.404 Y134.138
N13940 X201.728 Y133.928
N13945 X201.771 Y133.892
N13950 X201.851 Y133.81
N13955 X201.872 Y133.786
N13960 X201.889 Y133.759
N13965 X202.302 Y133.027
N13970 X202.316 Y132.998
N13975 X202.326 Y132.967
N13980 X202.365 Y132.818
N13985 X202.368 Y132.803
N13990 X202.514 Y132.058
N13995 X202.519 Y132.024
N14000 X202.543 Y131.578
N14005 X202.686
N14010 X202.632 Y132.367
N14015 X202.314 Y133.478
N14020 X202.254 Y133.572
N14025 X202.234 Y133.604 Z-1.092 F50.
N14030 X202.216 Y133.632 Z-1.071
N14035 X202.204 Y133.65 Z-1.038
N14040 X202.2 Y133.657 Z-1.
N14045 G0 Z5.
N14050 X197.76 Y128.828
N14055 Z0.497
N14060 G1 X197.765 Z0.464 F50.
N14065 X197.781 Z0.436
N14070 X197.804 Z0.413
N14075 X197.834 Z0.4
N14080 X202.715 Z-0.908
N14085 Y129.242 Z-1.019
N14090 X202.413 Z-1.1
N14095 X193.741 F56.
N14100 Y128.828
N14105 X202.715
N14110 Y129.242
N14115 X202.413
N14120 X202.389 Y129.239 Z-1.093 F50.
N14125 X202.365 Y129.23 Z-1.087
N14130 X202.337 Y129.207 Z-1.05
N14135 X202.329 Y129.196 Z-1.
N14140 G0 Z5.
N14145 X193.827 Y114.422
N14150 Z0.497
N14155 G1 Y114.427 Z0.464 F50.
N14160 X193.825 Y114.443 Z0.436
N14165 X193.823 Y114.466 Z0.413
N14170 X193.821 Y114.496 Z0.4
N14175 X193.772 Y115.071 Z0.245
N14180 Y115.113 Z0.234
N14185 X193.842 Y115.976 Z0.002
N14190 X193.855 Y116.035 Z-0.014
N14195 X194.136 Y116.867 Z-0.25
N14200 X194.152 Y116.903 Z-0.26
N14205 X194.172 Y116.936 Z-0.271
N14210 X194.452 Y117.313 Z-0.396
N14215 X194.495 Y117.358 Z-0.413
N14220 X194.593 Y117.438 Z-0.447
N14225 X194.606 Y117.448 Z-0.451
N14230 X194.914 Y117.666 Z-0.552
N14235 X194.954 Y117.689 Z-0.565
N14240 X194.997 Y117.704 Z-0.577
N14245 X195.181 Y117.752 Z-0.628
N14250 X195.193 Y117.754 Z-0.631
N14255 X195.901 Y117.902 Z-0.825
N14260 X195.946 Y117.907 Z-0.837
N14265 X195.991 Y117.904 Z-0.849
N14270 X196.481 Y117.827 Z-0.982
N14275 X196.522 Y117.818 Z-0.994
N14280 X196.561 Y117.801 Z-1.005
N14285 X196.874 Y117.633 Z-1.1
N14290 X197.006 Y117.562 F56.
N14295 X197.042 Y117.539
N14300 X197.073 Y117.51
N14305 X197.155 Y117.419
N14310 X197.166 Y117.406
N14315 X197.677 Y116.757
N14320 X197.701 Y116.72
N14325 X197.719 Y116.679
N14330 X198.794 Y113.344
N14335 X199.108 Y112.779
N14340 X199.524 Y112.374
N14345 X200.088 Y112.117
N14350 X200.732 Y112.042
N14355 X201.267 Y112.09
N14360 X201.735 Y112.228
N14365 X202.138 Y112.476
N14370 X202.48 Y112.861
N14375 X202.715 Y113.334
N14380 X202.858 Y113.843
N14385 X202.963 Y115.028
N14390 X202.846 Y116.119
N14395 X202.697 Y116.587
N14400 X202.475 Y117.012
N14405 X202.161 Y117.391
N14410 X201.798 Y117.676
N14415 X201.359 Y117.859
N14420 X201.281 Y117.412
N14425 X201.596 Y117.294
N14430 X201.638 Y117.275
N14435 X201.675 Y117.247
N14440 X202.253 Y116.735
N14445 X202.288 Y116.697
N14450 X202.33 Y116.64
N14455 X202.358 Y116.593
N14460 X202.663 Y115.902
N14465 X202.676 Y115.866
N14470 X202.683 Y115.829
N14475 X202.772 Y115.028
N14480 X202.773 Y114.979
N14485 X202.705 Y114.178
N14490 X202.692 Y114.117
N14495 X202.435 Y113.377
N14500 X202.407 Y113.321
N14505 X202.354 Y113.242
N14510 X202.342 Y113.226
N14515 X202.115 Y112.938
N14520 X202.091 Y112.912
N14525 X202.063 Y112.889
N14530 X201.705 Y112.637
N14535 X201.671 Y112.616
N14540 X201.634 Y112.602
N14545 X201.542 Y112.573
N14550 X201.519 Y112.568
N14555 X200.811 Y112.42
N14560 X200.776 Y112.415
N14565 X200.741
N14570 X200.649 Y112.422
N14575 X200.607 Y112.429
N14580 X200.038 Y112.57
N14585 X199.999 Y112.583
N14590 X199.963 Y112.602
N14595 X199.887 Y112.651
N14600 X199.86 Y112.671
N14605 X199.445 Y113.022
N14610 X199.413 Y113.054
N14615 X199.363 Y113.116
N14620 X199.343 Y113.144
N14625 X199.04 Y113.637
N14630 X199.021 Y113.677
N14635 X198.781 Y114.293
N14640 X198.775 Y114.31
N14645 X198.166 Y116.278
N14650 X197.913 Y117.003
N14655 X197.71 Y117.454
N14660 X197.414 Y117.804
N14665 X197.315 Y117.877
N14670 X197.001 Y118.088
N14675 X196.518 Y118.248
N14680 X195.953 Y118.298
N14685 X195.387 Y118.245
N14690 X194.863 Y118.072
N14695 X194.429 Y117.774
N14700 X194.097 Y117.363
N14705 X193.851 Y116.827
N14710 X193.703 Y116.252
N14715 X193.595 Y114.97
N14720 X193.708 Y113.751
N14725 X193.759 Y113.567
N14730 X193.859 Y113.208
N14735 X194.103 Y112.696
N14740 X194.42 Y112.279
N14745 X194.827 Y111.942
N14750 X195.305 Y111.698
N14755 X195.357 Y111.683
N14760 X195.443 Y112.108
N14765 X194.992 Y112.298
N14770 X194.959 Y112.315
N14775 X194.929 Y112.337
N14780 X194.865 Y112.39
N14785 X194.841 Y112.414
N14790 X194.241 Y113.077
N14795 X194.212 Y113.116
N14800 X194.191 Y113.16
N14805 X193.88 Y114.021
N14810 X193.869 Y114.059
N14815 X193.852 Y114.151
N14820 X193.848 Y114.178
N14825 X193.772 Y115.071
N14830 Y115.113
N14835 X193.842 Y115.976
N14840 X193.855 Y116.035
N14845 X194.136 Y116.867
N14850 X194.152 Y116.903
N14855 X194.172 Y116.936
N14860 X194.452 Y117.313
N14865 X194.495 Y117.358
N14870 X194.593 Y117.438
N14875 X194.606 Y117.448
N14880 X194.914 Y117.666
N14885 X194.954 Y117.689
N14890 X194.997 Y117.704
N14895 X195.181 Y117.752
N14900 X195.193 Y117.754
N14905 X195.901 Y117.902
N14910 X195.946 Y117.907
N14915 X195.991 Y117.904
N14920 X196.481 Y117.827
N14925 X196.522 Y117.818
N14930 X196.561 Y117.801
N14935 X196.874 Y117.633
N14940 X196.897 Y117.624 Z-1.093 F50.
N14945 X196.922 Y117.621 Z-1.087
N14950 X196.958 Y117.628 Z-1.05
N14955 X196.97 Y117.634 Z-1.
N14960 G0 Z5.
N14965 X214.453 Y115.278
N14970 Z0.497
N14975 G1 X214.448 Y115.285 Z0.454 F50.
N14980 X214.431 Y115.306 Z0.42
N14985 X214.405 Y115.334 Z0.4
N14990 G3 X213.731 Y114.666 Z0. I-0.337 J-0.334
N14995 X214.405 Y115.334 Z-0.4 I0.337 J0.334
N15000 X213.731 Y114.666 Z-0.8 I-0.337 J-0.334
N15005 X214.543 Y115. Z-1.1 I0.337 J0.334
N15010 G1 X214.536 Y115.037 F56.
N15015 X214.515 Y115.069
N15020 X214.483 Y115.09
N15025 X214.446 Y115.098
N15030 X214.408 Y115.09
N15035 X214.377 Y115.069
N15040 X214.355 Y115.037
N15045 X214.348 Y115.
N15050 G3 X215.493 I0.573 J0.
N15055 X213.398 I-1.048 J0.
N15060 X215.493 I1.048 J0.
N15065 G2 X215.807 Y115.613 I0.755 J0.
N15070 G3 X215.93 Y116.29 I-0.289 J0.402
N15075 G1 X215.858 Y116.398
N15080 X215.806 Y116.438
N15085 X215.207 Y116.838
N15090 X214.442 Y116.99
N15095 X213.687 Y116.84
N15100 X213.032 Y116.4
N15105 X212.608 Y115.765
N15110 X212.454 Y115.
N15115 X212.499 Y114.775
N15120 X212.608 Y114.235
N15125 X213.032 Y113.6
N15130 X213.687 Y113.16
N15135 X214.442 Y113.01
N15140 X215.207 Y113.162
N15145 X215.843 Y113.587
N15150 X215.864 Y113.611
N15155 X216.281 Y114.235
N15160 X216.435 Y115.
N15165 X216.281 Y115.765
N15170 X215.93 Y116.29
N15175 X215.913 Y116.309 Z-1.093 F50.
N15180 X215.893 Y116.323 Z-1.087
N15185 X215.858 Y116.334 Z-1.05
N15190 X215.845 Y116.335 Z-1.
N15195 G0 Z5.
N15200 X202.834 Y97.91
N15205 Z0.497
N15210 G1 Y97.915 Z0.464 F50.
N15215 Y97.931 Z0.436
N15220 Y97.954 Z0.413
N15225 Y97.984 Z0.4
N15230 Y100.877 Z-0.375
N15235 X202.572 Z-0.445
N15240 X202.57 Y99.006 Z-0.946
N15245 X202.566 Y98.965 Z-0.957
N15250 X202.556 Y98.925 Z-0.968
N15255 X202.524 Y98.833 Z-0.995
N15260 X202.506 Y98.792 Z-1.007
N15265 X202.481 Y98.755 Z-1.019
N15270 X202.43 Y98.694 Z-1.04
N15275 X202.402 Y98.665 Z-1.051
N15280 X202.37 Y98.641 Z-1.062
N15285 X202.302 Y98.598 Z-1.083
N15290 X202.244 Y98.572 Z-1.1
N15295 X202.225 Y98.566 F56.
N15300 X202.14 Y98.547
N15305 X202.085 Y98.541
N15310 X194.462 Y98.544
N15315 X194.42 Y98.547
N15320 X194.379 Y98.558
N15325 X194.296 Y98.587
N15330 X194.254 Y98.607
N15335 X194.216 Y98.634
N15340 X194.142 Y98.698
N15345 X194.111 Y98.73
N15350 X194.086 Y98.767
N15355 X194.048 Y98.836
N15360 X194.031 Y98.874
N15365 X194.021 Y98.915
N15370 X194.006 Y99.004
N15375 X194.002 Y99.045
N15380 Y100.877
N15385 X193.741
N15390 Y95.79
N15395 X194.003
N15400 X194.008 Y97.677
N15405 X194.011 Y97.72
N15410 X194.023 Y97.763
N15415 X194.049 Y97.834
N15420 X194.066 Y97.87
N15425 X194.087 Y97.902
N15430 X194.136 Y97.964
N15435 X194.163 Y97.993
N15440 X194.195 Y98.018
N15445 X194.262 Y98.063
N15450 X194.3 Y98.083
N15455 X194.34 Y98.097
N15460 X194.426 Y98.118
N15465 X194.487 Y98.126
N15470 X202.111 Y98.123
N15475 X202.154 Y98.119
N15480 X202.196 Y98.108
N15485 X202.287 Y98.075
N15490 X202.328 Y98.056
N15495 X202.365 Y98.029
N15500 X202.429 Y97.974
N15505 X202.458 Y97.944
N15510 X202.482 Y97.909
N15515 X202.524 Y97.836
N15520 X202.543 Y97.796
N15525 X202.554 Y97.753
N15530 X202.569 Y97.661
N15535 X202.572 Y97.62
N15540 Y95.79
N15545 X202.834
N15550 Y100.877
N15555 X202.572
N15560 X202.57 Y99.006
N15565 X202.566 Y98.965
N15570 X202.556 Y98.925
N15575 X202.524 Y98.833
N15580 X202.506 Y98.792
N15585 X202.481 Y98.755
N15590 X202.43 Y98.694
N15595 X202.402 Y98.665
N15600 X202.37 Y98.641
N15605 X202.302 Y98.598
N15610 X202.244 Y98.572
N15615 X202.222 Y98.561 Z-1.093 F50.
N15620 X202.202 Y98.546 Z-1.087
N15625 X202.182 Y98.515 Z-1.05
N15630 X202.178 Y98.503 Z-1.
N15635 G0 Z5.
N15640 X201.709 Y78.828
N15645 Z0.497
N15650 G1 X201.714 Z0.464 F50.
N15655 X201.73 Z0.436
N15660 X201.753 Z0.413
N15665 X201.783 Z0.4
N15670 X202.834 Z0.118
N15675 Y79.243 Z0.007
N15680 X199.188 Y79.246 Z-0.97
N15685 X199.142 Y79.251 Z-0.982
N15690 X199.097 Y79.264 Z-0.994
N15695 X199.01 Y79.298 Z-1.02
N15700 X198.966 Y79.32 Z-1.033
N15705 X198.928 Y79.35 Z-1.046
N15710 X198.855 Y79.42 Z-1.073
N15715 X198.823 Y79.457 Z-1.086
N15720 X198.799 Y79.499 Z-1.099
N15725 X198.798 Y79.503 Z-1.1
N15730 X198.761 Y79.584 F56.
N15735 X198.746 Y79.629
N15740 X198.74 Y79.677
N15745 X198.734 Y79.861
N15750 Y79.87
N15755 X198.735 Y83.63
N15760 X198.738 Y83.669
N15765 X198.747 Y83.706
N15770 X198.777 Y83.799
N15775 X198.795 Y83.841
N15780 X198.821 Y83.88
N15785 X198.875 Y83.947
N15790 X198.906 Y83.979
N15795 X198.941 Y84.004
N15800 X199.018 Y84.05
N15805 X199.055 Y84.068
N15810 X199.094 Y84.08
N15815 X199.167 Y84.095
N15820 X199.219 Y84.101
N15825 X202.834
N15830 Y84.51
N15835 X193.741
N15840 Y84.101
N15845 X198.01 Y84.098
N15850 X198.054 Y84.094
N15855 X198.096 Y84.083
N15860 X198.187 Y84.05
N15865 X198.229 Y84.03
N15870 X198.267 Y84.002
N15875 X198.333 Y83.945
N15880 X198.365 Y83.91
N15885 X198.39 Y83.87
N15890 X198.436 Y83.779
N15895 X198.454 Y83.735
N15900 X198.462 Y83.688
N15905 X198.471 Y83.59
N15910 X198.472 Y83.568
N15915 X198.468 Y79.701
N15920 X198.465 Y79.66
N15925 X198.455 Y79.62
N15930 X198.429 Y79.543
N15935 X198.411 Y79.503
N15940 X198.386 Y79.466
N15945 X198.327 Y79.393
N15950 X198.292 Y79.359
N15955 X198.252 Y79.331
N15960 X198.163 Y79.283
N15965 X198.12 Y79.265
N15970 X198.074 Y79.255
N15975 X197.985 Y79.244
N15980 X197.955 Y79.242
N15985 X193.741
N15990 Y78.828
N15995 X202.834
N16000 Y79.243
N16005 X199.188 Y79.246
N16010 X199.142 Y79.251
N16015 X199.097 Y79.264
N16020 X199.01 Y79.298
N16025 X198.966 Y79.32
N16030 X198.928 Y79.35
N16035 X198.855 Y79.42
N16040 X198.823 Y79.457
N16045 X198.799 Y79.499
N16050 X198.798 Y79.503
N16055 X198.785 Y79.524 Z-1.093 F50.
N16060 X198.767 Y79.541 Z-1.087
N16065 X198.735 Y79.558 Z-1.05
N16070 X198.722 Y79.561 Z-1.
N16075 G0 Z5.
N16080 X202.834 Y66.436
N16085 Z0.497
N16090 G1 Y66.442 Z0.464 F50.
N16095 Y66.457 Z0.436
N16100 Y66.481 Z0.413
N16105 Y66.511 Z0.4
N16110 Y68.48 Z-0.128
N16115 X202.572 Z-0.198
N16120 X202.568 Y65.664 Z-0.952
N16125 X202.564 Y65.618 Z-0.965
N16130 X202.551 Y65.573 Z-0.977
N16135 X202.515 Y65.481 Z-1.004
N16140 X202.493 Y65.437 Z-1.017
N16145 X202.462 Y65.398 Z-1.03
N16150 X202.394 Y65.328 Z-1.056
N16155 X202.361 Y65.299 Z-1.068
N16160 X202.324 Y65.277 Z-1.08
N16165 X202.256 Y65.244 Z-1.1
N16170 X202.224 Y65.231 F56.
N16175 X202.19 Y65.222
N16180 X202.128 Y65.211
N16185 X202.085 Y65.208
N16190 X193.741 Y65.207
N16195 Y64.803
N16200 X202.116 Y64.799
N16205 X202.154 Y64.796
N16210 X202.192 Y64.787
N16215 X202.256 Y64.766
N16220 X202.293 Y64.751
N16225 X202.327 Y64.73
N16230 X202.401 Y64.677
N16235 X202.437 Y64.645
N16240 X202.466 Y64.607
N16245 X202.519 Y64.522
N16250 X202.539 Y64.481
N16255 X202.552 Y64.437
N16260 X202.568 Y64.356
N16265 X202.572 Y64.308
N16270 Y61.525
N16275 X202.834
N16280 Y68.48
N16285 X202.572
N16290 X202.568 Y65.664
N16295 X202.564 Y65.618
N16300 X202.551 Y65.573
N16305 X202.515 Y65.481
N16310 X202.493 Y65.437
N16315 X202.462 Y65.398
N16320 X202.394 Y65.328
N16325 X202.361 Y65.299
N16330 X202.324 Y65.277
N16335 X202.256 Y65.244
N16340 X202.235 Y65.23 Z-1.093 F50.
N16345 X202.218 Y65.212 Z-1.087
N16350 X202.203 Y65.179 Z-1.05
N16355 X202.2 Y65.166 Z-1.
N16360 G0 Z5.
N16365 X198.734 Y50.332
N16370 Z0.497
N16375 G1 Y50.337 Z0.464 F50.
N16380 Y50.353 Z0.436
N16385 Y50.377 Z0.413
N16390 Y50.406 Z0.4
N16395 Y50.847 Z0.282
N16400 X198.472 Z0.212
N16405 X198.469 Y46.374 Z-0.987
N16410 X198.466 Y46.331 Z-0.998
N16415 X198.455 Y46.29 Z-1.01
N16420 X198.421 Y46.195 Z-1.037
N16425 X198.4 Y46.15 Z-1.05
N16430 X198.37 Y46.11 Z-1.063
N16435 X198.305 Y46.039 Z-1.089
N16440 X198.276 Y46.012 Z-1.1
N16445 X198.234 Y45.985 F56.
N16450 X198.162 Y45.948
N16455 X198.122 Y45.932
N16460 X198.079 Y45.923
N16465 X197.987 Y45.911
N16470 X197.955 Y45.909
N16475 X194.474 Y45.911
N16480 X194.435 Y45.914
N16485 X194.398 Y45.922
N16490 X194.307 Y45.951
N16495 X194.265 Y45.969
N16500 X194.227 Y45.994
N16505 X194.16 Y46.047
N16510 X194.128 Y46.078
N16515 X194.101 Y46.115
N16520 X194.053 Y46.196
N16525 X194.032 Y46.238
N16530 X194.021 Y46.284
N16535 X194.006 Y46.377
N16540 X194.002 Y46.417
N16545 Y51.591
N16550 X193.741
N16555 Y45.495
N16560 X202.834
N16565 Y51.29
N16570 X202.572
N16575 X202.57 Y46.374
N16580 X202.567 Y46.337
N16585 X202.559 Y46.301
N16590 X202.536 Y46.227
N16595 X202.52 Y46.186
N16600 X202.497 Y46.15
N16605 X202.439 Y46.073
N16610 X202.411 Y46.041
N16615 X202.377 Y46.014
N16620 X202.315 Y45.973
N16625 X202.278 Y45.953
N16630 X202.237 Y45.939
N16635 X202.145 Y45.917
N16640 X202.084 Y45.909
N16645 X199.188 Y45.913
N16650 X199.146 Y45.917
N16655 X199.105 Y45.927
N16660 X199.031 Y45.953
N16665 X198.995 Y45.97
N16670 X198.962 Y45.991
N16675 X198.897 Y46.041
N16680 X198.867 Y46.069
N16685 X198.841 Y46.102
N16690 X198.796 Y46.171
N16695 X198.774 Y46.211
N16700 X198.76 Y46.255
N16705 X198.739 Y46.351
N16710 X198.734 Y46.405
N16715 Y50.847
N16720 X198.472
N16725 X198.469 Y46.374
N16730 X198.466 Y46.331
N16735 X198.455 Y46.29
N16740 X198.421 Y46.195
N16745 X198.4 Y46.15
N16750 X198.37 Y46.11
N16755 X198.305 Y46.039
N16760 X198.276 Y46.012
N16765 X198.258 Y45.994 Z-1.093 F50.
N16770 X198.245 Y45.972 Z-1.087
N16775 X198.238 Y45.937 Z-1.05
N16780 Y45.923 Z-1.
N16785 G0 Z5.
N16790 X184.382 Y45.762
N16795 Z0.497
N16800 G1 X184.377 Z0.464 F50.
N16805 X184.361 Z0.436
N16810 X184.337 Z0.413
N16815 X184.308 Z0.4
N16820 X180.452 Z-0.633
N16825 X180.432 Y45.763 Z-0.638
N16830 X179.2 Y45.861 Z-0.97
N16835 X179.164 Y45.866 Z-0.979
N16840 X179.13 Y45.876 Z-0.989
N16845 X178.743 Y46.024 Z-1.1
N16850 X178.237 Y46.218 F56.
N16855 X178.199 Y46.236
N16860 X178.165 Y46.26
N16865 X178.073 Y46.337
N16870 X178.057 Y46.352
N16875 X177.783 Y46.625
N16880 X177.759 Y46.653
N16885 X177.739 Y46.684
N16890 X177.52 Y47.093
N16895 X177.503 Y47.132
N16900 X177.493 Y47.174
N16905 X177.339 Y48.217
N16910 X177.336 Y48.253
N16915 X177.339 Y48.288
N16920 X177.493 Y49.397
N16925 X177.502 Y49.437
N16930 X177.517 Y49.475
N16935 X177.735 Y49.907
N16940 X177.754 Y49.938
N16945 X177.777 Y49.966
N16950 X178.113 Y50.323
N16955 X178.141 Y50.348
N16960 X178.173 Y50.369
N16965 X178.635 Y50.629
N16970 X178.688 Y50.651
N16975 X179.181 Y50.793
N16980 X179.229 Y50.802
N16985 X180.431 Y50.905
N16990 X180.448 Y50.906
N16995 X180.941 Y50.915
N17000 X186.167 Y50.916
N17005 Y51.32
N17010 X180.458
N17015 X179.531 Y51.276
N17020 X178.738 Y51.115
N17025 X178.234 Y50.909
N17030 X177.787 Y50.578
N17035 X177.482 Y50.189
N17040 X177.26 Y49.686
N17045 X177.116 Y48.992
N17050 X177.076 Y48.254
N17055 X177.12 Y47.547
N17060 X177.245 Y46.926
N17065 X177.247 Y46.916
N17070 X177.448 Y46.449
N17075 X177.752 Y46.055
N17080 X178.172 Y45.747
N17085 X178.676 Y45.537
N17090 X179.435 Y45.388
N17095 X180.212 Y45.347
N17100 X186.167
N17105 Y45.761
N17110 X180.452 Y45.762
N17115 X180.432 Y45.763
N17120 X179.2 Y45.861
N17125 X179.164 Y45.866
N17130 X179.13 Y45.876
N17135 X178.743 Y46.024
N17140 X178.719 Y46.03 Z-1.093 F50.
N17145 X178.694 Z-1.087
N17150 X178.659 Y46.019 Z-1.05
N17155 X178.648 Y46.011 Z-1.
N17160 G0 Z5.
N17165 X183.396 Y62.562
N17170 Z0.497
N17175 G1 X183.393 Y62.563 Z0.469 F50.
N17180 X183.382 Y62.566 Z0.444
N17185 X183.358 Y62.573 Z0.416
N17190 X183.327 Y62.586 Z0.4
N17195 X183.311 Y62.595 Z0.395
N17200 X183.227 Y62.647 Z0.369
N17205 X183.195 Y62.67 Z0.358
N17210 X182.772 Y63.028 Z0.21
N17215 X182.749 Y63.051 Z0.201
N17220 X182.729 Y63.076 Z0.192
N17225 X182.635 Y63.21 Z0.148
N17230 X182.627 Y63.224 Z0.144
N17235 X182.361 Y63.662 Z0.007
N17240 X182.342 Y63.701 Z-0.005
N17245 X182.13 Y64.249 Z-0.162
N17250 X182.124 Y64.265 Z-0.167
N17255 X181.515 Y66.233 Z-0.719
N17260 X181.262 Y66.96 Z-0.925
N17265 X181.054 Y67.441 Z-1.065
N17270 X180.97 Y67.539 Z-1.1
N17275 X180.734 Y67.819 F56.
N17280 X180.312 Y68.098
N17285 X179.847 Y68.25
N17290 X179.282 Y68.298
N17295 X178.717 Y68.244
N17300 X178.195 Y68.072
N17305 X177.767 Y67.779
N17310 X177.437 Y67.373
N17315 X177.186 Y66.834
N17320 X177.038 Y66.269
N17325 X176.93 Y64.957
N17330 X177.003 Y64.158
N17335 X177.045 Y63.739
N17340 X177.199 Y63.195
N17345 X177.431 Y62.703
N17350 X177.761 Y62.272
N17355 X178.155 Y61.944
N17360 X178.635 Y61.699
N17365 X178.691 Y61.683
N17370 X178.777 Y62.11
N17375 X178.328 Y62.297
N17380 X178.297 Y62.313
N17385 X178.268 Y62.332
N17390 X178.212 Y62.377
N17395 X178.183 Y62.405
N17400 X177.578 Y63.071
N17405 X177.553 Y63.104
N17410 X177.533 Y63.141
N17415 X177.485 Y63.256
N17420 X177.479 Y63.271
N17425 X177.199 Y64.072
N17430 X177.186 Y64.13
N17435 X177.105 Y65.057
N17440 Y65.1
N17445 X177.18 Y65.993
N17450 X177.192 Y66.053
N17455 X177.463 Y66.854
N17460 X177.486 Y66.902
N17465 X177.526 Y66.969
N17470 X177.543 Y66.994
N17475 X177.811 Y67.34
N17480 X177.835 Y67.367
N17485 X177.862 Y67.39
N17490 X178.241 Y67.663
N17495 X178.276 Y67.683
N17500 X178.313 Y67.698
N17505 X178.406 Y67.727
N17510 X178.428 Y67.733
N17515 X179.23 Y67.902
N17520 X179.275 Y67.907
N17525 X179.32 Y67.904
N17530 X179.822 Y67.825
N17535 X179.862 Y67.815
N17540 X179.901 Y67.799
N17545 X180.323 Y67.573
N17550 X180.374 Y67.537
N17555 X180.434 Y67.482
N17560 X180.462 Y67.453
N17565 X181.008 Y66.762
N17570 X181.031 Y66.726
N17575 X181.048 Y66.687
N17580 X181.149 Y66.392
N17585 X182.126 Y63.345
N17590 X182.428 Y62.797
N17595 X182.878 Y62.36
N17600 X183.418 Y62.118
N17605 X184.061 Y62.042
N17610 X184.596 Y62.089
N17615 X185.063 Y62.226
N17620 X185.49 Y62.491
N17625 X185.806 Y62.848
N17630 X186.045 Y63.321
N17635 X186.19 Y63.831
N17640 X186.298 Y65.015
N17645 X186.183 Y66.106
N17650 X186.031 Y66.585
N17655 X185.812 Y67.004
N17660 X185.487 Y67.397
N17665 X185.132 Y67.676
N17670 X184.692 Y67.859
N17675 X184.614 Y67.413
N17680 X184.917 Y67.301
N17685 X184.972 Y67.272
N17690 X185.031 Y67.232
N17695 X185.058 Y67.211
N17700 X185.607 Y66.712
N17705 X185.636 Y66.681
N17710 X185.659 Y66.645
N17715 X185.709 Y66.553
N17720 X185.718 Y66.535
N17725 X186. Y65.888
N17730 X186.013 Y65.852
N17735 X186.02 Y65.815
N17740 X186.106 Y65.045
N17745 X186.107 Y64.997
N17750 X186.042 Y64.196
N17755 X186.037 Y64.164
N17760 X186.029 Y64.134
N17765 X185.761 Y63.364
N17770 X185.745 Y63.327
N17775 X185.723 Y63.294
N17780 X185.463 Y62.955
N17785 X185.442 Y62.93
N17790 X185.417 Y62.908
N17795 X185.288 Y62.809
N17800 X185.278 Y62.802
N17805 X185.031 Y62.632
N17810 X184.995 Y62.612
N17815 X184.955 Y62.597
N17820 X184.832 Y62.564
N17825 X184.817 Y62.56
N17830 X184.139 Y62.419
N17835 X184.081 Y62.414
N17840 X184.019 Y62.416
N17845 X183.968 Y62.423
N17850 X183.382 Y62.566
N17855 X183.345 Y62.578
N17860 X183.311 Y62.595
N17865 X183.227 Y62.647
N17870 X183.195 Y62.67
N17875 X182.772 Y63.028
N17880 X182.749 Y63.051
N17885 X182.729 Y63.076
N17890 X182.635 Y63.21
N17895 X182.627 Y63.224
N17900 X182.361 Y63.662
N17905 X182.342 Y63.701
N17910 X182.13 Y64.249
N17915 X182.124 Y64.265
N17920 X181.515 Y66.233
N17925 X181.262 Y66.96
N17930 X181.054 Y67.441
N17935 X180.97 Y67.539
N17940 X180.952 Y67.556 Z-1.093 F50.
N17945 X180.93 Y67.568 Z-1.087
N17950 X180.894 Y67.575 Z-1.05
N17955 X180.881 Y67.574 Z-1.
N17960 G0 Z5.
N17965 X163.429 Y66.848
N17970 Z0.497
N17975 G1 X163.434 Z0.464 F50.
N17980 X163.45 Z0.436
N17985 X163.473 Z0.413
N17990 X163.503 Z0.4
N17995 X168.773 Y66.844 Z-1.012
N18000 X168.819 Y66.84 Z-1.025
N18005 X168.864 Y66.827 Z-1.037
N18010 X168.957 Y66.79 Z-1.064
N18015 X169. Y66.768 Z-1.077
N18020 X169.037 Y66.739 Z-1.09
N18025 X169.066 Y66.712 Z-1.1
N18030 X169.102 Y66.677 F56.
N18035 X169.134 Y66.641
N18040 X169.158 Y66.6
N18045 X169.2 Y66.508
N18050 X169.215 Y66.465
N18055 X169.222 Y66.421
N18060 X169.228 Y66.329
N18065 X169.229 Y66.311
N18070 Y64.551
N18075 X169.382
N18080 Y67.252
N18085 X163.025 Y67.251
N18090 X161.866 Y67.121
N18095 X161.366 Y66.939
N18100 X160.961 Y66.68
N18105 X160.647 Y66.327
N18110 X160.418 Y65.856
N18115 X160.298 Y65.35
N18120 X160.262 Y64.81
N18125 X160.403 Y63.79
N18130 X160.467 Y63.64
N18135 X160.578 Y63.387
N18140 X160.839 Y63.032
N18145 X161.179 Y62.743
N18150 X161.593 Y62.524
N18155 X162.093 Y62.39
N18160 X162.155 Y62.763
N18165 X161.909 Y62.817
N18170 X161.852 Y62.837
N18175 X161.165 Y63.178
N18180 X161.132 Y63.198
N18185 X161.103 Y63.222
N18190 X161.05 Y63.274
N18195 X161.027 Y63.299
N18200 X160.597 Y63.846
N18205 X160.575 Y63.878
N18210 X160.559 Y63.913
N18215 X160.524 Y64.006
N18220 X160.511 Y64.058
N18225 X160.41 Y64.766
N18230 X160.408 Y64.807
N18235 X160.412 Y64.848
N18240 X160.441 Y65.002
N18245 X160.444 Y65.016
N18250 X160.603 Y65.656
N18255 X160.615 Y65.692
N18260 X160.632 Y65.726
N18265 X160.676 Y65.798
N18270 X160.705 Y65.837
N18275 X161.203 Y66.38
N18280 X161.229 Y66.405
N18285 X161.26 Y66.426
N18290 X161.342 Y66.476
N18295 X161.381 Y66.494
N18300 X162.059 Y66.752
N18305 X162.099 Y66.763
N18310 X162.16 Y66.776
N18315 X162.188 Y66.78
N18320 X162.99 Y66.847
N18325 X163.011 Y66.848
N18330 X168.773 Y66.844
N18335 X168.819 Y66.84
N18340 X168.864 Y66.827
N18345 X168.957 Y66.79
N18350 X169. Y66.768
N18355 X169.037 Y66.739
N18360 X169.066 Y66.712
N18365 X169.086 Y66.697 Z-1.093 F50.
N18370 X169.109 Y66.688 Z-1.087
N18375 X169.145 Y66.685 Z-1.05
N18380 X169.159 Y66.688 Z-1.
N18385 G0 Z5.
N18390 X161.321 Y48.543
N18395 Z0.497
N18400 G1 X161.316 Z0.464 F50.
N18405 X161.301 Z0.436
N18410 X161.277 Z0.413
N18415 X161.247 Z0.4
N18420 X161.132 Z0.369
N18425 X161.092 Y48.547 Z0.358
N18430 X161.053 Y48.556 Z0.348
N18435 X160.973 Y48.582 Z0.325
N18440 X160.932 Y48.601 Z0.313
N18445 X160.894 Y48.626 Z0.301
N18450 X160.819 Y48.687 Z0.275
N18455 X160.784 Y48.722 Z0.262
N18460 X160.757 Y48.762 Z0.248
N18465 X160.71 Y48.849 Z0.222
N18470 X160.692 Y48.892 Z0.21
N18475 X160.682 Y48.937 Z0.197
N18480 X160.671 Y49.024 Z0.174
N18485 X160.669 Y49.055 Z0.165
N18490 Y50.877 Z-0.323
N18495 X160.408 Z-0.393
N18500 Y48.237 Z-1.1
N18505 Y45.79 F56.
N18510 X160.669
N18515 X160.671 Y47.655
N18520 X160.673 Y47.689
N18525 X160.68 Y47.723
N18530 X160.703 Y47.802
N18535 X160.718 Y47.842
N18540 X160.74 Y47.879
N18545 X160.792 Y47.952
N18550 X160.821 Y47.985
N18555 X160.855 Y48.013
N18560 X160.926 Y48.061
N18565 X160.962 Y48.081
N18570 X161.002 Y48.096
N18575 X161.08 Y48.117
N18580 X161.112 Y48.123
N18585 X161.145 Y48.125
N18590 X168.773 Y48.124
N18595 X168.815 Y48.12
N18600 X168.855 Y48.11
N18605 X168.948 Y48.078
N18610 X168.988 Y48.06
N18615 X169.025 Y48.034
N18620 X169.086 Y47.984
N18625 X169.113 Y47.958
N18630 X169.136 Y47.927
N18635 X169.176 Y47.866
N18640 X169.196 Y47.828
N18645 X169.209 Y47.788
N18650 X169.232 Y47.696
N18655 X169.239 Y47.637
N18660 Y45.79
N18665 X169.5
N18670 Y50.877
N18675 X169.238
N18680 X169.235 Y48.997
N18685 X169.231 Y48.953
N18690 X169.219 Y48.91
N18695 X169.187 Y48.823
N18700 X169.168 Y48.784
N18705 X169.142 Y48.748
N18710 X169.089 Y48.686
N18715 X169.06 Y48.657
N18720 X169.027 Y48.634
N18725 X168.959 Y48.593
N18730 X168.923 Y48.576
N18735 X168.884 Y48.564
N18740 X168.805 Y48.547
N18745 X168.752 Y48.541
N18750 X161.132 Y48.543
N18755 X161.092 Y48.547
N18760 X161.053 Y48.556
N18765 X160.973 Y48.582
N18770 X160.932 Y48.601
N18775 X160.894 Y48.626
N18780 X160.819 Y48.687
N18785 X160.784 Y48.722
N18790 X160.757 Y48.762
N18795 X160.71 Y48.849
N18800 X160.692 Y48.892
N18805 X160.682 Y48.937
N18810 X160.671 Y49.024
N18815 X160.669 Y49.055
N18820 Y50.877
N18825 X160.408
N18830 Y48.237
N18835 X160.411 Y48.212 Z-1.093 F50.
N18840 X160.42 Y48.189 Z-1.087
N18845 X160.443 Y48.161 Z-1.05
N18850 X160.454 Y48.153 Z-1.
N18855 G0 Z5.
N18860 X165.035 Y33.802
N18865 Z0.497
N18870 G1 X165.03 Y33.801 Z0.464 F50.
N18875 X165.016 Y33.795 Z0.436
N18880 X164.994 Y33.787 Z0.413
N18885 X164.966 Y33.777 Z0.4
N18890 X160.408 Y32.085 Z-0.903
N18895 Y31.349 Z-1.1
N18900 Y31.258 F56.
N18905 X169.382 Y27.923
N18910 Y28.368
N18915 X161.202 Y31.239
N18920 X161.171 Y31.252
N18925 X161.142 Y31.27
N18930 X161.08 Y31.313
N18935 X161.05 Y31.338
N18940 X161.024 Y31.367
N18945 X160.975 Y31.432
N18950 X160.952 Y31.47
N18955 X160.935 Y31.511
N18960 X160.907 Y31.603
N18965 X160.898 Y31.65
N18970 Y31.698
N18975 X160.906 Y31.79
N18980 X160.914 Y31.832
N18985 X160.929 Y31.873
N18990 X160.962 Y31.945
N18995 X160.984 Y31.982
N19000 X161.011 Y32.015
N19005 X161.077 Y32.081
N19010 X161.112 Y32.11
N19015 X161.152 Y32.133
N19020 X161.244 Y32.174
N19025 X161.265 Y32.183
N19030 X169.382 Y34.978
N19035 Y35.415
N19040 X160.408 Y32.085
N19045 Y31.675
N19050 Y31.349
N19055 X160.411 Y31.324 Z-1.093 F50.
N19060 X160.42 Y31.301 Z-1.087
N19065 X160.443 Y31.273 Z-1.05
N19070 X160.454 Y31.265 Z-1.
N19075 G0 Z5.
N19080 X146.873 Y34.504
N19085 Z0.497
N19090 G1 X146.882 Y34.505 Z0.454 F50.
N19095 X146.908 Y34.508 Z0.42
N19100 X146.927 Y34.51 Z0.408
N19105 X146.947 Y34.511 Z0.4
N19110 X148.326 Y34.602 Z0.03
N19115 X148.352 Z0.023
N19120 X149.523 Y34.558 Z-0.291
N19125 X149.54 Y34.556 Z-0.296
N19130 X149.663 Y34.543 Z-0.329
N19135 X149.685 Y34.54 Z-0.335
N19140 X150.671 Y34.344 Z-0.604
N19145 X150.707 Y34.334 Z-0.614
N19150 X150.937 Y34.252 Z-0.68
N19155 X150.956 Y34.245 Z-0.685
N19160 X151.337 Y34.073 Z-0.797
N19165 X151.369 Y34.055 Z-0.807
N19170 X151.497 Y33.973 Z-0.848
N19175 X151.516 Y33.96 Z-0.854
N19180 X151.854 Y33.695 Z-0.969
N19185 X151.885 Y33.666 Z-0.98
N19190 X151.968 Y33.576 Z-1.013
N19195 X151.997 Y33.536 Z-1.027
N19200 X152.139 Y33.301 Z-1.1
N19205 X152.279 Y33.067 F56.
N19210 X152.295 Y33.038
N19215 X152.306 Y33.006
N19220 X152.332 Y32.914
N19225 X152.338 Y32.888
N19230 X152.35 Y32.815
N19235 X152.735
N19240 X152.711 Y32.991
N19245 X152.435 Y33.6
N19250 X152.006 Y34.07
N19255 X151.647 Y34.297
N19260 X151.409 Y34.438
N19265 X150.709 Y34.69
N19270 X149.973 Y34.842
N19275 X148.252 Y34.951
N19280 X146.56 Y34.822
N19285 X145.822 Y34.665
N19290 X145.152 Y34.427
N19295 X144.546 Y34.067
N19300 X144.105 Y33.596
N19305 X144.019 Y33.419
N19310 X143.83 Y32.994
N19315 X143.807 Y32.815
N19320 X144.115
N19325 X144.155 Y32.958
N19330 X144.166 Y32.99
N19335 X144.181 Y33.02
N19340 X144.245 Y33.127
N19345 X144.258 Y33.146
N19350 X144.547 Y33.543
N19355 X144.571 Y33.57
N19360 X144.598 Y33.594
N19365 X145.017 Y33.914
N19370 X145.039 Y33.929
N19375 X145.132 Y33.984
N19380 X145.158 Y33.998
N19385 X145.631 Y34.21
N19390 X145.67 Y34.224
N19395 X145.875 Y34.278
N19400 X145.884 Y34.28
N19405 X146.87 Y34.503
N19410 X146.908 Y34.508
N19415 X148.326 Y34.602
N19420 X148.352
N19425 X149.523 Y34.558
N19430 X149.54 Y34.556
N19435 X149.663 Y34.543
N19440 X149.685 Y34.54
N19445 X150.671 Y34.344
N19450 X150.707 Y34.334
N19455 X150.937 Y34.252
N19460 X150.956 Y34.245
N19465 X151.337 Y34.073
N19470 X151.369 Y34.055
N19475 X151.497 Y33.973
N19480 X151.516 Y33.96
N19485 X151.854 Y33.695
N19490 X151.885 Y33.666
N19495 X151.968 Y33.576
N19500 X151.997 Y33.536
N19505 X152.139 Y33.301
N19510 X152.154 Y33.282 Z-1.093 F50.
N19515 X152.174 Y33.266 Z-1.087
N19520 X152.208 Y33.254 Z-1.05
N19525 X152.221 Y33.253 Z-1.
N19530 G0 Z5.
N19535 X145.196 Y29.333
N19540 Z0.497
N19545 G1 X145.193 Y29.335 Z0.471 F50.
N19550 X145.18 Y29.342 Z0.439
N19555 X145.158 Y29.353 Z0.415
N19560 X145.13 Y29.368 Z0.4
N19565 X145.022 Y29.425 Z0.367
N19570 X144.995 Y29.441 Z0.359
N19575 X144.647 Y29.684 Z0.245
N19580 X144.616 Y29.709 Z0.234
N19585 X144.509 Y29.812 Z0.194
N19590 X144.48 Y29.846 Z0.183
N19595 X144.2 Y30.235 Z0.054
N19600 X144.183 Y30.262 Z0.045
N19605 X144.169 Y30.292 Z0.037
N19610 X144.123 Y30.415 Z0.001
N19615 X144.113 Y30.449 Z-0.008
N19620 X144.098 Y30.514 Z-0.026
N19625 X143.808 Z-0.104
N19630 X143.832 Y30.325 Z-0.155
N19635 X144.083 Y29.747 Z-0.324
N19640 X144.396 Y29.396 Z-0.45
N19645 X144.532 Y29.256 Z-0.502
N19650 X144.851 Y29.054 Z-0.603
N19655 X145.12 Y28.899 Z-0.686
N19660 X145.763 Y28.667 Z-0.869
N19665 X146.236 Y28.558 Z-0.999
N19670 X146.525 Y28.504 Z-1.078
N19675 X146.606 Y28.499 Z-1.1
N19680 X148.279 Y28.386 F56.
N19685 X149.97 Y28.518
N19690 X150.707 Y28.681
N19695 X151.377 Y28.925
N19700 X151.963 Y29.282
N19705 X152.413 Y29.761
N19710 X152.696 Y30.363
N19715 X152.721 Y30.522
N19720 X152.328 Y30.528
N19725 X152.287 Y30.354
N19730 X152.275 Y30.315
N19735 X152.256 Y30.279
N19740 X152.199 Y30.187
N19745 X152.187 Y30.169
N19750 X151.898 Y29.782
N19755 X151.862 Y29.743
N19760 X151.774 Y29.666
N19765 X151.744 Y29.644
N19770 X151.289 Y29.35
N19775 X151.243 Y29.327
N19780 X150.713 Y29.122
N19785 X150.681 Y29.113
N19790 X150.518 Y29.074
N19795 X150.504 Y29.07
N19800 X149.681 Y28.923
N19805 X149.674 Y28.922
N19810 X149.427 Y28.885
N19815 X149.401 Y28.882
N19820 X148.313 Y28.837
N19825 X148.296 Y28.836
N19830 X147.904 Y28.847
N19835 X147.16 Y28.881
N19840 X147.151
N19845 X146.905 Y28.901
N19850 X146.882 Y28.904
N19855 X146.389 Y28.99
N19860 X146.383 Y28.991
N19865 X145.818 Y29.104
N19870 X145.793 Y29.11
N19875 X145.618 Y29.165
N19880 X145.6 Y29.171
N19885 X145.216 Y29.324
N19890 X145.193 Y29.335
