%
(LETTERPLAAT_11_11_TESTED)
(T1  D=1. CR=0. - ZMIN=-3. - FLAT END MILL)
N10 G90 G94 G17 G91.1
N15 G21
(POCKET1)
N20 T1 M6
N25 S2000 M3
N30 M8
N35 G54
N40 G0 X119.886 Y117.541
N45 G43 Z15. H1
N50 G0 Z3.
N55 G1 Z2.2 F333.33
N60 Y117.533 Z2.163
N65 Y117.513 Z2.131
N70 Y117.482 Z2.109
N75 Y117.445 Z2.1
N80 X119.883 Y115.782 Z2.025
N85 X119.879 Y115.738 Z2.023
N90 X119.867 Y115.695 Z2.02
N95 X119.837 Y115.615 Z2.017
N100 X119.817 Y115.574 Z2.015
N105 X119.79 Y115.537 Z2.012
N110 X119.726 Y115.465 Z2.008
N115 X119.693 Y115.435 Z2.006
N120 X119.656 Y115.41 Z2.004
N125 X119.583 Y115.372 Z2.
N130 X119.542 Y115.354 Z1.998
N135 X119.498 Y115.345 Z1.996
N140 X119.396 Y115.332 Z1.992
N145 X119.365 Y115.33 Z1.99
N150 X110.47 Y115.332 Z1.586
N155 X110.427 Y115.336 Z1.585
N160 X110.386 Y115.347 Z1.583
N165 X110.291 Y115.381 Z1.578
N170 X110.247 Y115.402 Z1.576
N175 X110.208 Y115.43 Z1.574
N180 X110.139 Y115.492 Z1.569
N185 X110.106 Y115.528 Z1.567
N190 X110.081 Y115.57 Z1.565
N195 X110.036 Y115.662 Z1.56
N200 X110.02 Y115.706 Z1.558
N205 X110.013 Y115.751 Z1.556
N210 X110.005 Y115.843 Z1.552
N215 Y115.863 Z1.551
N220 Y118.071 Z1.451
N225 X109.524 Z1.429
N230 Y111.929 Z1.15
N235 X110.005 Z1.128
N240 X110.006 Y114.199 Z1.025
N245 X110.009 Y114.237 Z1.024
N250 X110.018 Y114.275 Z1.022
N255 X110.048 Y114.368 Z1.017
N260 X110.066 Y114.41 Z1.015
N265 X110.091 Y114.448 Z1.013
N270 X110.146 Y114.516 Z1.009
N275 X110.174 Y114.546 Z1.007
N280 X110.208 Y114.57 Z1.006
N285 X110.274 Y114.612 Z1.002
N290 X110.313 Y114.632 Z1.
N295 X110.355 Y114.645 Z0.998
N300 X110.449 Y114.665 Z0.994
N305 X110.501 Y114.67 Z0.991
N310 X119.416 Y114.669 Z0.587
N315 X119.45 Y114.666 Z0.585
N320 X119.483 Y114.659 Z0.584
N325 X119.559 Y114.638 Z0.58
N330 X119.598 Y114.624 Z0.578
N335 X119.633 Y114.604 Z0.576
N340 X119.702 Y114.557 Z0.573
N345 X119.737 Y114.528 Z0.571
N350 X119.766 Y114.493 Z0.568
N355 X119.822 Y114.413 Z0.564
N360 X119.844 Y114.374 Z0.562
N365 X119.859 Y114.331 Z0.56
N370 X119.879 Y114.252 Z0.556
N375 X119.887 Y114.191 Z0.553
N380 Y111.929 Z0.451
N385 X120.368 Z0.429
N390 Y118.071 Z0.15
N395 X119.887 Z0.128
N400 X119.883 Y115.782 Z0.025
N405 X119.879 Y115.738 Z0.023
N410 X119.867 Y115.695 Z0.02
N415 X119.837 Y115.615 Z0.017
N420 X119.817 Y115.574 Z0.015
N425 X119.79 Y115.537 Z0.012
N430 X119.726 Y115.465 Z0.008
N435 X119.693 Y115.435 Z0.006
N440 X119.656 Y115.41 Z0.004
N445 X119.583 Y115.372 Z0.
N450 X119.542 Y115.354 Z-0.002
N455 X119.498 Y115.345 Z-0.004
N460 X119.396 Y115.332 Z-0.008
N465 X119.365 Y115.33 Z-0.01
N470 X110.47 Y115.332 Z-0.414
N475 X110.427 Y115.336 Z-0.415
N480 X110.386 Y115.347 Z-0.417
N485 X110.291 Y115.381 Z-0.422
N490 X110.247 Y115.402 Z-0.424
N495 X110.208 Y115.43 Z-0.426
N500 X110.139 Y115.492 Z-0.431
N505 X110.106 Y115.528 Z-0.433
N510 X110.081 Y115.57 Z-0.435
N515 X110.036 Y115.662 Z-0.44
N520 X110.02 Y115.706 Z-0.442
N525 X110.013 Y115.751 Z-0.444
N530 X110.005 Y115.843 Z-0.448
N535 Y115.863 Z-0.449
N540 Y118.071 Z-0.549
N545 X109.524 Z-0.571
N550 Y111.929 Z-0.85
N555 X110.005 Z-0.872
N560 X110.006 Y114.199 Z-0.975
N565 X110.009 Y114.237 Z-0.976
N570 X110.018 Y114.275 Z-0.978
N575 X110.048 Y114.368 Z-0.983
N580 X110.066 Y114.41 Z-0.985
N585 X110.091 Y114.448 Z-0.987
N590 X110.146 Y114.516 Z-0.991
N595 X110.174 Y114.546 Z-0.993
N600 X110.208 Y114.57 Z-0.994
N605 X110.274 Y114.612 Z-0.998
N610 X110.313 Y114.632 Z-1.
N615 X110.355 Y114.645 Z-1.002
N620 X110.449 Y114.665 Z-1.006
N625 X110.501 Y114.67 Z-1.009
N630 X119.416 Y114.669 Z-1.413
N635 X119.45 Y114.666 Z-1.415
N640 X119.483 Y114.659 Z-1.416
N645 X119.559 Y114.638 Z-1.42
N650 X119.598 Y114.624 Z-1.422
N655 X119.633 Y114.604 Z-1.424
N660 X119.702 Y114.557 Z-1.427
N665 X119.737 Y114.528 Z-1.429
N670 X119.766 Y114.493 Z-1.432
N675 X119.822 Y114.413 Z-1.436
N680 X119.844 Y114.374 Z-1.438
N685 X119.859 Y114.331 Z-1.44
N690 X119.879 Y114.252 Z-1.444
N695 X119.887 Y114.191 Z-1.447
N700 Y111.929 Z-1.549
N705 X120.368 Z-1.571
N710 Y118.071 Z-1.85
N715 X119.887 Z-1.872
N720 X119.883 Y115.782 Z-1.975
N725 X119.879 Y115.738 Z-1.977
N730 X119.867 Y115.695 Z-1.98
N735 X119.837 Y115.615 Z-1.983
N740 X119.817 Y115.574 Z-1.985
N745 X119.79 Y115.537 Z-1.988
N750 X119.726 Y115.465 Z-1.992
N755 X119.693 Y115.435 Z-1.994
N760 X119.656 Y115.41 Z-1.996
N765 X119.583 Y115.372 Z-2.
N770 X119.577 Y115.369
N775 X119.539 Y115.353 F400.
N780 X119.498 Y115.345
N785 X119.396 Y115.332
N790 X119.365 Y115.33
N795 X110.47 Y115.332
N800 X110.427 Y115.336
N805 X110.386 Y115.347
N810 X110.291 Y115.381
N815 X110.247 Y115.402
N820 X110.208 Y115.43
N825 X110.139 Y115.492
N830 X110.106 Y115.528
N835 X110.081 Y115.57
N840 X110.036 Y115.662
N845 X110.02 Y115.706
N850 X110.013 Y115.751
N855 X110.005 Y115.843
N860 Y115.863
N865 Y118.071
N870 X109.524
N875 Y111.929
N880 X110.005
N885 X110.006 Y114.199
N890 X110.009 Y114.237
N895 X110.018 Y114.275
N900 X110.048 Y114.368
N905 X110.066 Y114.41
N910 X110.091 Y114.448
N915 X110.146 Y114.516
N920 X110.174 Y114.546
N925 X110.208 Y114.57
N930 X110.274 Y114.612
N935 X110.313 Y114.632
N940 X110.355 Y114.645
N945 X110.449 Y114.665
N950 X110.501 Y114.67
N955 X119.416 Y114.669
N960 X119.45 Y114.666
N965 X119.483 Y114.659
N970 X119.559 Y114.638
N975 X119.598 Y114.624
N980 X119.633 Y114.604
N985 X119.702 Y114.557
N990 X119.737 Y114.528
N995 X119.766 Y114.493
N1000 X119.822 Y114.413
N1005 X119.844 Y114.374
N1010 X119.859 Y114.331
N1015 X119.879 Y114.252
N1020 X119.887 Y114.191
N1025 Y111.929
N1030 X120.368
N1035 Y118.071
N1040 X119.887
N1045 X119.883 Y115.782
N1050 X119.879 Y115.738
N1055 X119.867 Y115.695
N1060 X119.837 Y115.615
N1065 X119.817 Y115.574
N1070 X119.79 Y115.537
N1075 X119.726 Y115.465
N1080 X119.693 Y115.435
N1085 X119.656 Y115.41
N1090 X119.583 Y115.372
N1095 X119.577 Y115.369
N1100 X119.558 Y115.351
N1105 X119.55 Y115.326
N1110 X119.556 Y115.3
N1115 X119.574 Y115.281
N1120 X119.6 Y115.274
N1125 X119.986 Y115.275
N1130 X120.006 Y115.279
N1135 X120.022 Y115.29
N1140 X120.033 Y115.307
N1145 X120.041 Y115.346
N1150 X120.127 Y117.409
N1155 X120.132 Y117.43
N1160 X120.146 Y117.448
N1165 X120.349 Y117.61
N1170 X120.363 Y117.628
N1175 X120.368 Y117.649
N1180 Y118.071 Z-2.113 F333.33
N1185 X119.887 Z-2.242
N1190 X119.883 Y115.782 Z-2.855
N1195 X119.879 Y115.738 Z-2.867
N1200 X119.867 Y115.695 Z-2.879
N1205 X119.837 Y115.615 Z-2.902
N1210 X119.817 Y115.574 Z-2.914
N1215 X119.79 Y115.537 Z-2.926
N1220 X119.726 Y115.465 Z-2.952
N1225 X119.693 Y115.435 Z-2.964
N1230 X119.656 Y115.41 Z-2.976
N1235 X119.583 Y115.372 Z-2.998
N1240 X119.577 Y115.369 Z-3.
N1245 X119.539 Y115.353 F400.
N1250 X119.498 Y115.345
N1255 X119.396 Y115.332
N1260 X119.365 Y115.33
N1265 X110.47 Y115.332
N1270 X110.427 Y115.336
N1275 X110.386 Y115.347
N1280 X110.291 Y115.381
N1285 X110.247 Y115.402
N1290 X110.208 Y115.43
N1295 X110.139 Y115.492
N1300 X110.106 Y115.528
N1305 X110.081 Y115.57
N1310 X110.036 Y115.662
N1315 X110.02 Y115.706
N1320 X110.013 Y115.751
N1325 X110.005 Y115.843
N1330 Y115.863
N1335 Y118.071
N1340 X109.524
N1345 Y111.929
N1350 X110.005
N1355 X110.006 Y114.199
N1360 X110.009 Y114.237
N1365 X110.018 Y114.275
N1370 X110.048 Y114.368
N1375 X110.066 Y114.41
N1380 X110.091 Y114.448
N1385 X110.146 Y114.516
N1390 X110.174 Y114.546
N1395 X110.208 Y114.57
N1400 X110.274 Y114.612
N1405 X110.313 Y114.632
N1410 X110.355 Y114.645
N1415 X110.449 Y114.665
N1420 X110.501 Y114.67
N1425 X119.416 Y114.669
N1430 X119.45 Y114.666
N1435 X119.483 Y114.659
N1440 X119.559 Y114.638
N1445 X119.598 Y114.624
N1450 X119.633 Y114.604
N1455 X119.702 Y114.557
N1460 X119.737 Y114.528
N1465 X119.766 Y114.493
N1470 X119.822 Y114.413
N1475 X119.844 Y114.374
N1480 X119.859 Y114.331
N1485 X119.879 Y114.252
N1490 X119.887 Y114.191
N1495 Y111.929
N1500 X120.368
N1505 Y118.071
N1510 X119.887
N1515 X119.883 Y115.782
N1520 X119.879 Y115.738
N1525 X119.867 Y115.695
N1530 X119.837 Y115.615
N1535 X119.817 Y115.574
N1540 X119.79 Y115.537
N1545 X119.726 Y115.465
N1550 X119.693 Y115.435
N1555 X119.656 Y115.41
N1560 X119.583 Y115.372
N1565 X119.577 Y115.369
N1570 X119.557 Y115.355 Z-2.993 F1000.
N1575 X119.54 Y115.337 Z-2.987
N1580 X119.525 Y115.303 Z-2.95
N1585 X119.522 Y115.29 Z-2.9
N1590 G0 Z5.
N1595 X115.269 Y128.272
N1600 Z2.197
N1605 G1 X115.278 Y128.271 Z2.154 F333.33
N1610 X115.304 Y128.27 Z2.12
N1615 X115.343 Y128.271 Z2.1
N1620 G3 X115.285 Y129.219 Z1.7 I-0.029 J0.474
N1625 X115.343 Y128.271 Z1.3 I0.029 J-0.474
N1630 X115.285 Y129.219 Z0.9 I-0.029 J0.474
N1635 X115.343 Y128.271 Z0.501 I0.029 J-0.474
N1640 X115.285 Y129.219 Z0.101 I-0.029 J0.474
N1645 X115.343 Y128.271 Z-0.299 I0.029 J-0.474
N1650 X115.285 Y129.219 Z-0.699 I-0.029 J0.474
N1655 X115.343 Y128.271 Z-1.099 I0.029 J-0.474
N1660 X115.285 Y129.219 Z-1.499 I-0.029 J0.474
N1665 X115.343 Y128.271 Z-1.898 I0.029 J-0.474
N1670 X115.673 Y128.434 Z-2. I-0.029 J0.474
N1675 X115.639 Y128.881 I-0.241 J0.206
N1680 X115.192 Y128.847 I-0.206 J-0.241
N1685 G1 X115.162 Y128.814 F400.
N1690 X115.138 Y128.776
N1695 X115.127 Y128.733
N1700 X115.13 Y128.688
N1705 X115.148 Y128.647
N1710 X115.178 Y128.615
N1715 X115.217 Y128.593
N1720 X115.261 Y128.586
N1725 X115.38
N1730 X115.424 Y128.594
N1735 X115.464 Y128.616
N1740 X115.493 Y128.65
N1745 X115.509 Y128.692
N1750 X115.51 Y128.737
N1755 X115.496 Y128.78
N1760 X115.468 Y128.815
N1765 X115.41 Y128.877
N1770 X115.377 Y128.905
N1775 X115.337 Y128.92
N1780 X115.295 Y128.921
N1785 X115.255 Y128.907
N1790 X115.221 Y128.88
N1795 X115.192 Y128.847
N1800 G2 X114.827 Y128.799 I-0.209 J0.181
N1805 G3 X114.476 Y128.909 I-0.352 J-0.513
N1810 G1 X110.47 Y128.911
N1815 X110.429 Y128.914
N1820 X110.39 Y128.924
N1825 X110.301 Y128.954
N1830 X110.256 Y128.974
N1835 X110.217 Y129.003
N1840 X110.142 Y129.068
N1845 X110.111 Y129.101
N1850 X110.086 Y129.139
N1855 X110.047 Y129.212
N1860 X110.03 Y129.252
N1865 X110.02 Y129.295
N1870 X110.007 Y129.387
N1875 X110.005 Y129.422
N1880 Y135.576
N1885 X109.524
N1890 Y128.249
N1895 X120.368
N1900 Y135.224
N1905 X119.887
N1910 X119.885 Y129.373
N1915 X119.882 Y129.337
N1920 X119.874 Y129.301
N1925 X119.852 Y129.229
N1930 X119.837 Y129.19
N1935 X119.816 Y129.155
N1940 X119.763 Y129.082
N1945 X119.732 Y129.046
N1950 X119.695 Y129.017
N1955 X119.611 Y128.964
N1960 X119.571 Y128.943
N1965 X119.527 Y128.93
N1970 X119.445 Y128.914
N1975 X119.396 Y128.909
N1980 X116.02 Y128.911
N1985 X115.981 Y128.914
N1990 X115.943 Y128.923
N1995 X115.864 Y128.949
N2000 X115.821 Y128.967
N2005 X115.783 Y128.993
N2010 X115.705 Y129.056
N2015 X115.67 Y129.091
N2020 X115.642 Y129.133
N2025 X115.597 Y129.218
N2030 X115.579 Y129.26
N2035 X115.569 Y129.305
N2040 X115.558 Y129.391
N2045 X115.556 Y129.422
N2050 Y134.703
N2055 X115.076
N2060 X115.071 Y129.36
N2065 X115.067 Y129.314
N2070 X115.054 Y129.269
N2075 X115.021 Y129.186
N2080 X115.002 Y129.147
N2085 X114.976 Y129.112
N2090 X114.921 Y129.049
N2095 X114.888 Y129.018
N2100 X114.85 Y128.993
N2105 X114.765 Y128.948
N2110 X114.724 Y128.931
N2115 X114.681 Y128.921
N2120 X114.602 Y128.911
N2125 X114.568 Y128.908
N2130 X114.476 Y128.909
N2135 X114.439 Y128.902
N2140 X114.408 Y128.882
N2145 X114.385 Y128.852
N2150 X114.376 Y128.816
N2155 X114.38 Y128.779
N2160 X114.397 Y128.746
N2165 X114.425 Y128.722
N2170 X115.002 Y128.386
N2175 G3 X115.626 Y129.103 Z-2.4 I0.312 J0.358 F333.33
N2180 X115.002 Y128.386 Z-2.8 I-0.312 J-0.358
N2185 X115.673 Y128.434 Z-3. I0.312 J0.358
N2190 X115.639 Y128.881 I-0.241 J0.206
N2195 X115.192 Y128.847 I-0.206 J-0.241
N2200 G1 X115.162 Y128.814 F400.
N2205 X115.138 Y128.776
N2210 X115.127 Y128.733
N2215 X115.13 Y128.688
N2220 X115.148 Y128.647
N2225 X115.178 Y128.615
N2230 X115.217 Y128.593
N2235 X115.261 Y128.586
N2240 X115.38
N2245 X115.424 Y128.594
N2250 X115.464 Y128.616
N2255 X115.493 Y128.65
N2260 X115.509 Y128.692
N2265 X115.51 Y128.737
N2270 X115.496 Y128.78
N2275 X115.468 Y128.815
N2280 X115.41 Y128.877
N2285 X115.377 Y128.905
N2290 X115.337 Y128.92
N2295 X115.295 Y128.921
N2300 X115.255 Y128.907
N2305 X115.221 Y128.88
N2310 X115.192 Y128.847
N2315 G2 X114.827 Y128.799 I-0.209 J0.181
N2320 G3 X114.476 Y128.909 I-0.352 J-0.513
N2325 G1 X110.47 Y128.911
N2330 X110.429 Y128.914
N2335 X110.39 Y128.924
N2340 X110.301 Y128.954
N2345 X110.256 Y128.974
N2350 X110.217 Y129.003
N2355 X110.142 Y129.068
N2360 X110.111 Y129.101
N2365 X110.086 Y129.139
N2370 X110.047 Y129.212
N2375 X110.03 Y129.252
N2380 X110.02 Y129.295
N2385 X110.007 Y129.387
N2390 X110.005 Y129.422
N2395 Y135.576
N2400 X109.524
N2405 Y128.249
N2410 X120.368
N2415 Y135.224
N2420 X119.887
N2425 X119.885 Y129.373
N2430 X119.882 Y129.337
N2435 X119.874 Y129.301
N2440 X119.852 Y129.229
N2445 X119.837 Y129.19
N2450 X119.816 Y129.155
N2455 X119.763 Y129.082
N2460 X119.732 Y129.046
N2465 X119.695 Y129.017
N2470 X119.611 Y128.964
N2475 X119.571 Y128.943
N2480 X119.527 Y128.93
N2485 X119.445 Y128.914
N2490 X119.396 Y128.909
N2495 X116.02 Y128.911
N2500 X115.981 Y128.914
N2505 X115.943 Y128.923
N2510 X115.864 Y128.949
N2515 X115.821 Y128.967
N2520 X115.783 Y128.993
N2525 X115.705 Y129.056
N2530 X115.67 Y129.091
N2535 X115.642 Y129.133
N2540 X115.597 Y129.218
N2545 X115.579 Y129.26
N2550 X115.569 Y129.305
N2555 X115.558 Y129.391
N2560 X115.556 Y129.422
N2565 Y134.703
N2570 X115.076
N2575 X115.071 Y129.36
N2580 X115.067 Y129.314
N2585 X115.054 Y129.269
N2590 X115.021 Y129.186
N2595 X115.002 Y129.147
N2600 X114.976 Y129.112
N2605 X114.921 Y129.049
N2610 X114.888 Y129.018
N2615 X114.85 Y128.993
N2620 X114.765 Y128.948
N2625 X114.724 Y128.931
N2630 X114.681 Y128.921
N2635 X114.602 Y128.911
N2640 X114.568 Y128.908
N2645 X114.476 Y128.909
N2650 X114.451 Y128.905 Z-2.993 F1000.
N2655 X114.428 Y128.896 Z-2.987
N2660 X114.399 Y128.873 Z-2.95
N2665 X114.391 Y128.863 Z-2.9
N2670 G0 Z5.
N2675 X129.505 Y132.074
N2680 Z2.2
N2685 G1 Y132.067 Z2.163 F333.33
N2690 Y132.046 Z2.131
N2695 Y132.015 Z2.109
N2700 Y131.978 Z2.1
N2705 Y131.936 Z2.098
N2710 X129.8 Y132.038 Z2.086
N2715 X129.803 Y133.736 Z2.022
N2720 X129.808 Y133.782 Z2.02
N2725 X129.82 Y133.826 Z2.018
N2730 X129.856 Y133.918 Z2.014
N2735 X129.879 Y133.964 Z2.012
N2740 X129.911 Y134.003 Z2.01
N2745 X129.983 Y134.077 Z2.006
N2750 X130.022 Y134.109 Z2.004
N2755 X130.067 Y134.133 Z2.003
N2760 X130.159 Y134.171 Z1.999
N2765 X130.206 Y134.185 Z1.997
N2770 X130.254 Y134.189 Z1.995
N2775 X130.346 Z1.991
N2780 X130.387 Y134.186 Z1.99
N2785 X130.428 Y134.176 Z1.988
N2790 X135.665 Y132.369 Z1.776
N2795 X136.348 Y132.142 Z1.749
N2800 X136.386 Y132.126 Z1.747
N2805 X136.421 Y132.103 Z1.746
N2810 X136.476 Y132.061 Z1.743
N2815 X136.507 Y132.033 Z1.741
N2820 X136.534 Y132. Z1.74
N2825 X136.588 Y131.916 Z1.736
N2830 X136.61 Y131.875 Z1.734
N2835 X136.624 Y131.831 Z1.732
N2840 X136.641 Y131.747 Z1.729
N2845 X136.646 Y131.704 Z1.728
N2850 X136.644 Y131.66 Z1.726
N2855 X136.631 Y131.573 Z1.722
N2860 X136.622 Y131.533 Z1.721
N2865 X136.607 Y131.496 Z1.719
N2870 X136.575 Y131.431 Z1.717
N2875 X136.555 Y131.398 Z1.715
N2880 X136.53 Y131.368 Z1.714
N2885 X136.472 Y131.309 Z1.71
N2890 X136.437 Y131.28 Z1.709
N2895 X136.398 Y131.258 Z1.707
N2900 X136.305 Y131.215 Z1.703
N2905 X136.276 Y131.204 Z1.702
N2910 X135.169 Y130.855 Z1.658
N2915 X133.94 Y130.447 Z1.608
N2920 X126.191 Y127.691 Z1.294
N2925 Y127.067 Z1.27
N2930 X136.896 Y131.113 Z0.832
N2935 Y132.305 Z0.786
N2940 X126.191 Y136.277 Z0.35
N2945 Y135.664 Z0.326
N2950 X129.216 Y134.567 Z0.203
N2955 X129.256 Y134.548 Z0.202
N2960 X129.293 Y134.522 Z0.2
N2965 X129.36 Y134.465 Z0.197
N2970 X129.39 Y134.434 Z0.195
N2975 X129.415 Y134.399 Z0.193
N2980 X129.456 Y134.326 Z0.19
N2985 X129.475 Y134.285 Z0.188
N2990 X129.486 Y134.241 Z0.187
N2995 X129.501 Y134.145 Z0.183
N3000 X129.505 Y134.106 Z0.181
N3005 Y131.936 Z0.098
N3010 X129.8 Y132.038 Z0.086
N3015 X129.803 Y133.736 Z0.022
N3020 X129.808 Y133.782 Z0.02
N3025 X129.82 Y133.826 Z0.018
N3030 X129.856 Y133.918 Z0.014
N3035 X129.879 Y133.964 Z0.012
N3040 X129.911 Y134.003 Z0.01
N3045 X129.983 Y134.077 Z0.006
N3050 X130.022 Y134.109 Z0.004
N3055 X130.067 Y134.133 Z0.003
N3060 X130.159 Y134.171 Z-0.001
N3065 X130.206 Y134.185 Z-0.003
N3070 X130.254 Y134.189 Z-0.005
N3075 X130.346 Z-0.009
N3080 X130.387 Y134.186 Z-0.01
N3085 X130.428 Y134.176 Z-0.012
N3090 X135.665 Y132.369 Z-0.224
N3095 X136.348 Y132.142 Z-0.251
N3100 X136.386 Y132.126 Z-0.253
N3105 X136.421 Y132.103 Z-0.254
N3110 X136.476 Y132.061 Z-0.257
N3115 X136.507 Y132.033 Z-0.259
N3120 X136.534 Y132. Z-0.26
N3125 X136.588 Y131.916 Z-0.264
N3130 X136.61 Y131.875 Z-0.266
N3135 X136.624 Y131.831 Z-0.268
N3140 X136.641 Y131.747 Z-0.271
N3145 X136.646 Y131.704 Z-0.272
N3150 X136.644 Y131.66 Z-0.274
N3155 X136.631 Y131.573 Z-0.278
N3160 X136.622 Y131.533 Z-0.279
N3165 X136.607 Y131.496 Z-0.281
N3170 X136.575 Y131.431 Z-0.283
N3175 X136.555 Y131.398 Z-0.285
N3180 X136.53 Y131.368 Z-0.286
N3185 X136.472 Y131.309 Z-0.29
N3190 X136.437 Y131.28 Z-0.291
N3195 X136.398 Y131.258 Z-0.293
N3200 X136.305 Y131.215 Z-0.297
N3205 X136.276 Y131.204 Z-0.298
N3210 X135.169 Y130.855 Z-0.342
N3215 X133.94 Y130.447 Z-0.392
N3220 X126.191 Y127.691 Z-0.706
N3225 Y127.067 Z-0.73
N3230 X136.896 Y131.113 Z-1.168
N3235 Y132.305 Z-1.214
N3240 X126.191 Y136.277 Z-1.65
N3245 Y135.664 Z-1.674
N3250 X129.216 Y134.567 Z-1.797
N3255 X129.256 Y134.548 Z-1.798
N3260 X129.293 Y134.522 Z-1.8
N3265 X129.36 Y134.465 Z-1.803
N3270 X129.39 Y134.434 Z-1.805
N3275 X129.415 Y134.399 Z-1.807
N3280 X129.456 Y134.326 Z-1.81
N3285 X129.475 Y134.285 Z-1.812
N3290 X129.486 Y134.241 Z-1.813
N3295 X129.501 Y134.145 Z-1.817
N3300 X129.505 Y134.106 Z-1.819
N3305 Y131.936 Z-1.902
N3310 X129.8 Y132.038 Z-1.914
N3315 X129.803 Y133.736 Z-1.978
N3320 X129.808 Y133.782 Z-1.98
N3325 X129.82 Y133.826 Z-1.982
N3330 X129.856 Y133.918 Z-1.986
N3335 X129.879 Y133.964 Z-1.988
N3340 X129.911 Y134.003 Z-1.99
N3345 X129.983 Y134.077 Z-1.994
N3350 X130.022 Y134.109 Z-1.996
N3355 X130.067 Y134.133 Z-1.997
N3360 X130.128 Y134.158 Z-2.
N3365 X130.159 Y134.171 F400.
N3370 X130.206 Y134.185
N3375 X130.254 Y134.189
N3380 X130.346
N3385 X130.387 Y134.186
N3390 X130.428 Y134.176
N3395 X135.665 Y132.369
N3400 X136.348 Y132.142
N3405 X136.386 Y132.126
N3410 X136.421 Y132.103
N3415 X136.476 Y132.061
N3420 X136.507 Y132.033
N3425 X136.534 Y132.
N3430 X136.588 Y131.916
N3435 X136.61 Y131.875
N3440 X136.624 Y131.831
N3445 X136.641 Y131.747
N3450 X136.646 Y131.704
N3455 X136.644 Y131.66
N3460 X136.631 Y131.573
N3465 X136.622 Y131.533
N3470 X136.607 Y131.496
N3475 X136.575 Y131.431
N3480 X136.555 Y131.398
N3485 X136.53 Y131.368
N3490 X136.472 Y131.309
N3495 X136.437 Y131.28
N3500 X136.398 Y131.258
N3505 X136.305 Y131.215
N3510 X136.276 Y131.204
N3515 X135.169 Y130.855
N3520 X133.94 Y130.447
N3525 X126.191 Y127.691
N3530 Y127.067
N3535 X136.896 Y131.113
N3540 Y132.305
N3545 X126.191 Y136.277
N3550 Y135.664
N3555 X129.216 Y134.567
N3560 X129.256 Y134.548
N3565 X129.293 Y134.522
N3570 X129.36 Y134.465
N3575 X129.39 Y134.434
N3580 X129.415 Y134.399
N3585 X129.456 Y134.326
N3590 X129.475 Y134.285
N3595 X129.486 Y134.241
N3600 X129.501 Y134.145
N3605 X129.505 Y134.106
N3610 Y131.936
N3615 X129.8 Y132.038
N3620 X129.803 Y133.736
N3625 X129.808 Y133.782
N3630 X129.82 Y133.826
N3635 X129.856 Y133.918
N3640 X129.879 Y133.964
N3645 X129.911 Y134.003
N3650 X129.983 Y134.077
N3655 X130.022 Y134.109
N3660 X130.067 Y134.133
N3665 X130.128 Y134.158
N3670 X130.149 Y134.175
N3675 X130.158 Y134.2
N3680 X130.153 Y134.227
N3685 X130.135 Y134.247
N3690 X130.109 Y134.254
N3695 X129.804 Y134.257
N3700 X129.784 Y134.253
N3705 X129.767 Y134.241
N3710 X129.756 Y134.222
N3715 X129.654 Y133.244
N3720 X129.647 Y133.22
N3725 X129.63 Y133.202
N3730 X129.528 Y133.137
N3735 X129.511 Y133.119
N3740 X129.505 Y133.095
N3745 Y131.936 Z-2.31 F333.33
N3750 X129.8 Y132.038 Z-2.394
N3755 X129.803 Y133.736 Z-2.849
N3760 X129.808 Y133.782 Z-2.861
N3765 X129.82 Y133.826 Z-2.874
N3770 X129.856 Y133.918 Z-2.9
N3775 X129.879 Y133.964 Z-2.914
N3780 X129.911 Y134.003 Z-2.928
N3785 X129.983 Y134.077 Z-2.955
N3790 X130.022 Y134.109 Z-2.969
N3795 X130.067 Y134.133 Z-2.982
N3800 X130.128 Y134.158 Z-3.
N3805 X130.159 Y134.171 F400.
N3810 X130.206 Y134.185
N3815 X130.254 Y134.189
N3820 X130.346
N3825 X130.387 Y134.186
N3830 X130.428 Y134.176
N3835 X135.665 Y132.369
N3840 X136.348 Y132.142
N3845 X136.386 Y132.126
N3850 X136.421 Y132.103
N3855 X136.476 Y132.061
N3860 X136.507 Y132.033
N3865 X136.534 Y132.
N3870 X136.588 Y131.916
N3875 X136.61 Y131.875
N3880 X136.624 Y131.831
N3885 X136.641 Y131.747
N3890 X136.646 Y131.704
N3895 X136.644 Y131.66
N3900 X136.631 Y131.573
N3905 X136.622 Y131.533
N3910 X136.607 Y131.496
N3915 X136.575 Y131.431
N3920 X136.555 Y131.398
N3925 X136.53 Y131.368
N3930 X136.472 Y131.309
N3935 X136.437 Y131.28
N3940 X136.398 Y131.258
N3945 X136.305 Y131.215
N3950 X136.276 Y131.204
N3955 X135.169 Y130.855
N3960 X133.94 Y130.447
N3965 X126.191 Y127.691
N3970 Y127.067
N3975 X136.896 Y131.113
N3980 Y132.305
N3985 X126.191 Y136.277
N3990 Y135.664
N3995 X129.216 Y134.567
N4000 X129.256 Y134.548
N4005 X129.293 Y134.522
N4010 X129.36 Y134.465
N4015 X129.39 Y134.434
N4020 X129.415 Y134.399
N4025 X129.456 Y134.326
N4030 X129.475 Y134.285
N4035 X129.486 Y134.241
N4040 X129.501 Y134.145
N4045 X129.505 Y134.106
N4050 Y131.936
N4055 X129.8 Y132.038
N4060 X129.803 Y133.736
N4065 X129.808 Y133.782
N4070 X129.82 Y133.826
N4075 X129.856 Y133.918
N4080 X129.879 Y133.964
N4085 X129.911 Y134.003
N4090 X129.983 Y134.077
N4095 X130.022 Y134.109
N4100 X130.067 Y134.133
N4105 X130.128 Y134.158
N4110 X130.149 Y134.17 Z-2.993 F1000.
N4115 X130.167 Y134.187 Z-2.987
N4120 X130.185 Y134.219 Z-2.95
N4125 X130.188 Y134.232 Z-2.9
N4130 G0 Z5.
N4135 X132.439 Y117.292
N4140 Z2.2
N4145 G1 X132.432 Y117.295 Z2.163 F333.33
N4150 X132.412 Y117.302 Z2.131
N4155 X132.383 Y117.313 Z2.109
N4160 X132.348 Y117.326 Z2.1
N4165 X126.191 Y119.61 Z1.849
N4170 X126.192 Y118.997 Z1.825
N4175 X129.199 Y117.909 Z1.703
N4180 X129.234 Y117.893 Z1.702
N4185 X129.267 Y117.872 Z1.7
N4190 X129.349 Y117.808 Z1.696
N4195 X129.386 Y117.773 Z1.694
N4200 X129.414 Y117.732 Z1.692
N4205 X129.461 Y117.648 Z1.689
N4210 X129.477 Y117.612 Z1.687
N4215 X129.488 Y117.574 Z1.686
N4220 X129.499 Y117.512 Z1.683
N4225 X129.504 Y117.465 Z1.681
N4230 Y115.27 Z1.597
N4235 X129.8 Y115.371 Z1.585
N4240 X129.803 Y117.065 Z1.521
N4245 X129.806 Y117.106 Z1.519
N4250 X129.816 Y117.145 Z1.518
N4255 X129.844 Y117.228 Z1.514
N4260 X129.863 Y117.27 Z1.513
N4265 X129.888 Y117.307 Z1.511
N4270 X129.948 Y117.379 Z1.507
N4275 X129.981 Y117.412 Z1.505
N4280 X130.02 Y117.439 Z1.504
N4285 X130.102 Y117.484 Z1.5
N4290 X130.146 Y117.503 Z1.498
N4295 X130.191 Y117.513 Z1.496
N4300 X130.284 Y117.525 Z1.493
N4305 X130.329 Y117.526 Z1.491
N4310 X130.374 Y117.52 Z1.489
N4315 X130.466 Y117.497 Z1.486
N4320 X130.49 Y117.49 Z1.485
N4325 X135.418 Y115.783 Z1.285
N4330 X136.341 Y115.479 Z1.248
N4335 X136.383 Y115.461 Z1.246
N4340 X136.421 Y115.435 Z1.245
N4345 X136.499 Y115.371 Z1.241
N4350 X136.534 Y115.336 Z1.239
N4355 X136.562 Y115.295 Z1.237
N4360 X136.607 Y115.21 Z1.233
N4365 X136.625 Y115.165 Z1.232
N4370 X136.635 Y115.119 Z1.23
N4375 X136.644 Y115.026 Z1.226
N4380 X136.645 Y114.979 Z1.224
N4385 X136.636 Y114.932 Z1.222
N4390 X136.61 Y114.84 Z1.219
N4395 X136.595 Y114.799 Z1.217
N4400 X136.573 Y114.762 Z1.215
N4405 X136.527 Y114.698 Z1.213
N4410 X136.502 Y114.669 Z1.211
N4415 X136.473 Y114.644 Z1.21
N4420 X136.411 Y114.598 Z1.207
N4425 X136.377 Y114.576 Z1.205
N4430 X136.339 Y114.561 Z1.203
N4435 X135.041 Y114.146 Z1.151
N4440 X133.94 Y113.781 Z1.107
N4445 X126.191 Y111.024 Z0.792
N4450 Y110.4 Z0.769
N4455 X136.896 Y114.446 Z0.331
N4460 Y115.634 Z0.286
N4465 X136.483 Y115.791 Z0.269
N4470 X126.191 Y119.61 Z-0.151
N4475 X126.192 Y118.997 Z-0.175
N4480 X129.199 Y117.909 Z-0.297
N4485 X129.234 Y117.893 Z-0.298
N4490 X129.267 Y117.872 Z-0.3
N4495 X129.349 Y117.808 Z-0.304
N4500 X129.386 Y117.773 Z-0.306
N4505 X129.414 Y117.732 Z-0.308
N4510 X129.461 Y117.648 Z-0.311
N4515 X129.477 Y117.612 Z-0.313
N4520 X129.488 Y117.574 Z-0.314
N4525 X129.499 Y117.512 Z-0.317
N4530 X129.504 Y117.465 Z-0.319
N4535 Y115.27 Z-0.403
N4540 X129.8 Y115.371 Z-0.415
N4545 X129.803 Y117.065 Z-0.479
N4550 X129.806 Y117.106 Z-0.481
N4555 X129.816 Y117.145 Z-0.482
N4560 X129.844 Y117.228 Z-0.486
N4565 X129.863 Y117.27 Z-0.487
N4570 X129.888 Y117.307 Z-0.489
N4575 X129.948 Y117.379 Z-0.493
N4580 X129.981 Y117.412 Z-0.495
N4585 X130.02 Y117.439 Z-0.496
N4590 X130.102 Y117.484 Z-0.5
N4595 X130.146 Y117.503 Z-0.502
N4600 X130.191 Y117.513 Z-0.504
N4605 X130.284 Y117.525 Z-0.507
N4610 X130.329 Y117.526 Z-0.509
N4615 X130.374 Y117.52 Z-0.511
N4620 X130.466 Y117.497 Z-0.514
N4625 X130.49 Y117.49 Z-0.515
N4630 X135.418 Y115.783 Z-0.715
N4635 X136.341 Y115.479 Z-0.752
N4640 X136.383 Y115.461 Z-0.754
N4645 X136.421 Y115.435 Z-0.755
N4650 X136.499 Y115.371 Z-0.759
N4655 X136.534 Y115.336 Z-0.761
N4660 X136.562 Y115.295 Z-0.763
N4665 X136.607 Y115.21 Z-0.767
N4670 X136.625 Y115.165 Z-0.768
N4675 X136.635 Y115.119 Z-0.77
N4680 X136.644 Y115.026 Z-0.774
N4685 X136.645 Y114.979 Z-0.776
N4690 X136.636 Y114.932 Z-0.778
N4695 X136.61 Y114.84 Z-0.781
N4700 X136.595 Y114.799 Z-0.783
N4705 X136.573 Y114.762 Z-0.785
N4710 X136.527 Y114.698 Z-0.787
N4715 X136.502 Y114.669 Z-0.789
N4720 X136.473 Y114.644 Z-0.79
N4725 X136.411 Y114.598 Z-0.793
N4730 X136.377 Y114.576 Z-0.795
N4735 X136.339 Y114.561 Z-0.797
N4740 X135.041 Y114.146 Z-0.849
N4745 X133.94 Y113.781 Z-0.893
N4750 X126.191 Y111.024 Z-1.208
N4755 Y110.4 Z-1.231
N4760 X136.896 Y114.446 Z-1.669
N4765 Y115.634 Z-1.714
N4770 X136.483 Y115.791 Z-1.731
N4775 X129.897 Y118.235 Z-2.
N4780 X126.191 Y119.61 F400.
N4785 X126.192 Y118.997
N4790 X129.199 Y117.909
N4795 X129.234 Y117.893
N4800 X129.267 Y117.872
N4805 X129.349 Y117.808
N4810 X129.386 Y117.773
N4815 X129.414 Y117.732
N4820 X129.461 Y117.648
N4825 X129.477 Y117.612
N4830 X129.488 Y117.574
N4835 X129.499 Y117.512
N4840 X129.504 Y117.465
N4845 Y115.27
N4850 X129.8 Y115.371
N4855 X129.803 Y117.065
N4860 X129.806 Y117.106
N4865 X129.816 Y117.145
N4870 X129.844 Y117.228
N4875 X129.863 Y117.27
N4880 X129.888 Y117.307
N4885 X129.948 Y117.379
N4890 X129.981 Y117.412
N4895 X130.02 Y117.439
N4900 X130.102 Y117.484
N4905 X130.146 Y117.503
N4910 X130.191 Y117.513
N4915 X130.284 Y117.525
N4920 X130.329 Y117.526
N4925 X130.374 Y117.52
N4930 X130.466 Y117.497
N4935 X130.49 Y117.49
N4940 X135.418 Y115.783
N4945 X136.341 Y115.479
N4950 X136.383 Y115.461
N4955 X136.421 Y115.435
N4960 X136.499 Y115.371
N4965 X136.534 Y115.336
N4970 X136.562 Y115.295
N4975 X136.607 Y115.21
N4980 X136.625 Y115.165
N4985 X136.635 Y115.119
N4990 X136.644 Y115.026
N4995 X136.645 Y114.979
N5000 X136.636 Y114.932
N5005 X136.61 Y114.84
N5010 X136.595 Y114.799
N5015 X136.573 Y114.762
N5020 X136.527 Y114.698
N5025 X136.502 Y114.669
N5030 X136.473 Y114.644
N5035 X136.411 Y114.598
N5040 X136.377 Y114.576
N5045 X136.339 Y114.561
N5050 X135.041 Y114.146
N5055 X133.94 Y113.781
N5060 X126.191 Y111.024
N5065 Y110.4
N5070 X136.896 Y114.446
N5075 Y115.634
N5080 X136.483 Y115.791
N5085 X129.897 Y118.235
N5090 X129.87 Y118.238
N5095 X129.847 Y118.226
N5100 X129.832 Y118.204
N5105 X129.83 Y118.178
N5110 X129.843 Y118.154
N5115 X130.024 Y117.966
N5120 X133.24 Y116.863
N5125 X133.381 Y116.859
N5130 X133.403 Y116.865
N5135 X133.418 Y116.881
N5140 X133.422 Y116.903
N5145 X133.414 Y116.924
N5150 X133.396 Y116.937
N5155 X129.897 Y118.235 Z-3. F333.33
N5160 X126.191 Y119.61 F400.
N5165 X126.192 Y118.997
N5170 X129.199 Y117.909
N5175 X129.234 Y117.893
N5180 X129.267 Y117.872
N5185 X129.349 Y117.808
N5190 X129.386 Y117.773
N5195 X129.414 Y117.732
N5200 X129.461 Y117.648
N5205 X129.477 Y117.612
N5210 X129.488 Y117.574
N5215 X129.499 Y117.512
N5220 X129.504 Y117.465
N5225 Y115.27
N5230 X129.8 Y115.371
N5235 X129.803 Y117.065
N5240 X129.806 Y117.106
N5245 X129.816 Y117.145
N5250 X129.844 Y117.228
N5255 X129.863 Y117.27
N5260 X129.888 Y117.307
N5265 X129.948 Y117.379
N5270 X129.981 Y117.412
N5275 X130.02 Y117.439
N5280 X130.102 Y117.484
N5285 X130.146 Y117.503
N5290 X130.191 Y117.513
N5295 X130.284 Y117.525
N5300 X130.329 Y117.526
N5305 X130.374 Y117.52
N5310 X130.466 Y117.497
N5315 X130.49 Y117.49
N5320 X135.418 Y115.783
N5325 X136.341 Y115.479
N5330 X136.383 Y115.461
N5335 X136.421 Y115.435
N5340 X136.499 Y115.371
N5345 X136.534 Y115.336
N5350 X136.562 Y115.295
N5355 X136.607 Y115.21
N5360 X136.625 Y115.165
N5365 X136.635 Y115.119
N5370 X136.644 Y115.026
N5375 X136.645 Y114.979
N5380 X136.636 Y114.932
N5385 X136.61 Y114.84
N5390 X136.595 Y114.799
N5395 X136.573 Y114.762
N5400 X136.527 Y114.698
N5405 X136.502 Y114.669
N5410 X136.473 Y114.644
N5415 X136.411 Y114.598
N5420 X136.377 Y114.576
N5425 X136.339 Y114.561
N5430 X135.041 Y114.146
N5435 X133.94 Y113.781
N5440 X126.191 Y111.024
N5445 Y110.4
N5450 X136.896 Y114.446
N5455 Y115.634
N5460 X136.483 Y115.791
N5465 X129.897 Y118.235
N5470 X129.872 Y118.241 Z-2.993 F1000.
N5475 X129.848 Y118.24 Z-2.987
N5480 X129.813 Y118.229 Z-2.95
N5485 X129.802 Y118.221 Z-2.9
N5490 G0 Z5.
N5495 X132.931 Y94.229
N5500 Z2.2
N5505 G1 X132.938 Y94.228 Z2.162 F333.33
N5510 X132.959 Y94.224 Z2.13
N5515 X132.99 Y94.219 Z2.108
N5520 X133.027 Y94.214 Z2.1
N5525 X137.035 Y93.593 Z1.993
N5530 Y94.213 Z1.977
N5535 X130.133 Y95.104 Z1.794
N5540 X128.166 Y95.3 Z1.742
N5545 X127.08 Y95.39 Z1.713
N5550 X127.043 Y95.396 Z1.712
N5555 X127.007 Y95.407 Z1.711
N5560 X126.918 Y95.443 Z1.708
N5565 X126.874 Y95.466 Z1.707
N5570 X126.836 Y95.497 Z1.706
N5575 X126.765 Y95.567 Z1.703
N5580 X126.734 Y95.604 Z1.702
N5585 X126.711 Y95.647 Z1.701
N5590 X126.674 Y95.732 Z1.698
N5595 X126.66 Y95.774 Z1.697
N5600 X126.654 Y95.818 Z1.696
N5605 X126.65 Y95.901 Z1.694
N5610 X126.652 Y95.946 Z1.692
N5615 X126.662 Y95.991 Z1.691
N5620 X126.693 Y96.085 Z1.689
N5625 X126.71 Y96.126 Z1.687
N5630 X126.735 Y96.163 Z1.686
N5635 X126.785 Y96.226 Z1.684
N5640 X126.814 Y96.256 Z1.683
N5645 X126.847 Y96.281 Z1.682
N5650 X126.919 Y96.327 Z1.68
N5655 X126.956 Y96.346 Z1.679
N5660 X126.995 Y96.359 Z1.677
N5665 X129.361 Y96.914 Z1.613
N5670 X130.837 Y97.301 Z1.573
N5675 X133.333 Y97.973 Z1.505
N5680 Y98.728 Z1.485
N5685 X130.099 Y99.597 Z1.397
N5690 X128.377 Y100.021 Z1.35
N5695 X126.988 Y100.346 Z1.313
N5700 X126.948 Y100.359 Z1.312
N5705 X126.911 Y100.379 Z1.311
N5710 X126.852 Y100.416 Z1.309
N5715 X126.819 Y100.441 Z1.308
N5720 X126.791 Y100.47 Z1.307
N5725 X126.733 Y100.542 Z1.304
N5730 X126.708 Y100.58 Z1.303
N5735 X126.69 Y100.621 Z1.302
N5740 X126.663 Y100.705 Z1.3
N5745 X126.653 Y100.751 Z1.298
N5750 X126.651 Y100.798 Z1.297
N5755 X126.657 Y100.898 Z1.294
N5760 X126.664 Y100.943 Z1.293
N5765 X126.68 Y100.987 Z1.292
N5770 X126.715 Y101.063 Z1.29
N5775 X126.735 Y101.1 Z1.289
N5780 X126.762 Y101.132 Z1.288
N5785 X126.82 Y101.193 Z1.285
N5790 X126.853 Y101.222 Z1.284
N5795 X126.891 Y101.244 Z1.283
N5800 X126.979 Y101.287 Z1.28
N5805 X127.012 Y101.3 Z1.279
N5810 X127.047 Y101.308
N5815 X127.162 Y101.328 Z1.275
N5820 X127.179 Y101.33
N5825 X129.396 Y101.545 Z1.216
N5830 X130.379 Y101.651 Z1.19
N5835 X137.035 Y102.468 Z1.014
N5840 Y103.08 Z0.998
N5845 X126.191 Y101.412 Z0.709
N5850 Y100.421 Z0.683
N5855 X130.222 Y99.354 Z0.573
N5860 X132.475 Y98.824 Z0.512
N5865 X132.516 Y98.81 Z0.511
N5870 X132.554 Y98.79 Z0.51
N5875 X132.615 Y98.75 Z0.508
N5880 X132.645 Y98.727 Z0.507
N5885 X132.672 Y98.699 Z0.506
N5890 X132.724 Y98.635 Z0.503
N5895 X132.749 Y98.598 Z0.502
N5900 X132.766 Y98.558 Z0.501
N5905 X132.797 Y98.47 Z0.499
N5910 X132.807 Y98.425 Z0.497
N5915 X132.81 Y98.379 Z0.496
N5920 X132.806 Y98.288 Z0.494
N5925 X132.8 Y98.242 Z0.493
N5930 X132.786 Y98.199 Z0.491
N5935 X132.75 Y98.116 Z0.489
N5940 X132.728 Y98.076 Z0.488
N5945 X132.699 Y98.04 Z0.487
N5950 X132.636 Y97.975 Z0.484
N5955 X132.602 Y97.946 Z0.483
N5960 X132.564 Y97.924 Z0.482
N5965 X132.488 Y97.887 Z0.48
N5970 X132.437 Y97.87 Z0.478
N5975 X130.222 Y97.346 Z0.418
N5980 X128.477 Y96.885 Z0.371
N5985 X126.191 Y96.265 Z0.308
N5990 Y95.272 Z0.282
N5995 X137.035 Y93.593 Z-0.007
N6000 Y94.213 Z-0.023
N6005 X130.133 Y95.104 Z-0.206
N6010 X128.166 Y95.3 Z-0.258
N6015 X127.08 Y95.39 Z-0.287
N6020 X127.043 Y95.396 Z-0.288
N6025 X127.007 Y95.407 Z-0.289
N6030 X126.918 Y95.443 Z-0.292
N6035 X126.874 Y95.466 Z-0.293
N6040 X126.836 Y95.497 Z-0.294
N6045 X126.765 Y95.567 Z-0.297
N6050 X126.734 Y95.604 Z-0.298
N6055 X126.711 Y95.647 Z-0.299
N6060 X126.674 Y95.732 Z-0.302
N6065 X126.66 Y95.774 Z-0.303
N6070 X126.654 Y95.818 Z-0.304
N6075 X126.65 Y95.901 Z-0.306
N6080 X126.652 Y95.946 Z-0.308
N6085 X126.662 Y95.991 Z-0.309
N6090 X126.693 Y96.085 Z-0.311
N6095 X126.71 Y96.126 Z-0.313
N6100 X126.735 Y96.163 Z-0.314
N6105 X126.785 Y96.226 Z-0.316
N6110 X126.814 Y96.256 Z-0.317
N6115 X126.847 Y96.281 Z-0.318
N6120 X126.919 Y96.327 Z-0.32
N6125 X126.956 Y96.346 Z-0.321
N6130 X126.995 Y96.359 Z-0.323
N6135 X129.361 Y96.914 Z-0.387
N6140 X130.837 Y97.301 Z-0.427
N6145 X133.333 Y97.973 Z-0.495
N6150 Y98.728 Z-0.515
N6155 X130.099 Y99.597 Z-0.603
N6160 X128.377 Y100.021 Z-0.65
N6165 X126.988 Y100.346 Z-0.687
N6170 X126.948 Y100.359 Z-0.688
N6175 X126.911 Y100.379 Z-0.689
N6180 X126.852 Y100.416 Z-0.691
N6185 X126.819 Y100.441 Z-0.692
N6190 X126.791 Y100.47 Z-0.693
N6195 X126.733 Y100.542 Z-0.696
N6200 X126.708 Y100.58 Z-0.697
N6205 X126.69 Y100.621 Z-0.698
N6210 X126.663 Y100.705 Z-0.7
N6215 X126.653 Y100.751 Z-0.702
N6220 X126.651 Y100.798 Z-0.703
N6225 X126.657 Y100.898 Z-0.706
N6230 X126.664 Y100.943 Z-0.707
N6235 X126.68 Y100.987 Z-0.708
N6240 X126.715 Y101.063 Z-0.71
N6245 X126.735 Y101.1 Z-0.711
N6250 X126.762 Y101.132 Z-0.712
N6255 X126.82 Y101.193 Z-0.715
N6260 X126.853 Y101.222 Z-0.716
N6265 X126.891 Y101.244 Z-0.717
N6270 X126.979 Y101.287 Z-0.72
N6275 X127.012 Y101.3 Z-0.721
N6280 X127.047 Y101.308
N6285 X127.162 Y101.328 Z-0.725
N6290 X127.179 Y101.33
N6295 X129.396 Y101.545 Z-0.784
N6300 X130.379 Y101.651 Z-0.81
N6305 X137.035 Y102.468 Z-0.986
N6310 Y103.08 Z-1.002
N6315 X126.191 Y101.412 Z-1.291
N6320 Y100.421 Z-1.317
N6325 X130.222 Y99.354 Z-1.427
N6330 X132.475 Y98.824 Z-1.488
N6335 X132.516 Y98.81 Z-1.489
N6340 X132.554 Y98.79 Z-1.49
N6345 X132.615 Y98.75 Z-1.492
N6350 X132.645 Y98.727 Z-1.493
N6355 X132.672 Y98.699 Z-1.494
N6360 X132.724 Y98.635 Z-1.497
N6365 X132.749 Y98.598 Z-1.498
N6370 X132.766 Y98.558 Z-1.499
N6375 X132.797 Y98.47 Z-1.501
N6380 X132.807 Y98.425 Z-1.503
N6385 X132.81 Y98.379 Z-1.504
N6390 X132.806 Y98.288 Z-1.506
N6395 X132.8 Y98.242 Z-1.507
N6400 X132.786 Y98.199 Z-1.509
N6405 X132.75 Y98.116 Z-1.511
N6410 X132.728 Y98.076 Z-1.512
N6415 X132.699 Y98.04 Z-1.513
N6420 X132.636 Y97.975 Z-1.516
N6425 X132.602 Y97.946 Z-1.517
N6430 X132.564 Y97.924 Z-1.518
N6435 X132.488 Y97.887 Z-1.52
N6440 X132.437 Y97.87 Z-1.522
N6445 X130.222 Y97.346 Z-1.582
N6450 X128.477 Y96.885 Z-1.629
N6455 X126.191 Y96.265 Z-1.692
N6460 Y95.272 Z-1.718
N6465 X136.779 Y93.633 Z-2.
N6470 X137.035 Y93.593 F400.
N6475 Y94.213
N6480 X130.133 Y95.104
N6485 X128.166 Y95.3
N6490 X127.08 Y95.39
N6495 X127.043 Y95.396
N6500 X127.007 Y95.407
N6505 X126.918 Y95.443
N6510 X126.874 Y95.466
N6515 X126.836 Y95.497
N6520 X126.765 Y95.567
N6525 X126.734 Y95.604
N6530 X126.711 Y95.647
N6535 X126.674 Y95.732
N6540 X126.66 Y95.774
N6545 X126.654 Y95.818
N6550 X126.65 Y95.901
N6555 X126.652 Y95.946
N6560 X126.662 Y95.991
N6565 X126.693 Y96.085
N6570 X126.71 Y96.126
N6575 X126.735 Y96.163
N6580 X126.785 Y96.226
N6585 X126.814 Y96.256
N6590 X126.847 Y96.281
N6595 X126.919 Y96.327
N6600 X126.956 Y96.346
N6605 X126.995 Y96.359
N6610 X129.361 Y96.914
N6615 X130.837 Y97.301
N6620 X133.333 Y97.973
N6625 Y98.728
N6630 X130.099 Y99.597
N6635 X128.377 Y100.021
N6640 X126.988 Y100.346
N6645 X126.948 Y100.359
N6650 X126.911 Y100.379
N6655 X126.852 Y100.416
N6660 X126.819 Y100.441
N6665 X126.791 Y100.47
N6670 X126.733 Y100.542
N6675 X126.708 Y100.58
N6680 X126.69 Y100.621
N6685 X126.663 Y100.705
N6690 X126.653 Y100.751
N6695 X126.651 Y100.798
N6700 X126.657 Y100.898
N6705 X126.664 Y100.943
N6710 X126.68 Y100.987
N6715 X126.715 Y101.063
N6720 X126.735 Y101.1
N6725 X126.762 Y101.132
N6730 X126.82 Y101.193
N6735 X126.853 Y101.222
N6740 X126.891 Y101.244
N6745 X126.979 Y101.287
N6750 X127.012 Y101.3
N6755 X127.047 Y101.308
N6760 X127.162 Y101.328
N6765 X127.179 Y101.33
N6770 X129.396 Y101.545
N6775 X130.379 Y101.651
N6780 X137.035 Y102.468
N6785 Y103.08
N6790 X126.191 Y101.412
N6795 Y100.421
N6800 X130.222 Y99.354
N6805 X132.475 Y98.824
N6810 X132.516 Y98.81
N6815 X132.554 Y98.79
N6820 X132.615 Y98.75
N6825 X132.645 Y98.727
N6830 X132.672 Y98.699
N6835 X132.724 Y98.635
N6840 X132.749 Y98.598
N6845 X132.766 Y98.558
N6850 X132.797 Y98.47
N6855 X132.807 Y98.425
N6860 X132.81 Y98.379
N6865 X132.806 Y98.288
N6870 X132.8 Y98.242
N6875 X132.786 Y98.199
N6880 X132.75 Y98.116
N6885 X132.728 Y98.076
N6890 X132.699 Y98.04
N6895 X132.636 Y97.975
N6900 X132.602 Y97.946
N6905 X132.564 Y97.924
N6910 X132.488 Y97.887
N6915 X132.437 Y97.87
N6920 X130.222 Y97.346
N6925 X128.477 Y96.885
N6930 X126.191 Y96.265
N6935 Y95.272
N6940 X136.779 Y93.633
N6945 X136.802 Y93.636
N6950 X136.82 Y93.651
N6955 X136.827 Y93.672
N6960 X136.822 Y93.695
N6965 X136.805 Y93.711
N6970 X136.675 Y93.776
N6975 X133.96 Y94.219
N6980 X133.789 Y94.194
N6985 X133.764 Y94.182
N6990 X133.749 Y94.159
N6995 Y94.131
N7000 X133.764 Y94.108
N7005 X133.789 Y94.096
N7010 X137.035 Y93.593 Z-2.88 F333.33
N7015 Y94.042 Z-3.
N7020 Y94.213 F400.
N7025 X130.133 Y95.104
N7030 X128.166 Y95.3
N7035 X127.08 Y95.39
N7040 X127.043 Y95.396
N7045 X127.007 Y95.407
N7050 X126.918 Y95.443
N7055 X126.874 Y95.466
N7060 X126.836 Y95.497
N7065 X126.765 Y95.567
N7070 X126.734 Y95.604
N7075 X126.711 Y95.647
N7080 X126.674 Y95.732
N7085 X126.66 Y95.774
N7090 X126.654 Y95.818
N7095 X126.65 Y95.901
N7100 X126.652 Y95.946
N7105 X126.662 Y95.991
N7110 X126.693 Y96.085
N7115 X126.71 Y96.126
N7120 X126.735 Y96.163
N7125 X126.785 Y96.226
N7130 X126.814 Y96.256
N7135 X126.847 Y96.281
N7140 X126.919 Y96.327
N7145 X126.956 Y96.346
N7150 X126.995 Y96.359
N7155 X129.361 Y96.914
N7160 X130.837 Y97.301
N7165 X133.333 Y97.973
N7170 Y98.728
N7175 X130.099 Y99.597
N7180 X128.377 Y100.021
N7185 X126.988 Y100.346
N7190 X126.948 Y100.359
N7195 X126.911 Y100.379
N7200 X126.852 Y100.416
N7205 X126.819 Y100.441
N7210 X126.791 Y100.47
N7215 X126.733 Y100.542
N7220 X126.708 Y100.58
N7225 X126.69 Y100.621
N7230 X126.663 Y100.705
N7235 X126.653 Y100.751
N7240 X126.651 Y100.798
N7245 X126.657 Y100.898
N7250 X126.664 Y100.943
N7255 X126.68 Y100.987
N7260 X126.715 Y101.063
N7265 X126.735 Y101.1
N7270 X126.762 Y101.132
N7275 X126.82 Y101.193
N7280 X126.853 Y101.222
N7285 X126.891 Y101.244
N7290 X126.979 Y101.287
N7295 X127.012 Y101.3
N7300 X127.047 Y101.308
N7305 X127.162 Y101.328
N7310 X127.179 Y101.33
N7315 X129.396 Y101.545
N7320 X130.379 Y101.651
N7325 X137.035 Y102.468
N7330 Y103.08
N7335 X126.191 Y101.412
N7340 Y100.421
N7345 X130.222 Y99.354
N7350 X132.475 Y98.824
N7355 X132.516 Y98.81
N7360 X132.554 Y98.79
N7365 X132.615 Y98.75
N7370 X132.645 Y98.727
N7375 X132.672 Y98.699
N7380 X132.724 Y98.635
N7385 X132.749 Y98.598
N7390 X132.766 Y98.558
N7395 X132.797 Y98.47
N7400 X132.807 Y98.425
N7405 X132.81 Y98.379
N7410 X132.806 Y98.288
N7415 X132.8 Y98.242
N7420 X132.786 Y98.199
N7425 X132.75 Y98.116
N7430 X132.728 Y98.076
N7435 X132.699 Y98.04
N7440 X132.636 Y97.975
N7445 X132.602 Y97.946
N7450 X132.564 Y97.924
N7455 X132.488 Y97.887
N7460 X132.437 Y97.87
N7465 X130.222 Y97.346
N7470 X128.477 Y96.885
N7475 X126.191 Y96.265
N7480 Y95.272
N7485 X137.035 Y93.593
N7490 Y94.042
N7495 X137.031 Y94.066 Z-2.993 F1000.
N7500 X137.022 Y94.09 Z-2.987
N7505 X136.999 Y94.118 Z-2.95
N7510 X136.989 Y94.126 Z-2.9
N7515 G0 Z5.
N7520 X146.258 Y96.525
N7525 Z2.2
N7530 G1 X146.264 Y96.529 Z2.163 F333.33
N7535 X146.281 Y96.54 Z2.131
N7540 X146.307 Y96.557 Z2.109
N7545 X146.338 Y96.578 Z2.1
N7550 X148.296 Y97.884 Z2.009
N7555 X148.331 Y97.903 Z2.008
N7560 X148.369 Y97.917 Z2.006
N7565 X148.462 Y97.942 Z2.002
N7570 X148.509 Y97.95 Z2.
N7575 X148.556 Y97.949 Z1.999
N7580 X148.648 Y97.939 Z1.995
N7585 X148.692 Y97.93 Z1.993
N7590 X148.733 Y97.913 Z1.992
N7595 X148.81 Y97.874 Z1.988
N7600 X148.836 Y97.859 Z1.987
N7605 X153.701 Y94.615 Z1.761
N7610 Y95.181 Z1.739
N7615 X149.389 Y97.944 Z1.541
N7620 X149.351 Y97.974 Z1.54
N7625 X149.32 Y98.011 Z1.538
N7630 X149.262 Y98.093 Z1.534
N7635 X149.238 Y98.135 Z1.532
N7640 X149.223 Y98.182 Z1.53
N7645 X149.202 Y98.274 Z1.526
N7650 X149.196 Y98.32 Z1.525
N7655 X149.199 Y98.367 Z1.523
N7660 X149.213 Y98.456 Z1.519
N7665 X149.224 Y98.501 Z1.517
N7670 X149.243 Y98.543 Z1.516
N7675 X149.289 Y98.623 Z1.512
N7680 X149.313 Y98.658 Z1.511
N7685 X149.343 Y98.688 Z1.509
N7690 X149.4 Y98.737 Z1.506
N7695 X149.428 Y98.758 Z1.505
N7700 X153.701 Y101.501 Z1.308
N7705 Y102.069 Z1.286
N7710 X148.789 Y98.798 Z1.058
N7715 X148.751 Y98.777 Z1.057
N7720 X148.711 Y98.763 Z1.055
N7725 X148.618 Y98.74 Z1.051
N7730 X148.571 Y98.733 Z1.05
N7735 X148.524 Y98.735 Z1.048
N7740 X148.432 Y98.748 Z1.044
N7745 X148.392 Y98.757 Z1.043
N7750 X148.354 Y98.772 Z1.041
N7755 X148.293 Y98.803 Z1.038
N7760 X148.265 Y98.818 Z1.037
N7765 X142.857 Y102.427 Z0.786
N7770 Y101.858 Z0.764
N7775 X143.363 Y101.528 Z0.741
N7780 X147.693 Y98.736 Z0.542
N7785 X147.725 Y98.712 Z0.54
N7790 X147.753 Y98.682 Z0.539
N7795 X147.812 Y98.608 Z0.535
N7800 X147.838 Y98.567 Z0.533
N7805 X147.856 Y98.523 Z0.531
N7810 X147.883 Y98.431 Z0.527
N7815 X147.892 Y98.384 Z0.526
N7820 Y98.336 Z0.524
N7825 X147.884 Y98.244 Z0.52
N7830 X147.877 Y98.204 Z0.519
N7835 X147.864 Y98.166 Z0.517
N7840 X147.836 Y98.105 Z0.514
N7845 X147.818 Y98.07 Z0.513
N7850 X147.794 Y98.039 Z0.511
N7855 X147.734 Y97.972 Z0.508
N7860 X147.709 Y97.948 Z0.507
N7865 X147.683 Y97.928 Z0.505
N7870 X142.857 Y94.83 Z0.284
N7875 Y94.257 Z0.262
N7880 X148.296 Y97.884 Z0.009
N7885 X148.331 Y97.903 Z0.008
N7890 X148.369 Y97.917 Z0.006
N7895 X148.462 Y97.942 Z0.002
N7900 X148.509 Y97.95 Z0.
N7905 X148.556 Y97.949 Z-0.001
N7910 X148.648 Y97.939 Z-0.005
N7915 X148.692 Y97.93 Z-0.007
N7920 X148.733 Y97.913 Z-0.008
N7925 X148.81 Y97.874 Z-0.012
N7930 X148.836 Y97.859 Z-0.013
N7935 X153.701 Y94.615 Z-0.239
N7940 Y95.181 Z-0.261
N7945 X149.389 Y97.944 Z-0.459
N7950 X149.351 Y97.974 Z-0.46
N7955 X149.32 Y98.011 Z-0.462
N7960 X149.262 Y98.093 Z-0.466
N7965 X149.238 Y98.135 Z-0.468
N7970 X149.223 Y98.182 Z-0.47
N7975 X149.202 Y98.274 Z-0.474
N7980 X149.196 Y98.32 Z-0.475
N7985 X149.199 Y98.367 Z-0.477
N7990 X149.213 Y98.456 Z-0.481
N7995 X149.224 Y98.501 Z-0.483
N8000 X149.243 Y98.543 Z-0.484
N8005 X149.289 Y98.623 Z-0.488
N8010 X149.313 Y98.658 Z-0.489
N8015 X149.343 Y98.688 Z-0.491
N8020 X149.4 Y98.737 Z-0.494
N8025 X149.428 Y98.758 Z-0.495
N8030 X153.701 Y101.501 Z-0.692
N8035 Y102.069 Z-0.714
N8040 X148.789 Y98.798 Z-0.942
N8045 X148.751 Y98.777 Z-0.943
N8050 X148.711 Y98.763 Z-0.945
N8055 X148.618 Y98.74 Z-0.949
N8060 X148.571 Y98.733 Z-0.95
N8065 X148.524 Y98.735 Z-0.952
N8070 X148.432 Y98.748 Z-0.956
N8075 X148.392 Y98.757 Z-0.957
N8080 X148.354 Y98.772 Z-0.959
N8085 X148.293 Y98.803 Z-0.962
N8090 X148.265 Y98.818 Z-0.963
N8095 X142.857 Y102.427 Z-1.214
N8100 Y101.858 Z-1.236
N8105 X143.363 Y101.528 Z-1.259
N8110 X147.693 Y98.736 Z-1.458
N8115 X147.725 Y98.712 Z-1.46
N8120 X147.753 Y98.682 Z-1.461
N8125 X147.812 Y98.608 Z-1.465
N8130 X147.838 Y98.567 Z-1.467
N8135 X147.856 Y98.523 Z-1.469
N8140 X147.883 Y98.431 Z-1.473
N8145 X147.892 Y98.384 Z-1.474
N8150 Y98.336 Z-1.476
N8155 X147.884 Y98.244 Z-1.48
N8160 X147.877 Y98.204 Z-1.481
N8165 X147.864 Y98.166 Z-1.483
N8170 X147.836 Y98.105 Z-1.486
N8175 X147.818 Y98.07 Z-1.487
N8180 X147.794 Y98.039 Z-1.489
N8185 X147.734 Y97.972 Z-1.492
N8190 X147.709 Y97.948 Z-1.493
N8195 X147.683 Y97.928 Z-1.495
N8200 X142.857 Y94.83 Z-1.716
N8205 Y94.257 Z-1.738
N8210 X148.296 Y97.884 Z-1.991
N8215 X148.331 Y97.903 Z-1.992
N8220 X148.369 Y97.917 Z-1.994
N8225 X148.462 Y97.942 Z-1.998
N8230 X148.519 Y97.951 Z-2.
N8235 X148.556 Y97.949 F400.
N8240 X148.648 Y97.939
N8245 X148.692 Y97.93
N8250 X148.733 Y97.913
N8255 X148.81 Y97.874
N8260 X148.836 Y97.859
N8265 X153.701 Y94.615
N8270 Y95.181
N8275 X149.389 Y97.944
N8280 X149.351 Y97.974
N8285 X149.32 Y98.011
N8290 X149.262 Y98.093
N8295 X149.238 Y98.135
N8300 X149.223 Y98.182
N8305 X149.202 Y98.274
N8310 X149.196 Y98.32
N8315 X149.199 Y98.367
N8320 X149.213 Y98.456
N8325 X149.224 Y98.501
N8330 X149.243 Y98.543
N8335 X149.289 Y98.623
N8340 X149.313 Y98.658
N8345 X149.343 Y98.688
N8350 X149.4 Y98.737
N8355 X149.428 Y98.758
N8360 X153.701 Y101.501
N8365 Y102.069
N8370 X148.789 Y98.798
N8375 X148.751 Y98.777
N8380 X148.711 Y98.763
N8385 X148.618 Y98.74
N8390 X148.571 Y98.733
N8395 X148.524 Y98.735
N8400 X148.432 Y98.748
N8405 X148.392 Y98.757
N8410 X148.354 Y98.772
N8415 X148.293 Y98.803
N8420 X148.265 Y98.818
N8425 X142.857 Y102.427
N8430 Y101.858
N8435 X143.363 Y101.528
N8440 X147.693 Y98.736
N8445 X147.725 Y98.712
N8450 X147.753 Y98.682
N8455 X147.812 Y98.608
N8460 X147.838 Y98.567
N8465 X147.856 Y98.523
N8470 X147.883 Y98.431
N8475 X147.892 Y98.384
N8480 Y98.336
N8485 X147.884 Y98.244
N8490 X147.877 Y98.204
N8495 X147.864 Y98.166
N8500 X147.836 Y98.105
N8505 X147.818 Y98.07
N8510 X147.794 Y98.039
N8515 X147.734 Y97.972
N8520 X147.709 Y97.948
N8525 X147.683 Y97.928
N8530 X142.857 Y94.83
N8535 Y94.257
N8540 X148.296 Y97.884
N8545 X148.331 Y97.903
N8550 X148.369 Y97.917
N8555 X148.462 Y97.942
N8560 X148.519 Y97.951
N8565 X148.544 Y97.958
N8570 X148.561 Y97.976
N8575 X148.568 Y98.
N8580 X148.561 Y98.025
N8585 X148.544 Y98.043
N8590 X148.52 Y98.051
N8595 X148.358 Y98.057
N8600 X148.343 Y98.055
N8605 X148.329 Y98.049
N8610 X145.42 Y96.111
N8615 X145.332 Y96.002
N8620 X145.324 Y95.981
N8625 X145.328 Y95.959
N8630 X145.343 Y95.942
N8635 X145.365 Y95.937
N8640 X145.387 Y95.943
N8645 X148.296 Y97.884 Z-2.937 F333.33
N8650 X148.331 Y97.903 Z-2.948
N8655 X148.369 Y97.917 Z-2.959
N8660 X148.462 Y97.942 Z-2.984
N8665 X148.519 Y97.951 Z-3.
N8670 X148.556 Y97.949 F400.
N8675 X148.648 Y97.939
N8680 X148.692 Y97.93
N8685 X148.733 Y97.913
N8690 X148.81 Y97.874
N8695 X148.836 Y97.859
N8700 X153.701 Y94.615
N8705 Y95.181
N8710 X149.389 Y97.944
N8715 X149.351 Y97.974
N8720 X149.32 Y98.011
N8725 X149.262 Y98.093
N8730 X149.238 Y98.135
N8735 X149.223 Y98.182
N8740 X149.202 Y98.274
N8745 X149.196 Y98.32
N8750 X149.199 Y98.367
N8755 X149.213 Y98.456
N8760 X149.224 Y98.501
N8765 X149.243 Y98.543
N8770 X149.289 Y98.623
N8775 X149.313 Y98.658
N8780 X149.343 Y98.688
N8785 X149.4 Y98.737
N8790 X149.428 Y98.758
N8795 X153.701 Y101.501
N8800 Y102.069
N8805 X148.789 Y98.798
N8810 X148.751 Y98.777
N8815 X148.711 Y98.763
N8820 X148.618 Y98.74
N8825 X148.571 Y98.733
N8830 X148.524 Y98.735
N8835 X148.432 Y98.748
N8840 X148.392 Y98.757
N8845 X148.354 Y98.772
N8850 X148.293 Y98.803
N8855 X148.265 Y98.818
N8860 X142.857 Y102.427
N8865 Y101.858
N8870 X143.363 Y101.528
N8875 X147.693 Y98.736
N8880 X147.725 Y98.712
N8885 X147.753 Y98.682
N8890 X147.812 Y98.608
N8895 X147.838 Y98.567
N8900 X147.856 Y98.523
N8905 X147.883 Y98.431
N8910 X147.892 Y98.384
N8915 Y98.336
N8920 X147.884 Y98.244
N8925 X147.877 Y98.204
N8930 X147.864 Y98.166
N8935 X147.836 Y98.105
N8940 X147.818 Y98.07
N8945 X147.794 Y98.039
N8950 X147.734 Y97.972
N8955 X147.709 Y97.948
N8960 X147.683 Y97.928
N8965 X142.857 Y94.83
N8970 Y94.257
N8975 X148.296 Y97.884
N8980 X148.331 Y97.903
N8985 X148.369 Y97.917
N8990 X148.462 Y97.942
N8995 X148.519 Y97.951
N9000 X148.544 Y97.955 Z-2.993 F1000.
N9005 X148.567 Y97.964 Z-2.987
N9010 X148.594 Y97.988 Z-2.95
N9015 X148.602 Y97.999 Z-2.9
N9020 G0 Z5.
N9025 X146.23 Y82.774
N9030 Z2.2
N9035 G1 X146.236 Y82.77 Z2.163 F333.33
N9040 X146.253 Y82.759 Z2.131
N9045 X146.279 Y82.743 Z2.109
N9050 X146.309 Y82.724 Z2.1
N9055 X147.649 Y81.871 Z2.001
N9060 X147.681 Y81.846 Z1.999
N9065 X147.709 Y81.817 Z1.996
N9070 X147.732 Y81.788 Z1.994
N9075 X148.155 Z1.967
N9080 Y81.844 Z1.964
N9085 X148.156 Y81.858 Z1.963
N9090 X148.196 Y82.505 Z1.923
N9095 X148.202 Y82.546 Z1.92
N9100 X148.352 Y83.192 Z1.879
N9105 X148.363 Y83.228 Z1.876
N9110 X148.38 Y83.262 Z1.874
N9115 X148.873 Y84.106 Z1.813
N9120 X148.891 Y84.132 Z1.811
N9125 X148.912 Y84.156 Z1.809
N9130 X148.966 Y84.21 Z1.804
N9135 X149.011 Y84.246 Z1.801
N9140 X149.75 Y84.711 Z1.746
N9145 X149.794 Y84.733 Z1.743
N9150 X149.841 Y84.746 Z1.74
N9155 X150.734 Y84.9 Z1.684
N9160 X150.767 Y84.904 Z1.682
N9165 X150.8 Y84.903 Z1.68
N9170 X151.355 Y84.851 Z1.645
N9175 X151.414 Y84.838 Z1.641
N9180 X151.907 Y84.667 Z1.609
N9185 X151.939 Y84.653 Z1.606
N9190 X151.969 Y84.635 Z1.604
N9195 X152.376 Y84.347 Z1.573
N9200 X152.404 Y84.324 Z1.571
N9205 X152.428 Y84.298 Z1.569
N9210 X152.752 Y83.889 Z1.536
N9215 X152.781 Y83.843 Z1.533
N9220 X152.82 Y83.763 Z1.527
N9225 X152.831 Y83.735 Z1.525
N9230 X153.136 Y82.848 Z1.467
N9235 X153.149 Y82.788 Z1.463
N9240 X153.226 Y81.863 Z1.405
N9245 X153.227 Y81.847 Z1.404
N9250 X153.228 Y81.788 Z1.4
N9255 X153.556 Z1.38
N9260 Y82.084 Z1.362
N9265 X153.527 Y82.798 Z1.317
N9270 X153.357 Y83.62 Z1.265
N9275 X153.128 Y84.195 Z1.226
N9280 X152.797 Y84.731 Z1.187
N9285 X152.42 Y85.092 Z1.154
N9290 X151.972 Y85.35 Z1.122
N9295 X151.408 Y85.518 Z1.085
N9300 X150.849 Y85.566 Z1.051
N9305 X149.891 Y85.412 Z0.99
N9310 X149.479 Y85.237 Z0.962
N9315 X149.084 Y84.971 Z0.932
N9320 X148.728 Y84.613 Z0.901
N9325 X148.433 Y84.185 Z0.869
N9330 X148.179 Y83.611 Z0.829
N9335 X148.016 Y82.939 Z0.786
N9340 X148.004 Y82.903 Z0.784
N9345 X147.987 Y82.87 Z0.782
N9350 X147.941 Y82.793 Z0.776
N9355 X147.916 Y82.758 Z0.773
N9360 X147.885 Y82.728 Z0.771
N9365 X147.823 Y82.677 Z0.766
N9370 X147.786 Y82.652 Z0.763
N9375 X147.745 Y82.634 Z0.76
N9380 X147.653 Y82.602 Z0.754
N9385 X147.606 Y82.591 Z0.751
N9390 X147.558 Y82.589 Z0.748
N9395 X147.466 Y82.594 Z0.742
N9400 X147.427 Y82.599 Z0.74
N9405 X147.388 Y82.611 Z0.737
N9410 X147.327 Y82.635 Z0.733
N9415 X147.279 Y82.66 Z0.73
N9420 X142.859 Y85.619 Z0.398
N9425 X142.861 Y84.92 Z0.355
N9430 X147.649 Y81.871 Z0.001
N9435 X147.681 Y81.846 Z-0.001
N9440 X147.709 Y81.817 Z-0.004
N9445 X147.732 Y81.788 Z-0.006
N9450 X148.155 Z-0.033
N9455 Y81.844 Z-0.036
N9460 X148.156 Y81.858 Z-0.037
N9465 X148.196 Y82.505 Z-0.077
N9470 X148.202 Y82.546 Z-0.08
N9475 X148.352 Y83.192 Z-0.121
N9480 X148.363 Y83.228 Z-0.124
N9485 X148.38 Y83.262 Z-0.126
N9490 X148.873 Y84.106 Z-0.187
N9495 X148.891 Y84.132 Z-0.189
N9500 X148.912 Y84.156 Z-0.191
N9505 X148.966 Y84.21 Z-0.196
N9510 X149.011 Y84.246 Z-0.199
N9515 X149.75 Y84.711 Z-0.254
N9520 X149.794 Y84.733 Z-0.257
N9525 X149.841 Y84.746 Z-0.26
N9530 X150.734 Y84.9 Z-0.316
N9535 X150.767 Y84.904 Z-0.318
N9540 X150.8 Y84.903 Z-0.32
N9545 X151.355 Y84.851 Z-0.355
N9550 X151.414 Y84.838 Z-0.359
N9555 X151.907 Y84.667 Z-0.391
N9560 X151.939 Y84.653 Z-0.394
N9565 X151.969 Y84.635 Z-0.396
N9570 X152.376 Y84.347 Z-0.427
N9575 X152.404 Y84.324 Z-0.429
N9580 X152.428 Y84.298 Z-0.431
N9585 X152.752 Y83.889 Z-0.464
N9590 X152.781 Y83.843 Z-0.467
N9595 X152.82 Y83.763 Z-0.473
N9600 X152.831 Y83.735 Z-0.475
N9605 X153.136 Y82.848 Z-0.533
N9610 X153.149 Y82.788 Z-0.537
N9615 X153.226 Y81.863 Z-0.595
N9620 X153.227 Y81.847 Z-0.596
N9625 X153.228 Y81.788 Z-0.6
N9630 X153.556 Z-0.62
N9635 Y82.084 Z-0.638
N9640 X153.527 Y82.798 Z-0.683
N9645 X153.357 Y83.62 Z-0.735
N9650 X153.128 Y84.195 Z-0.774
N9655 X152.797 Y84.731 Z-0.813
N9660 X152.42 Y85.092 Z-0.846
N9665 X151.972 Y85.35 Z-0.878
N9670 X151.408 Y85.518 Z-0.915
N9675 X150.849 Y85.566 Z-0.949
N9680 X149.891 Y85.412 Z-1.01
N9685 X149.479 Y85.237 Z-1.038
N9690 X149.084 Y84.971 Z-1.068
N9695 X148.728 Y84.613 Z-1.099
N9700 X148.433 Y84.185 Z-1.131
N9705 X148.179 Y83.611 Z-1.171
N9710 X148.016 Y82.939 Z-1.214
N9715 X148.004 Y82.903 Z-1.216
N9720 X147.987 Y82.87 Z-1.218
N9725 X147.941 Y82.793 Z-1.224
N9730 X147.916 Y82.758 Z-1.227
N9735 X147.885 Y82.728 Z-1.229
N9740 X147.823 Y82.677 Z-1.234
N9745 X147.786 Y82.652 Z-1.237
N9750 X147.745 Y82.634 Z-1.24
N9755 X147.653 Y82.602 Z-1.246
N9760 X147.606 Y82.591 Z-1.249
N9765 X147.558 Y82.589 Z-1.252
N9770 X147.466 Y82.594 Z-1.258
N9775 X147.427 Y82.599 Z-1.26
N9780 X147.388 Y82.611 Z-1.263
N9785 X147.327 Y82.635 Z-1.267
N9790 X147.279 Y82.66 Z-1.27
N9795 X142.859 Y85.619 Z-1.602
N9800 X142.861 Y84.92 Z-1.645
N9805 X147.649 Y81.871 Z-1.999
N9810 X147.663 Y81.861 Z-2.
N9815 X147.687 Y81.84 F400.
N9820 X147.709 Y81.817
N9825 X147.732 Y81.788
N9830 X148.155
N9835 Y81.844
N9840 X148.156 Y81.858
N9845 X148.196 Y82.505
N9850 X148.202 Y82.546
N9855 X148.352 Y83.192
N9860 X148.363 Y83.228
N9865 X148.38 Y83.262
N9870 X148.873 Y84.106
N9875 X148.891 Y84.132
N9880 X148.912 Y84.156
N9885 X148.966 Y84.21
N9890 X149.011 Y84.246
N9895 X149.75 Y84.711
N9900 X149.794 Y84.733
N9905 X149.841 Y84.746
N9910 X150.734 Y84.9
N9915 X150.767 Y84.904
N9920 X150.8 Y84.903
N9925 X151.355 Y84.851
N9930 X151.414 Y84.838
N9935 X151.907 Y84.667
N9940 X151.939 Y84.653
N9945 X151.969 Y84.635
N9950 X152.376 Y84.347
N9955 X152.404 Y84.324
N9960 X152.428 Y84.298
N9965 X152.752 Y83.889
N9970 X152.781 Y83.843
N9975 X152.82 Y83.763
N9980 X152.831 Y83.735
N9985 X153.136 Y82.848
N9990 X153.149 Y82.788
N9995 X153.226 Y81.863
N10000 X153.227 Y81.847
N10005 X153.228 Y81.788
N10010 X153.556
N10015 Y82.084
N10020 X153.527 Y82.798
N10025 X153.357 Y83.62
N10030 X153.128 Y84.195
N10035 X152.797 Y84.731
N10040 X152.42 Y85.092
N10045 X151.972 Y85.35
N10050 X151.408 Y85.518
N10055 X150.849 Y85.566
N10060 X149.891 Y85.412
N10065 X149.479 Y85.237
N10070 X149.084 Y84.971
N10075 X148.728 Y84.613
N10080 X148.433 Y84.185
N10085 X148.179 Y83.611
N10090 X148.016 Y82.939
N10095 X148.004 Y82.903
N10100 X147.987 Y82.87
N10105 X147.941 Y82.793
N10110 X147.916 Y82.758
N10115 X147.885 Y82.728
N10120 X147.823 Y82.677
N10125 X147.786 Y82.652
N10130 X147.745 Y82.634
N10135 X147.653 Y82.602
N10140 X147.606 Y82.591
N10145 X147.558 Y82.589
N10150 X147.466 Y82.594
N10155 X147.427 Y82.599
N10160 X147.388 Y82.611
N10165 X147.327 Y82.635
N10170 X147.279 Y82.66
N10175 X142.859 Y85.619
N10180 X142.861 Y84.92
N10185 X147.649 Y81.871
N10190 X147.663 Y81.861
N10195 X147.687 Y81.853
N10200 X147.711 Y81.858
N10205 X147.729 Y81.877
N10210 X147.734 Y81.902
N10215 X147.724 Y81.926
N10220 X147.628 Y82.041
N10225 X145.548 Y83.338
N10230 X145.427 Y83.369
N10235 X145.407 Y83.368
N10240 X145.39 Y83.357
N10245 X145.382 Y83.338
N10250 X145.386 Y83.319
N10255 X145.399 Y83.304
N10260 X147.649 Y81.871 Z-2.715 F333.33
N10265 X147.681 Y81.846 Z-2.726
N10270 X147.709 Y81.817 Z-2.737
N10275 X147.732 Y81.788 Z-2.746
N10280 X148.155 Z-2.86
N10285 Y81.844 Z-2.875
N10290 X148.156 Y81.858 Z-2.878
N10295 X148.184 Y82.311 Z-3.
N10300 X148.196 Y82.505 F400.
N10305 X148.202 Y82.546
N10310 X148.352 Y83.192
N10315 X148.363 Y83.228
N10320 X148.38 Y83.262
N10325 X148.873 Y84.106
N10330 X148.891 Y84.132
N10335 X148.912 Y84.156
N10340 X148.966 Y84.21
N10345 X149.011 Y84.246
N10350 X149.75 Y84.711
N10355 X149.794 Y84.733
N10360 X149.841 Y84.746
N10365 X150.734 Y84.9
N10370 X150.767 Y84.904
N10375 X150.8 Y84.903
N10380 X151.355 Y84.851
N10385 X151.414 Y84.839
N10390 X151.907 Y84.667
N10395 X151.939 Y84.653
N10400 X151.969 Y84.635
N10405 X152.376 Y84.347
N10410 X152.404 Y84.324
N10415 X152.427 Y84.299
N10420 X152.689 Y83.971
N10425 X152.697 Y83.96
N10430 X152.783 Y83.84
N10435 X152.801 Y83.809
N10440 X152.815 Y83.777
N10445 X153.136 Y82.849
N10450 X153.149 Y82.788
N10455 X153.226 Y81.863
N10460 X153.227 Y81.847
N10465 X153.228 Y81.788
N10470 X153.556
N10475 Y82.084
N10480 X153.527 Y82.798
N10485 X153.357 Y83.62
N10490 X153.128 Y84.195
N10495 X152.797 Y84.731
N10500 X152.42 Y85.092
N10505 X151.972 Y85.35
N10510 X151.408 Y85.518
N10515 X150.849 Y85.566
N10520 X149.891 Y85.412
N10525 X149.479 Y85.237
N10530 X149.084 Y84.971
N10535 X148.728 Y84.613
N10540 X148.433 Y84.185
N10545 X148.179 Y83.611
N10550 X148.016 Y82.939
N10555 X148.004 Y82.903
N10560 X147.987 Y82.87
N10565 X147.941 Y82.793
N10570 X147.916 Y82.758
N10575 X147.885 Y82.728
N10580 X147.823 Y82.677
N10585 X147.786 Y82.652
N10590 X147.745 Y82.634
N10595 X147.653 Y82.602
N10600 X147.606 Y82.591
N10605 X147.558 Y82.589
N10610 X147.466 Y82.594
N10615 X147.427 Y82.599
N10620 X147.388 Y82.611
N10625 X147.327 Y82.635
N10630 X147.279 Y82.66
N10635 X142.859 Y85.619
N10640 X142.861 Y84.92
N10645 X147.649 Y81.871
N10650 X147.681 Y81.846
N10655 X147.709 Y81.817
N10660 X147.732 Y81.788
N10665 X148.155
N10670 Y81.844
N10675 X148.156 Y81.858
N10680 X148.184 Y82.311
N10685 X148.182 Y82.335 Z-2.993 F1000.
N10690 X148.174 Y82.359 Z-2.987
N10695 X148.153 Y82.389 Z-2.95
N10700 X148.143 Y82.397 Z-2.9
N10705 G0 Z5.
N10710 X143.025 Y78.891
N10715 Z2.2
N10720 G1 X143.018 Z2.163 F333.33
N10725 X142.999 Z2.132
N10730 X142.969 Z2.11
N10735 X142.934 Z2.1
N10740 X142.857 Z2.093
N10745 Y78.249 Z2.037
N10750 X153.562 Z1.093
N10755 Y78.891 Z1.037
N10760 X142.857 Z0.093
N10765 Y78.249 Z0.037
N10770 X153.562 Z-0.907
N10775 Y78.891 Z-0.963
N10780 X142.857 Z-1.907
N10785 Y78.249 Z-1.963
N10790 X143.274 Z-2.
N10795 X153.562 F400.
N10800 Y78.891
N10805 X142.857
N10810 Y78.249
N10815 X143.274
N10820 X143.291 Y78.253
N10825 X143.303 Y78.266
N10830 X143.35 Y78.349
N10835 X143.36 Y78.36
N10840 X143.374 Y78.366
N10845 X146.073 Y78.774
N10850 X146.188 Y78.827
N10855 X146.204 Y78.842
N10860 X146.206 Y78.865
N10865 X146.195 Y78.884
N10870 X146.173 Y78.891
N10875 X142.857 Z-2.888 F333.33
N10880 Y78.475 Z-3.
N10885 Y78.249 F400.
N10890 X153.562
N10895 Y78.891
N10900 X142.857
N10905 Y78.475
N10910 X142.861 Y78.45 Z-2.993 F1000.
N10915 X142.87 Y78.427 Z-2.987
N10920 X142.893 Y78.399 Z-2.95
N10925 X142.903 Y78.391 Z-2.9
N10930 G0 Z5.
N10935 X148.192 Y62.198
N10940 Z2.197
N10945 G1 X148.19 Y62.189 Z2.154 F333.33
N10950 X148.184 Y62.163 Z2.12
N10955 X148.179 Y62.125 Z2.1
N10960 G3 X149.124 Y62.031 Z1.7 I0.473 J-0.047
N10965 X148.179 Y62.125 Z1.3 I-0.473 J0.047
N10970 X149.124 Y62.031 Z0.9 I0.473 J-0.047
N10975 X148.179 Y62.125 Z0.501 I-0.473 J0.047
N10980 X149.124 Y62.031 Z0.101 I0.473 J-0.047
N10985 X148.179 Y62.125 Z-0.299 I-0.473 J0.047
N10990 X149.124 Y62.031 Z-0.699 I0.473 J-0.047
N10995 X148.179 Y62.125 Z-1.099 I-0.473 J0.047
N11000 X149.124 Y62.031 Z-1.499 I0.473 J-0.047
N11005 X148.179 Y62.125 Z-1.898 I-0.473 J0.047
N11010 X148.287 Y61.773 Z-2. I0.473 J-0.047
N11015 X148.734 Y61.732 I0.243 J0.203
N11020 X148.774 Y62.179 I-0.203 J0.243
N11025 G1 X148.746 Y62.212 F400.
N11030 X148.713 Y62.24
N11035 X148.672 Y62.254
N11040 X148.629
N11045 X148.589 Y62.238
N11050 X148.556 Y62.21
N11055 X148.501 Y62.152
N11060 G3 X148.593 Y61.919 I0.091 J-0.099
N11065 G1 X148.706
N11070 X148.75 Y61.926
N11075 X148.789 Y61.948
N11080 X148.819 Y61.981
N11085 X148.836 Y62.022
N11090 X148.84 Y62.066
N11095 X148.828 Y62.109
N11100 X148.803 Y62.146
N11105 X148.774 Y62.179
N11110 G2 X148.773 Y62.532 I0.211 J0.177
N11115 G3 X148.893 Y62.864 I-0.398 J0.332
N11120 G1 X148.89 Y68.034
N11125 X148.409
N11130 X148.408 Y62.712
N11135 X148.405 Y62.679
N11140 X148.398 Y62.645
N11145 X148.378 Y62.571
N11150 X148.366 Y62.537
N11155 X148.349 Y62.506
N11160 X148.314 Y62.45
N11165 X148.292 Y62.421
N11170 X148.267 Y62.395
N11175 X148.21 Y62.344
N11180 X148.177 Y62.319
N11185 X148.14 Y62.301
N11190 X148.061 Y62.267
N11195 X148.027 Y62.256
N11200 X147.993 Y62.25
N11205 X147.939 Y62.243
N11210 X147.911 Y62.242
N11215 X143.812 Y62.243
N11220 X143.776 Y62.246
N11225 X143.739 Y62.254
N11230 X143.647 Y62.282
N11235 X143.602 Y62.301
N11240 X143.561 Y62.329
N11245 X143.485 Y62.392
N11250 X143.449 Y62.428
N11255 X143.421 Y62.47
N11260 X143.375 Y62.561
N11265 X143.359 Y62.599
N11270 X143.35 Y62.639
N11275 X143.341 Y62.701
N11280 X143.338 Y62.737
N11285 Y68.91
N11290 X142.857
N11295 Y61.582
N11300 X153.701
N11305 Y68.557
N11310 X153.221
N11315 X153.218 Y62.706
N11320 X153.215 Y62.664
N11325 X153.204 Y62.622
N11330 X153.171 Y62.53
N11335 X153.149 Y62.484
N11340 X153.119 Y62.444
N11345 X153.048 Y62.368
N11350 X153.011 Y62.335
N11355 X152.968 Y62.31
N11360 X152.883 Y62.271
N11365 X152.837 Y62.256
N11370 X152.789 Y62.249
N11375 X152.605 Y62.242
N11380 X152.595
N11385 X149.363 Y62.243
N11390 X149.329 Y62.246
N11395 X149.296 Y62.253
N11400 X149.215 Y62.275
N11405 X149.18 Y62.288
N11410 X149.147 Y62.306
N11415 X149.094 Y62.34
N11420 X149.064 Y62.362
N11425 X149.038 Y62.388
N11430 X148.985 Y62.452
N11435 X148.96 Y62.487
N11440 X148.941 Y62.526
N11445 X148.909 Y62.61
N11450 X148.898 Y62.653
N11455 X148.894 Y62.698
N11460 X148.893 Y62.864
N11465 X148.887 Y62.899
N11470 X148.869 Y62.929
N11475 X148.842 Y62.951
N11480 X148.808 Y62.963
N11485 X148.772 Y62.961
N11490 X148.74 Y62.948
N11495 X148.714 Y62.924
N11500 X148.347 Y62.443
N11505 G3 X148.955 Y61.713 Z-2.4 I0.304 J-0.365 F333.33
N11510 X148.347 Y62.443 Z-2.8 I-0.304 J0.365
N11515 X148.287 Y61.773 Z-3. I0.304 J-0.365
N11520 X148.734 Y61.732 I0.243 J0.203
N11525 X148.774 Y62.179 I-0.203 J0.243
N11530 G1 X148.746 Y62.212 F400.
N11535 X148.713 Y62.24
N11540 X148.672 Y62.254
N11545 X148.629
N11550 X148.589 Y62.238
N11555 X148.556 Y62.21
N11560 X148.501 Y62.152
N11565 G3 X148.593 Y61.919 I0.091 J-0.099
N11570 G1 X148.706
N11575 X148.75 Y61.926
N11580 X148.789 Y61.948
N11585 X148.819 Y61.981
N11590 X148.836 Y62.022
N11595 X148.84 Y62.066
N11600 X148.828 Y62.109
N11605 X148.803 Y62.146
N11610 X148.774 Y62.179
N11615 G2 X148.773 Y62.532 I0.211 J0.177
N11620 G3 X148.893 Y62.864 I-0.398 J0.332
N11625 G1 X148.89 Y68.034
N11630 X148.409
N11635 X148.408 Y62.712
N11640 X148.405 Y62.679
N11645 X148.398 Y62.645
N11650 X148.378 Y62.571
N11655 X148.366 Y62.537
N11660 X148.349 Y62.506
N11665 X148.314 Y62.45
N11670 X148.292 Y62.421
N11675 X148.267 Y62.395
N11680 X148.21 Y62.344
N11685 X148.177 Y62.319
N11690 X148.14 Y62.301
N11695 X148.061 Y62.267
N11700 X148.027 Y62.256
N11705 X147.993 Y62.25
N11710 X147.939 Y62.243
N11715 X147.911 Y62.242
N11720 X143.812 Y62.243
N11725 X143.776 Y62.246
N11730 X143.739 Y62.254
N11735 X143.647 Y62.282
N11740 X143.602 Y62.301
N11745 X143.561 Y62.329
N11750 X143.485 Y62.392
N11755 X143.449 Y62.428
N11760 X143.421 Y62.47
N11765 X143.375 Y62.561
N11770 X143.359 Y62.599
N11775 X143.35 Y62.639
N11780 X143.341 Y62.701
N11785 X143.338 Y62.737
N11790 Y68.91
N11795 X142.857
N11800 Y61.582
N11805 X153.701
N11810 Y68.557
N11815 X153.221
N11820 X153.218 Y62.706
N11825 X153.215 Y62.664
N11830 X153.204 Y62.622
N11835 X153.171 Y62.53
N11840 X153.149 Y62.484
N11845 X153.119 Y62.444
N11850 X153.048 Y62.368
N11855 X153.011 Y62.335
N11860 X152.968 Y62.31
N11865 X152.883 Y62.271
N11870 X152.837 Y62.256
N11875 X152.789 Y62.249
N11880 X152.605 Y62.242
N11885 X152.595
N11890 X149.363 Y62.243
N11895 X149.329 Y62.246
N11900 X149.296 Y62.253
N11905 X149.215 Y62.275
N11910 X149.18 Y62.288
N11915 X149.147 Y62.306
N11920 X149.094 Y62.34
N11925 X149.064 Y62.362
N11930 X149.038 Y62.388
N11935 X148.985 Y62.452
N11940 X148.96 Y62.487
N11945 X148.941 Y62.526
N11950 X148.909 Y62.61
N11955 X148.898 Y62.653
N11960 X148.894 Y62.698
N11965 X148.893 Y62.864
N11970 X148.89 Y62.888 Z-2.993 F1000.
N11975 X148.881 Y62.912 Z-2.987
N11980 X148.858 Y62.94 Z-2.95
N11985 X148.847 Y62.948 Z-2.9
N11990 G0 Z5.
N11995 X151.03 Y44.804
N12000 Z2.2
N12005 G1 X151.037 Y44.801 Z2.163 F333.33
N12010 X151.056 Y44.794 Z2.131
N12015 X151.085 Y44.783 Z2.109
N12020 X151.12 Y44.77 Z2.1
N12025 X153.701 Y43.815 Z1.985
N12030 Y44.489 Z1.957
N12035 X146.106 Y47.146 Z1.621
N12040 X145.127 Y47.457 Z1.578
N12045 X143.652 Y47.876 Z1.514
N12050 X143.595 Y47.9 Z1.512
N12055 X143.536 Y47.934 Z1.509
N12060 X143.504 Y47.956 Z1.507
N12065 X143.475 Y47.983 Z1.506
N12070 X143.417 Y48.049 Z1.502
N12075 X143.391 Y48.082 Z1.5
N12080 X143.372 Y48.12 Z1.499
N12085 X143.341 Y48.194 Z1.495
N12090 X143.328 Y48.234 Z1.493
N12095 X143.322 Y48.276 Z1.492
N12100 X143.317 Y48.362 Z1.488
N12105 X143.319 Y48.408 Z1.486
N12110 X143.329 Y48.454 Z1.484
N12115 X143.358 Y48.546 Z1.48
N12120 X143.377 Y48.588 Z1.478
N12125 X143.402 Y48.627 Z1.476
N12130 X143.457 Y48.694 Z1.473
N12135 X143.486 Y48.725 Z1.471
N12140 X143.52 Y48.75 Z1.469
N12145 X143.589 Y48.792 Z1.466
N12150 X143.619 Y48.808 Z1.464
N12155 X143.652 Y48.82 Z1.463
N12160 X145.127 Y49.239 Z1.399
N12165 X146.106 Y49.55 Z1.356
N12170 X153.701 Y52.191 Z1.02
N12175 Y52.858 Z0.993
N12180 X142.857 Y48.85 Z0.51
N12185 Y47.828 Z0.468
N12190 X153.701 Y43.815 Z-0.015
N12195 Y44.489 Z-0.043
N12200 X146.106 Y47.146 Z-0.379
N12205 X145.127 Y47.457 Z-0.422
N12210 X143.652 Y47.876 Z-0.486
N12215 X143.595 Y47.9 Z-0.488
N12220 X143.536 Y47.934 Z-0.491
N12225 X143.504 Y47.956 Z-0.493
N12230 X143.475 Y47.983 Z-0.494
N12235 X143.417 Y48.049 Z-0.498
N12240 X143.391 Y48.082 Z-0.5
N12245 X143.372 Y48.12 Z-0.501
N12250 X143.341 Y48.194 Z-0.505
N12255 X143.328 Y48.234 Z-0.507
N12260 X143.322 Y48.276 Z-0.508
N12265 X143.317 Y48.362 Z-0.512
N12270 X143.319 Y48.408 Z-0.514
N12275 X143.329 Y48.454 Z-0.516
N12280 X143.358 Y48.546 Z-0.52
N12285 X143.377 Y48.588 Z-0.522
N12290 X143.402 Y48.627 Z-0.524
N12295 X143.457 Y48.694 Z-0.527
N12300 X143.486 Y48.725 Z-0.529
N12305 X143.52 Y48.75 Z-0.531
N12310 X143.589 Y48.792 Z-0.534
N12315 X143.619 Y48.808 Z-0.536
N12320 X143.652 Y48.82 Z-0.537
N12325 X145.127 Y49.239 Z-0.601
N12330 X146.106 Y49.55 Z-0.644
N12335 X153.701 Y52.191 Z-0.98
N12340 Y52.858 Z-1.007
N12345 X142.857 Y48.85 Z-1.49
N12350 Y47.828 Z-1.532
N12355 X153.367 Y43.939 Z-2.
N12360 X153.701 Y43.815 F400.
N12365 Y44.489
N12370 X146.106 Y47.146
N12375 X145.127 Y47.457
N12380 X143.652 Y47.876
N12385 X143.595 Y47.9
N12390 X143.536 Y47.934
N12395 X143.504 Y47.956
N12400 X143.475 Y47.983
N12405 X143.417 Y48.049
N12410 X143.391 Y48.082
N12415 X143.372 Y48.12
N12420 X143.341 Y48.194
N12425 X143.328 Y48.234
N12430 X143.322 Y48.276
N12435 X143.317 Y48.362
N12440 X143.319 Y48.408
N12445 X143.329 Y48.454
N12450 X143.358 Y48.546
N12455 X143.377 Y48.588
N12460 X143.402 Y48.627
N12465 X143.457 Y48.694
N12470 X143.486 Y48.725
N12475 X143.52 Y48.75
N12480 X143.589 Y48.792
N12485 X143.619 Y48.808
N12490 X143.652 Y48.82
N12495 X145.127 Y49.239
N12500 X146.106 Y49.55
N12505 X153.701 Y52.191
N12510 Y52.858
N12515 X142.857 Y48.85
N12520 Y47.828
N12525 X153.367 Y43.939
N12530 X153.406 Y43.932
N12535 X153.444 Y43.941
N12540 X153.476 Y43.964
N12545 X153.496 Y43.998
N12550 X153.502 Y44.036
N12555 X153.493 Y44.074
N12560 X153.47 Y44.106
N12565 X153.437 Y44.126
N12570 X149.937 Y45.422
N12575 X149.898 Y45.428
N12580 X149.86 Y45.419
N12585 X149.829 Y45.396
N12590 X149.808 Y45.362
N12595 X149.802 Y45.324
N12600 X149.811 Y45.286
N12605 X149.834 Y45.254
N12610 X149.867 Y45.234
N12615 X153.367 Y43.939 Z-3. F333.33
N12620 X153.701 Y43.815 F400.
N12625 Y44.489
N12630 X146.106 Y47.146
N12635 X145.127 Y47.457
N12640 X143.652 Y47.876
N12645 X143.595 Y47.9
N12650 X143.536 Y47.934
N12655 X143.504 Y47.956
N12660 X143.475 Y47.983
N12665 X143.417 Y48.049
N12670 X143.391 Y48.082
N12675 X143.372 Y48.12
N12680 X143.341 Y48.194
N12685 X143.328 Y48.234
N12690 X143.322 Y48.276
N12695 X143.317 Y48.362
N12700 X143.319 Y48.408
N12705 X143.329 Y48.454
N12710 X143.358 Y48.546
N12715 X143.377 Y48.588
N12720 X143.402 Y48.627
N12725 X143.457 Y48.694
N12730 X143.486 Y48.725
N12735 X143.52 Y48.75
N12740 X143.589 Y48.792
N12745 X143.619 Y48.808
N12750 X143.652 Y48.82
N12755 X145.127 Y49.239
N12760 X146.106 Y49.55
N12765 X153.701 Y52.191
N12770 Y52.858
N12775 X142.857 Y48.85
N12780 Y47.828
N12785 X153.367 Y43.939
N12790 X153.392 Y43.933 Z-2.993 F1000.
N12795 X153.417 Z-2.987
N12800 X153.451 Y43.945 Z-2.95
N12805 X153.462 Y43.952 Z-2.9
N12810 G0 Z5.
N12815 X146.046 Y35.377
N12820 Z2.2
N12825 G1 X146.04 Y35.375 Z2.163 F333.33
N12830 X146.02 Y35.372 Z2.132
N12835 X145.991 Y35.367 Z2.11
N12840 X145.956 Y35.36 Z2.1
N12845 X145.756 Y35.324 Z2.083
N12850 X144.852 Y35.006 Z2.005
N12855 X144.035 Y34.537 Z1.927
N12860 X143.411 Y33.985 Z1.859
N12865 X143.177 Y33.68 Z1.827
N12870 X143.042 Y33.357 Z1.799
N12875 X142.969 Y33.002 Z1.769
N12880 X143.45 Z1.73
N12885 X143.716 Y33.413 Z1.689
N12890 X143.75 Y33.455 Z1.685
N12895 X143.791 Y33.495 Z1.68
N12900 X143.826 Y33.525 Z1.676
N12905 X144.48 Y33.967 Z1.612
N12910 X144.535 Y33.995 Z1.607
N12915 X146.316 Y34.636 Z1.451
N12920 X146.358 Y34.647 Z1.448
N12925 X147.313 Y34.814 Z1.368
N12930 X147.342 Y34.817 Z1.366
N12935 X148.267 Y34.87 Z1.29
N12940 X148.306 Y34.869 Z1.286
N12945 X150.124 Y34.686 Z1.137
N12950 X150.171 Y34.677 Z1.133
N12955 X151.928 Y34.145 Z0.982
N12960 X151.979 Y34.123 Z0.977
N12965 X152.348 Y33.913 Z0.942
N12970 X152.376 Y33.895 Z0.94
N12975 X152.401 Y33.873 Z0.937
N12980 X152.739 Y33.539 Z0.898
N12985 X152.765 Y33.508 Z0.895
N12990 X152.786 Y33.474 Z0.891
N12995 X153.024 Y33.002 Z0.848
N13000 X153.519 Z0.807
N13005 X153.501 Y33.068 Z0.802
N13010 X153.237 Y33.644 Z0.75
N13015 X152.874 Y34.151 Z0.699
N13020 X152.441 Y34.553 Z0.65
N13025 X151.509 Y35.083 Z0.562
N13030 X150.475 Y35.4 Z0.473
N13035 X149.367 Y35.564 Z0.381
N13040 X148.221 Y35.608 Z0.287
N13045 X146.984 Y35.545 Z0.186
N13050 X145.756 Y35.324 Z0.083
N13055 X144.852 Y35.006 Z0.005
N13060 X144.035 Y34.537 Z-0.073
N13065 X143.411 Y33.985 Z-0.141
N13070 X143.177 Y33.68 Z-0.173
N13075 X143.042 Y33.357 Z-0.201
N13080 X142.969 Y33.002 Z-0.231
N13085 X143.45 Z-0.27
N13090 X143.716 Y33.413 Z-0.311
N13095 X143.75 Y33.455 Z-0.315
N13100 X143.791 Y33.495 Z-0.32
N13105 X143.826 Y33.525 Z-0.324
N13110 X144.48 Y33.967 Z-0.388
N13115 X144.535 Y33.995 Z-0.393
N13120 X146.316 Y34.636 Z-0.549
N13125 X146.358 Y34.647 Z-0.552
N13130 X147.313 Y34.814 Z-0.632
N13135 X147.342 Y34.817 Z-0.634
N13140 X148.267 Y34.87 Z-0.71
N13145 X148.306 Y34.869 Z-0.714
N13150 X150.124 Y34.686 Z-0.863
N13155 X150.171 Y34.677 Z-0.867
N13160 X151.928 Y34.145 Z-1.018
N13165 X151.979 Y34.123 Z-1.023
N13170 X152.348 Y33.913 Z-1.058
N13175 X152.376 Y33.895 Z-1.06
N13180 X152.401 Y33.873 Z-1.063
N13185 X152.739 Y33.539 Z-1.102
N13190 X152.765 Y33.508 Z-1.105
N13195 X152.786 Y33.474 Z-1.109
N13200 X153.024 Y33.002 Z-1.152
N13205 X153.519 Z-1.193
N13210 X153.501 Y33.068 Z-1.198
N13215 X153.237 Y33.644 Z-1.25
N13220 X152.874 Y34.151 Z-1.301
N13225 X152.441 Y34.553 Z-1.35
N13230 X151.509 Y35.083 Z-1.438
N13235 X150.475 Y35.4 Z-1.527
N13240 X149.367 Y35.564 Z-1.619
N13245 X148.221 Y35.608 Z-1.713
N13250 X146.984 Y35.545 Z-1.814
N13255 X145.756 Y35.324 Z-1.917
N13260 X144.852 Y35.006 Z-1.995
N13265 X144.803 Y34.978 Z-2.
N13270 X144.035 Y34.537 F400.
N13275 X143.411 Y33.985
N13280 X143.177 Y33.68
N13285 X143.042 Y33.357
N13290 X142.969 Y33.002
N13295 X143.45
N13300 X143.716 Y33.413
N13305 X143.75 Y33.455
N13310 X143.791 Y33.495
N13315 X143.826 Y33.525
N13320 X144.48 Y33.967
N13325 X144.535 Y33.995
N13330 X146.316 Y34.636
N13335 X146.358 Y34.647
N13340 X147.313 Y34.814
N13345 X147.342 Y34.817
N13350 X148.267 Y34.87
N13355 X148.306 Y34.869
N13360 X150.124 Y34.686
N13365 X150.171 Y34.677
N13370 X151.928 Y34.145
N13375 X151.979 Y34.123
N13380 X152.348 Y33.913
N13385 X152.376 Y33.895
N13390 X152.401 Y33.873
N13395 X152.739 Y33.539
N13400 X152.765 Y33.508
N13405 X152.786 Y33.474
N13410 X153.024 Y33.002
N13415 X153.519
N13420 X153.501 Y33.068
N13425 X153.237 Y33.644
N13430 X152.874 Y34.151
N13435 X152.441 Y34.553
N13440 X151.509 Y35.083
N13445 X150.475 Y35.4
N13450 X149.367 Y35.564
N13455 X148.221 Y35.608
N13460 X146.984 Y35.545
N13465 X145.756 Y35.324
N13470 X144.852 Y35.006
N13475 X144.803 Y34.978
N13480 X144.787 Y34.962
N13485 X144.781 Y34.94
N13490 X144.786 Y34.919
N13495 X144.801 Y34.902
N13500 X144.822 Y34.895
N13505 X145. Y34.886
N13510 X148.255 Y35.465
N13515 X148.39 Y35.528
N13520 X148.405 Y35.542
N13525 X148.412 Y35.561
N13530 X148.408 Y35.581
N13535 X148.394 Y35.596
N13540 X148.374 Y35.602
N13545 X148.221 Y35.608 Z-2.041 F333.33
N13550 X146.984 Y35.545 Z-2.373
N13555 X145.756 Y35.324 Z-2.707
N13560 X144.852 Y35.006 Z-2.964
N13565 X144.736 Y34.939 Z-3.
N13570 X144.035 Y34.537 F400.
N13575 X143.411 Y33.984
N13580 X143.176 Y33.679
N13585 X143.042 Y33.357
N13590 X142.969 Y33.002
N13595 X143.45
N13600 X143.716 Y33.413
N13605 X143.75 Y33.455
N13610 X143.791 Y33.496
N13615 X143.826 Y33.525
N13620 X144.48 Y33.967
N13625 X144.535 Y33.995
N13630 X146.316 Y34.636
N13635 X146.358 Y34.647
N13640 X147.313 Y34.814
N13645 X147.342 Y34.817
N13650 X148.267 Y34.87
N13655 X148.306 Y34.869
N13660 X150.124 Y34.686
N13665 X150.171 Y34.677
N13670 X151.928 Y34.145
N13675 X151.979 Y34.123
N13680 X152.348 Y33.913
N13685 X152.376 Y33.895
N13690 X152.401 Y33.874
N13695 X152.739 Y33.539
N13700 X152.765 Y33.508
N13705 X152.786 Y33.474
N13710 X153.024 Y33.002
N13715 X153.519
N13720 X153.501 Y33.068
N13725 X153.237 Y33.644
N13730 X152.874 Y34.151
N13735 X152.441 Y34.553
N13740 X151.509 Y35.083
N13745 X150.475 Y35.4
N13750 X149.367 Y35.564
N13755 X148.221 Y35.608
N13760 X146.984 Y35.545
N13765 X145.756 Y35.324
N13770 X144.852 Y35.006
N13775 X144.736 Y34.939
N13780 X144.716 Y34.924 Z-2.993 F1000.
N13785 X144.7 Y34.905 Z-2.987
N13790 X144.687 Y34.871 Z-2.95
N13795 X144.686 Y34.858 Z-2.9
N13800 G0 Z5.
N13805 X148.325 Y28.481
N13810 Z2.2
N13815 G1 X148.318 Y28.48 Z2.164 F333.33
N13820 X148.299 Y28.479 Z2.133
N13825 X148.27 Y28.476 Z2.111
N13830 X148.233 Z2.1
N13835 X148.225 Y28.477 Z2.099
N13840 X146.376 Y28.662 Z1.945
N13845 X146.331 Y28.67 Z1.942
N13850 X144.543 Y29.195 Z1.787
N13855 X144.506 Y29.21 Z1.784
N13860 X144.471 Y29.23 Z1.781
N13865 X143.797 Y29.7 Z1.713
N13870 X143.769 Y29.722 Z1.71
N13875 X143.745 Y29.748 Z1.707
N13880 X143.686 Y29.822 Z1.699
N13885 X143.663 Y29.856 Z1.696
N13890 X143.43 Y30.267 Z1.656
N13895 X142.984 Z1.619
N13900 X143.063 Y29.924 Z1.59
N13905 X143.473 Y29.278 Z1.527
N13910 X144.087 Y28.74 Z1.459
N13915 X144.909 Y28.287 Z1.382
N13920 X145.814 Y27.991 Z1.303
N13925 X147.044 Y27.787 Z1.199
N13930 X148.28 Y27.729 Z1.097
N13935 X149.546 Y27.794 Z0.992
N13940 X150.775 Y28.015 Z0.889
N13945 X151.667 Y28.328 Z0.81
N13950 X152.442 Y28.778 Z0.736
N13955 X153.006 Y29.336 Z0.67
N13960 X153.413 Y29.99 Z0.607
N13965 X153.494 Y30.267 Z0.583
N13970 X153.015 Z0.543
N13975 X152.762 Y29.835 Z0.502
N13980 X152.74 Y29.804 Z0.498
N13985 X152.714 Y29.776 Z0.495
N13990 X152.622 Y29.693 Z0.485
N13995 X152.604 Y29.679 Z0.483
N14000 X152.006 Y29.228 Z0.421
N14005 X151.976 Y29.209 Z0.418
N14010 X151.944 Y29.194 Z0.415
N14015 X151.045 Y28.853 Z0.336
N14020 X151.014 Y28.843 Z0.333
N14025 X150.126 Y28.632 Z0.257
N14030 X150.089 Y28.626 Z0.254
N14035 X148.27 Y28.476 Z0.103
N14040 X148.225 Y28.477 Z0.099
N14045 X146.376 Y28.662 Z-0.055
N14050 X146.331 Y28.67 Z-0.058
N14055 X144.543 Y29.195 Z-0.213
N14060 X144.506 Y29.21 Z-0.216
N14065 X144.471 Y29.23 Z-0.219
N14070 X143.797 Y29.7 Z-0.287
N14075 X143.769 Y29.722 Z-0.29
N14080 X143.745 Y29.748 Z-0.293
N14085 X143.686 Y29.822 Z-0.301
N14090 X143.663 Y29.856 Z-0.304
N14095 X143.43 Y30.267 Z-0.344
N14100 X142.984 Z-0.381
N14105 X143.063 Y29.924 Z-0.41
N14110 X143.473 Y29.278 Z-0.473
N14115 X144.087 Y28.74 Z-0.541
N14120 X144.909 Y28.287 Z-0.618
N14125 X145.814 Y27.991 Z-0.697
N14130 X147.044 Y27.787 Z-0.801
N14135 X148.28 Y27.729 Z-0.903
N14140 X149.546 Y27.794 Z-1.008
N14145 X150.775 Y28.015 Z-1.111
N14150 X151.667 Y28.328 Z-1.19
N14155 X152.442 Y28.778 Z-1.264
N14160 X153.006 Y29.336 Z-1.33
N14165 X153.413 Y29.99 Z-1.393
N14170 X153.494 Y30.267 Z-1.417
N14175 X153.015 Z-1.457
N14180 X152.762 Y29.835 Z-1.498
N14185 X152.74 Y29.804 Z-1.502
N14190 X152.714 Y29.776 Z-1.505
N14195 X152.622 Y29.693 Z-1.515
N14200 X152.604 Y29.679 Z-1.517
N14205 X152.006 Y29.228 Z-1.579
N14210 X151.976 Y29.209 Z-1.582
N14215 X151.944 Y29.194 Z-1.585
N14220 X151.045 Y28.853 Z-1.664
N14225 X151.014 Y28.843 Z-1.667
N14230 X150.126 Y28.632 Z-1.743
N14235 X150.089 Y28.626 Z-1.746
N14240 X148.27 Y28.476 Z-1.897
N14245 X148.225 Y28.477 Z-1.901
N14250 X147.031 Y28.596 Z-2.
N14255 X146.376 Y28.662 F400.
N14260 X146.331 Y28.67
N14265 X144.543 Y29.195
N14270 X144.506 Y29.21
N14275 X144.471 Y29.23
N14280 X143.797 Y29.7
N14285 X143.769 Y29.722
N14290 X143.745 Y29.748
N14295 X143.686 Y29.822
N14300 X143.663 Y29.856
N14305 X143.43 Y30.267
N14310 X142.984
N14315 X143.063 Y29.924
N14320 X143.473 Y29.278
N14325 X144.087 Y28.74
N14330 X144.909 Y28.287
N14335 X145.814 Y27.991
N14340 X147.044 Y27.787
N14345 X148.28 Y27.729
N14350 X149.546 Y27.794
N14355 X150.775 Y28.015
N14360 X151.667 Y28.328
N14365 X152.442 Y28.778
N14370 X153.006 Y29.336
N14375 X153.413 Y29.99
N14380 X153.494 Y30.267
N14385 X153.015
N14390 X152.762 Y29.835
N14395 X152.74 Y29.804
N14400 X152.714 Y29.776
N14405 X152.622 Y29.693
N14410 X152.604 Y29.679
N14415 X152.006 Y29.228
N14420 X151.976 Y29.209
N14425 X151.944 Y29.194
N14430 X151.045 Y28.853
N14435 X151.014 Y28.843
N14440 X150.126 Y28.632
N14445 X150.089 Y28.626
N14450 X148.27 Y28.476
N14455 X148.225 Y28.477
N14460 X147.031 Y28.596
N14465 X147.009 Y28.593
N14470 X146.99 Y28.58
N14475 X146.898 Y28.48
N14480 X146.877 Y28.466
N14485 X146.851 Y28.465
N14490 X143.926 Y29.118
N14495 X143.757 Y29.124
N14500 X143.733 Y29.118
N14505 X143.718 Y29.099
N14510 X143.716 Y29.075
N14515 X143.729 Y29.054
N14520 X144.087 Y28.74 Z-2.128 F333.33
N14525 X144.909 Y28.287 Z-2.379
N14530 X145.814 Y27.991 Z-2.634
N14535 X147.044 Y27.787 Z-2.968
N14540 X147.162 Y27.782 Z-3.
N14545 X148.28 Y27.729 F400.
N14550 X149.546 Y27.794
N14555 X150.775 Y28.015
N14560 X151.667 Y28.328
N14565 X152.442 Y28.778
N14570 X153.006 Y29.336
N14575 X153.413 Y29.99
N14580 X153.494 Y30.267
N14585 X153.015
N14590 X152.762 Y29.835
N14595 X152.74 Y29.803
N14600 X152.714 Y29.776
N14605 X152.622 Y29.693
N14610 X152.604 Y29.679
N14615 X152.006 Y29.228
N14620 X151.976 Y29.209
N14625 X151.944 Y29.194
N14630 X151.045 Y28.853
N14635 X151.014 Y28.843
N14640 X150.126 Y28.632
N14645 X150.089 Y28.626
N14650 X148.27 Y28.476
N14655 X148.225 Y28.477
N14660 X146.376 Y28.662
N14665 X146.331 Y28.67
N14670 X144.543 Y29.195
N14675 X144.506 Y29.21
N14680 X144.471 Y29.23
N14685 X143.797 Y29.7
N14690 X143.769 Y29.722
N14695 X143.745 Y29.748
N14700 X143.686 Y29.822
N14705 X143.663 Y29.856
N14710 X143.43 Y30.267
N14715 X142.984
N14720 X143.063 Y29.924
N14725 X143.473 Y29.279
N14730 X144.087 Y28.74
N14735 X144.909 Y28.287
N14740 X145.814 Y27.991
N14745 X147.044 Y27.787
N14750 X147.162 Y27.782
N14755 X147.187 Y27.784 Z-2.993 F1000.
N14760 X147.211 Y27.792 Z-2.987
N14765 X147.24 Y27.813 Z-2.95
N14770 X147.248 Y27.824 Z-2.9
N14775 G0 Z5.
N14780 X136.261 Y35.332
N14785 Z2.197
N14790 G1 X136.253 Y35.327 Z2.154 F333.33
N14795 X136.232 Y35.31 Z2.12
N14800 X136.204 Y35.285 Z2.1
N14805 G3 X136.867 Y34.605 Z1.7 I0.332 J-0.34
N14810 X136.204 Y35.285 Z1.3 I-0.332 J0.34
N14815 X136.867 Y34.605 Z0.9 I0.332 J-0.34
N14820 X136.204 Y35.285 Z0.501 I-0.332 J0.34
N14825 X136.867 Y34.605 Z0.101 I0.332 J-0.34
N14830 X136.204 Y35.285 Z-0.299 I-0.332 J0.34
N14835 X136.867 Y34.605 Z-0.699 I0.332 J-0.34
N14840 X136.204 Y35.285 Z-1.099 I-0.332 J0.34
N14845 X136.867 Y34.605 Z-1.499 I0.332 J-0.34
N14850 X136.204 Y35.285 Z-1.898 I-0.332 J0.34
N14855 X136.061 Y34.945 Z-2. I0.332 J-0.34
N14860 X136.696 I0.317 J0.
N14865 G1 Y34.992 F400.
N14870 X136.69 Y35.03
N14875 X136.672 Y35.065
N14880 X136.645 Y35.092
N14885 X136.61 Y35.11
N14890 X136.572 Y35.116
N14895 X136.538
N14900 X136.498 Y35.109
N14905 X136.462 Y35.09
N14910 X136.395 Y35.038
N14915 X136.367 Y35.007
N14920 X136.35 Y34.969
N14925 X136.347 Y34.928
N14930 X136.358 Y34.889
N14935 X136.381 Y34.854
N14940 X136.414 Y34.83
N14945 X136.458 Y34.805
N14950 X136.506 Y34.775
N14955 X136.547 Y34.758
N14960 X136.59 Y34.757
N14965 X136.632 Y34.771
N14970 X136.666 Y34.799
N14975 X136.688 Y34.836
N14980 X136.696 Y34.879
N14985 Y34.945
N14990 X136.692 Y34.97 Z-1.993 F1000.
N14995 X136.683 Y34.993 Z-1.987
N15000 X136.66 Y35.021 Z-1.95
N15005 X136.65 Y35.029 Z-1.9
N15010 G0 Z5.
N15015 X126.223 Y27.909
N15020 Z2.197
N15025 G1 X126.225 Y27.9 Z2.154 F333.33
N15030 X126.23 Y27.874 Z2.12
N15035 X126.241 Y27.837 Z2.1
N15040 G3 X127.144 Y28.131 Z1.7 I0.452 J0.147
N15045 X126.241 Y27.837 Z1.3 I-0.452 J-0.147
N15050 X127.144 Y28.131 Z0.9 I0.452 J0.147
N15055 X126.241 Y27.837 Z0.501 I-0.452 J-0.147
N15060 X127.144 Y28.131 Z0.101 I0.452 J0.147
N15065 X126.241 Y27.837 Z-0.299 I-0.452 J-0.147
N15070 X127.144 Y28.131 Z-0.699 I0.452 J0.147
N15075 X126.241 Y27.837 Z-1.099 I-0.452 J-0.147
N15080 X127.144 Y28.131 Z-1.499 I0.452 J0.147
N15085 X126.241 Y27.837 Z-1.898 I-0.452 J-0.147
N15090 X126.482 Y27.558 Z-2. I0.452 J0.147
N15095 X126.908 Y27.702 I0.141 J0.285
N15100 X126.764 Y28.128 I-0.285 J0.141
N15105 G1 X126.718 Y28.152 F400.
N15110 X126.678 Y28.168
N15115 X126.635
N15120 X126.594 Y28.153
N15125 X126.561 Y28.126
N15130 X126.539 Y28.088
N15135 X126.532 Y28.046
N15140 Y27.947
N15145 X126.538 Y27.908
N15150 X126.555 Y27.874
N15155 X126.583 Y27.846
N15160 X126.618 Y27.829
N15165 X126.656 Y27.823
N15170 X126.731
N15175 X126.771 Y27.83
N15180 X126.807 Y27.85
N15185 X126.854 Y27.887
N15190 X126.882 Y27.918
N15195 X126.898 Y27.956
N15200 X126.9 Y27.997
N15205 X126.889 Y28.037
N15210 X126.865 Y28.071
N15215 X126.831 Y28.095
N15220 X126.774 Y28.123
N15225 X126.764 Y28.128
N15230 G2 X126.615 Y28.48 I0.129 J0.262
N15235 G3 X126.676 Y28.858 I-1.152 J0.377
N15240 G1 X126.671 Y35.865
N15245 X126.191
N15250 Y27.48
N15255 X126.892 Y27.483
N15260 X135.777 Y34.493
N15265 X135.812 Y34.516
N15270 X135.851 Y34.533
N15275 X135.924 Y34.558
N15280 X135.96 Y34.568
N15285 X135.998 Y34.571
N15290 X136.071 Y34.574
N15295 X136.107 Y34.572
N15300 X136.142 Y34.565
N15305 X136.209 Y34.547
N15310 X136.245 Y34.535
N15315 X136.278 Y34.518
N15320 X136.346 Y34.475
N15325 X136.378 Y34.451
N15330 X136.406 Y34.423
N15335 X136.457 Y34.361
N15340 X136.482 Y34.324
N15345 X136.5 Y34.283
N15350 X136.532 Y34.191
N15355 X136.542 Y34.151
N15360 X136.546 Y34.11
N15365 X136.554 Y28.11
N15370 X137.035
N15375 Y35.455
N15380 X136.379
N15385 X135.739 Y34.957
N15390 X127.45 Y28.445
N15395 X127.414 Y28.422
N15400 X127.375 Y28.405
N15405 X127.282 Y28.374
N15410 X127.236 Y28.363
N15415 X127.188 Y28.362
N15420 X127.096 Y28.367
N15425 X127.047 Y28.375
N15430 X127.001 Y28.392
N15435 X126.909 Y28.437
N15440 X126.867 Y28.462
N15445 X126.831 Y28.496
N15450 X126.769 Y28.566
N15455 X126.742 Y28.602
N15460 X126.723 Y28.643
N15465 X126.692 Y28.724
N15470 X126.68 Y28.768
N15475 X126.676 Y28.813
N15480 Y28.858
N15485 X126.669 Y28.893
N15490 X126.651 Y28.923
N15495 X126.624 Y28.946
N15500 X126.59 Y28.957
N15505 X126.555 Y28.956
N15510 X126.522 Y28.943
N15515 X126.496 Y28.919
N15520 X126.48 Y28.887
N15525 X126.267 Y28.196
N15530 G3 X127.118 Y27.772 Z-2.4 I0.425 J-0.212 F333.33
N15535 X126.267 Y28.196 Z-2.8 I-0.425 J0.212
N15540 X126.482 Y27.558 Z-3. I0.425 J-0.212
N15545 X126.908 Y27.702 I0.141 J0.285
N15550 X126.764 Y28.128 I-0.285 J0.141
N15555 G1 X126.718 Y28.152 F400.
N15560 X126.678 Y28.168
N15565 X126.635
N15570 X126.594 Y28.153
N15575 X126.561 Y28.126
N15580 X126.539 Y28.088
N15585 X126.532 Y28.046
N15590 Y27.947
N15595 X126.538 Y27.908
N15600 X126.555 Y27.874
N15605 X126.583 Y27.846
N15610 X126.618 Y27.829
N15615 X126.656 Y27.823
N15620 X126.731
N15625 X126.771 Y27.83
N15630 X126.807 Y27.85
N15635 X126.854 Y27.887
N15640 X126.882 Y27.918
N15645 X126.898 Y27.956
N15650 X126.9 Y27.997
N15655 X126.889 Y28.037
N15660 X126.865 Y28.071
N15665 X126.831 Y28.095
N15670 X126.774 Y28.123
N15675 X126.764 Y28.128
N15680 X126.74 Y28.136 Z-2.993 F1000.
N15685 X126.715 Y28.138 Z-2.987
N15690 X126.68 Y28.129 Z-2.95
N15695 X126.668 Y28.123 Z-2.9
N15700 G0 Z5.
N15705 X136.149 Y34.669
N15710 Z0.197
N15715 G1 X136.155 Y34.661 Z0.154 F333.33
N15720 X136.171 Y34.64 Z0.12
N15725 X136.197 Y34.612 Z0.1
N15730 G3 X136.875 Y35.278 Z-0.3 I0.339 J0.333
N15735 X136.197 Y34.612 Z-0.7 I-0.339 J-0.333
N15740 X136.875 Y35.278 Z-1.1 I0.339 J0.333
N15745 X136.197 Y34.612 Z-1.499 I-0.339 J-0.333
N15750 X136.875 Y35.278 Z-1.899 I0.339 J0.333
N15755 X136.197 Y34.612 Z-2.299 I-0.339 J-0.333
N15760 X136.875 Y35.278 Z-2.699 I0.339 J0.333
N15765 X136.061 Y34.945 Z-3. I-0.339 J-0.333
N15770 X136.696 I0.317 J0.
N15775 G1 Y34.992 F400.
N15780 X136.69 Y35.03
N15785 X136.672 Y35.065
N15790 X136.645 Y35.092
N15795 X136.61 Y35.11
N15800 X136.572 Y35.116
N15805 X136.538
N15810 X136.498 Y35.109
N15815 X136.462 Y35.09
N15820 X136.395 Y35.038
N15825 X136.367 Y35.007
N15830 X136.35 Y34.969
N15835 X136.347 Y34.928
N15840 X136.358 Y34.889
N15845 X136.381 Y34.854
N15850 X136.414 Y34.83
N15855 X136.458 Y34.805
N15860 X136.506 Y34.775
N15865 X136.547 Y34.758
N15870 X136.59 Y34.757
N15875 X136.632 Y34.771
N15880 X136.666 Y34.799
N15885 X136.688 Y34.836
N15890 X136.696 Y34.879
N15895 Y34.945
N15900 G2 X136.865 Y35.199 I0.275 J0.
N15905 G3 X137.035 Y35.453 I-0.106 J0.254
N15910 G1 Y35.455
N15915 X136.379
N15920 X135.739 Y34.957
N15925 X127.45 Y28.445
N15930 X127.414 Y28.422
N15935 X127.375 Y28.405
N15940 X127.282 Y28.374
N15945 X127.236 Y28.363
N15950 X127.188 Y28.362
N15955 X127.096 Y28.367
N15960 X127.047 Y28.375
N15965 X127.001 Y28.392
N15970 X126.909 Y28.437
N15975 X126.867 Y28.462
N15980 X126.831 Y28.496
N15985 X126.769 Y28.566
N15990 X126.742 Y28.602
N15995 X126.723 Y28.643
N16000 X126.692 Y28.724
N16005 X126.68 Y28.768
N16010 X126.676 Y28.813
N16015 X126.671 Y35.865
N16020 X126.191
N16025 Y27.48
N16030 X126.892 Y27.483
N16035 X135.777 Y34.493
N16040 X135.812 Y34.516
N16045 X135.851 Y34.533
N16050 X135.924 Y34.558
N16055 X135.96 Y34.568
N16060 X135.998 Y34.571
N16065 X136.071 Y34.574
N16070 X136.107 Y34.572
N16075 X136.142 Y34.565
N16080 X136.209 Y34.547
N16085 X136.245 Y34.535
N16090 X136.278 Y34.518
N16095 X136.346 Y34.475
N16100 X136.378 Y34.451
N16105 X136.406 Y34.423
N16110 X136.457 Y34.361
N16115 X136.482 Y34.324
N16120 X136.5 Y34.283
N16125 X136.532 Y34.191
N16130 X136.542 Y34.151
N16135 X136.546 Y34.11
N16140 X136.554 Y28.11
N16145 X137.035
N16150 Y35.453
N16155 Z-2.9 F1000.
N16160 G0 Z5.
N16165 X132.37 Y45.685
N16170 Z2.197
N16175 G1 X132.365 Y45.693 Z2.154 F333.33
N16180 X132.348 Y45.714 Z2.12
N16185 X132.323 Y45.742 Z2.1
N16190 G3 X131.643 Y45.079 Z1.7 I-0.34 J-0.332
N16195 X132.323 Y45.742 Z1.3 I0.34 J0.332
N16200 X131.643 Y45.079 Z0.9 I-0.34 J-0.332
N16205 X132.323 Y45.742 Z0.501 I0.34 J0.332
N16210 X131.643 Y45.079 Z0.101 I-0.34 J-0.332
N16215 X132.323 Y45.742 Z-0.299 I0.34 J0.332
N16220 X131.643 Y45.079 Z-0.699 I-0.34 J-0.332
N16225 X132.323 Y45.742 Z-1.099 I0.34 J0.332
N16230 X131.643 Y45.079 Z-1.499 I-0.34 J-0.332
N16235 X132.323 Y45.742 Z-1.898 I0.34 J0.332
N16240 X131.983 Y45.885 Z-2. I-0.34 J-0.332
N16245 Y45.254 I0. J-0.316
N16250 G1 X132.037 F400.
N16255 X132.081 Y45.262
N16260 X132.121 Y45.284
N16265 X132.151 Y45.318
N16270 X132.167 Y45.36
N16275 X132.169 Y45.405
N16280 X132.156 Y45.448
N16285 X132.129 Y45.484
N16290 X132.078 Y45.539
N16295 X132.045 Y45.567
N16300 X132.003 Y45.582
N16305 X131.96
N16310 X131.919 Y45.566
N16315 X131.886 Y45.538
N16320 X131.833 Y45.479
N16325 X131.806 Y45.444
N16330 X131.794 Y45.401
N16335 X131.796 Y45.357
N16340 X131.812 Y45.316
N16345 X131.841 Y45.283
N16350 X131.88 Y45.262
N16355 X131.923 Y45.254
N16360 X131.983
N16365 G2 X132.237 Y45.085 I0. J-0.275
N16370 G3 X132.491 Y44.915 I0.254 J0.106
N16375 G1 X137.035
N16380 Y51.89
N16385 X136.554
N16390 X136.551 Y46.035
N16395 X136.547 Y45.99
N16400 X136.535 Y45.947
N16405 X136.5 Y45.854
N16410 X136.479 Y45.811
N16415 X136.449 Y45.773
N16420 X136.387 Y45.705
N16425 X136.352 Y45.674
N16430 X136.312 Y45.65
N16435 X136.23 Y45.609
N16440 X136.187 Y45.593
N16445 X136.142 Y45.585
N16450 X136.038 Y45.576
N16455 X136.016 Y45.575
N16460 X132.688 Y45.578
N16465 X132.646 Y45.581
N16470 X132.605 Y45.592
N16475 X132.511 Y45.625
N16480 X132.47 Y45.644
N16485 X132.433 Y45.67
N16490 X132.373 Y45.72
N16495 X132.346 Y45.747
N16500 X132.323 Y45.777
N16505 X132.284 Y45.839
N16510 X132.264 Y45.876
N16515 X132.251 Y45.917
N16520 X132.23 Y46.009
N16525 X132.223 Y46.066
N16530 Y51.37
N16535 X131.742
N16540 X131.74 Y46.041
N16545 X131.737 Y46.003
N16550 X131.728 Y45.965
N16555 X131.702 Y45.883
N16560 X131.687 Y45.847
N16565 X131.667 Y45.813
N16570 X131.628 Y45.758
N16575 X131.602 Y45.728
N16580 X131.572 Y45.702
N16585 X131.499 Y45.648
N16590 X131.462 Y45.626
N16595 X131.423 Y45.61
N16600 X131.346 Y45.588
N16605 X131.311 Y45.58
N16610 X131.275 Y45.577
N16615 X127.133 Y45.578
N16620 X127.095 Y45.581
N16625 X127.058 Y45.589
N16630 X126.988 Y45.611
N16635 X126.956 Y45.624
N16640 X126.926 Y45.64
N16645 X126.873 Y45.675
N16650 X126.844 Y45.697
N16655 X126.819 Y45.723
N16660 X126.766 Y45.786
N16665 X126.739 Y45.823
N16670 X126.721 Y45.864
N16675 X126.688 Y45.958
N16680 X126.677 Y45.998
N16685 X126.674 Y46.04
N16690 X126.671 Y52.243
N16695 X126.191
N16700 Y44.915
N16705 X132.491
N16710 X132.529 Y44.923
N16715 X132.561 Y44.944
N16720 X132.582 Y44.975
N16725 X132.591 Y45.013
N16730 X132.585 Y45.05
N16735 X132.464 Y45.374
N16740 X132.458 Y45.409
N16745 G3 X131.508 Y45.412 Z-2.4 I-0.475 J0.001 F333.33
N16750 X132.458 Y45.409 Z-2.8 I0.475 J-0.001
N16755 X131.983 Y45.885 Z-3. I-0.475 J0.001
N16760 Y45.254 I0. J-0.316
N16765 G1 X132.037 F400.
N16770 X132.081 Y45.262
N16775 X132.121 Y45.284
N16780 X132.151 Y45.318
N16785 X132.167 Y45.36
N16790 X132.169 Y45.405
N16795 X132.156 Y45.448
N16800 X132.129 Y45.484
N16805 X132.078 Y45.539
N16810 X132.045 Y45.567
N16815 X132.003 Y45.582
N16820 X131.96
N16825 X131.919 Y45.566
N16830 X131.886 Y45.538
N16835 X131.833 Y45.479
N16840 X131.806 Y45.444
N16845 X131.794 Y45.401
N16850 X131.796 Y45.357
N16855 X131.812 Y45.316
N16860 X131.841 Y45.283
N16865 X131.88 Y45.262
N16870 X131.923 Y45.254
N16875 X131.983
N16880 G2 X132.237 Y45.085 I0. J-0.275
N16885 G3 X132.491 Y44.915 I0.254 J0.106
N16890 G1 X137.035
N16895 Y51.89
N16900 X136.554
N16905 X136.551 Y46.035
N16910 X136.547 Y45.99
N16915 X136.535 Y45.947
N16920 X136.5 Y45.854
N16925 X136.479 Y45.811
N16930 X136.449 Y45.773
N16935 X136.387 Y45.705
N16940 X136.352 Y45.674
N16945 X136.312 Y45.65
N16950 X136.23 Y45.609
N16955 X136.187 Y45.593
N16960 X136.142 Y45.585
N16965 X136.038 Y45.576
N16970 X136.016 Y45.575
N16975 X132.688 Y45.578
N16980 X132.646 Y45.581
N16985 X132.605 Y45.592
N16990 X132.511 Y45.625
N16995 X132.47 Y45.644
N17000 X132.433 Y45.67
N17005 X132.373 Y45.72
N17010 X132.346 Y45.747
N17015 X132.323 Y45.777
N17020 X132.284 Y45.839
N17025 X132.264 Y45.876
N17030 X132.251 Y45.917
N17035 X132.23 Y46.009
N17040 X132.223 Y46.066
N17045 Y51.37
N17050 X131.742
N17055 X131.74 Y46.041
N17060 X131.737 Y46.003
N17065 X131.728 Y45.965
N17070 X131.702 Y45.883
N17075 X131.687 Y45.847
N17080 X131.667 Y45.813
N17085 X131.628 Y45.758
N17090 X131.602 Y45.728
N17095 X131.572 Y45.702
N17100 X131.499 Y45.648
N17105 X131.462 Y45.626
N17110 X131.423 Y45.61
N17115 X131.346 Y45.588
N17120 X131.311 Y45.58
N17125 X131.275 Y45.577
N17130 X127.133 Y45.578
N17135 X127.095 Y45.581
N17140 X127.058 Y45.589
N17145 X126.988 Y45.611
N17150 X126.956 Y45.624
N17155 X126.926 Y45.64
N17160 X126.873 Y45.675
N17165 X126.844 Y45.697
N17170 X126.819 Y45.723
N17175 X126.766 Y45.786
N17180 X126.739 Y45.823
N17185 X126.721 Y45.864
N17190 X126.688 Y45.958
N17195 X126.677 Y45.998
N17200 X126.674 Y46.04
N17205 X126.671 Y52.243
N17210 X126.191
N17215 Y44.915
N17220 X132.491
N17225 X132.516 Y44.918 Z-2.993 F1000.
N17230 X132.539 Y44.928 Z-2.987
N17235 X132.567 Y44.951 Z-2.95
N17240 X132.575 Y44.961 Z-2.9
N17245 G0 Z5.
N17250 X120.062 Y44.915
N17255 Z2.2
N17260 G1 X120.068 Z2.163 F333.33
N17265 X120.088 Z2.132
N17270 X120.117 Z2.11
N17275 X120.153 Z2.1
N17280 X120.229 Z2.093
N17285 Y45.558 Z2.037
N17290 X109.524 Z1.093
N17295 Y44.915 Z1.037
N17300 X120.229 Z0.093
N17305 Y45.558 Z0.037
N17310 X109.524 Z-0.907
N17315 Y44.915 Z-0.963
N17320 X120.229 Z-1.907
N17325 Y45.558 Z-1.963
N17330 X119.813 Z-2.
N17335 X109.524 F400.
N17340 Y44.915
N17345 X120.229
N17350 Y45.558
N17355 X119.813
N17360 X119.796 Y45.553
N17365 X119.783 Y45.54
N17370 X119.736 Y45.454
N17375 X119.727 Y45.443
N17380 X119.713 Y45.437
N17385 X117.655 Y45.036
N17390 X117.54 Y44.979
N17395 X117.525 Y44.963
N17400 X117.523 Y44.941
N17405 X117.535 Y44.923
N17410 X117.556 Y44.915
N17415 X120.229 Z-2.716 F333.33
N17420 Y45.558 Z-2.888
N17425 X119.813 Z-3.
N17430 X109.524 F400.
N17435 Y44.915
N17440 X120.229
N17445 Y45.558
N17450 X119.813
N17455 X119.788 Y45.555 Z-2.993 F1000.
N17460 X119.765 Y45.546 Z-2.987
N17465 X119.737 Y45.523 Z-2.95
N17470 X119.729 Y45.512 Z-2.9
N17475 G0 Z5.
N17480 X113.782 Y48.88
N17485 Z2.2
N17490 G1 X113.788 Y48.876 Z2.163 F333.33
N17495 X113.805 Y48.865 Z2.131
N17500 X113.83 Y48.849 Z2.109
N17505 X113.861 Y48.829 Z2.1
N17510 X114.299 Y48.55 Z2.068
N17515 X114.343 Y48.515 Z2.064
N17520 X114.394 Y48.463 Z2.06
N17525 X114.402 Y48.455 Z2.059
N17530 X114.824 Z2.033
N17535 X114.825 Y48.564 Z2.026
N17540 Y48.578 Z2.025
N17545 X114.865 Y49.186 Z1.987
N17550 X114.871 Y49.226 Z1.984
N17555 X115.016 Y49.851 Z1.944
N17560 X115.027 Y49.887 Z1.942
N17565 X115.044 Y49.921 Z1.94
N17570 X115.556 Y50.792 Z1.877
N17575 X115.585 Y50.832 Z1.874
N17580 X115.621 Y50.865 Z1.871
N17585 X115.712 Y50.934 Z1.864
N17590 X115.73 Y50.946 Z1.862
N17595 X116.407 Y51.374 Z1.812
N17600 X116.438 Y51.39 Z1.81
N17605 X116.471 Y51.402 Z1.808
N17610 X116.533 Y51.42 Z1.804
N17615 X116.562 Y51.427 Z1.802
N17620 X117.425 Y51.568 Z1.748
N17625 X117.457 Y51.572 Z1.746
N17630 X117.489 Y51.571 Z1.744
N17635 X118.003 Y51.522 Z1.711
N17640 X118.06 Y51.51 Z1.708
N17645 X118.563 Y51.339 Z1.675
N17650 X118.596 Y51.325 Z1.672
N17655 X118.626 Y51.307 Z1.67
N17660 X119.045 Y51.012 Z1.638
N17665 X119.073 Y50.988 Z1.636
N17670 X119.098 Y50.961 Z1.634
N17675 X119.432 Y50.534 Z1.6
N17680 X119.455 Y50.5 Z1.597
N17685 X119.472 Y50.462 Z1.595
N17690 X119.802 Y49.519 Z1.532
N17695 X119.815 Y49.457 Z1.529
N17700 X119.889 Y48.583 Z1.474
N17705 Y48.569 Z1.473
N17710 X119.893 Y48.455 Z1.466
N17715 X120.226 Z1.445
N17720 X120.228 Y48.559 Z1.439
N17725 X120.196 Y49.456 Z1.383
N17730 X120.027 Y50.277 Z1.33
N17735 X119.785 Y50.879 Z1.29
N17740 X119.466 Y51.395 Z1.252
N17745 X119.1 Y51.751 Z1.22
N17750 X118.631 Y52.019 Z1.187
N17755 X118.066 Y52.185 Z1.15
N17760 X117.506 Y52.233 Z1.115
N17765 X116.55 Y52.075 Z1.055
N17770 X116.137 Y51.898 Z1.027
N17775 X115.754 Y51.641 Z0.998
N17780 X115.383 Y51.264 Z0.965
N17785 X115.096 Y50.845 Z0.933
N17790 X114.843 Y50.27 Z0.894
N17795 X114.68 Y49.6 Z0.851
N17800 X114.666 Y49.559 Z0.849
N17805 X114.646 Y49.521 Z0.846
N17810 X114.592 Y49.44 Z0.84
N17815 X114.565 Y49.406 Z0.837
N17820 X114.533 Y49.377 Z0.834
N17825 X114.471 Y49.331 Z0.83
N17830 X114.437 Y49.31 Z0.827
N17835 X114.4 Y49.294 Z0.825
N17840 X114.321 Y49.268 Z0.819
N17845 X114.281 Y49.259 Z0.817
N17850 X114.24 Y49.256 Z0.814
N17855 X114.161 Y49.257 Z0.809
N17860 X114.119 Y49.261 Z0.807
N17865 X114.079 Y49.271 Z0.804
N17870 X113.997 Y49.301 Z0.799
N17875 X113.943 Y49.328 Z0.795
N17880 X109.524 Y52.285 Z0.464
N17885 Y51.589 Z0.42
N17890 X109.587 Y51.549 Z0.416
N17895 X114.299 Y48.55 Z0.068
N17900 X114.343 Y48.515 Z0.064
N17905 X114.394 Y48.463 Z0.06
N17910 X114.402 Y48.455 Z0.059
N17915 X114.824 Z0.033
N17920 X114.825 Y48.564 Z0.026
N17925 Y48.578 Z0.025
N17930 X114.865 Y49.186 Z-0.013
N17935 X114.871 Y49.226 Z-0.016
N17940 X115.016 Y49.851 Z-0.056
N17945 X115.027 Y49.887 Z-0.058
N17950 X115.044 Y49.921 Z-0.06
N17955 X115.556 Y50.792 Z-0.123
N17960 X115.585 Y50.832 Z-0.126
N17965 X115.621 Y50.865 Z-0.129
N17970 X115.712 Y50.934 Z-0.136
N17975 X115.73 Y50.946 Z-0.138
N17980 X116.407 Y51.374 Z-0.188
N17985 X116.438 Y51.39 Z-0.19
N17990 X116.471 Y51.402 Z-0.192
N17995 X116.533 Y51.42 Z-0.196
N18000 X116.562 Y51.427 Z-0.198
N18005 X117.425 Y51.568 Z-0.252
N18010 X117.457 Y51.572 Z-0.254
N18015 X117.489 Y51.571 Z-0.256
N18020 X118.003 Y51.522 Z-0.289
N18025 X118.06 Y51.51 Z-0.292
N18030 X118.563 Y51.339 Z-0.325
N18035 X118.596 Y51.325 Z-0.328
N18040 X118.626 Y51.307 Z-0.33
N18045 X119.045 Y51.012 Z-0.362
N18050 X119.073 Y50.988 Z-0.364
N18055 X119.098 Y50.961 Z-0.366
N18060 X119.432 Y50.534 Z-0.4
N18065 X119.455 Y50.5 Z-0.403
N18070 X119.472 Y50.462 Z-0.405
N18075 X119.802 Y49.519 Z-0.468
N18080 X119.815 Y49.457 Z-0.471
N18085 X119.889 Y48.583 Z-0.526
N18090 Y48.569 Z-0.527
N18095 X119.893 Y48.455 Z-0.534
N18100 X120.226 Z-0.555
N18105 X120.228 Y48.559 Z-0.561
N18110 X120.196 Y49.456 Z-0.617
N18115 X120.027 Y50.277 Z-0.67
N18120 X119.785 Y50.879 Z-0.71
N18125 X119.466 Y51.395 Z-0.748
N18130 X119.1 Y51.751 Z-0.78
N18135 X118.631 Y52.019 Z-0.813
N18140 X118.066 Y52.185 Z-0.85
N18145 X117.506 Y52.233 Z-0.885
N18150 X116.55 Y52.075 Z-0.945
N18155 X116.137 Y51.898 Z-0.973
N18160 X115.754 Y51.641 Z-1.002
N18165 X115.383 Y51.264 Z-1.035
N18170 X115.096 Y50.845 Z-1.067
N18175 X114.843 Y50.27 Z-1.106
N18180 X114.68 Y49.6 Z-1.149
N18185 X114.666 Y49.559 Z-1.151
N18190 X114.646 Y49.521 Z-1.154
N18195 X114.592 Y49.44 Z-1.16
N18200 X114.565 Y49.406 Z-1.163
N18205 X114.533 Y49.377 Z-1.166
N18210 X114.471 Y49.331 Z-1.17
N18215 X114.437 Y49.31 Z-1.173
N18220 X114.4 Y49.294 Z-1.175
N18225 X114.321 Y49.268 Z-1.181
N18230 X114.281 Y49.259 Z-1.183
N18235 X114.24 Y49.256 Z-1.186
N18240 X114.161 Y49.257 Z-1.191
N18245 X114.119 Y49.261 Z-1.193
N18250 X114.079 Y49.271 Z-1.196
N18255 X113.997 Y49.301 Z-1.201
N18260 X113.943 Y49.328 Z-1.205
N18265 X109.524 Y52.285 Z-1.536
N18270 Y51.589 Z-1.58
N18275 X109.587 Y51.549 Z-1.584
N18280 X114.299 Y48.55 Z-1.932
N18285 X114.343 Y48.515 Z-1.936
N18290 X114.394 Y48.463 Z-1.94
N18295 X114.402 Y48.455 Z-1.941
N18300 X114.824 Z-1.967
N18305 X114.825 Y48.564 Z-1.974
N18310 Y48.578 Z-1.975
N18315 X114.851 Y48.977 Z-2.
N18320 X114.865 Y49.186 F400.
N18325 X114.871 Y49.226
N18330 X115.016 Y49.851
N18335 X115.027 Y49.887
N18340 X115.044 Y49.921
N18345 X115.556 Y50.792
N18350 X115.585 Y50.832
N18355 X115.621 Y50.865
N18360 X115.712 Y50.934
N18365 X115.73 Y50.946
N18370 X116.407 Y51.374
N18375 X116.438 Y51.39
N18380 X116.471 Y51.402
N18385 X116.533 Y51.42
N18390 X116.562 Y51.427
N18395 X117.425 Y51.568
N18400 X117.457 Y51.572
N18405 X117.489 Y51.571
N18410 X118.003 Y51.522
N18415 X118.06 Y51.51
N18420 X118.563 Y51.339
N18425 X118.596 Y51.325
N18430 X118.626 Y51.307
N18435 X119.045 Y51.012
N18440 X119.073 Y50.988
N18445 X119.098 Y50.961
N18450 X119.432 Y50.534
N18455 X119.455 Y50.5
N18460 X119.472 Y50.462
N18465 X119.802 Y49.519
N18470 X119.815 Y49.457
N18475 X119.889 Y48.583
N18480 Y48.569
N18485 X119.893 Y48.455
N18490 X120.226
N18495 X120.228 Y48.559
N18500 X120.196 Y49.456
N18505 X120.027 Y50.277
N18510 X119.785 Y50.879
N18515 X119.466 Y51.395
N18520 X119.1 Y51.751
N18525 X118.631 Y52.019
N18530 X118.066 Y52.185
N18535 X117.506 Y52.233
N18540 X116.55 Y52.075
N18545 X116.137 Y51.898
N18550 X115.754 Y51.641
N18555 X115.383 Y51.264
N18560 X115.096 Y50.845
N18565 X114.843 Y50.27
N18570 X114.68 Y49.6
N18575 X114.666 Y49.559
N18580 X114.646 Y49.521
N18585 X114.592 Y49.44
N18590 X114.565 Y49.406
N18595 X114.533 Y49.377
N18600 X114.471 Y49.331
N18605 X114.437 Y49.31
N18610 X114.4 Y49.294
N18615 X114.321 Y49.268
N18620 X114.281 Y49.259
N18625 X114.24 Y49.256
N18630 X114.161 Y49.257
N18635 X114.119 Y49.261
N18640 X114.079 Y49.271
N18645 X113.997 Y49.301
N18650 X113.943 Y49.328
N18655 X109.524 Y52.285
N18660 Y51.589
N18665 X109.587 Y51.549
N18670 X114.299 Y48.55
N18675 X114.343 Y48.515
N18680 X114.394 Y48.463
N18685 X114.402 Y48.455
N18690 X114.824
N18695 X114.825 Y48.564
N18700 Y48.578
N18705 X114.851 Y48.977
N18710 X114.847 Y49.
N18715 X114.831 Y49.018
N18720 X114.808 Y49.025
N18725 X114.59 Y49.038
N18730 X112.223 Y50.021
N18735 X112.09 Y50.037
N18740 X112.067 Y50.032
N18745 X112.052 Y50.013
N18750 Y49.99
N18755 X112.066 Y49.971
N18760 X114.299 Y48.55 Z-2.709 F333.33
N18765 X114.343 Y48.515 Z-2.724
N18770 X114.394 Y48.463 Z-2.744
N18775 X114.402 Y48.455 Z-2.747
N18780 X114.824 Z-2.86
N18785 X114.825 Y48.564 Z-2.889
N18790 Y48.578 Z-2.893
N18795 X114.851 Y48.977 Z-3.
N18800 X114.865 Y49.186 F400.
N18805 X114.871 Y49.226
N18810 X115.016 Y49.851
N18815 X115.027 Y49.887
N18820 X115.044 Y49.921
N18825 X115.556 Y50.792
N18830 X115.585 Y50.832
N18835 X115.621 Y50.865
N18840 X115.712 Y50.934
N18845 X115.73 Y50.946
N18850 X116.407 Y51.374
N18855 X116.438 Y51.39
N18860 X116.471 Y51.402
N18865 X116.533 Y51.42
N18870 X116.562 Y51.427
N18875 X117.425 Y51.568
N18880 X117.457 Y51.572
N18885 X117.489 Y51.571
N18890 X118.003 Y51.522
N18895 X118.06 Y51.51
N18900 X118.563 Y51.339
N18905 X118.596 Y51.325
N18910 X118.626 Y51.307
N18915 X119.045 Y51.011
N18920 X119.074 Y50.988
N18925 X119.098 Y50.961
N18930 X119.432 Y50.534
N18935 X119.455 Y50.5
N18940 X119.471 Y50.463
N18945 X119.765 Y49.631
N18950 X119.769 Y49.618
N18955 X119.813 Y49.468
N18960 X119.822 Y49.418
N18965 X119.889 Y48.582
N18970 Y48.569
N18975 X119.893 Y48.455
N18980 X120.226
N18985 X120.228 Y48.559
N18990 X120.196 Y49.456
N18995 X120.027 Y50.277
N19000 X119.785 Y50.879
N19005 X119.466 Y51.395
N19010 X119.1 Y51.751
N19015 X118.631 Y52.019
N19020 X118.066 Y52.185
N19025 X117.506 Y52.233
N19030 X116.55 Y52.075
N19035 X116.137 Y51.898
N19040 X115.754 Y51.641
N19045 X115.383 Y51.264
