%
(RHU_LETTERPLAAT_13_13_LOWER_11_ROWS_PCV_V1)
(T1  D=1.5 CR=0. - ZMIN=-3. - FLAT END MILL)
N10 G90 G94 G17 G91.1
N15 G21
(POCKET2 2)
N20 T1 M6
N25 S10000 M3
N30 M8
N35 G54
N40 G0 X250.309 Y211.084
N45 G43 Z15. H1
N50 G0 Z2.5
N55 G1 Z0.25 F300.
N60 X250.307 Z0.229 F700.
N65 X250.303 Z0.208
N70 X250.296 Z0.189
N75 X250.286 Z0.17
N80 X250.273 Y211.083 Z0.153
N85 X250.259 Y211.082 Z0.138
N90 X250.242 Y211.081 Z0.125
N95 X250.221 Y211.079 Z0.113
N100 X250.198 Y211.076 Z0.105
N105 G3 X250.412 Y209.667 Z-0.495 I0.107 J-0.704
N110 X250.198 Y211.076 Z-1.094 I-0.107 J0.704
N115 X249.75 Y209.925 Z-1.495 I0.107 J-0.704
N120 G1 X249.762 Y209.91 Z-1.499
N125 X249.775 Y209.895 Z-1.5
N130 G3 X250.778 Y209.841 I0.529 J0.475
N135 X250.832 Y210.845 I-0.475 J0.529
N140 G1 X250.79 Y210.894
N145 G3 X250.504 Y210.893 I-0.142 J-0.119
N150 G1 X250.453 Y210.835
N155 X250.4 Y210.779
N160 G3 X250.546 Y210.431 I0.147 J-0.143
N165 G1 X250.749
N170 G3 X250.894 Y210.78 I0. J0.205
N175 G1 X250.832 Y210.845
N180 G2 X250.791 Y211.297 I0.283 J0.254
N185 G3 X250.862 Y211.746 I-0.511 J0.312
N190 G1 X250.859 Y211.758
N195 X250.843 Y211.846
N200 X250.833 Y211.935
N205 X250.893 Y222.288
N210 G3 X250.402 I-0.246 J0.
N215 G1 X250.455 Y211.872
N220 G2 X250.163 Y211.194 I-1.367 J0.187
N225 X249.554 Y210.775 I-1.006 J0.81
N230 G1 X249.469 Y210.75
N235 X249.383 Y210.73
N240 X249.295 Y210.716
N245 X249.206 Y210.708
N250 X240.696 Y210.71
N255 G2 X239.941 Y211.012 I0.111 J1.37
N260 X239.502 Y211.695 I0.817 J1.009
N265 G1 X239.483 Y211.777
N270 X239.469 Y211.86
N275 X239.459 Y211.943
N280 X239.456 Y212.027
N285 X239.52 Y224.077
N290 G3 X239.03 I-0.245 J0.
N295 G1 Y210.367
N300 G3 X239.485 Y209.912 I0.455 J0.
N305 G1 X260.294
N310 G3 X260.749 Y210.367 I0. J0.455
N315 G1 Y223.354
N320 G3 X260.258 I-0.246 J0.
N325 G1 X260.311 Y211.872
N330 G2 X260.018 Y211.192 I-1.367 J0.187
N335 X259.406 Y210.774 I-1.005 J0.812
N340 G1 X259.313 Y210.747
N345 X259.219 Y210.726
N350 X259.123 Y210.712
N355 X259.027 Y210.707
N360 X252.063 Y210.71
N365 G2 X251.357 Y210.978 I0.117 J1.373
N370 X250.909 Y211.587 I0.772 J1.037
N375 G1 X250.883 Y211.666
N380 X250.862 Y211.746
N385 G2 X251.109 Y212.267 I0.45 J0.106
N390 G3 X251.414 Y212.756 I-0.239 J0.489
N395 G1 Y223.161
N400 X249.881
N405 Y212.027
N410 X249.88 Y212.
N415 X249.878 Y211.976
N420 X249.876 Y211.951
N425 X249.872 Y211.927
N430 X249.868 Y211.903
N435 X249.863 Y211.878
N440 X249.857 Y211.854
N445 X249.851 Y211.829
N450 X249.843 Y211.805
N455 X249.834 Y211.78
N460 X249.825 Y211.756
N465 X249.814 Y211.731
N470 X249.803 Y211.707
N475 X249.79 Y211.682
N480 X249.776 Y211.658
N485 X249.761 Y211.633
N490 X249.747 Y211.613
N495 X249.735 Y211.596
N500 X249.719 Y211.576
N505 X249.7 Y211.552
N510 X249.679 Y211.529
N515 X249.656 Y211.506
N520 X249.634 Y211.485
N525 X249.613 Y211.466
N530 X249.592 Y211.449
N535 X249.571 Y211.434
N540 X249.554 Y211.421
N545 X249.54 Y211.412
N550 X249.521 Y211.4
N555 X249.497 Y211.386
N560 X249.472 Y211.373
N565 X249.448 Y211.361
N570 X249.423 Y211.35
N575 X249.399 Y211.34
N580 X249.374 Y211.331
N585 X249.35 Y211.324
N590 X249.325 Y211.317
N595 X249.301 Y211.31
N600 X249.277 Y211.305
N605 X249.252 Y211.301
N610 X249.228 Y211.297
N615 X249.203 Y211.294
N620 X249.179 Y211.292
N625 X249.154 Y211.291
N630 X249.137
N635 X240.773
N640 X240.743 Y211.292
N645 X240.719 Y211.294
N650 X240.694 Y211.297
N655 X240.67 Y211.301
N660 X240.645 Y211.305
N665 X240.621 Y211.311
N670 X240.59 Y211.319
N675 X240.554 Y211.33
N680 X240.517 Y211.343
N685 X240.481 Y211.359
N690 X240.45 Y211.373
N695 X240.425 Y211.387
N700 X240.4 Y211.401
N705 X240.375 Y211.417
N710 X240.35 Y211.434
N715 X240.326 Y211.452
N720 X240.302 Y211.472
N725 X240.279 Y211.494
N730 X240.26 Y211.512
N735 X240.245 Y211.526
N740 X240.226 Y211.548
N745 X240.202 Y211.577
N750 X240.185 Y211.599
N755 X240.175 Y211.614
N760 X240.162 Y211.633
N765 X240.146 Y211.658
N770 X240.133 Y211.682
N775 X240.12 Y211.707
N780 X240.108 Y211.731
N785 X240.098 Y211.756
N790 X240.087 Y211.783
N795 X240.076 Y211.815
N800 X240.068 Y211.842
N805 X240.062 Y211.865
N810 X240.057 Y211.887
N815 X240.053 Y211.91
N820 X240.049 Y211.933
N825 X240.046 Y211.956
N830 X240.044 Y211.978
N835 X240.042 Y212.001
N840 X240.041 Y212.027
N845 Y224.95
N850 X238.509
N855 Y209.391
N860 X261.27
N865 Y224.227
N870 X259.737
N875 Y212.027
N880 X259.736 Y212.
N885 X259.734 Y211.976
N890 X259.732 Y211.951
N895 X259.729 Y211.927
N900 X259.724 Y211.903
N905 X259.719 Y211.878
N910 X259.714 Y211.854
N915 X259.707 Y211.829
N920 X259.7 Y211.807
N925 X259.693 Y211.787
N930 X259.685 Y211.767
N935 X259.677 Y211.747
N940 X259.668 Y211.727
N945 X259.659 Y211.707
N950 X259.648 Y211.686
N955 X259.637 Y211.666
N960 X259.626 Y211.648
N965 X259.615 Y211.63
N970 X259.601 Y211.61
N975 X259.584 Y211.587
N980 X259.566 Y211.564
N985 X259.547 Y211.542
N990 X259.525 Y211.518
N995 X259.499 Y211.493
N1000 X259.474 Y211.47
N1005 X259.449 Y211.45
N1010 X259.42 Y211.429
N1015 X259.389 Y211.407
N1020 X259.362 Y211.391
N1025 X259.339 Y211.379
N1030 X259.317 Y211.367
N1035 X259.295 Y211.357
N1040 X259.273 Y211.348
N1045 X259.251 Y211.339
N1050 X259.228 Y211.331
N1055 X259.203 Y211.323
N1060 X259.179 Y211.316
N1065 X259.155 Y211.31
N1070 X259.13 Y211.305
N1075 X259.106 Y211.3
N1080 X259.081 Y211.297
N1085 X259.057 Y211.294
N1090 X259.02 Y211.292
N1095 X258.922 Y211.291
N1100 X258.918
N1105 X252.169
N1110 X252.161
N1115 X252.137
N1120 X252.113 Y211.293
N1125 X252.088 Y211.295
N1130 X252.064 Y211.298
N1135 X252.039 Y211.301
N1140 X252.015 Y211.306
N1145 X251.99 Y211.311
N1150 X251.966 Y211.318
N1155 X251.941 Y211.325
N1160 X251.917 Y211.333
N1165 X251.893 Y211.342
N1170 X251.868 Y211.352
N1175 X251.844 Y211.363
N1180 X251.819 Y211.375
N1185 X251.795 Y211.388
N1190 X251.77 Y211.402
N1195 X251.747 Y211.418
N1200 X251.725 Y211.433
N1205 X251.707 Y211.446
N1210 X251.688 Y211.461
N1215 X251.67 Y211.477
N1220 X251.651 Y211.494
N1225 X251.631 Y211.513
N1230 X251.613 Y211.533
N1235 X251.595 Y211.552
N1240 X251.575 Y211.576
N1245 X251.553 Y211.606
N1250 X251.534 Y211.633
N1255 X251.519 Y211.658
N1260 X251.505 Y211.682
N1265 X251.492 Y211.707
N1270 X251.481 Y211.731
N1275 X251.47 Y211.756
N1280 X251.461 Y211.78
N1285 X251.452 Y211.805
N1290 X251.444 Y211.829
N1295 X251.438 Y211.854
N1300 X251.432 Y211.878
N1305 X251.427 Y211.903
N1310 X251.423 Y211.927
N1315 X251.419 Y211.951
N1320 X251.417 Y211.976
N1325 X251.415 Y212.
N1330 X251.414 Y212.027
N1335 Y212.756
N1340 X251.408 Y212.786
N1345 X251.39 Y212.811
N1350 X251.363 Y212.827
N1355 X251.332 Y212.83
N1360 X251.303 Y212.821
N1365 X251.279 Y212.801
N1370 X249.874 Y210.942
N1375 X249.861 Y210.928
N1380 X249.845 Y210.916 Z-1.501
N1385 X249.831 Y210.903 Z-1.505
N1390 G3 X250.779 Y209.839 Z-2.105 I0.474 J-0.532
N1395 X249.831 Y210.903 Z-2.705 I-0.474 J0.532
N1400 X249.75 Y209.925 Z-2.995 I0.474 J-0.532
N1405 G1 X249.762 Y209.91 Z-2.999
N1410 X249.775 Y209.895 Z-3.
N1415 G3 X250.778 Y209.841 I0.529 J0.475
N1420 X250.832 Y210.845 I-0.475 J0.529
N1425 G1 X250.79 Y210.894
N1430 G3 X250.504 Y210.893 I-0.142 J-0.119
N1435 G1 X250.453 Y210.835
N1440 X250.4 Y210.779
N1445 G3 X250.546 Y210.431 I0.147 J-0.143
N1450 G1 X250.749
N1455 G3 X250.894 Y210.78 I0. J0.205
N1460 G1 X250.832 Y210.845
N1465 G2 X250.791 Y211.297 I0.283 J0.254
N1470 G3 X250.862 Y211.746 I-0.511 J0.312
N1475 G1 X250.859 Y211.758
N1480 X250.843 Y211.846
N1485 X250.833 Y211.935
N1490 X250.893 Y222.288
N1495 G3 X250.402 I-0.246 J0.
N1500 G1 X250.455 Y211.872
N1505 G2 X250.163 Y211.194 I-1.367 J0.187
N1510 X249.554 Y210.775 I-1.006 J0.81
N1515 G1 X249.469 Y210.75
N1520 X249.383 Y210.73
N1525 X249.295 Y210.716
N1530 X249.206 Y210.708
N1535 X240.696 Y210.71
N1540 G2 X239.941 Y211.012 I0.111 J1.37
N1545 X239.502 Y211.695 I0.817 J1.009
N1550 G1 X239.483 Y211.777
N1555 X239.469 Y211.86
N1560 X239.459 Y211.943
N1565 X239.456 Y212.027
N1570 X239.52 Y224.077
N1575 G3 X239.03 I-0.245 J0.
N1580 G1 Y210.367
N1585 G3 X239.485 Y209.912 I0.455 J0.
N1590 G1 X260.294
N1595 G3 X260.749 Y210.367 I0. J0.455
N1600 G1 Y223.354
N1605 G3 X260.258 I-0.246 J0.
N1610 G1 X260.311 Y211.872
N1615 G2 X260.018 Y211.192 I-1.367 J0.187
N1620 X259.406 Y210.774 I-1.005 J0.812
N1625 G1 X259.313 Y210.747
N1630 X259.219 Y210.726
N1635 X259.123 Y210.712
N1640 X259.027 Y210.707
N1645 X252.063 Y210.71
N1650 G2 X251.357 Y210.978 I0.117 J1.373
N1655 X250.909 Y211.587 I0.772 J1.037
N1660 G1 X250.883 Y211.666
N1665 X250.862 Y211.746
N1670 G2 X251.109 Y212.267 I0.45 J0.106
N1675 G3 X251.414 Y212.756 I-0.239 J0.489
N1680 G1 Y223.161
N1685 X249.881
N1690 Y212.027
N1695 X249.88 Y212.
N1700 X249.878 Y211.976
N1705 X249.876 Y211.951
N1710 X249.872 Y211.927
N1715 X249.868 Y211.903
N1720 X249.863 Y211.878
N1725 X249.857 Y211.854
N1730 X249.851 Y211.829
N1735 X249.843 Y211.805
N1740 X249.834 Y211.78
N1745 X249.825 Y211.756
N1750 X249.814 Y211.731
N1755 X249.803 Y211.707
N1760 X249.79 Y211.682
N1765 X249.776 Y211.658
N1770 X249.761 Y211.633
N1775 X249.747 Y211.613
N1780 X249.735 Y211.596
N1785 X249.719 Y211.576
N1790 X249.7 Y211.552
N1795 X249.679 Y211.529
N1800 X249.656 Y211.506
N1805 X249.634 Y211.485
N1810 X249.613 Y211.466
N1815 X249.592 Y211.449
N1820 X249.571 Y211.434
N1825 X249.554 Y211.421
N1830 X249.54 Y211.412
N1835 X249.521 Y211.4
N1840 X249.497 Y211.386
N1845 X249.472 Y211.373
N1850 X249.448 Y211.361
N1855 X249.423 Y211.35
N1860 X249.399 Y211.34
N1865 X249.374 Y211.331
N1870 X249.35 Y211.324
N1875 X249.325 Y211.317
N1880 X249.301 Y211.31
N1885 X249.277 Y211.305
N1890 X249.252 Y211.301
N1895 X249.228 Y211.297
N1900 X249.203 Y211.294
N1905 X249.179 Y211.292
N1910 X249.154 Y211.291
N1915 X249.137
N1920 X240.773
N1925 X240.743 Y211.292
N1930 X240.719 Y211.294
N1935 X240.694 Y211.297
N1940 X240.67 Y211.301
N1945 X240.645 Y211.305
N1950 X240.621 Y211.311
N1955 X240.59 Y211.319
N1960 X240.554 Y211.33
N1965 X240.517 Y211.343
N1970 X240.481 Y211.359
N1975 X240.45 Y211.373
N1980 X240.425 Y211.387
N1985 X240.4 Y211.401
N1990 X240.375 Y211.417
N1995 X240.35 Y211.434
N2000 X240.326 Y211.452
N2005 X240.302 Y211.472
N2010 X240.279 Y211.494
N2015 X240.26 Y211.512
N2020 X240.245 Y211.526
N2025 X240.226 Y211.548
N2030 X240.202 Y211.577
N2035 X240.185 Y211.599
N2040 X240.175 Y211.614
N2045 X240.162 Y211.633
N2050 X240.146 Y211.658
N2055 X240.133 Y211.682
N2060 X240.12 Y211.707
N2065 X240.108 Y211.731
N2070 X240.098 Y211.756
N2075 X240.087 Y211.783
N2080 X240.076 Y211.815
N2085 X240.068 Y211.842
N2090 X240.062 Y211.865
N2095 X240.057 Y211.887
N2100 X240.053 Y211.91
N2105 X240.049 Y211.933
N2110 X240.046 Y211.956
N2115 X240.044 Y211.978
N2120 X240.042 Y212.001
N2125 X240.041 Y212.027
N2130 Y224.95
N2135 X238.509
N2140 Y209.391
N2145 X261.27
N2150 Y224.227
N2155 X259.737
N2160 Y212.027
N2165 X259.736 Y212.
N2170 X259.734 Y211.976
N2175 X259.732 Y211.951
N2180 X259.729 Y211.927
N2185 X259.724 Y211.903
N2190 X259.719 Y211.878
N2195 X259.714 Y211.854
N2200 X259.707 Y211.829
N2205 X259.7 Y211.807
N2210 X259.693 Y211.787
N2215 X259.685 Y211.767
N2220 X259.677 Y211.747
N2225 X259.668 Y211.727
N2230 X259.659 Y211.707
N2235 X259.648 Y211.686
N2240 X259.637 Y211.666
N2245 X259.626 Y211.648
N2250 X259.615 Y211.63
N2255 X259.601 Y211.61
N2260 X259.584 Y211.587
N2265 X259.566 Y211.564
N2270 X259.547 Y211.542
N2275 X259.525 Y211.518
N2280 X259.499 Y211.493
N2285 X259.474 Y211.47
N2290 X259.449 Y211.45
N2295 X259.42 Y211.429
N2300 X259.389 Y211.407
N2305 X259.362 Y211.391
N2310 X259.339 Y211.379
N2315 X259.317 Y211.367
N2320 X259.295 Y211.357
N2325 X259.273 Y211.348
N2330 X259.251 Y211.339
N2335 X259.228 Y211.331
N2340 X259.203 Y211.323
N2345 X259.179 Y211.316
N2350 X259.155 Y211.31
N2355 X259.13 Y211.305
N2360 X259.106 Y211.3
N2365 X259.081 Y211.297
N2370 X259.057 Y211.294
N2375 X259.02 Y211.292
N2380 X258.922 Y211.291
N2385 X258.918
N2390 X252.169
N2395 X252.161
N2400 X252.137
N2405 X252.113 Y211.293
N2410 X252.088 Y211.295
N2415 X252.064 Y211.298
N2420 X252.039 Y211.301
N2425 X252.015 Y211.306
N2430 X251.99 Y211.311
N2435 X251.966 Y211.318
N2440 X251.941 Y211.325
N2445 X251.917 Y211.333
N2450 X251.893 Y211.342
N2455 X251.868 Y211.352
N2460 X251.844 Y211.363
N2465 X251.819 Y211.375
N2470 X251.795 Y211.388
N2475 X251.77 Y211.402
N2480 X251.747 Y211.418
N2485 X251.725 Y211.433
N2490 X251.707 Y211.446
N2495 X251.688 Y211.461
N2500 X251.67 Y211.477
N2505 X251.651 Y211.494
N2510 X251.631 Y211.513
N2515 X251.613 Y211.533
N2520 X251.595 Y211.552
N2525 X251.575 Y211.576
N2530 X251.553 Y211.606
N2535 X251.534 Y211.633
N2540 X251.519 Y211.658
N2545 X251.505 Y211.682
N2550 X251.492 Y211.707
N2555 X251.481 Y211.731
N2560 X251.47 Y211.756
N2565 X251.461 Y211.78
N2570 X251.452 Y211.805
N2575 X251.444 Y211.829
N2580 X251.438 Y211.854
N2585 X251.432 Y211.878
N2590 X251.427 Y211.903
N2595 X251.423 Y211.927
N2600 X251.419 Y211.951
N2605 X251.417 Y211.976
N2610 X251.415 Y212.
N2615 X251.414 Y212.027
N2620 Y212.756
N2625 X251.412 Y212.779 Z-2.998
N2630 X251.407 Y212.801 Z-2.993
N2635 X251.399 Y212.822 Z-2.984
N2640 X251.389 Y212.839 Z-2.971
N2645 X251.378 Y212.853 Z-2.956
N2650 X251.368 Y212.864 Z-2.938
N2655 X251.358 Y212.872 Z-2.918
N2660 X251.351 Y212.878 Z-2.896
N2665 X251.347 Y212.881 Z-2.873
N2670 X251.345 Y212.882 Z-2.85
N2675 G0 Z5.
N2680 X258.404 Y183.674
N2685 Z0.25
N2690 G1 X258.403 Y183.673 Z0.229 F700.
N2695 X258.4 Y183.669 Z0.208
N2700 X258.395 Y183.664 Z0.189
N2705 X258.389 Y183.656 Z0.17
N2710 X258.381 Y183.647 Z0.153
N2715 X258.372 Y183.635 Z0.138
N2720 X258.362 Y183.622 Z0.125
N2725 X258.349 Y183.605 Z0.113
N2730 X258.336 Y183.586 Z0.105
N2735 G3 X259.532 Y182.81 Z-0.495 I0.598 J-0.388
N2740 X258.336 Y183.586 Z-1.094 I-0.598 J0.388
N2745 X258.899 Y182.486 Z-1.495 I0.598 J-0.388
N2750 G1 X258.918 Y182.485 Z-1.499
N2755 X258.938 Z-1.5
N2760 G3 X259.541 Y183.095 I-0.003 J0.607
N2765 X258.931 Y183.699 I-0.607 J-0.003
N2770 G1 X258.918
N2775 X240.673 Y183.704
N2780 G2 X240.027 Y183.939 I0.102 J1.285
N2785 X239.584 Y184.464 I0.803 J1.127
N2790 X239.493 Y184.722 I1.1 J0.532
N2795 X239.457 Y184.994 I1.429 J0.328
N2800 G1 X239.521 Y189.026
N2805 G3 X239.029 I-0.246 J0.
N2810 G1 Y177.641
N2815 G3 X239.521 I0.246 J0.
N2820 G1 X239.461 Y181.744
N2825 G2 X239.763 Y182.485 I1.367 J-0.126
N2830 X240.434 Y182.92 I1.009 J-0.822
N2835 G1 X240.518 Y182.94
N2840 X240.602 Y182.955
N2845 X240.688 Y182.965
N2850 X240.773 Y182.968
N2855 X259.128 Y182.961
N2860 G2 X259.833 Y182.665 I-0.161 J-1.375
N2865 X260.261 Y182.031 I-0.809 J-1.007
N2870 G1 X260.285 Y181.94
N2875 X260.304 Y181.848
N2880 X260.317 Y181.755
N2885 X260.321 Y181.661
N2890 X260.258 Y177.474
N2895 G3 X260.443 Y177.289 I0.185 J0.
N2900 G1 X260.564
N2905 G3 X260.75 Y177.474 I0. J0.185
N2910 G1 Y189.026
N2915 G3 X260.258 I-0.246 J0.
N2920 G1 X260.316 Y184.905
N2925 G2 X260.001 Y184.166 I-1.368 J0.144
N2930 X259.32 Y183.741 I-0.993 J0.833
N2935 G1 X259.221 Y183.72
N2940 X259.12 Y183.707
N2945 X258.931 Y183.699
N2950 G2 X258.491 Y183.991 I-0.003 J0.473
N2955 G3 X258.051 Y184.283 I-0.44 J-0.185
N2960 G1 X240.773
N2965 X240.744 Y184.285
N2970 X240.719 Y184.287
N2975 X240.695 Y184.289
N2980 X240.67 Y184.293
N2985 X240.646 Y184.297
N2990 X240.621 Y184.303
N2995 X240.597 Y184.309
N3000 X240.572 Y184.316
N3005 X240.548 Y184.324
N3010 X240.523 Y184.332
N3015 X240.499 Y184.342
N3020 X240.475 Y184.353
N3025 X240.446 Y184.368
N3030 X240.412 Y184.386
N3035 X240.388 Y184.401
N3040 X240.371 Y184.412
N3045 X240.355 Y184.423
N3050 X240.338 Y184.435
N3055 X240.322 Y184.448
N3060 X240.306 Y184.461
N3065 X240.29 Y184.475
N3070 X240.275 Y184.489
N3075 X240.258 Y184.505
N3080 X240.241 Y184.523
N3085 X240.226 Y184.54
N3090 X240.211 Y184.558
N3095 X240.197 Y184.576
N3100 X240.184 Y184.593
N3105 X240.171 Y184.611
N3110 X240.16 Y184.628
N3115 X240.147 Y184.649
N3120 X240.134 Y184.672
N3125 X240.122 Y184.695
N3130 X240.11 Y184.718
N3135 X240.1 Y184.741
N3140 X240.091 Y184.764
N3145 X240.082 Y184.79
N3150 X240.072 Y184.819
N3155 X240.065 Y184.845
N3160 X240.059 Y184.869
N3165 X240.054 Y184.894
N3170 X240.05 Y184.918
N3175 X240.047 Y184.943
N3180 X240.044 Y184.967
N3185 X240.042 Y184.992
N3190 X240.041 Y185.016
N3195 Y185.031
N3200 Y189.899
N3205 X238.509
N3210 Y176.768
N3215 X240.041
N3220 Y181.607
N3225 Y181.612
N3230 X240.042 Y181.661
N3235 X240.043 Y181.691
N3240 X240.046 Y181.715
N3245 X240.049 Y181.74
N3250 X240.052 Y181.764
N3255 X240.058 Y181.793
N3260 X240.067 Y181.828
N3265 X240.076 Y181.861
N3270 X240.087 Y181.892
N3275 X240.1 Y181.924
N3280 X240.114 Y181.956
N3285 X240.128 Y181.984
N3290 X240.141 Y182.009
N3295 X240.156 Y182.033
N3300 X240.172 Y182.058
N3305 X240.19 Y182.082
N3310 X240.209 Y182.107
N3315 X240.23 Y182.132
N3320 X240.254 Y182.158
N3325 X240.279 Y182.182
N3330 X240.303 Y182.203
N3335 X240.328 Y182.224
N3340 X240.352 Y182.242
N3345 X240.377 Y182.259
N3350 X240.401 Y182.275
N3355 X240.426 Y182.289
N3360 X240.45 Y182.302
N3365 X240.472 Y182.313
N3370 X240.491 Y182.321
N3375 X240.51 Y182.329
N3380 X240.529 Y182.337
N3385 X240.548 Y182.344
N3390 X240.567 Y182.35
N3395 X240.586 Y182.355
N3400 X240.606 Y182.361
N3405 X240.626 Y182.365
N3410 X240.647 Y182.37
N3415 X240.67 Y182.374
N3420 X240.695 Y182.378
N3425 X240.719 Y182.38
N3430 X240.744 Y182.382
N3435 X240.773 Y182.384
N3440 X258.918
N3445 X258.922
N3450 X259.02 Y182.383
N3455 X259.06 Y182.38
N3460 X259.089 Y182.377
N3465 X259.119 Y182.372
N3470 X259.148 Y182.366
N3475 X259.173 Y182.361
N3480 X259.192 Y182.355
N3485 X259.211 Y182.35
N3490 X259.231 Y182.343
N3495 X259.253 Y182.335
N3500 X259.277 Y182.325
N3505 X259.302 Y182.315
N3510 X259.326 Y182.303
N3515 X259.351 Y182.29
N3520 X259.375 Y182.276
N3525 X259.4 Y182.26
N3530 X259.424 Y182.243
N3535 X259.446 Y182.227
N3540 X259.465 Y182.211
N3545 X259.485 Y182.195
N3550 X259.505 Y182.177
N3555 X259.523 Y182.158
N3560 X259.541 Y182.139
N3565 X259.561 Y182.116
N3570 X259.584 Y182.088
N3575 X259.604 Y182.06
N3580 X259.622 Y182.032
N3585 X259.638 Y182.007
N3590 X259.65 Y181.984
N3595 X259.662 Y181.96
N3600 X259.674 Y181.936
N3605 X259.684 Y181.911
N3610 X259.693 Y181.887
N3615 X259.701 Y181.862
N3620 X259.709 Y181.838
N3625 X259.715 Y181.813
N3630 X259.721 Y181.789
N3635 X259.726 Y181.764
N3640 X259.73 Y181.74
N3645 X259.733 Y181.716
N3650 X259.735 Y181.691
N3655 X259.737 Y181.658
N3660 Y181.511
N3665 Y181.509
N3670 Y176.768
N3675 X261.27
N3680 Y189.899
N3685 X259.737
N3690 Y185.031
N3695 Y185.016
N3700 X259.736 Y184.991
N3705 X259.734 Y184.967
N3710 X259.732 Y184.942
N3715 X259.728 Y184.918
N3720 X259.724 Y184.893
N3725 X259.719 Y184.869
N3730 X259.713 Y184.845
N3735 X259.706 Y184.821
N3740 X259.699 Y184.798
N3745 X259.691 Y184.775
N3750 X259.682 Y184.752
N3755 X259.673 Y184.729
N3760 X259.662 Y184.706
N3765 X259.649 Y184.68
N3770 X259.632 Y184.651
N3775 X259.616 Y184.624
N3780 X259.599 Y184.6
N3785 X259.581 Y184.576
N3790 X259.561 Y184.551
N3795 X259.539 Y184.526
N3800 X259.513 Y184.499
N3805 X259.487 Y184.474
N3810 X259.461 Y184.452
N3815 X259.433 Y184.43
N3820 X259.403 Y184.409
N3825 X259.375 Y184.391
N3830 X259.351 Y184.377
N3835 X259.326 Y184.364
N3840 X259.302 Y184.352
N3845 X259.277 Y184.342
N3850 X259.253 Y184.332
N3855 X259.228 Y184.323
N3860 X259.204 Y184.315
N3865 X259.179 Y184.308
N3870 X259.155 Y184.302
N3875 X259.13 Y184.297
N3880 X259.106 Y184.293
N3885 X259.082 Y184.289
N3890 X259.057 Y184.286
N3895 X259.02 Y184.284
N3900 X258.922 Y184.283
N3905 X258.918
N3910 X258.051
N3915 X258.031 Y184.278
N3920 X258.016 Y184.265
N3925 X258.009 Y184.246
N3930 X258.012 Y184.225
N3935 X258.085 Y184.038
N3940 X258.086 Y184.034
N3945 X258.29 Y183.32
N3950 X258.289 Y183.3
N3955 X258.277 Y183.285
N3960 X258.237 Y183.26
N3965 X258.227 Y183.249
N3970 X258.222 Y183.235
N3975 Y183.216 Z-1.501
N3980 X258.221 Y183.197 Z-1.505
N3985 G3 X259.646 Y183.199 Z-2.105 I0.712 J0.001
N3990 X258.221 Y183.197 Z-2.705 I-0.712 J-0.001
N3995 X258.899 Y182.486 Z-2.995 I0.713 J0.001
N4000 G1 X258.918 Y182.485 Z-2.999
N4005 X258.938 Z-3.
N4010 G3 X259.541 Y183.095 I-0.003 J0.607
N4015 X258.931 Y183.699 I-0.607 J-0.003
N4020 G1 X258.918
N4025 X240.673 Y183.704
N4030 G2 X240.027 Y183.939 I0.102 J1.285
N4035 X239.584 Y184.464 I0.803 J1.127
N4040 X239.493 Y184.722 I1.1 J0.532
N4045 X239.457 Y184.994 I1.429 J0.328
N4050 G1 X239.521 Y189.026
N4055 G3 X239.029 I-0.246 J0.
N4060 G1 Y177.474
N4065 G3 X239.215 Y177.289 I0.185 J0.
N4070 G1 X239.335
N4075 G3 X239.521 Y177.474 I0. J0.185
N4080 X239.442 Y179.609 I-28.941 J0.
N4085 G2 X239.461 Y181.744 I12.862 J0.951
N4090 X239.763 Y182.485 I1.367 J-0.126
N4095 X240.434 Y182.92 I1.009 J-0.822
N4100 G1 X240.518 Y182.94
N4105 X240.602 Y182.955
N4110 X240.688 Y182.965
N4115 X240.773 Y182.968
N4120 X259.128 Y182.961
N4125 G2 X259.833 Y182.665 I-0.161 J-1.375
N4130 X260.261 Y182.031 I-0.809 J-1.007
N4135 G1 X260.285 Y181.94
N4140 X260.304 Y181.848
N4145 X260.317 Y181.755
N4150 X260.321 Y181.661
N4155 X260.258 Y177.474
N4160 G3 X260.443 Y177.289 I0.185 J0.
N4165 G1 X260.564
N4170 G3 X260.75 Y177.474 I0. J0.185
N4175 G1 Y189.026
N4180 G3 X260.258 I-0.246 J0.
N4185 G1 X260.316 Y184.905
N4190 G2 X260.001 Y184.166 I-1.368 J0.144
N4195 X259.32 Y183.741 I-0.993 J0.833
N4200 G1 X259.221 Y183.72
N4205 X259.12 Y183.707
N4210 X258.931 Y183.699
N4215 G2 X258.491 Y183.991 I-0.003 J0.473
N4220 G3 X258.051 Y184.283 I-0.44 J-0.185
N4225 G1 X240.773
N4230 X240.744 Y184.285
N4235 X240.719 Y184.287
N4240 X240.695 Y184.289
N4245 X240.67 Y184.293
N4250 X240.646 Y184.297
N4255 X240.621 Y184.303
N4260 X240.597 Y184.309
N4265 X240.572 Y184.316
N4270 X240.548 Y184.324
N4275 X240.523 Y184.332
N4280 X240.499 Y184.342
N4285 X240.475 Y184.353
N4290 X240.446 Y184.368
N4295 X240.412 Y184.386
N4300 X240.388 Y184.401
N4305 X240.371 Y184.412
N4310 X240.355 Y184.423
N4315 X240.338 Y184.435
N4320 X240.322 Y184.448
N4325 X240.306 Y184.461
N4330 X240.29 Y184.475
N4335 X240.275 Y184.489
N4340 X240.258 Y184.505
N4345 X240.241 Y184.523
N4350 X240.226 Y184.54
N4355 X240.211 Y184.558
N4360 X240.197 Y184.576
N4365 X240.184 Y184.593
N4370 X240.171 Y184.611
N4375 X240.16 Y184.628
N4380 X240.147 Y184.649
N4385 X240.134 Y184.672
N4390 X240.122 Y184.695
N4395 X240.11 Y184.718
N4400 X240.1 Y184.741
N4405 X240.091 Y184.764
N4410 X240.082 Y184.79
N4415 X240.072 Y184.819
N4420 X240.065 Y184.845
N4425 X240.059 Y184.869
N4430 X240.054 Y184.894
N4435 X240.05 Y184.918
N4440 X240.047 Y184.943
N4445 X240.044 Y184.967
N4450 X240.042 Y184.992
N4455 X240.041 Y185.016
N4460 Y185.031
N4465 Y189.899
N4470 X238.509
N4475 Y176.768
N4480 X240.041
N4485 Y181.607
N4490 Y181.612
N4495 X240.042 Y181.661
N4500 X240.043 Y181.691
N4505 X240.046 Y181.715
N4510 X240.049 Y181.74
N4515 X240.052 Y181.764
N4520 X240.058 Y181.793
N4525 X240.067 Y181.828
N4530 X240.076 Y181.861
N4535 X240.087 Y181.892
N4540 X240.1 Y181.924
N4545 X240.114 Y181.956
N4550 X240.128 Y181.984
N4555 X240.141 Y182.009
N4560 X240.156 Y182.033
N4565 X240.172 Y182.058
N4570 X240.19 Y182.082
N4575 X240.209 Y182.107
N4580 X240.23 Y182.132
N4585 X240.254 Y182.158
N4590 X240.279 Y182.182
N4595 X240.303 Y182.203
N4600 X240.328 Y182.224
N4605 X240.352 Y182.242
N4610 X240.377 Y182.259
N4615 X240.401 Y182.275
N4620 X240.426 Y182.289
N4625 X240.45 Y182.302
N4630 X240.472 Y182.313
N4635 X240.491 Y182.321
N4640 X240.51 Y182.329
N4645 X240.529 Y182.337
N4650 X240.548 Y182.344
N4655 X240.567 Y182.35
N4660 X240.586 Y182.355
N4665 X240.606 Y182.361
N4670 X240.626 Y182.365
N4675 X240.647 Y182.37
N4680 X240.67 Y182.374
N4685 X240.695 Y182.378
N4690 X240.719 Y182.38
N4695 X240.744 Y182.382
N4700 X240.773 Y182.384
N4705 X258.918
N4710 X258.922
N4715 X259.02 Y182.383
N4720 X259.06 Y182.38
N4725 X259.089 Y182.377
N4730 X259.119 Y182.372
N4735 X259.148 Y182.366
N4740 X259.173 Y182.361
N4745 X259.192 Y182.355
N4750 X259.211 Y182.35
N4755 X259.231 Y182.343
N4760 X259.253 Y182.335
N4765 X259.277 Y182.325
N4770 X259.302 Y182.315
N4775 X259.326 Y182.303
N4780 X259.351 Y182.29
N4785 X259.375 Y182.276
N4790 X259.4 Y182.26
N4795 X259.424 Y182.243
N4800 X259.446 Y182.227
N4805 X259.465 Y182.211
N4810 X259.485 Y182.195
N4815 X259.505 Y182.177
N4820 X259.523 Y182.158
N4825 X259.541 Y182.139
N4830 X259.561 Y182.116
N4835 X259.584 Y182.088
N4840 X259.604 Y182.06
N4845 X259.622 Y182.032
N4850 X259.638 Y182.007
N4855 X259.65 Y181.984
N4860 X259.662 Y181.96
N4865 X259.674 Y181.936
N4870 X259.684 Y181.911
N4875 X259.693 Y181.887
N4880 X259.701 Y181.862
N4885 X259.709 Y181.838
N4890 X259.715 Y181.813
N4895 X259.721 Y181.789
N4900 X259.726 Y181.764
N4905 X259.73 Y181.74
N4910 X259.733 Y181.716
N4915 X259.735 Y181.691
N4920 X259.737 Y181.658
N4925 Y181.511
N4930 Y181.509
N4935 Y176.768
N4940 X261.27
N4945 Y189.899
N4950 X259.737
N4955 Y185.031
N4960 Y185.016
N4965 X259.736 Y184.991
N4970 X259.734 Y184.967
N4975 X259.732 Y184.942
N4980 X259.728 Y184.918
N4985 X259.724 Y184.893
N4990 X259.719 Y184.869
N4995 X259.713 Y184.845
N5000 X259.706 Y184.821
N5005 X259.699 Y184.798
N5010 X259.691 Y184.775
N5015 X259.682 Y184.752
N5020 X259.673 Y184.729
N5025 X259.662 Y184.706
N5030 X259.649 Y184.68
N5035 X259.632 Y184.651
N5040 X259.616 Y184.624
N5045 X259.599 Y184.6
N5050 X259.581 Y184.576
N5055 X259.561 Y184.551
N5060 X259.539 Y184.526
N5065 X259.513 Y184.499
N5070 X259.487 Y184.474
N5075 X259.461 Y184.452
N5080 X259.433 Y184.43
N5085 X259.403 Y184.409
N5090 X259.375 Y184.391
N5095 X259.351 Y184.377
N5100 X259.326 Y184.364
N5105 X259.302 Y184.352
N5110 X259.277 Y184.342
N5115 X259.253 Y184.332
N5120 X259.228 Y184.323
N5125 X259.204 Y184.315
N5130 X259.179 Y184.308
N5135 X259.155 Y184.302
N5140 X259.13 Y184.297
N5145 X259.106 Y184.293
N5150 X259.082 Y184.289
N5155 X259.057 Y184.286
N5160 X259.02 Y184.284
N5165 X258.922 Y184.283
N5170 X258.918
N5175 X258.051
N5180 X258.028 Y184.281 Z-2.998
N5185 X258.005 Y184.276 Z-2.993
N5190 X257.985 Y184.268 Z-2.984
N5195 X257.968 Y184.258 Z-2.971
N5200 X257.954 Y184.247 Z-2.956
N5205 X257.942 Y184.237 Z-2.938
N5210 X257.934 Y184.227 Z-2.918
N5215 X257.929 Y184.22 Z-2.896
N5220 X257.926 Y184.216 Z-2.873
N5225 X257.925 Y184.214 Z-2.85
N5230 G0 Z5.
N5235 X258.407 Y150.37
N5240 Z0.25
N5245 G1 X258.406 Y150.369 Z0.229 F700.
N5250 X258.403 Y150.365 Z0.208
N5255 X258.398 Y150.36 Z0.189
N5260 X258.391 Y150.352 Z0.17
N5265 X258.383 Y150.343 Z0.153
N5270 X258.374 Y150.332 Z0.138
N5275 X258.364 Y150.318 Z0.125
N5280 X258.351 Y150.301 Z0.113
N5285 X258.338 Y150.282 Z0.105
N5290 G3 X258.93 Y149.177 Z-0.306 I0.594 J-0.393
N5295 X258.935 Y150.602 Z-0.906 I0.002 J0.712
N5300 X258.364 Y150.318 Z-1.083 I-0.002 J-0.712
N5305 X258.892 Y149.178 Z-1.495 I0.569 J-0.429
N5310 G1 X258.911 Y149.177 Z-1.499
N5315 X258.93 Z-1.5
N5320 G3 X258.934 Y150.367 I0.002 J0.595
N5325 G1 X239.365 Y150.429
N5330 G3 X239.03 Y150.094 I0. J-0.335
N5335 G1 Y149.93
N5340 G3 X239.365 Y149.595 I0.335 J0.
N5345 G1 X259.121 Y149.652
N5350 G2 X259.892 Y149.305 I-0.151 J-1.365
N5355 X260.3 Y148.564 I-0.871 J-0.963
N5360 G1 X260.311 Y148.487
N5365 X260.318 Y148.409
N5370 X260.322 Y148.253
N5375 X260.258 Y141.902
N5380 G3 X260.443 Y141.717 I0.185 J0.
N5385 G1 X260.564
N5390 G3 X260.749 Y141.902 I0. J0.185
N5395 G1 Y158.11
N5400 G3 X260.564 Y158.295 I-0.185 J0.
N5405 G1 X260.443
N5410 G3 X260.258 Y158.11 I0. J-0.185
N5415 G1 X260.317 Y151.586
N5420 G2 X260.058 Y150.904 I-1.371 J0.13
N5425 X259.48 Y150.46 I-1.048 J0.766
N5430 G1 X259.37 Y150.422
N5435 X259.258 Y150.393
N5440 X259.143 Y150.374
N5445 X259.027 Y150.367
N5450 X258.934
N5455 G2 X258.498 Y150.658 I0.001 J0.475
N5460 G3 X258.061 Y150.95 I-0.437 J-0.181
N5465 G1 X238.509
N5470 Y149.074
N5475 X258.918
N5480 X258.922
N5485 X259.02 Y149.073
N5490 X259.057 Y149.071
N5495 X259.082 Y149.068
N5500 X259.106 Y149.064
N5505 X259.13 Y149.06
N5510 X259.161 Y149.053
N5515 X259.198 Y149.044
N5520 X259.23 Y149.033
N5525 X259.26 Y149.023
N5530 X259.291 Y149.009
N5535 X259.325 Y148.993
N5540 X259.358 Y148.976
N5545 X259.39 Y148.956
N5550 X259.413 Y148.941
N5555 X259.428 Y148.931
N5560 X259.447 Y148.916
N5565 X259.469 Y148.899
N5570 X259.491 Y148.879
N5575 X259.513 Y148.858
N5580 X259.533 Y148.838
N5585 X259.551 Y148.819
N5590 X259.567 Y148.799
N5595 X259.583 Y148.78
N5600 X259.601 Y148.755
N5605 X259.621 Y148.724
N5610 X259.641 Y148.692
N5615 X259.658 Y148.658
N5620 X259.674 Y148.625
N5625 X259.688 Y148.591
N5630 X259.698 Y148.562
N5635 X259.706 Y148.538
N5640 X259.713 Y148.513
N5645 X259.719 Y148.489
N5650 X259.724 Y148.464
N5655 X259.728 Y148.44
N5660 X259.732 Y148.415
N5665 X259.734 Y148.391
N5670 X259.736 Y148.355
N5675 X259.737 Y148.257
N5680 Y148.253
N5685 Y141.196
N5690 X261.27
N5695 Y158.816
N5700 X259.737
N5705 Y151.775
N5710 Y151.772
N5715 Y151.674
N5720 X259.735 Y151.642
N5725 X259.733 Y151.617
N5730 X259.729 Y151.593
N5735 X259.726 Y151.568
N5740 X259.721 Y151.544
N5745 X259.715 Y151.519
N5750 X259.709 Y151.495
N5755 X259.701 Y151.47
N5760 X259.691 Y151.44
N5765 X259.676 Y151.405
N5770 X259.665 Y151.378
N5775 X259.656 Y151.36
N5780 X259.646 Y151.342
N5785 X259.636 Y151.325
N5790 X259.623 Y151.302
N5795 X259.605 Y151.276
N5800 X259.589 Y151.252
N5805 X259.573 Y151.232
N5810 X259.556 Y151.211
N5815 X259.538 Y151.191
N5820 X259.517 Y151.169
N5825 X259.494 Y151.147
N5830 X259.471 Y151.127
N5835 X259.447 Y151.108
N5840 X259.424 Y151.091
N5845 X259.401 Y151.075
N5850 X259.38 Y151.061
N5855 X259.361 Y151.05
N5860 X259.343 Y151.04
N5865 X259.324 Y151.03
N5870 X259.305 Y151.021
N5875 X259.287 Y151.013
N5880 X259.268 Y151.005
N5885 X259.249 Y150.997
N5890 X259.228 Y150.99
N5895 X259.203 Y150.982
N5900 X259.173 Y150.974
N5905 X259.136 Y150.965
N5910 X259.1 Y150.959
N5915 X259.063 Y150.954
N5920 X259.02 Y150.951
N5925 X258.922 Y150.95
N5930 X258.918
N5935 X258.061
N5940 X258.042 Y150.945
N5945 X258.027 Y150.932
N5950 X258.02 Y150.913
N5955 X258.022 Y150.893
N5960 X258.094 Y150.708
N5965 X258.095 Y150.704
N5970 X258.289 Y150.017
N5975 X258.288 Y149.997
N5980 X258.276 Y149.982
N5985 X258.236 Y149.957
N5990 X258.226 Y149.947
N5995 X258.222 Y149.933
N6000 X258.221 Y149.913 Z-1.501
N6005 X258.22 Y149.894 Z-1.505
N6010 G3 X258.93 Y149.177 Z-1.806 I0.712 J-0.005
N6015 X258.935 Y150.602 Z-2.406 I0.002 J0.712
N6020 X258.364 Y150.318 Z-2.583 I-0.002 J-0.712
N6025 X258.892 Y149.178 Z-2.995 I0.569 J-0.429
N6030 G1 X258.911 Y149.177 Z-2.999
N6035 X258.93 Z-3.
N6040 G3 X258.934 Y150.367 I0.002 J0.595
N6045 G1 X239.365 Y150.429
N6050 G3 X239.03 Y150.094 I0. J-0.335
N6055 G1 Y149.93
N6060 G3 X239.365 Y149.595 I0.335 J0.
N6065 G1 X259.121 Y149.652
N6070 G2 X259.892 Y149.305 I-0.151 J-1.365
N6075 X260.3 Y148.564 I-0.871 J-0.963
N6080 G1 X260.311 Y148.487
N6085 X260.318 Y148.409
N6090 X260.322 Y148.253
N6095 X260.258 Y141.902
N6100 G3 X260.443 Y141.717 I0.185 J0.
N6105 G1 X260.564
N6110 G3 X260.749 Y141.902 I0. J0.185
N6115 G1 Y158.11
N6120 G3 X260.564 Y158.295 I-0.185 J0.
N6125 G1 X260.443
N6130 G3 X260.258 Y158.11 I0. J-0.185
N6135 G1 X260.317 Y151.586
N6140 G2 X260.058 Y150.904 I-1.371 J0.13
N6145 X259.48 Y150.46 I-1.048 J0.766
N6150 G1 X259.37 Y150.422
N6155 X259.258 Y150.393
N6160 X259.143 Y150.374
N6165 X259.027 Y150.367
N6170 X258.934
N6175 G2 X258.498 Y150.658 I0.001 J0.475
N6180 G3 X258.061 Y150.95 I-0.437 J-0.181
N6185 G1 X238.509
N6190 Y149.074
N6195 X258.918
N6200 X258.922
N6205 X259.02 Y149.073
N6210 X259.057 Y149.071
N6215 X259.082 Y149.068
N6220 X259.106 Y149.064
N6225 X259.13 Y149.06
N6230 X259.161 Y149.053
N6235 X259.198 Y149.044
N6240 X259.23 Y149.033
N6245 X259.26 Y149.023
N6250 X259.291 Y149.009
N6255 X259.325 Y148.993
N6260 X259.358 Y148.976
N6265 X259.39 Y148.956
N6270 X259.413 Y148.941
N6275 X259.428 Y148.931
N6280 X259.447 Y148.916
N6285 X259.469 Y148.899
N6290 X259.491 Y148.879
N6295 X259.513 Y148.858
N6300 X259.533 Y148.838
N6305 X259.551 Y148.819
N6310 X259.567 Y148.799
N6315 X259.583 Y148.78
N6320 X259.601 Y148.755
N6325 X259.621 Y148.724
N6330 X259.641 Y148.692
N6335 X259.658 Y148.658
N6340 X259.674 Y148.625
N6345 X259.688 Y148.591
N6350 X259.698 Y148.562
N6355 X259.706 Y148.538
N6360 X259.713 Y148.513
N6365 X259.719 Y148.489
N6370 X259.724 Y148.464
N6375 X259.728 Y148.44
N6380 X259.732 Y148.415
N6385 X259.734 Y148.391
N6390 X259.736 Y148.355
N6395 X259.737 Y148.257
N6400 Y148.253
N6405 Y141.196
N6410 X261.27
N6415 Y158.816
N6420 X259.737
N6425 Y151.775
N6430 Y151.772
N6435 Y151.674
N6440 X259.735 Y151.642
N6445 X259.733 Y151.617
N6450 X259.729 Y151.593
N6455 X259.726 Y151.568
N6460 X259.721 Y151.544
N6465 X259.715 Y151.519
N6470 X259.709 Y151.495
N6475 X259.701 Y151.47
N6480 X259.691 Y151.44
N6485 X259.676 Y151.405
N6490 X259.665 Y151.378
N6495 X259.656 Y151.36
N6500 X259.646 Y151.342
N6505 X259.636 Y151.325
N6510 X259.623 Y151.302
N6515 X259.605 Y151.276
N6520 X259.589 Y151.252
N6525 X259.573 Y151.232
N6530 X259.556 Y151.211
N6535 X259.538 Y151.191
N6540 X259.517 Y151.169
N6545 X259.494 Y151.147
N6550 X259.471 Y151.127
N6555 X259.447 Y151.108
N6560 X259.424 Y151.091
N6565 X259.401 Y151.075
N6570 X259.38 Y151.061
N6575 X259.361 Y151.05
N6580 X259.343 Y151.04
N6585 X259.324 Y151.03
N6590 X259.305 Y151.021
N6595 X259.287 Y151.013
N6600 X259.268 Y151.005
N6605 X259.249 Y150.997
N6610 X259.228 Y150.99
N6615 X259.203 Y150.982
N6620 X259.173 Y150.974
N6625 X259.136 Y150.965
N6630 X259.1 Y150.959
N6635 X259.063 Y150.954
N6640 X259.02 Y150.951
N6645 X258.922 Y150.95
N6650 X258.918
N6655 X258.061
N6660 X258.038 Y150.948 Z-2.998
N6665 X258.015 Y150.943 Z-2.993
N6670 X257.995 Y150.935 Z-2.984
N6675 X257.978 Y150.925 Z-2.971
N6680 X257.964 Y150.914 Z-2.956
N6685 X257.952 Y150.904 Z-2.938
N6690 X257.944 Y150.894 Z-2.918
N6695 X257.939 Y150.887 Z-2.896
N6700 X257.936 Y150.883 Z-2.873
N6705 X257.935 Y150.881 Z-2.85
N6710 G0 Z5.
N6715 X245.962 Y123.607
N6720 Z0.25
N6725 G1 X245.963 Y123.608 Z0.229 F700.
N6730 X245.967 Y123.611 Z0.208
N6735 X245.972 Y123.615 Z0.189
N6740 X245.98 Y123.621 Z0.17
N6745 X245.989 Y123.629 Z0.153
N6750 X246.001 Y123.639 Z0.138
N6755 X246.013 Y123.65 Z0.125
N6760 X246.028 Y123.665 Z0.113
N6765 X246.044 Y123.681 Z0.105
N6770 G3 X245.009 Y124.661 Z-0.495 I-0.518 J0.49
N6775 X246.044 Y123.681 Z-1.094 I0.518 J-0.49
N6780 X245.69 Y124.865 Z-1.495 I-0.518 J0.49
N6785 G1 X245.671 Y124.869 Z-1.499
N6790 X245.652 Y124.873 Z-1.5
N6795 G3 X244.986 Y124.408 I-0.101 J-0.565
N6800 X245.45 Y123.742 I0.565 J-0.101
N6805 G2 X247.516 Y122.772 I-0.772 J-4.327
N6810 X249.149 Y120.519 I-3.751 J-4.438
N6815 X250.02 Y117.877 I-19.28 J-7.824
N6820 G1 X251.038 Y113.989
N6825 G3 X252.188 Y111.45 I11.079 J3.485
N6830 X254.443 Y109.812 I3.08 J1.869
N6835 X257.241 Y109.857 I1.309 J5.565
N6840 X259.526 Y111.473 I-1.057 J3.917
N6845 X259.306 Y111.661 I-0.12 J0.082
N6850 G2 X255.461 Y110.298 I-3.463 J3.661
N6855 X252.001 Y112.459 I0.333 J4.384
N6860 X251.408 Y113.694 I7.181 J4.209
N6865 X250.988 Y114.998 I11.849 J4.533
N6870 X250.155 Y118.422 I91.886 J24.18
N6875 G3 X248.966 Y121.738 I-13.892 J-3.11
N6880 X247.654 Y123.432 I-5.039 J-2.549
N6885 X245.729 Y124.372 I-2.688 J-3.06
N6890 X242.703 Y124.129 I-1.071 J-5.615
N6895 X240.345 Y122.217 I1.592 J-4.374
N6900 X239.209 Y118.927 I6.623 J-4.128
N6905 X239.128 Y115.447 I20.527 J-2.216
N6910 X239.967 Y111.747 I11.765 J0.721
N6915 X242.556 Y108.973 I4.91 J1.987
N6920 X243.048 Y109.218 I0.152 J0.311
N6925 G1 X243.075 Y109.357
N6930 G3 X242.894 Y109.722 I-0.329 J0.064
N6935 G2 X241.456 Y110.716 I2.614 J5.322
N6940 X240.395 Y112.105 I3.603 J3.849
N6945 X239.586 Y114.693 I6.618 J3.49
N6950 X239.473 Y117.402 I16.99 J2.064
N6955 X240.161 Y120.865 I11.18 J-0.422
N6960 X242.603 Y123.414 I4.158 J-1.539
N6965 X245.15 Y123.785 I1.994 J-4.751
N6970 X245.45 Y123.742 I-0.472 J-4.37
N6975 G1 X245.474 Y123.74 Z-1.498
N6980 X245.496 Y123.742 Z-1.493
N6985 X245.518 Y123.747 Z-1.484
N6990 X245.536 Y123.754 Z-1.471
N6995 X245.552 Y123.762 Z-1.456
N7000 X245.565 Y123.771 Z-1.438
N7005 X245.574 Y123.778 Z-1.418
N7010 X245.581 Y123.785 Z-1.396
N7015 X245.585 Y123.789 Z-1.373
N7020 X245.586 Y123.79 Z-1.35
N7025 G0 Z5.
N7030 X257.518 Y123.62
N7035 Z0.25
N7040 G1 X257.517 Z0.229 F700.
N7045 X257.513 Y123.618 Z0.208
N7050 X257.506 Y123.616 Z0.189
N7055 X257.497 Y123.612 Z0.17
N7060 X257.485 Y123.607 Z0.153
N7065 X257.472 Y123.601 Z0.138
N7070 X257.457 Y123.594 Z0.125
N7075 X257.438 Y123.585 Z0.113
N7080 X257.417 Y123.574 Z0.105
N7085 G3 X258.116 Y122.332 Z-0.495 I0.349 J-0.621
N7090 X257.417 Y123.574 Z-1.094 I-0.349 J0.621
N7095 X257.406 Y122.338 Z-1.495 I0.349 J-0.621
N7100 G1 X257.423 Y122.329 Z-1.499
N7105 X257.44 Y122.32 Z-1.5
N7110 G3 X258.108 Y122.533 I0.228 J0.44
N7115 X257.895 Y123.2 I-0.44 J0.228
N7120 G1 X257.856 Y123.22
N7125 G3 X257.594 Y123.088 I-0.082 J-0.162
N7130 G1 X257.584 Y123.023
N7135 X257.582 Y122.975
N7140 X257.593 Y122.928
N7145 X257.616 Y122.886
N7150 X257.649 Y122.852
N7155 X257.69 Y122.827
N7160 G2 X258.26 Y122.548 I-3.218 J-7.313
N7165 X258.8 Y122.215 I-2.553 J-4.741
N7170 G3 X258.977 Y122.426 I0.079 J0.113
N7175 X258.448 Y122.868 I-2.743 J-2.75
N7180 X257.895 Y123.2 I-2.841 J-4.095
N7185 G2 X257.604 Y123.709 I0.248 J0.48
N7190 G3 X257.283 Y124.199 I-0.495 J0.026
N7195 G1 X257.2 Y124.23
N7200 X257.111 Y124.26
N7205 X256.807 Y122.438
N7210 X256.877 Y122.416
N7215 X256.884 Y122.414
N7220 X256.982 Y122.382
N7225 X256.989 Y122.379
N7230 X257.087 Y122.345
N7235 X257.09 Y122.344
N7240 X257.188 Y122.308
N7245 X257.197 Y122.305
N7250 X257.294 Y122.266
N7255 X257.301 Y122.264
N7260 X257.399 Y122.223
N7265 X257.406 Y122.22
N7270 X257.516 Y122.171
N7275 X257.521 Y122.169
N7280 X257.607 Y122.13
N7285 X257.611 Y122.128
N7290 X257.709 Y122.082
N7295 X257.721 Y122.076
N7300 X257.917 Y121.974
N7305 X257.927 Y121.969
N7310 X258.025 Y121.914
N7315 X258.031 Y121.911
N7320 X258.141 Y121.847
N7325 X258.15 Y121.842
N7330 X258.235 Y121.789
N7335 X258.239 Y121.786
N7340 X258.265 Y121.769
N7345 X258.273 Y121.765
N7350 X258.344 Y121.717
N7355 X258.351 Y121.712
N7360 X258.449 Y121.643
N7365 X258.459 Y121.636
N7370 X258.564 Y121.557
N7375 X258.574 Y121.549
N7380 X258.695 Y121.451
N7385 X258.706 Y121.442
N7390 X258.818 Y121.344
N7395 X258.829 Y121.335
N7400 X258.932 Y121.237
N7405 X258.939 Y121.23
N7410 X258.987 Y121.183
N7415 X258.992 Y121.177
N7420 X259.041 Y121.127
N7425 X259.046 Y121.121
N7430 X259.095 Y121.068
N7435 X259.101 Y121.062
N7440 X259.199 Y120.951
N7445 X259.204 Y120.945
N7450 X259.231 Y120.913
N7455 X259.238 Y120.905
N7460 X259.316 Y120.807
N7465 X259.322 Y120.799
N7470 X259.412 Y120.681
N7475 X259.418 Y120.674
N7480 X259.473 Y120.597
N7485 X259.479 Y120.588
N7490 X259.546 Y120.49
N7495 X259.551 Y120.482
N7500 X259.625 Y120.367
N7505 X259.631 Y120.358
N7510 X259.679 Y120.277
N7515 X259.684 Y120.269
N7520 X259.74 Y120.171
N7525 X259.744 Y120.164
N7530 X259.796 Y120.066
N7535 X259.802 Y120.055
N7540 X259.851 Y119.957
N7545 X259.853 Y119.952
N7550 X259.9 Y119.854
N7555 X259.903 Y119.848
N7560 X259.947 Y119.75
N7565 X259.951 Y119.741
N7570 X259.993 Y119.643
N7575 X259.996 Y119.636
N7580 X260.035 Y119.538
N7585 X260.038 Y119.53
N7590 X260.075 Y119.432
N7595 X260.077 Y119.424
N7600 X260.145 Y119.229
N7605 X260.149 Y119.216
N7610 X260.18 Y119.118
N7615 X260.181 Y119.114
N7620 X260.21 Y119.016
N7625 X260.211 Y119.01
N7630 X260.238 Y118.912
N7635 X260.241 Y118.903
N7640 X260.29 Y118.707
N7645 X260.292 Y118.698
N7650 X260.313 Y118.6
N7655 X260.315 Y118.595
N7660 X260.335 Y118.497
N7665 X260.337 Y118.488
N7670 X260.372 Y118.292
N7675 X260.374 Y118.284
N7680 X260.389 Y118.186
N7685 X260.39 Y118.182
N7690 X260.404 Y118.084
N7695 X260.405 Y118.079
N7700 X260.418 Y117.981
N7705 Y117.976
N7710 X260.441 Y117.78
N7715 X260.442 Y117.774
N7720 X260.452 Y117.676
N7725 X260.453 Y117.669
N7730 X260.466 Y117.508
N7735 Y117.504
N7740 X260.475 Y117.37
N7745 Y117.367
N7750 X260.481 Y117.269
N7755 Y117.265
N7760 X260.486 Y117.167
N7765 Y117.163
N7770 X260.49 Y117.065
N7775 Y117.06
N7780 X260.494 Y116.864
N7785 Y116.858
N7790 X260.495 Y116.662
N7795 Y116.658
N7800 X260.494 Y116.462
N7805 Y116.455
N7810 X260.489 Y116.26
N7815 X260.488 Y116.254
N7820 X260.481 Y116.059
N7825 X260.48 Y116.052
N7830 X260.475 Y115.954
N7835 X260.474 Y115.95
N7840 X260.461 Y115.754
N7845 X260.46 Y115.748
N7850 X260.452 Y115.651
N7855 Y115.644
N7860 X260.432 Y115.449
N7865 X260.431 Y115.441
N7870 X260.407 Y115.246
N7875 X260.406 Y115.239
N7880 X260.393 Y115.142
N7885 X260.392 Y115.135
N7890 X260.364 Y114.961
N7895 X260.363 Y114.952
N7900 X260.341 Y114.833
N7905 X260.34 Y114.828
N7910 X260.321 Y114.73
N7915 X260.32 Y114.724
N7920 X260.299 Y114.626
N7925 X260.298 Y114.622
N7930 X260.276 Y114.524
N7935 X260.275 Y114.517
N7940 X260.251 Y114.419
N7945 X260.249 Y114.412
N7950 X260.223 Y114.314
N7955 X260.221 Y114.307
N7960 X260.193 Y114.209
N7965 X260.191 Y114.201
N7970 X260.146 Y114.059
N7975 X260.143 Y114.05
N7980 X260.092 Y113.899
N7985 X260.09 Y113.893
N7990 X260.054 Y113.791
N7995 X260.051 Y113.782
N8000 X260.015 Y113.689
N8005 X260.012 Y113.683
N8010 X259.95 Y113.53
N8015 X259.945 Y113.517
N8020 X259.882 Y113.377
N8025 X259.878 Y113.368
N8030 X259.831 Y113.27
N8035 X259.829 Y113.266
N8040 X259.78 Y113.168
N8045 X259.774 Y113.157
N8050 X259.722 Y113.059
N8055 X259.717 Y113.051
N8060 X259.635 Y112.907
N8065 X259.627 Y112.894
N8070 X259.529 Y112.738
N8075 X259.521 Y112.724
N8080 X259.458 Y112.633
N8085 X259.453 Y112.627
N8090 X259.383 Y112.529
N8095 X259.374 Y112.517
N8100 X259.297 Y112.419
N8105 X259.29 Y112.409
N8110 X259.206 Y112.309
N8115 X259.197 Y112.299
N8120 X259.099 Y112.19
N8125 X259.089 Y112.18
N8130 X259.028 Y112.117
N8135 X259.023 Y112.111
N8140 X258.965 Y112.054
N8145 X258.959 Y112.048
N8150 X258.882 Y111.976
N8155 X258.871 Y111.966
N8160 X258.772 Y111.879
N8165 X258.763 Y111.872
N8170 X258.667 Y111.792
N8175 X258.655 Y111.782
N8180 X258.557 Y111.709
N8185 X258.547 Y111.701
N8190 X258.449 Y111.633
N8195 X258.437 Y111.625
N8200 X258.326 Y111.553
N8205 X258.315 Y111.546
N8210 X258.231 Y111.495
N8215 X258.219 Y111.489
N8220 X258.122 Y111.435
N8225 X258.113 Y111.43
N8230 X258.015 Y111.379
N8235 X258.003 Y111.373
N8240 X257.905 Y111.327
N8245 X257.895 Y111.322
N8250 X257.797 Y111.279
N8255 X257.784 Y111.274
N8260 X257.66 Y111.225
N8265 X257.653 Y111.222
N8270 X257.581 Y111.196
N8275 X257.573 Y111.193
N8280 X257.475 Y111.159
N8285 X257.465 Y111.156
N8290 X257.345 Y111.118
N8295 X257.336 Y111.116
N8300 X257.261 Y111.094
N8305 X257.251 Y111.092
N8310 X257.141 Y111.063
N8315 X257.134 Y111.061
N8320 X256.95 Y111.018
N8325 X256.937 Y111.015
N8330 X256.839 Y110.996
N8335 X256.831 Y110.994
N8340 X256.733 Y110.977
N8345 X256.726 Y110.976
N8350 X256.628 Y110.96
N8355 X256.621 Y110.959
N8360 X256.523 Y110.946
N8365 X256.517 Y110.945
N8370 X256.419 Y110.933
N8375 X256.408 Y110.932
N8380 X256.213 Y110.915
N8385 X256.199 Y110.914
N8390 X256.053 Y110.906
N8395 X256.046
N8400 X255.898 Y110.901
N8405 X255.888
N8410 X255.778 Y110.9
N8415 X255.771
N8420 X255.685 Y110.901
N8425 X255.678
N8430 X255.561 Y110.905
N8435 X255.553 Y110.906
N8440 X255.475 Y110.91
N8445 X255.468
N8450 X255.37 Y110.917
N8455 X255.362 Y110.918
N8460 X255.264 Y110.927
N8465 X255.253 Y110.928
N8470 X255.155 Y110.94
N8475 X255.145 Y110.941
N8480 X255.047 Y110.956
N8485 X255.039 Y110.958
N8490 X254.941 Y110.975
N8495 X254.932 Y110.976
N8500 X254.834 Y110.996
N8505 X254.825 Y110.998
N8510 X254.727 Y111.02
N8515 X254.711 Y111.024
N8520 X254.613 Y111.051
N8525 X254.604 Y111.053
N8530 X254.507 Y111.083
N8535 X254.496 Y111.086
N8540 X254.392 Y111.12
N8545 X254.379 Y111.125
N8550 X254.287 Y111.16
N8555 X254.273 Y111.165
N8560 X254.163 Y111.212
N8565 X254.15 Y111.217
N8570 X254.065 Y111.257
N8575 X254.051 Y111.264
N8580 X253.93 Y111.326
N8585 X253.916 Y111.334
N8590 X253.841 Y111.377
N8595 X253.828 Y111.384
N8600 X253.721 Y111.452
N8605 X253.704 Y111.463
N8610 X253.616 Y111.524
N8615 X253.606 Y111.532
N8620 X253.558 Y111.568
N8625 X253.552 Y111.572
N8630 X253.503 Y111.611
N8635 X253.497 Y111.616
N8640 X253.425 Y111.674
N8645 X253.413 Y111.685
N8650 X253.29 Y111.794
N8655 X253.279 Y111.804
N8660 X253.181 Y111.897
N8665 X253.172 Y111.906
N8670 X253.064 Y112.017
N8675 X253.054 Y112.028
N8680 X252.967 Y112.124
N8685 X252.96 Y112.132
N8690 X252.892 Y112.211
N8695 X252.885 Y112.22
N8700 X252.807 Y112.318
N8705 X252.8 Y112.326
N8710 X252.738 Y112.409
N8715 X252.733 Y112.416
N8720 X252.647 Y112.536
N8725 X252.637 Y112.55
N8730 X252.54 Y112.699
N8735 X252.538 Y112.701
N8740 X252.513 Y112.74
N8745 X252.505 Y112.754
N8750 X252.432 Y112.878
N8755 X252.43 Y112.881
N8760 X252.389 Y112.952
N8765 X252.383 Y112.964
N8770 X252.326 Y113.071
N8775 X252.323 Y113.078
N8780 X252.229 Y113.265
N8785 X252.226 Y113.271
N8790 X252.18 Y113.369
N8795 X252.177 Y113.375
N8800 X252.121 Y113.498
N8805 X252.118 Y113.505
N8810 X252.044 Y113.676
N8815 X252.043 Y113.679
N8820 X252.002 Y113.777
N8825 X252. Y113.782
N8830 X251.961 Y113.88
N8835 X251.958 Y113.886
N8840 X251.884 Y114.082
N8845 X251.881 Y114.089
N8850 X251.812 Y114.285
N8855 X251.809 Y114.292
N8860 X251.744 Y114.488
N8865 X251.741 Y114.495
N8870 X251.681 Y114.691
N8875 X251.679 Y114.695
N8880 X251.65 Y114.793
N8885 X251.649 Y114.797
N8890 X251.593 Y114.993
N8895 X251.592 Y115.
N8900 X251.553 Y115.146
N8905 X251.552 Y115.149
N8910 X250.963 Y117.448
N8915 Y117.449
N8920 X250.73 Y118.374
N8925 X250.483 Y119.3
N8930 X250.439 Y119.458
N8935 X250.343 Y119.792
N8940 X250.286 Y119.97
N8945 X250.195 Y120.258
N8950 X250.027 Y120.737
N8955 X249.865 Y121.159
N8960 X249.802 Y121.308
N8965 X249.678 Y121.6
N8970 X249.487 Y122.002
N8975 X249.298 Y122.354
N8980 X249.251 Y122.436
N8985 X249.079 Y122.721
N8990 X249.02 Y122.812
N8995 X248.832 Y123.087
N9000 X248.683 Y123.271
N9005 X248.606 Y123.366
N9010 X248.565 Y123.415
N9015 X248.35 Y123.637
N9020 X248.292 Y123.696
N9025 X248.014 Y123.939
N9030 X247.924 Y124.013
N9035 X247.83 Y124.087
N9040 X247.655 Y124.212
N9045 X247.566 Y124.269
N9050 X247.475 Y124.326
N9055 X247.385 Y124.378
N9060 X247.296 Y124.428
N9065 X247.113 Y124.522
N9070 X247.024 Y124.564
N9075 X246.937 Y124.603
N9080 X246.563 Y124.749
N9085 X246.475 Y124.779
N9090 X246.372 Y124.813
N9095 X246.294 Y124.837
N9100 X246.111 Y124.886
N9105 X246.022 Y124.906
N9110 X245.838 Y124.946
N9115 X245.654 Y124.977
N9120 X245.564 Y124.991
N9125 X245.378 Y125.014
N9130 X245.287 Y125.023
N9135 X245.104 Y125.038
N9140 X244.628 Y125.054
N9145 X244.541 Y125.055
N9150 X244.263 Y125.049
N9155 X243.982 Y125.03
N9160 X243.894 Y125.022
N9165 X243.615 Y124.988
N9170 X243.338 Y124.941
N9175 X243.25 Y124.922
N9180 X243.062 Y124.879
N9185 X242.974 Y124.857
N9190 X242.786 Y124.803
N9195 X242.698 Y124.777
N9200 X242.423 Y124.681
N9205 X242.13 Y124.56
N9210 X241.874 Y124.438
N9215 X241.689 Y124.336
N9220 X241.602 Y124.287
N9225 X241.419 Y124.17
N9230 X241.331 Y124.111
N9235 X241.148 Y123.977
N9240 X241.053 Y123.901
N9245 X240.94 Y123.807
N9250 X240.876 Y123.753
N9255 X240.691 Y123.579
N9260 X240.649 Y123.538
N9265 X240.472 Y123.352
N9270 X240.394 Y123.262
N9275 X240.314 Y123.169
N9280 X240.237 Y123.075
N9285 X240.052 Y122.831
N9290 X239.849 Y122.526
N9295 X239.683 Y122.24
N9300 X239.64 Y122.16
N9305 X239.497 Y121.881
N9310 X239.368 Y121.596
N9315 X239.33 Y121.506
N9320 X239.217 Y121.223
N9325 X239.15 Y121.035
N9330 X239.084 Y120.846
N9335 X238.995 Y120.562
N9340 X238.969 Y120.473
N9345 X238.869 Y120.091
N9350 X238.848 Y120.001
N9355 X238.767 Y119.619
N9360 X238.746 Y119.506
N9365 X238.685 Y119.144
N9370 X238.671 Y119.053
N9375 X238.61 Y118.575
N9380 X238.565 Y118.098
N9385 X238.534 Y117.619
N9390 X238.516 Y117.139
N9395 X238.513 Y116.948
N9400 X238.51 Y116.658
N9405 Y116.567
N9410 X238.525 Y115.794
N9415 X238.546 Y115.412
N9420 X238.555 Y115.273
N9425 X238.574 Y115.028
N9430 X238.582 Y114.936
N9435 X238.623 Y114.553
N9440 X238.673 Y114.172
N9445 X238.736 Y113.791
N9450 X238.753 Y113.699
N9455 X238.809 Y113.412
N9460 X238.84 Y113.274
N9465 X238.897 Y113.033
N9470 X238.92 Y112.942
N9475 X238.999 Y112.656
N9480 X239.029 Y112.558
N9485 X239.124 Y112.262
N9490 X239.149 Y112.191
N9495 X239.254 Y111.907
N9500 X239.309 Y111.774
N9505 X239.404 Y111.553
N9510 X239.444 Y111.467
N9515 X239.549 Y111.253
N9520 X239.594 Y111.164
N9525 X239.745 Y110.894
N9530 X239.789 Y110.822
N9535 X239.96 Y110.554
N9540 X239.984 Y110.52
N9545 X240.144 Y110.299
N9550 X240.177 Y110.257
N9555 X240.339 Y110.055
N9560 X240.419 Y109.963
N9565 X240.513 Y109.857
N9570 X240.585 Y109.779
N9575 X240.767 Y109.594
N9580 X240.973 Y109.405
N9585 X241.075 Y109.319
N9590 X241.249 Y109.176
N9595 X241.434 Y109.039
N9600 X241.524 Y108.975
N9605 X241.71 Y108.852
N9610 X241.799 Y108.796
N9615 X242.009 Y108.672
N9620 X242.076 Y108.636
N9625 X242.264 Y108.537
N9630 X242.362 Y108.489
N9635 X242.565 Y108.395
N9640 X242.631 Y108.366
N9645 X242.821 Y108.288
N9650 X242.911 Y108.253
N9655 X243.157 Y108.164
N9660 X243.236 Y108.138
N9665 X243.359 Y108.099
N9670 X243.717 Y109.935
N9675 X243.624 Y109.97
N9680 X243.62 Y109.972
N9685 X243.522 Y110.01
N9690 X243.515 Y110.013
N9695 X243.416 Y110.054
N9700 X243.409 Y110.057
N9705 X243.313 Y110.099
N9710 X243.309 Y110.101
N9715 X243.211 Y110.146
N9720 X243.2 Y110.151
N9725 X243.102 Y110.199
N9730 X243.098 Y110.201
N9735 X242.978 Y110.262
N9740 X242.973 Y110.264
N9745 X242.897 Y110.304
N9750 X242.888 Y110.309
N9755 X242.786 Y110.367
N9760 X242.78 Y110.37
N9765 X242.687 Y110.424
N9770 X242.681 Y110.428
N9775 X242.61 Y110.472
N9780 X242.599 Y110.478
N9785 X242.475 Y110.56
N9790 X242.463 Y110.568
N9795 X242.365 Y110.638
N9800 X242.356 Y110.645
N9805 X242.259 Y110.719
N9810 X242.25 Y110.726
N9815 X242.152 Y110.805
N9820 X242.143 Y110.812
N9825 X242.042 Y110.898
N9830 X242.033 Y110.907
N9835 X241.926 Y111.005
N9840 X241.918 Y111.013
N9845 X241.853 Y111.076
N9850 X241.845 Y111.085
N9855 X241.718 Y111.217
N9860 X241.709 Y111.227
N9865 X241.618 Y111.329
N9870 X241.611 Y111.337
N9875 X241.513 Y111.453
N9880 X241.505 Y111.463
N9885 X241.408 Y111.588
N9890 X241.399 Y111.599
N9895 X241.293 Y111.745
N9900 X241.286 Y111.756
N9905 X241.196 Y111.889
N9910 X241.192 Y111.895
N9915 X241.152 Y111.958
N9920 X241.147 Y111.965
N9925 X241.087 Y112.063
N9930 X241.083 Y112.069
N9935 X241.026 Y112.167
N9940 X241.022 Y112.174
N9945 X240.967 Y112.271
N9950 X240.963 Y112.279
N9955 X240.912 Y112.377
N9960 X240.909 Y112.383
N9965 X240.859 Y112.481
N9970 X240.856 Y112.486
N9975 X240.809 Y112.584
N9980 X240.804 Y112.595
N9985 X240.716 Y112.79
N9990 X240.713 Y112.798
N9995 X240.672 Y112.896
N10000 X240.67 Y112.901
N10005 X240.63 Y112.999
N10010 X240.627 Y113.007
N10015 X240.554 Y113.203
N10020 X240.55 Y113.214
N10025 X240.483 Y113.409
N10030 X240.481 Y113.416
N10035 X240.45 Y113.514
N10040 X240.448 Y113.518
N10045 X240.418 Y113.616
N10050 X240.416 Y113.622
N10055 X240.36 Y113.818
N10060 X240.357 Y113.828
N10065 X240.332 Y113.925
N10070 X240.331 Y113.931
N10075 X240.307 Y114.028
N10080 X240.305 Y114.035
N10085 X240.284 Y114.133
N10090 X240.282 Y114.14
N10095 X240.251 Y114.292
N10100 X240.25 Y114.297
N10105 X240.223 Y114.438
N10110 X240.222 Y114.443
N10115 X240.205 Y114.541
N10120 X240.204 Y114.547
N10125 X240.173 Y114.743
N10130 X240.172 Y114.747
N10135 X240.158 Y114.845
N10140 X240.156 Y114.853
N10145 X240.132 Y115.049
N10150 X240.131 Y115.055
N10155 X240.11 Y115.25
N10160 X240.109 Y115.256
N10165 X240.091 Y115.452
N10170 Y115.457
N10175 X240.075 Y115.653
N10180 Y115.66
N10185 X240.063 Y115.855
N10190 Y115.861
N10195 X240.054 Y116.057
N10200 Y116.06
N10205 X240.047 Y116.256
N10210 Y116.262
N10215 X240.043 Y116.458
N10220 Y116.461
N10225 X240.041 Y116.657
N10230 Y116.663
N10235 X240.044 Y116.957
N10240 Y116.964
N10245 X240.049 Y117.159
N10250 Y117.162
N10255 X240.056 Y117.379
N10260 X240.057 Y117.387
N10265 X240.072 Y117.66
N10270 X240.073 Y117.666
N10275 X240.087 Y117.862
N10280 Y117.866
N10285 X240.096 Y117.964
N10290 Y117.969
N10295 X240.115 Y118.165
N10300 X240.116 Y118.167
N10305 X240.126 Y118.265
N10310 X240.127 Y118.272
N10315 X240.157 Y118.508
N10320 X240.158 Y118.514
N10325 X240.18 Y118.669
N10330 X240.181 Y118.676
N10335 X240.212 Y118.872
N10340 X240.214 Y118.88
N10345 X240.249 Y119.075
N10350 X240.251 Y119.081
N10355 X240.28 Y119.228
N10360 X240.281 Y119.233
N10365 X240.313 Y119.38
N10370 X240.314 Y119.387
N10375 X240.337 Y119.484
N10380 X240.338 Y119.49
N10385 X240.363 Y119.588
N10390 X240.364 Y119.593
N10395 X240.39 Y119.691
N10400 X240.392 Y119.698
N10405 X240.448 Y119.893
N10410 X240.451 Y119.905
N10415 X240.514 Y120.1
N10420 X240.517 Y120.109
N10425 X240.558 Y120.228
N10430 X240.561 Y120.236
N10435 X240.627 Y120.411
N10440 X240.631 Y120.421
N10445 X240.671 Y120.519
N10450 X240.673 Y120.525
N10455 X240.715 Y120.622
N10460 X240.717 Y120.627
N10465 X240.761 Y120.725
N10470 X240.765 Y120.735
N10475 X240.812 Y120.833
N10480 X240.815 Y120.839
N10485 X240.878 Y120.965
N10490 X240.883 Y120.973
N10495 X240.92 Y121.043
N10500 X240.923 Y121.05
N10505 X240.984 Y121.158
N10510 X240.988 Y121.164
N10515 X241.038 Y121.251
N10520 X241.044 Y121.26
N10525 X241.104 Y121.357
N10530 X241.111 Y121.368
N10535 X241.196 Y121.494
N10540 X241.203 Y121.504
N10545 X241.288 Y121.623
N10550 X241.294 Y121.632
N10555 X241.332 Y121.68
N10560 X241.337 Y121.687
N10565 X241.414 Y121.785
N10570 X241.423 Y121.795
N10575 X241.515 Y121.903
N10580 X241.525 Y121.914
N10585 X241.623 Y122.02
N10590 X241.633 Y122.03
N10595 X241.711 Y122.109
N10600 X241.719 Y122.116
N10605 X241.822 Y122.214
N10610 X241.834 Y122.225
N10615 X241.947 Y122.323
N10620 X241.957 Y122.332
N10625 X242.054 Y122.41
N10630 X242.061 Y122.416
N10635 X242.087 Y122.435
N10640 X242.095 Y122.442
N10645 X242.231 Y122.539
N10650 X242.239 Y122.545
N10655 X242.273 Y122.569
N10660 X242.282 Y122.574
N10665 X242.396 Y122.648
N10670 X242.409 Y122.656
N10675 X242.49 Y122.704
N10680 X242.499 Y122.709
N10685 X242.597 Y122.764
N10690 X242.611 Y122.771
N10695 X242.709 Y122.82
N10700 X242.719 Y122.825
N10705 X242.817 Y122.87
N10710 X242.829 Y122.876
N10715 X242.927 Y122.917
N10720 X242.939 Y122.922
N10725 X243.037 Y122.959
N10730 X243.042 Y122.961
N10735 X243.094 Y122.979
N10740 X243.104 Y122.983
N10745 X243.15 Y122.998
N10750 X243.156 Y123.
N10755 X243.254 Y123.031
N10760 X243.263 Y123.033
N10765 X243.361 Y123.061
N10770 X243.374 Y123.064
N10775 X243.473 Y123.089
N10780 X243.483 Y123.091
N10785 X243.579 Y123.112
N10790 X243.588 Y123.114
N10795 X243.686 Y123.133
N10800 X243.695 Y123.134
N10805 X243.792 Y123.151
N10810 X243.803 Y123.152
N10815 X243.901 Y123.166
N10820 X243.909 Y123.167
N10825 X244.007 Y123.178
N10830 X244.017 Y123.18
N10835 X244.115 Y123.188
N10840 X244.125 Y123.189
N10845 X244.264 Y123.198
N10850 X244.271
N10855 X244.328 Y123.2
N10860 X244.334
N10865 X244.432 Y123.203
N10870 X244.439
N10875 X244.537 Y123.204
N10880 X244.545
N10885 X244.643 Y123.202
N10890 X244.65
N10895 X244.788 Y123.197
N10900 X244.797
N10905 X244.855 Y123.193
N10910 X244.861
N10915 X244.959 Y123.185
N10920 X244.966
N10925 X245.064 Y123.176
N10930 X245.07 Y123.175
N10935 X245.168 Y123.164
N10940 X245.178 Y123.163
N10945 X245.276 Y123.149
N10950 X245.285 Y123.147
N10955 X245.383 Y123.131
N10960 X245.39 Y123.13
N10965 X245.488 Y123.112
N10970 X245.499 Y123.11
N10975 X245.596 Y123.089
N10980 X245.607 Y123.086
N10985 X245.704 Y123.062
N10990 X245.713 Y123.06
N10995 X245.811 Y123.034
N11000 X245.823 Y123.03
N11005 X245.921 Y123.
N11010 X245.932 Y122.997
N11015 X246.029 Y122.963
N11020 X246.038 Y122.96
N11025 X246.136 Y122.924
N11030 X246.15 Y122.919
N11035 X246.255 Y122.876
N11040 X246.264 Y122.871
N11045 X246.355 Y122.831
N11050 X246.371 Y122.824
N11055 X246.485 Y122.766
N11060 X246.494 Y122.762
N11065 X246.575 Y122.718
N11070 X246.588 Y122.711
N11075 X246.685 Y122.653
N11080 X246.698 Y122.646
N11085 X246.796 Y122.583
N11090 X246.804 Y122.577
N11095 X246.851 Y122.546
N11100 X246.863 Y122.538
N11105 X247.011 Y122.428
N11110 X247.023 Y122.419
N11115 X247.131 Y122.333
N11120 X247.139 Y122.326
N11125 X247.255 Y122.229
N11130 X247.267 Y122.218
N11135 X247.373 Y122.12
N11140 X247.38 Y122.113
N11145 X247.481 Y122.015
N11150 X247.486 Y122.01
N11155 X247.545 Y121.95
N11160 X247.554 Y121.94
N11165 X247.652 Y121.834
N11170 X247.658 Y121.827
N11175 X247.756 Y121.715
N11180 X247.766 Y121.703
N11185 X247.863 Y121.582
N11190 X247.87 Y121.573
N11195 X247.968 Y121.444
N11200 X247.975 Y121.434
N11205 X248.016 Y121.376
N11210 X248.02 Y121.371
N11215 X248.087 Y121.273
N11220 X248.091 Y121.267
N11225 X248.155 Y121.17
N11230 X248.16 Y121.161
N11235 X248.221 Y121.063
N11240 X248.224 Y121.057
N11245 X248.292 Y120.943
N11250 X248.297 Y120.935
N11255 X248.342 Y120.854
N11260 X248.345 Y120.848
N11265 X248.398 Y120.751
N11270 X248.401 Y120.745
N11275 X248.451 Y120.647
N11280 X248.453 Y120.643
N11285 X248.502 Y120.545
N11290 X248.504 Y120.54
N11295 X248.599 Y120.345
N11300 X248.603 Y120.337
N11305 X248.647 Y120.239
N11310 X248.65 Y120.233
N11315 X248.735 Y120.038
N11320 X248.738 Y120.031
N11325 X248.818 Y119.835
N11330 X248.82 Y119.83
N11335 X248.859 Y119.732
N11340 X248.861 Y119.727
N11345 X248.9 Y119.622
N11350 X248.903 Y119.616
N11355 X249. Y119.344
N11360 X249.003 Y119.338
N11365 X249.041 Y119.226
N11370 X249.042 Y119.222
N11375 X249.074 Y119.124
N11380 X249.075 Y119.12
N11385 X249.136 Y118.924
N11390 X249.138 Y118.919
N11395 X249.167 Y118.822
N11400 X249.168 Y118.818
N11405 X249.224 Y118.622
N11410 X249.225 Y118.618
N11415 X249.252 Y118.52
N11420 X249.253 Y118.515
N11425 X249.317 Y118.27
N11430 X249.455 Y117.732
N11435 Y117.731
N11440 X249.582 Y117.233
N11445 Y117.231
N11450 X249.794 Y116.387
N11455 Y116.385
N11460 X249.872 Y116.068
N11465 X249.948 Y115.777
N11470 X250.333 Y114.312
N11475 X250.358 Y114.221
N11480 X250.482 Y113.814
N11485 X250.599 Y113.453
N11490 X250.631 Y113.36
N11495 X250.767 Y112.975
N11500 X250.911 Y112.596
N11505 X251.075 Y112.221
N11510 X251.26 Y111.845
N11515 X251.421 Y111.551
N11520 X251.466 Y111.471
N11525 X251.637 Y111.189
N11530 X251.696 Y111.102
N11535 X251.829 Y110.912
N11540 X251.879 Y110.845
N11545 X252.064 Y110.619
N11550 X252.119 Y110.555
N11555 X252.336 Y110.329
N11560 X252.383 Y110.285
N11565 X252.607 Y110.082
N11570 X252.697 Y110.011
N11575 X252.783 Y109.945
N11580 X252.872 Y109.882
N11585 X252.944 Y109.833
N11590 X253.053 Y109.763
N11595 X253.083 Y109.744
N11600 X253.226 Y109.661
N11605 X253.506 Y109.523
N11610 X253.59 Y109.483
N11615 X253.868 Y109.373
N11620 X253.951 Y109.342
N11625 X254.127 Y109.289
N11630 X254.309 Y109.244
N11635 X254.398 Y109.224
N11640 X254.581 Y109.188
N11645 X254.762 Y109.16
N11650 X254.85 Y109.15
N11655 X255.242 Y109.112
N11660 X255.314 Y109.108
N11665 X255.697 Y109.096
N11670 X255.785
N11675 X256.065 Y109.102
N11680 X256.347 Y109.121
N11685 X256.435 Y109.128
N11690 X256.714 Y109.162
N11695 X256.801 Y109.176
N11700 X256.992 Y109.21
N11705 X257.078 Y109.226
N11710 X257.362 Y109.295
N11715 X257.439 Y109.318
N11720 X257.656 Y109.387
N11725 X257.71 Y109.406
N11730 X257.898 Y109.48
N11735 X257.983 Y109.515
N11740 X258.254 Y109.646
N11745 X258.436 Y109.75
N11750 X258.525 Y109.802
N11755 X258.717 Y109.928
N11760 X258.795 Y109.983
N11765 X258.979 Y110.12
N11770 X259.18 Y110.289
N11775 X259.276 Y110.379
N11780 X259.373 Y110.472
N11785 X259.429 Y110.529
N11790 X259.544 Y110.653
N11795 X259.611 Y110.729
N11800 X259.771 Y110.923
N11805 X259.904 Y111.106
N11810 X259.964 Y111.194
N11815 X260.082 Y111.38
N11820 X260.135 Y111.469
N11825 X260.251 Y111.675
N11830 X260.288 Y111.745
N11835 X260.381 Y111.934
N11840 X260.424 Y112.023
N11845 X260.545 Y112.302
N11850 X260.651 Y112.581
N11855 X260.715 Y112.769
N11860 X260.746 Y112.863
N11865 X260.774 Y112.953
N11870 X260.854 Y113.235
N11875 X260.924 Y113.519
N11880 X260.945 Y113.611
N11885 X261.007 Y113.899
N11890 X261.025 Y113.991
N11895 X261.077 Y114.279
N11900 X261.092 Y114.371
N11905 X261.135 Y114.66
N11910 X261.148 Y114.752
N11915 X261.186 Y115.077
N11920 X261.192 Y115.132
N11925 X261.227 Y115.515
N11930 X261.25 Y115.896
N11935 X261.264 Y116.278
N11940 X261.269 Y116.661
N11945 Y116.753
N11950 X261.253 Y117.528
N11955 X261.244 Y117.717
N11960 X261.231 Y117.956
N11965 X261.206 Y118.293
N11970 X261.196 Y118.41
N11975 X261.158 Y118.769
N11980 X261.146 Y118.861
N11985 X261.106 Y119.15
N11990 X261.091 Y119.248
N11995 X261.025 Y119.619
N12000 X260.942 Y119.998
N12005 X260.902 Y120.159
N12010 X260.871 Y120.282
N12015 X260.846 Y120.373
N12020 X260.79 Y120.563
N12025 X260.762 Y120.653
N12030 X260.698 Y120.842
N12035 X260.667 Y120.932
N12040 X260.594 Y121.121
N12045 X260.559 Y121.21
N12050 X260.476 Y121.397
N12055 X260.435 Y121.486
N12060 X260.341 Y121.672
N12065 X260.295 Y121.761
N12070 X260.164 Y121.987
N12075 X260.011 Y122.219
N12080 X259.879 Y122.403
N12085 X259.797 Y122.509
N12090 X259.706 Y122.622
N12095 X259.663 Y122.672
N12100 X259.526 Y122.824
N12105 X259.344 Y123.006
N12110 X259.315 Y123.033
N12115 X259.165 Y123.166
N12120 X259.075 Y123.238
N12125 X258.984 Y123.31
N12130 X258.895 Y123.376
N12135 X258.736 Y123.488
N12140 X258.52 Y123.622
N12145 X258.267 Y123.763
N12150 X258.067 Y123.864
N12155 X257.975 Y123.909
N12160 X257.787 Y123.995
N12165 X257.678 Y124.042
N12170 X257.45 Y124.136
N12175 X257.283 Y124.199
N12180 X257.255 Y124.204
N12185 X257.227 Y124.198
N12190 X257.203 Y124.182
N12195 X257.188 Y124.158
N12200 X257.182 Y124.13
N12205 X257.164 Y123.353
N12210 X257.162 Y123.334
N12215 X257.154 Y123.316
N12220 X257.144 Y123.299 Z-1.501
N12225 X257.135 Y123.282 Z-1.505
N12230 G3 X258.399 Y122.623 Z-2.105 I0.632 J-0.33
N12235 X257.135 Y123.282 Z-2.705 I-0.632 J0.33
N12240 X257.406 Y122.338 Z-2.995 I0.632 J-0.33
N12245 G1 X257.423 Y122.329 Z-2.999
N12250 X257.44 Y122.32 Z-3.
N12255 G3 X258.108 Y122.533 I0.228 J0.44
N12260 X257.895 Y123.2 I-0.44 J0.228
N12265 G1 X257.856 Y123.22
N12270 G3 X257.594 Y123.088 I-0.082 J-0.162
N12275 G1 X257.584 Y123.023
N12280 X257.582 Y122.975
N12285 X257.593 Y122.928
N12290 X257.616 Y122.886
N12295 X257.649 Y122.852
N12300 X257.69 Y122.827
N12305 G2 X258.26 Y122.548 I-3.218 J-7.313
N12310 X258.8 Y122.215 I-2.553 J-4.741
N12315 G3 X258.977 Y122.426 I0.079 J0.113
N12320 X258.448 Y122.868 I-2.743 J-2.75
N12325 X257.895 Y123.2 I-2.841 J-4.095
N12330 G1 X257.873 Y123.209 Z-2.998
N12335 X257.851 Y123.215 Z-2.993
N12340 X257.829 Y123.217 Z-2.984
N12345 X257.809 Y123.216 Z-2.971
N12350 X257.792 Y123.212 Z-2.956
N12355 X257.777 Y123.208 Z-2.938
N12360 X257.766 Y123.203 Z-2.918
N12365 X257.758 Y123.199 Z-2.896
N12370 X257.753 Y123.197 Z-2.873
N12375 X257.751 Y123.196 Z-2.85
N12380 G0 Z5.
N12385 X246.257 Y124.302
N12390 Z2.5
N12395 G1 Z-1.25 F300.
N12400 X246.255 Z-1.271 F700.
N12405 X246.251 Y124.3 Z-1.292
N12410 X246.245 Y124.297 Z-1.311
N12415 X246.235 Y124.293 Z-1.33
N12420 X246.224 Y124.288 Z-1.347
N12425 X246.211 Y124.282 Z-1.362
N12430 X246.196 Y124.274 Z-1.375
N12435 X246.177 Y124.264 Z-1.387
N12440 X246.157 Y124.252 Z-1.395
N12445 G3 X246.895 Y123.033 Z-1.995 I0.369 J-0.61
N12450 X246.157 Y124.252 Z-2.594 I-0.369 J0.61
N12455 X246.185 Y123.017 Z-2.995 I0.369 J-0.61
N12460 G1 X246.202 Y123.008 Z-2.999
N12465 X246.22 Y123. Z-3.
N12470 G3 X246.994 Y123.274 I0.25 J0.524
N12475 X246.72 Y124.048 I-0.524 J0.25
N12480 X245.729 Y124.372 I-1.754 J-3.676
N12485 X242.703 Y124.129 I-1.071 J-5.615
N12490 X240.345 Y122.217 I1.592 J-4.374
N12495 X239.209 Y118.927 I6.623 J-4.128
N12500 X239.128 Y115.447 I20.529 J-2.216
N12505 X239.966 Y111.746 I11.78 J0.722
N12510 X242.556 Y108.972 I4.903 J1.982
N12515 X243.048 Y109.218 I0.152 J0.312
N12520 G1 X243.075 Y109.357
N12525 G3 X242.894 Y109.722 I-0.329 J0.064
N12530 G2 X241.489 Y110.671 I2.727 J5.552
N12535 X240.447 Y112.007 I3.214 J3.581
N12540 X239.608 Y114.639 I6.946 J3.663
N12545 X239.473 Y117.399 I16.559 J2.193
N12550 X240.552 Y121.472 I9.436 J-0.32
N12555 X244.084 Y123.771 I3.822 J-2.009
N12560 X245.881 Y123.6 I0.376 J-5.566
N12565 X247.494 Y122.79 I-1.117 J-4.237
N12570 X249.045 Y120.797 I-3.352 J-4.208
N12575 X249.882 Y118.415 I-13.343 J-6.028
N12580 G1 X251.315 Y113.176
N12585 G3 X252.601 Y110.967 I6.882 J2.526
N12590 X254.841 Y109.738 I2.72 J2.301
N12595 X257.429 Y109.943 I0.822 J6.057
N12600 X259.526 Y111.473 I-1.133 J3.754
N12605 X259.306 Y111.661 I-0.12 J0.082
N12610 G2 X255.461 Y110.298 I-3.463 J3.661
N12615 X252.001 Y112.459 I0.333 J4.384
N12620 X251.408 Y113.694 I7.181 J4.209
N12625 X250.988 Y114.998 I11.849 J4.533
N12630 X250.155 Y118.422 I91.886 J24.18
N12635 G3 X248.966 Y121.738 I-13.892 J-3.11
N12640 X247.654 Y123.432 I-5.039 J-2.549
N12645 X246.72 Y124.048 I-2.688 J-3.06
N12650 G2 X246.446 Y124.477 I0.207 J0.434
N12655 G3 X246.134 Y124.88 I-0.421 J-0.004
N12660 G1 X246.111 Y124.886
N12665 X246.022 Y124.906
N12670 X245.838 Y124.946
N12675 X245.654 Y124.977
N12680 X245.564 Y124.991
N12685 X245.378 Y125.014
N12690 X245.287 Y125.023
N12695 X245.104 Y125.038
N12700 X244.628 Y125.054
N12705 X244.541 Y125.055
N12710 X244.263 Y125.049
N12715 X243.982 Y125.03
N12720 X243.894 Y125.022
N12725 X243.615 Y124.988
N12730 X243.338 Y124.941
N12735 X243.25 Y124.922
N12740 X243.062 Y124.879
N12745 X242.974 Y124.857
N12750 X242.786 Y124.803
N12755 X242.698 Y124.777
N12760 X242.423 Y124.681
N12765 X242.13 Y124.56
N12770 X241.874 Y124.438
N12775 X241.689 Y124.336
N12780 X241.602 Y124.287
N12785 X241.419 Y124.17
N12790 X241.331 Y124.111
N12795 X241.148 Y123.977
N12800 X241.053 Y123.901
N12805 X240.94 Y123.807
N12810 X240.876 Y123.753
N12815 X240.691 Y123.579
N12820 X240.649 Y123.538
N12825 X240.472 Y123.352
N12830 X240.394 Y123.262
N12835 X240.314 Y123.169
N12840 X240.237 Y123.075
N12845 X240.052 Y122.831
N12850 X239.849 Y122.526
N12855 X239.683 Y122.24
N12860 X239.64 Y122.16
N12865 X239.497 Y121.881
N12870 X239.368 Y121.596
N12875 X239.33 Y121.506
N12880 X239.217 Y121.223
N12885 X239.15 Y121.035
N12890 X239.084 Y120.846
N12895 X238.995 Y120.562
N12900 X238.969 Y120.473
N12905 X238.869 Y120.091
N12910 X238.848 Y120.001
N12915 X238.767 Y119.619
N12920 X238.746 Y119.506
N12925 X238.685 Y119.144
N12930 X238.671 Y119.053
N12935 X238.61 Y118.575
N12940 X238.565 Y118.098
N12945 X238.534 Y117.619
N12950 X238.516 Y117.139
N12955 X238.513 Y116.948
N12960 X238.51 Y116.658
N12965 Y116.567
N12970 X238.525 Y115.794
N12975 X238.546 Y115.412
N12980 X238.555 Y115.273
N12985 X238.574 Y115.028
N12990 X238.582 Y114.936
N12995 X238.623 Y114.553
N13000 X238.673 Y114.172
N13005 X238.736 Y113.791
N13010 X238.753 Y113.699
N13015 X238.809 Y113.412
N13020 X238.84 Y113.274
N13025 X238.897 Y113.033
N13030 X238.92 Y112.942
N13035 X238.999 Y112.656
N13040 X239.028 Y112.559
N13045 X239.124 Y112.263
N13050 X239.149 Y112.191
N13055 X239.254 Y111.907
N13060 X239.309 Y111.774
N13065 X239.404 Y111.552
N13070 X239.433 Y111.49
N13075 X239.549 Y111.253
N13080 X239.594 Y111.164
N13085 X239.745 Y110.894
N13090 X239.789 Y110.822
N13095 X239.96 Y110.554
N13100 X239.984 Y110.52
N13105 X240.144 Y110.299
N13110 X240.177 Y110.257
N13115 X240.339 Y110.055
N13120 X240.419 Y109.963
N13125 X240.513 Y109.857
N13130 X240.585 Y109.779
N13135 X240.767 Y109.594
N13140 X240.973 Y109.406
N13145 X241.075 Y109.319
N13150 X241.19 Y109.224
N13155 X241.248 Y109.177
N13160 X241.434 Y109.039
N13165 X241.524 Y108.976
N13170 X241.71 Y108.852
N13175 X241.799 Y108.796
N13180 X242.009 Y108.673
N13185 X242.075 Y108.636
N13190 X242.264 Y108.537
N13195 X242.362 Y108.489
N13200 X242.565 Y108.395
N13205 X242.631 Y108.366
N13210 X242.821 Y108.288
N13215 X242.91 Y108.253
N13220 X243.157 Y108.164
N13225 X243.236 Y108.138
N13230 X243.359 Y108.099
N13235 X243.717 Y109.935
N13240 X243.624 Y109.97
N13245 X243.62 Y109.972
N13250 X243.522 Y110.01
N13255 X243.515 Y110.013
N13260 X243.416 Y110.054
N13265 X243.409 Y110.057
N13270 X243.313 Y110.099
N13275 X243.309 Y110.101
N13280 X243.211 Y110.146
N13285 X243.2 Y110.151
N13290 X243.102 Y110.199
N13295 X243.098 Y110.201
N13300 X242.978 Y110.262
N13305 X242.973 Y110.264
N13310 X242.897 Y110.304
N13315 X242.888 Y110.309
N13320 X242.786 Y110.367
N13325 X242.78 Y110.37
N13330 X242.687 Y110.424
N13335 X242.681 Y110.428
N13340 X242.61 Y110.472
N13345 X242.599 Y110.478
N13350 X242.475 Y110.56
N13355 X242.463 Y110.568
N13360 X242.365 Y110.638
N13365 X242.356 Y110.645
N13370 X242.259 Y110.719
N13375 X242.25 Y110.726
N13380 X242.152 Y110.805
N13385 X242.143 Y110.812
N13390 X242.042 Y110.898
N13395 X242.033 Y110.907
N13400 X241.926 Y111.005
N13405 X241.918 Y111.013
N13410 X241.853 Y111.076
N13415 X241.845 Y111.085
N13420 X241.718 Y111.217
N13425 X241.709 Y111.227
N13430 X241.618 Y111.329
N13435 X241.611 Y111.337
N13440 X241.513 Y111.453
N13445 X241.505 Y111.463
N13450 X241.408 Y111.588
N13455 X241.399 Y111.599
N13460 X241.293 Y111.745
N13465 X241.286 Y111.756
N13470 X241.196 Y111.889
N13475 X241.192 Y111.895
N13480 X241.152 Y111.958
N13485 X241.147 Y111.965
N13490 X241.087 Y112.063
N13495 X241.083 Y112.069
N13500 X241.026 Y112.167
N13505 X241.022 Y112.174
N13510 X240.967 Y112.271
N13515 X240.963 Y112.279
N13520 X240.912 Y112.377
N13525 X240.909 Y112.383
N13530 X240.859 Y112.481
N13535 X240.856 Y112.486
N13540 X240.809 Y112.584
N13545 X240.804 Y112.595
N13550 X240.716 Y112.79
N13555 X240.713 Y112.798
N13560 X240.672 Y112.896
N13565 X240.67 Y112.901
N13570 X240.63 Y112.999
N13575 X240.627 Y113.007
N13580 X240.554 Y113.203
N13585 X240.55 Y113.214
N13590 X240.483 Y113.409
N13595 X240.481 Y113.416
N13600 X240.45 Y113.514
N13605 X240.448 Y113.518
N13610 X240.418 Y113.616
N13615 X240.416 Y113.622
N13620 X240.36 Y113.818
N13625 X240.357 Y113.828
N13630 X240.332 Y113.925
N13635 X240.331 Y113.931
N13640 X240.307 Y114.028
N13645 X240.305 Y114.035
N13650 X240.284 Y114.133
N13655 X240.282 Y114.14
N13660 X240.251 Y114.292
N13665 X240.25 Y114.297
N13670 X240.223 Y114.438
N13675 X240.222 Y114.443
N13680 X240.205 Y114.541
N13685 X240.204 Y114.547
N13690 X240.173 Y114.743
N13695 X240.172 Y114.747
N13700 X240.158 Y114.845
N13705 X240.156 Y114.853
N13710 X240.132 Y115.049
N13715 X240.131 Y115.055
N13720 X240.11 Y115.25
N13725 X240.109 Y115.256
N13730 X240.091 Y115.452
N13735 Y115.457
N13740 X240.075 Y115.653
N13745 Y115.66
N13750 X240.063 Y115.855
N13755 Y115.861
N13760 X240.054 Y116.057
N13765 Y116.06
N13770 X240.047 Y116.256
N13775 Y116.262
N13780 X240.043 Y116.458
N13785 Y116.461
N13790 X240.041 Y116.657
N13795 Y116.663
N13800 X240.044 Y116.957
N13805 Y116.964
N13810 X240.049 Y117.159
N13815 Y117.162
N13820 X240.056 Y117.379
N13825 X240.057 Y117.387
N13830 X240.072 Y117.66
N13835 X240.073 Y117.666
N13840 X240.087 Y117.862
N13845 Y117.866
N13850 X240.096 Y117.964
N13855 Y117.969
N13860 X240.115 Y118.165
N13865 X240.116 Y118.167
N13870 X240.126 Y118.265
N13875 X240.127 Y118.272
N13880 X240.157 Y118.508
N13885 X240.158 Y118.514
N13890 X240.18 Y118.669
N13895 X240.181 Y118.676
N13900 X240.212 Y118.872
N13905 X240.214 Y118.88
N13910 X240.249 Y119.075
N13915 X240.251 Y119.081
N13920 X240.28 Y119.228
N13925 X240.281 Y119.233
N13930 X240.313 Y119.38
N13935 X240.314 Y119.387
N13940 X240.337 Y119.484
N13945 X240.338 Y119.49
N13950 X240.363 Y119.588
N13955 X240.364 Y119.593
N13960 X240.39 Y119.691
N13965 X240.392 Y119.698
N13970 X240.448 Y119.893
N13975 X240.451 Y119.905
N13980 X240.514 Y120.1
N13985 X240.517 Y120.109
N13990 X240.558 Y120.228
N13995 X240.561 Y120.236
N14000 X240.627 Y120.411
N14005 X240.631 Y120.421
N14010 X240.671 Y120.519
N14015 X240.673 Y120.525
N14020 X240.715 Y120.622
N14025 X240.717 Y120.627
N14030 X240.761 Y120.725
N14035 X240.765 Y120.735
N14040 X240.812 Y120.833
N14045 X240.815 Y120.839
N14050 X240.878 Y120.965
N14055 X240.883 Y120.973
N14060 X240.92 Y121.043
N14065 X240.923 Y121.05
N14070 X240.984 Y121.158
N14075 X240.988 Y121.164
N14080 X241.038 Y121.251
N14085 X241.044 Y121.26
N14090 X241.104 Y121.357
N14095 X241.111 Y121.368
N14100 X241.196 Y121.494
N14105 X241.203 Y121.504
N14110 X241.288 Y121.623
N14115 X241.294 Y121.632
N14120 X241.332 Y121.68
N14125 X241.337 Y121.687
N14130 X241.414 Y121.785
N14135 X241.423 Y121.795
N14140 X241.515 Y121.903
N14145 X241.525 Y121.914
N14150 X241.623 Y122.02
N14155 X241.633 Y122.03
N14160 X241.711 Y122.109
N14165 X241.719 Y122.116
N14170 X241.822 Y122.214
N14175 X241.834 Y122.225
N14180 X241.947 Y122.323
N14185 X241.957 Y122.332
N14190 X242.054 Y122.41
N14195 X242.061 Y122.416
N14200 X242.087 Y122.435
N14205 X242.095 Y122.442
N14210 X242.231 Y122.539
N14215 X242.239 Y122.545
N14220 X242.273 Y122.569
N14225 X242.282 Y122.574
N14230 X242.396 Y122.648
N14235 X242.409 Y122.656
N14240 X242.49 Y122.704
N14245 X242.499 Y122.709
N14250 X242.597 Y122.764
N14255 X242.611 Y122.771
N14260 X242.709 Y122.82
N14265 X242.719 Y122.825
N14270 X242.817 Y122.87
N14275 X242.829 Y122.876
N14280 X242.927 Y122.917
N14285 X242.939 Y122.922
N14290 X243.037 Y122.959
N14295 X243.042 Y122.961
N14300 X243.094 Y122.979
N14305 X243.104 Y122.983
N14310 X243.15 Y122.998
N14315 X243.156 Y123.
N14320 X243.254 Y123.031
N14325 X243.263 Y123.033
N14330 X243.361 Y123.061
N14335 X243.374 Y123.064
N14340 X243.473 Y123.089
N14345 X243.483 Y123.091
N14350 X243.579 Y123.112
N14355 X243.588 Y123.114
N14360 X243.686 Y123.133
N14365 X243.695 Y123.134
N14370 X243.792 Y123.151
N14375 X243.803 Y123.152
N14380 X243.901 Y123.166
N14385 X243.909 Y123.167
N14390 X244.007 Y123.178
N14395 X244.017 Y123.18
N14400 X244.115 Y123.188
N14405 X244.125 Y123.189
N14410 X244.264 Y123.198
N14415 X244.271
N14420 X244.328 Y123.2
N14425 X244.334
N14430 X244.432 Y123.203
N14435 X244.439
N14440 X244.537 Y123.204
N14445 X244.545
N14450 X244.643 Y123.202
N14455 X244.65
N14460 X244.788 Y123.197
N14465 X244.797
N14470 X244.855 Y123.193
N14475 X244.861
N14480 X244.959 Y123.185
N14485 X244.966
N14490 X245.064 Y123.176
N14495 X245.07 Y123.175
N14500 X245.168 Y123.164
N14505 X245.178 Y123.163
N14510 X245.276 Y123.149
N14515 X245.285 Y123.147
N14520 X245.383 Y123.131
N14525 X245.39 Y123.13
N14530 X245.488 Y123.112
N14535 X245.499 Y123.11
N14540 X245.596 Y123.089
N14545 X245.607 Y123.086
N14550 X245.704 Y123.062
N14555 X245.713 Y123.06
N14560 X245.811 Y123.034
N14565 X245.823 Y123.03
N14570 X245.921 Y123.
N14575 X245.932 Y122.997
N14580 X246.029 Y122.963
N14585 X246.038 Y122.96
N14590 X246.136 Y122.924
N14595 X246.15 Y122.919
N14600 X246.255 Y122.876
N14605 X246.264 Y122.871
N14610 X246.355 Y122.831
N14615 X246.371 Y122.824
N14620 X246.485 Y122.766
N14625 X246.494 Y122.762
N14630 X246.575 Y122.718
N14635 X246.588 Y122.711
N14640 X246.685 Y122.653
N14645 X246.698 Y122.646
N14650 X246.796 Y122.583
N14655 X246.804 Y122.577
N14660 X246.851 Y122.546
N14665 X246.863 Y122.538
N14670 X247.011 Y122.428
N14675 X247.023 Y122.419
N14680 X247.131 Y122.333
N14685 X247.139 Y122.326
N14690 X247.255 Y122.229
N14695 X247.267 Y122.218
N14700 X247.373 Y122.12
N14705 X247.38 Y122.113
N14710 X247.481 Y122.015
N14715 X247.486 Y122.01
N14720 X247.545 Y121.95
N14725 X247.554 Y121.94
N14730 X247.652 Y121.834
N14735 X247.658 Y121.827
N14740 X247.756 Y121.715
N14745 X247.766 Y121.703
N14750 X247.863 Y121.582
N14755 X247.87 Y121.573
N14760 X247.968 Y121.444
N14765 X247.975 Y121.434
N14770 X248.016 Y121.376
N14775 X248.02 Y121.371
N14780 X248.087 Y121.273
N14785 X248.091 Y121.267
N14790 X248.155 Y121.17
N14795 X248.16 Y121.161
N14800 X248.221 Y121.063
N14805 X248.224 Y121.057
N14810 X248.292 Y120.943
N14815 X248.297 Y120.935
N14820 X248.342 Y120.854
N14825 X248.345 Y120.848
N14830 X248.398 Y120.751
N14835 X248.401 Y120.745
N14840 X248.451 Y120.647
N14845 X248.453 Y120.643
N14850 X248.502 Y120.545
N14855 X248.504 Y120.54
N14860 X248.599 Y120.345
N14865 X248.603 Y120.337
N14870 X248.647 Y120.239
N14875 X248.65 Y120.233
N14880 X248.735 Y120.038
N14885 X248.738 Y120.031
N14890 X248.818 Y119.835
N14895 X248.82 Y119.83
N14900 X248.859 Y119.732
N14905 X248.861 Y119.727
N14910 X248.9 Y119.622
N14915 X248.903 Y119.616
N14920 X249. Y119.344
N14925 X249.003 Y119.338
N14930 X249.041 Y119.226
N14935 X249.042 Y119.222
N14940 X249.074 Y119.124
N14945 X249.075 Y119.12
N14950 X249.136 Y118.924
N14955 X249.138 Y118.919
N14960 X249.167 Y118.822
N14965 X249.168 Y118.818
N14970 X249.224 Y118.622
N14975 X249.225 Y118.618
N14980 X249.252 Y118.52
N14985 X249.253 Y118.515
N14990 X249.317 Y118.27
N14995 X249.455 Y117.732
N15000 Y117.731
N15005 X249.582 Y117.233
N15010 Y117.231
N15015 X249.794 Y116.387
N15020 Y116.385
N15025 X249.872 Y116.068
N15030 X249.948 Y115.777
N15035 X250.333 Y114.312
N15040 X250.358 Y114.221
N15045 X250.482 Y113.814
N15050 X250.599 Y113.453
N15055 X250.631 Y113.36
N15060 X250.767 Y112.975
N15065 X250.911 Y112.596
N15070 X251.075 Y112.221
N15075 X251.26 Y111.845
N15080 X251.421 Y111.551
N15085 X251.466 Y111.471
N15090 X251.637 Y111.189
N15095 X251.696 Y111.102
N15100 X251.829 Y110.912
N15105 X251.879 Y110.845
N15110 X252.064 Y110.619
N15115 X252.119 Y110.555
N15120 X252.336 Y110.329
N15125 X252.383 Y110.285
N15130 X252.607 Y110.082
N15135 X252.697 Y110.011
N15140 X252.783 Y109.945
N15145 X252.872 Y109.882
N15150 X252.944 Y109.833
N15155 X253.053 Y109.763
N15160 X253.083 Y109.744
N15165 X253.226 Y109.661
N15170 X253.506 Y109.523
N15175 X253.59 Y109.483
N15180 X253.868 Y109.373
N15185 X253.951 Y109.342
N15190 X254.127 Y109.289
N15195 X254.309 Y109.244
N15200 X254.398 Y109.224
N15205 X254.581 Y109.188
N15210 X254.762 Y109.16
N15215 X254.85 Y109.15
N15220 X255.242 Y109.112
N15225 X255.314 Y109.108
N15230 X255.697 Y109.096
N15235 X255.785
N15240 X256.065 Y109.102
N15245 X256.347 Y109.121
N15250 X256.435 Y109.128
N15255 X256.714 Y109.162
N15260 X256.801 Y109.176
N15265 X256.992 Y109.21
N15270 X257.078 Y109.226
N15275 X257.362 Y109.295
N15280 X257.439 Y109.318
N15285 X257.656 Y109.387
N15290 X257.71 Y109.406
N15295 X257.898 Y109.48
N15300 X257.983 Y109.515
N15305 X258.254 Y109.646
N15310 X258.436 Y109.75
N15315 X258.525 Y109.802
N15320 X258.717 Y109.928
N15325 X258.795 Y109.983
N15330 X258.979 Y110.12
N15335 X259.18 Y110.289
N15340 X259.276 Y110.379
N15345 X259.373 Y110.472
N15350 X259.429 Y110.529
N15355 X259.544 Y110.653
N15360 X259.611 Y110.729
N15365 X259.771 Y110.923
N15370 X259.904 Y111.106
N15375 X259.964 Y111.194
N15380 X260.082 Y111.38
N15385 X260.135 Y111.469
N15390 X260.251 Y111.675
N15395 X260.288 Y111.745
N15400 X260.381 Y111.934
N15405 X260.424 Y112.023
N15410 X260.545 Y112.302
N15415 X260.651 Y112.581
N15420 X260.715 Y112.769
N15425 X260.746 Y112.863
N15430 X260.774 Y112.953
N15435 X260.854 Y113.235
N15440 X260.924 Y113.519
N15445 X260.945 Y113.611
N15450 X261.007 Y113.899
N15455 X261.025 Y113.991
N15460 X261.077 Y114.279
N15465 X261.092 Y114.371
N15470 X261.135 Y114.66
N15475 X261.148 Y114.752
N15480 X261.186 Y115.077
N15485 X261.192 Y115.132
N15490 X261.227 Y115.515
N15495 X261.25 Y115.896
N15500 X261.264 Y116.278
N15505 X261.269 Y116.661
N15510 Y116.753
N15515 X261.253 Y117.528
N15520 X261.244 Y117.717
N15525 X261.231 Y117.956
N15530 X261.206 Y118.293
N15535 X261.196 Y118.41
N15540 X261.158 Y118.769
N15545 X261.146 Y118.861
N15550 X261.106 Y119.15
N15555 X261.091 Y119.248
N15560 X261.025 Y119.619
N15565 X260.942 Y119.998
N15570 X260.902 Y120.159
N15575 X260.871 Y120.282
N15580 X260.846 Y120.373
N15585 X260.79 Y120.563
N15590 X260.762 Y120.653
N15595 X260.698 Y120.842
N15600 X260.667 Y120.932
N15605 X260.594 Y121.121
N15610 X260.559 Y121.21
N15615 X260.476 Y121.397
N15620 X260.435 Y121.486
N15625 X260.341 Y121.672
N15630 X260.295 Y121.761
N15635 X260.164 Y121.987
N15640 X260.011 Y122.219
N15645 X259.879 Y122.403
N15650 X259.797 Y122.509
N15655 X259.706 Y122.622
N15660 X259.663 Y122.672
N15665 X259.526 Y122.824
N15670 X259.344 Y123.006
N15675 X259.315 Y123.033
N15680 X259.165 Y123.166
N15685 X259.075 Y123.238
N15690 X258.984 Y123.31
N15695 X258.895 Y123.376
N15700 X258.736 Y123.488
N15705 X258.52 Y123.622
N15710 X258.267 Y123.763
N15715 X258.067 Y123.864
N15720 X257.975 Y123.909
N15725 X257.787 Y123.995
N15730 X257.678 Y124.042
N15735 X257.45 Y124.136
N15740 X257.2 Y124.23
N15745 X257.111 Y124.26
N15750 X256.807 Y122.438
N15755 X256.877 Y122.416
N15760 X256.884 Y122.414
N15765 X256.982 Y122.382
N15770 X256.989 Y122.379
N15775 X257.087 Y122.345
N15780 X257.09 Y122.344
N15785 X257.188 Y122.308
N15790 X257.197 Y122.305
N15795 X257.294 Y122.266
N15800 X257.301 Y122.264
N15805 X257.399 Y122.223
N15810 X257.406 Y122.22
N15815 X257.516 Y122.171
N15820 X257.521 Y122.169
N15825 X257.607 Y122.13
N15830 X257.611 Y122.128
N15835 X257.709 Y122.082
N15840 X257.721 Y122.076
N15845 X257.917 Y121.974
N15850 X257.927 Y121.969
N15855 X258.025 Y121.914
N15860 X258.031 Y121.911
N15865 X258.141 Y121.847
N15870 X258.15 Y121.842
N15875 X258.235 Y121.789
N15880 X258.239 Y121.786
N15885 X258.265 Y121.769
N15890 X258.273 Y121.765
N15895 X258.344 Y121.717
N15900 X258.351 Y121.712
N15905 X258.449 Y121.643
N15910 X258.459 Y121.636
N15915 X258.564 Y121.557
N15920 X258.574 Y121.549
N15925 X258.695 Y121.451
N15930 X258.706 Y121.442
N15935 X258.818 Y121.344
N15940 X258.829 Y121.335
N15945 X258.932 Y121.237
N15950 X258.939 Y121.23
N15955 X258.987 Y121.183
N15960 X258.992 Y121.177
N15965 X259.041 Y121.127
N15970 X259.046 Y121.121
N15975 X259.095 Y121.068
N15980 X259.101 Y121.062
N15985 X259.199 Y120.951
N15990 X259.204 Y120.945
N15995 X259.231 Y120.913
N16000 X259.238 Y120.905
N16005 X259.316 Y120.807
N16010 X259.322 Y120.799
N16015 X259.412 Y120.681
N16020 X259.418 Y120.674
N16025 X259.473 Y120.597
N16030 X259.479 Y120.588
N16035 X259.546 Y120.49
N16040 X259.551 Y120.482
N16045 X259.625 Y120.367
N16050 X259.631 Y120.358
N16055 X259.679 Y120.277
N16060 X259.684 Y120.269
N16065 X259.74 Y120.171
N16070 X259.744 Y120.164
N16075 X259.796 Y120.066
N16080 X259.802 Y120.055
N16085 X259.851 Y119.957
N16090 X259.853 Y119.952
N16095 X259.9 Y119.854
N16100 X259.903 Y119.848
N16105 X259.947 Y119.75
N16110 X259.951 Y119.741
N16115 X259.993 Y119.643
N16120 X259.996 Y119.636
N16125 X260.035 Y119.538
N16130 X260.038 Y119.53
N16135 X260.075 Y119.432
N16140 X260.077 Y119.424
N16145 X260.145 Y119.229
N16150 X260.149 Y119.216
N16155 X260.18 Y119.118
N16160 X260.181 Y119.114
N16165 X260.21 Y119.016
N16170 X260.211 Y119.01
N16175 X260.238 Y118.912
N16180 X260.241 Y118.903
N16185 X260.29 Y118.707
N16190 X260.292 Y118.698
N16195 X260.313 Y118.6
N16200 X260.315 Y118.595
N16205 X260.335 Y118.497
N16210 X260.337 Y118.488
N16215 X260.372 Y118.292
N16220 X260.374 Y118.284
N16225 X260.389 Y118.186
N16230 X260.39 Y118.182
N16235 X260.404 Y118.084
N16240 X260.405 Y118.079
N16245 X260.418 Y117.981
N16250 Y117.976
N16255 X260.441 Y117.78
N16260 X260.442 Y117.774
N16265 X260.452 Y117.676
N16270 X260.453 Y117.669
N16275 X260.466 Y117.508
N16280 Y117.504
N16285 X260.475 Y117.37
N16290 Y117.367
N16295 X260.481 Y117.269
N16300 Y117.265
N16305 X260.486 Y117.167
N16310 Y117.163
N16315 X260.49 Y117.065
N16320 Y117.06
N16325 X260.494 Y116.864
N16330 Y116.858
N16335 X260.495 Y116.662
N16340 Y116.658
N16345 X260.494 Y116.462
N16350 Y116.455
N16355 X260.489 Y116.26
N16360 X260.488 Y116.254
N16365 X260.481 Y116.059
N16370 X260.48 Y116.052
N16375 X260.475 Y115.954
N16380 X260.474 Y115.95
N16385 X260.461 Y115.754
N16390 X260.46 Y115.748
N16395 X260.452 Y115.651
N16400 Y115.644
N16405 X260.432 Y115.449
N16410 X260.431 Y115.441
N16415 X260.407 Y115.246
N16420 X260.406 Y115.239
N16425 X260.393 Y115.142
N16430 X260.392 Y115.135
N16435 X260.364 Y114.961
N16440 X260.363 Y114.952
N16445 X260.341 Y114.833
N16450 X260.34 Y114.828
N16455 X260.321 Y114.73
N16460 X260.32 Y114.724
N16465 X260.299 Y114.626
N16470 X260.298 Y114.622
N16475 X260.276 Y114.524
N16480 X260.275 Y114.517
N16485 X260.251 Y114.419
N16490 X260.249 Y114.412
N16495 X260.223 Y114.314
N16500 X260.221 Y114.307
N16505 X260.193 Y114.209
N16510 X260.191 Y114.201
N16515 X260.146 Y114.059
N16520 X260.143 Y114.05
N16525 X260.092 Y113.899
N16530 X260.09 Y113.893
N16535 X260.054 Y113.791
N16540 X260.051 Y113.782
N16545 X260.015 Y113.689
N16550 X260.012 Y113.683
N16555 X259.95 Y113.53
N16560 X259.945 Y113.517
N16565 X259.882 Y113.377
N16570 X259.878 Y113.368
N16575 X259.831 Y113.27
N16580 X259.829 Y113.266
N16585 X259.78 Y113.168
N16590 X259.774 Y113.157
N16595 X259.722 Y113.059
N16600 X259.717 Y113.051
N16605 X259.635 Y112.907
N16610 X259.627 Y112.894
N16615 X259.529 Y112.738
N16620 X259.521 Y112.724
N16625 X259.458 Y112.633
N16630 X259.453 Y112.627
N16635 X259.383 Y112.529
N16640 X259.374 Y112.517
N16645 X259.297 Y112.419
N16650 X259.29 Y112.409
N16655 X259.206 Y112.309
N16660 X259.197 Y112.299
N16665 X259.099 Y112.19
N16670 X259.089 Y112.18
N16675 X259.028 Y112.117
N16680 X259.023 Y112.111
N16685 X258.965 Y112.054
N16690 X258.959 Y112.048
N16695 X258.882 Y111.976
N16700 X258.871 Y111.966
N16705 X258.772 Y111.879
N16710 X258.763 Y111.872
N16715 X258.667 Y111.792
N16720 X258.655 Y111.782
N16725 X258.557 Y111.709
N16730 X258.547 Y111.701
N16735 X258.449 Y111.633
N16740 X258.437 Y111.625
N16745 X258.326 Y111.553
N16750 X258.315 Y111.546
N16755 X258.231 Y111.495
N16760 X258.219 Y111.489
N16765 X258.122 Y111.435
N16770 X258.113 Y111.43
N16775 X258.015 Y111.379
N16780 X258.003 Y111.373
N16785 X257.905 Y111.327
N16790 X257.895 Y111.322
N16795 X257.797 Y111.279
N16800 X257.784 Y111.274
N16805 X257.66 Y111.225
N16810 X257.653 Y111.222
N16815 X257.581 Y111.196
N16820 X257.573 Y111.193
N16825 X257.475 Y111.159
N16830 X257.465 Y111.156
N16835 X257.345 Y111.118
N16840 X257.336 Y111.116
N16845 X257.261 Y111.094
N16850 X257.251 Y111.092
N16855 X257.141 Y111.063
N16860 X257.134 Y111.061
N16865 X256.95 Y111.018
N16870 X256.937 Y111.015
N16875 X256.839 Y110.996
N16880 X256.831 Y110.994
N16885 X256.733 Y110.977
N16890 X256.726 Y110.976
N16895 X256.628 Y110.96
N16900 X256.621 Y110.959
N16905 X256.523 Y110.946
N16910 X256.517 Y110.945
N16915 X256.419 Y110.933
N16920 X256.408 Y110.932
N16925 X256.213 Y110.915
N16930 X256.199 Y110.914
N16935 X256.053 Y110.906
N16940 X256.046
N16945 X255.898 Y110.901
N16950 X255.888
N16955 X255.778 Y110.9
N16960 X255.771
N16965 X255.685 Y110.901
N16970 X255.678
N16975 X255.561 Y110.905
N16980 X255.553 Y110.906
N16985 X255.475 Y110.91
N16990 X255.468
N16995 X255.37 Y110.917
N17000 X255.362 Y110.918
N17005 X255.264 Y110.927
N17010 X255.253 Y110.928
N17015 X255.155 Y110.94
N17020 X255.145 Y110.941
N17025 X255.047 Y110.956
N17030 X255.039 Y110.958
N17035 X254.941 Y110.975
N17040 X254.932 Y110.976
N17045 X254.834 Y110.996
N17050 X254.825 Y110.998
N17055 X254.727 Y111.02
N17060 X254.711 Y111.024
N17065 X254.613 Y111.051
N17070 X254.604 Y111.053
N17075 X254.507 Y111.083
N17080 X254.496 Y111.086
N17085 X254.392 Y111.12
N17090 X254.379 Y111.125
N17095 X254.287 Y111.16
N17100 X254.273 Y111.165
N17105 X254.163 Y111.212
N17110 X254.15 Y111.217
N17115 X254.065 Y111.257
N17120 X254.051 Y111.264
N17125 X253.93 Y111.326
N17130 X253.916 Y111.334
N17135 X253.841 Y111.377
N17140 X253.828 Y111.384
N17145 X253.721 Y111.452
N17150 X253.704 Y111.463
N17155 X253.616 Y111.524
N17160 X253.606 Y111.532
N17165 X253.558 Y111.568
N17170 X253.552 Y111.572
N17175 X253.503 Y111.611
N17180 X253.497 Y111.616
N17185 X253.425 Y111.674
N17190 X253.413 Y111.685
N17195 X253.29 Y111.794
N17200 X253.279 Y111.804
N17205 X253.181 Y111.897
N17210 X253.172 Y111.906
N17215 X253.064 Y112.017
N17220 X253.054 Y112.028
N17225 X252.967 Y112.124
N17230 X252.96 Y112.132
N17235 X252.892 Y112.211
N17240 X252.885 Y112.22
N17245 X252.807 Y112.318
N17250 X252.8 Y112.326
N17255 X252.738 Y112.409
N17260 X252.733 Y112.416
N17265 X252.647 Y112.536
N17270 X252.637 Y112.55
N17275 X252.54 Y112.699
N17280 X252.538 Y112.701
N17285 X252.513 Y112.74
N17290 X252.505 Y112.754
N17295 X252.432 Y112.878
N17300 X252.43 Y112.881
N17305 X252.389 Y112.952
N17310 X252.383 Y112.964
N17315 X252.326 Y113.071
N17320 X252.323 Y113.078
N17325 X252.229 Y113.265
N17330 X252.226 Y113.271
N17335 X252.18 Y113.369
N17340 X252.177 Y113.375
N17345 X252.121 Y113.498
N17350 X252.118 Y113.505
N17355 X252.044 Y113.676
N17360 X252.043 Y113.679
N17365 X252.002 Y113.777
N17370 X252. Y113.782
N17375 X251.961 Y113.88
N17380 X251.958 Y113.886
N17385 X251.884 Y114.082
N17390 X251.881 Y114.089
N17395 X251.812 Y114.285
N17400 X251.809 Y114.292
N17405 X251.744 Y114.488
N17410 X251.741 Y114.495
N17415 X251.681 Y114.691
N17420 X251.679 Y114.695
N17425 X251.65 Y114.793
N17430 X251.649 Y114.797
N17435 X251.593 Y114.993
N17440 X251.592 Y115.
N17445 X251.553 Y115.146
N17450 X251.552 Y115.149
N17455 X250.963 Y117.448
N17460 Y117.449
N17465 X250.73 Y118.374
N17470 X250.483 Y119.3
N17475 X250.439 Y119.458
N17480 X250.343 Y119.792
N17485 X250.286 Y119.97
N17490 X250.195 Y120.258
N17495 X250.027 Y120.737
N17500 X249.865 Y121.159
N17505 X249.802 Y121.308
N17510 X249.678 Y121.6
N17515 X249.487 Y122.002
N17520 X249.298 Y122.354
N17525 X249.251 Y122.436
N17530 X249.079 Y122.721
N17535 X249.02 Y122.812
N17540 X248.832 Y123.087
N17545 X248.683 Y123.271
N17550 X248.606 Y123.366
N17555 X248.565 Y123.415
N17560 X248.35 Y123.637
N17565 X248.292 Y123.696
N17570 X248.014 Y123.939
N17575 X247.924 Y124.013
N17580 X247.83 Y124.087
N17585 X247.655 Y124.212
N17590 X247.566 Y124.269
N17595 X247.475 Y124.326
N17600 X247.385 Y124.378
N17605 X247.296 Y124.428
N17610 X247.113 Y124.522
N17615 X247.024 Y124.564
N17620 X246.937 Y124.603
N17625 X246.563 Y124.749
N17630 X246.475 Y124.779
N17635 X246.372 Y124.813
N17640 X246.294 Y124.837
N17645 X246.134 Y124.88
N17650 X246.11 Y124.884 Z-2.998
N17655 X246.088 Y124.885 Z-2.993
N17660 X246.066 Y124.882 Z-2.984
N17665 X246.047 Y124.877 Z-2.971
N17670 X246.03 Y124.87 Z-2.956
N17675 X246.017 Y124.863 Z-2.938
N17680 X246.006 Y124.856 Z-2.918
N17685 X245.999 Y124.851 Z-2.896
N17690 X245.995 Y124.847 Z-2.873
N17695 X245.994 Y124.846 Z-2.85
N17700 G0 Z5.
N17705 X217.842 Y110.66
N17710 Z0.25
N17715 G1 X217.843 Y110.662 Z0.229 F700.
N17720 X217.846 Y110.665 Z0.208
N17725 X217.85 Y110.67 Z0.189
N17730 X217.857 Y110.678 Z0.17
N17735 X217.865 Y110.687 Z0.153
N17740 X217.874 Y110.699 Z0.138
N17745 X217.884 Y110.712 Z0.125
N17750 X217.897 Y110.729 Z0.113
N17755 X217.91 Y110.748 Z0.105
N17760 G3 X216.719 Y111.531 Z-0.495 I-0.595 J0.391
N17765 X217.91 Y110.748 Z-1.094 I0.595 J-0.391
N17770 X217.353 Y111.851 Z-1.495 I-0.595 J0.391
N17775 G1 X217.334 Y111.852 Z-1.499
N17780 X217.314 Z-1.5
N17785 G3 Y110.431 I0. J-0.711
N17790 G1 X217.416
N17795 G3 X217.561 Y110.779 I0. J0.205
N17800 G1 X217.457 Y110.894
N17805 G3 X217.172 Y110.895 I-0.142 J-0.119
N17810 G1 X217.067 Y110.779
N17815 G3 X217.213 Y110.431 I0.146 J-0.143
N17820 G1 X217.314
N17825 G2 X217.704 Y110.171 I0. J-0.422
N17830 G3 X218.093 Y109.912 I0.389 J0.162
N17835 G1 X226.961
N17840 G3 X227.416 Y110.367 I0. J0.455
N17845 G1 Y123.354
N17850 G3 X226.924 I-0.246 J0.
N17855 G1 X226.981 Y111.906
N17860 G2 X226.651 Y111.154 I-1.274 J0.112
N17865 X225.942 Y110.738 I-1.03 J0.943
N17870 G1 X225.83 Y110.718
N17875 X225.718 Y110.708
N17880 X218.714 Y110.711
N17885 G2 X218.026 Y110.977 I0.101 J1.287
N17890 X217.583 Y111.567 I0.844 J1.094
N17895 G1 X217.554 Y111.651
N17900 X217.531 Y111.738
N17905 X217.514 Y111.826
N17910 X217.502 Y111.915
N17915 X217.56 Y122.288
N17920 G3 X217.069 I-0.246 J0.
N17925 G1 X217.126 Y111.914
N17930 G2 X216.846 Y111.215 I-1.371 J0.143
N17935 X216.232 Y110.779 I-1.023 J0.791
N17940 G1 X216.137 Y110.751
N17945 X216.04 Y110.728
N17950 X215.942 Y110.714
N17955 X215.844 Y110.707
N17960 X207.439
N17965 G2 X206.704 Y110.941 I0.041 J1.398
N17970 X206.22 Y111.542 I0.714 J1.07
N17975 X206.147 Y111.798 I1.292 J0.506
N17980 X206.123 Y112.063 I1.447 J0.265
N17985 G1 X206.187 Y124.244
N17990 G3 X206.002 Y124.429 I-0.185 J0.
N17995 G1 X205.881
N18000 G3 X205.696 Y124.244 I0. J-0.185
N18005 G1 Y110.367
N18010 G3 X206.151 Y109.912 I0.455 J0.
N18015 G1 X218.093
N18020 G2 X218.483 Y109.651 I0. J-0.423
N18025 G3 X218.874 Y109.391 I0.39 J0.163
N18030 G1 X227.937
N18035 Y124.227
N18040 X226.404
N18045 Y112.026
N18050 X226.402 Y111.994
N18055 X226.399 Y111.957
N18060 X226.395 Y111.926
N18065 X226.391 Y111.902
N18070 X226.386 Y111.878
N18075 X226.38 Y111.853
N18080 X226.373 Y111.829
N18085 X226.366 Y111.804
N18090 X226.357 Y111.78
N18095 X226.347 Y111.755
N18100 X226.337 Y111.731
N18105 X226.325 Y111.706
N18110 X226.312 Y111.681
N18115 X226.297 Y111.656
N18120 X226.281 Y111.63
N18125 X226.264 Y111.605
N18130 X226.246 Y111.58
N18135 X226.227 Y111.557
N18140 X226.206 Y111.533
N18145 X226.184 Y111.51
N18150 X226.158 Y111.486
N18155 X226.13 Y111.462
N18160 X226.102 Y111.44
N18165 X226.074 Y111.419
N18170 X226.047 Y111.402
N18175 X226.023 Y111.388
N18180 X225.998 Y111.375
N18185 X225.974 Y111.363
N18190 X225.949 Y111.352
N18195 X225.925 Y111.342
N18200 X225.9 Y111.333
N18205 X225.876 Y111.325
N18210 X225.845 Y111.316
N18215 X225.807 Y111.307
N18220 X225.773 Y111.301
N18225 X225.743 Y111.296
N18230 X225.713 Y111.293
N18235 X225.683 Y111.292
N18240 X225.661 Y111.291
N18245 X218.814
N18250 X218.785 Y111.292
N18255 X218.759 Y111.294
N18260 X218.734 Y111.297
N18265 X218.709 Y111.301
N18270 X218.684 Y111.305
N18275 X218.661 Y111.31
N18280 X218.637 Y111.316
N18285 X218.614 Y111.323
N18290 X218.59 Y111.331
N18295 X218.565 Y111.339
N18300 X218.541 Y111.349
N18305 X218.516 Y111.36
N18310 X218.492 Y111.372
N18315 X218.467 Y111.385
N18320 X218.443 Y111.399
N18325 X218.418 Y111.414
N18330 X218.394 Y111.431
N18335 X218.371 Y111.448
N18340 X218.347 Y111.467
N18345 X218.324 Y111.488
N18350 X218.305 Y111.506
N18355 X218.29 Y111.521
N18360 X218.276 Y111.536
N18365 X218.263 Y111.551
N18370 X218.244 Y111.573
N18375 X218.222 Y111.603
N18380 X218.204 Y111.628
N18385 X218.192 Y111.647
N18390 X218.181 Y111.666
N18395 X218.171 Y111.685
N18400 X218.159 Y111.706
N18405 X218.148 Y111.731
N18410 X218.137 Y111.755
N18415 X218.128 Y111.78
N18420 X218.119 Y111.804
N18425 X218.111 Y111.829
N18430 X218.105 Y111.853
N18435 X218.099 Y111.878
N18440 X218.094 Y111.902
N18445 X218.089 Y111.926
N18450 X218.086 Y111.951
N18455 X218.083 Y111.975
N18460 X218.082 Y112.007
N18465 X218.081 Y112.056
N18470 Y112.063
N18475 Y123.161
N18480 X216.548
N18485 Y112.063
N18490 Y112.056
N18495 X216.547 Y112.007
N18500 X216.545 Y111.975
N18505 X216.542 Y111.951
N18510 X216.539 Y111.926
N18515 X216.535 Y111.902
N18520 X216.53 Y111.877
N18525 X216.524 Y111.853
N18530 X216.517 Y111.828
N18535 X216.509 Y111.804
N18540 X216.501 Y111.78
N18545 X216.491 Y111.755
N18550 X216.478 Y111.726
N18555 X216.461 Y111.691
N18560 X216.443 Y111.659
N18565 X216.425 Y111.63
N18570 X216.408 Y111.605
N18575 X216.394 Y111.585
N18580 X216.378 Y111.565
N18585 X216.361 Y111.546
N18590 X216.344 Y111.526
N18595 X216.325 Y111.508
N18600 X216.306 Y111.49
N18605 X216.286 Y111.472
N18610 X216.266 Y111.455
N18615 X216.247 Y111.44
N18620 X216.227 Y111.426
N18625 X216.207 Y111.412
N18630 X216.187 Y111.4
N18635 X216.167 Y111.388
N18640 X216.145 Y111.376
N18645 X216.12 Y111.364
N18650 X216.096 Y111.353
N18655 X216.071 Y111.343
N18660 X216.047 Y111.333
N18665 X216.022 Y111.325
N18670 X215.991 Y111.316
N18675 X215.952 Y111.307
N18680 X215.922 Y111.301
N18685 X215.901 Y111.298
N18690 X215.88 Y111.295
N18695 X215.859 Y111.293
N18700 X215.831 Y111.292
N18705 X215.79 Y111.291
N18710 X215.782
N18715 X207.467
N18720 X207.457
N18725 X207.418 Y111.292
N18730 X207.381 Y111.295
N18735 X207.343 Y111.3
N18740 X207.313 Y111.305
N18745 X207.292 Y111.31
N18750 X207.269 Y111.315
N18755 X207.244 Y111.322
N18760 X207.22 Y111.33
N18765 X207.196 Y111.338
N18770 X207.171 Y111.348
N18775 X207.147 Y111.359
N18780 X207.122 Y111.37
N18785 X207.098 Y111.383
N18790 X207.076 Y111.395
N18795 X207.058 Y111.406
N18800 X207.04 Y111.418
N18805 X207.022 Y111.431
N18810 X207.004 Y111.444
N18815 X206.985 Y111.459
N18820 X206.967 Y111.474
N18825 X206.949 Y111.49
N18830 X206.927 Y111.511
N18835 X206.902 Y111.538
N18840 X206.879 Y111.564
N18845 X206.858 Y111.591
N18850 X206.839 Y111.618
N18855 X206.821 Y111.645
N18860 X206.808 Y111.667
N18865 X206.798 Y111.685
N18870 X206.787 Y111.706
N18875 X206.775 Y111.731
N18880 X206.765 Y111.755
N18885 X206.755 Y111.78
N18890 X206.747 Y111.804
N18895 X206.739 Y111.828
N18900 X206.732 Y111.853
N18905 X206.726 Y111.877
N18910 X206.721 Y111.902
N18915 X206.717 Y111.926
N18920 X206.714 Y111.951
N18925 X206.711 Y111.975
N18930 X206.709 Y112.007
N18935 X206.708 Y112.056
N18940 Y112.063
N18945 Y124.95
N18950 X205.175
N18955 Y109.391
N18960 X218.874
N18965 X218.904 Y109.398
N18970 X218.929 Y109.416
N18975 X218.945 Y109.443
N18980 X218.948 Y109.474
N18985 X218.938 Y109.504
N18990 X218.036 Y111.056
N18995 X218.027 Y111.076
N19000 X218.026 Y111.098
N19005 Y111.117 Z-1.501
N19010 X218.027 Y111.137 Z-1.505
N19015 G3 X216.602 Y111.142 Z-2.105 I-0.712 J0.003
N19020 X218.027 Y111.137 Z-2.705 I0.712 J-0.003
N19025 X217.353 Y111.851 Z-2.995 I-0.712 J0.003
N19030 G1 X217.334 Y111.852 Z-2.999
N19035 X217.314 Z-3.
N19040 G3 Y110.431 I0. J-0.711
N19045 G1 X217.416
N19050 G3 X217.561 Y110.779 I0. J0.205
N19055 G1 X217.457 Y110.894
N19060 G3 X217.172 Y110.895 I-0.142 J-0.119
N19065 G1 X217.067 Y110.779
N19070 G3 X217.213 Y110.431 I0.146 J-0.143
N19075 G1 X217.314
N19080 G2 X217.704 Y110.171 I0. J-0.422
N19085 G3 X218.093 Y109.912 I0.389 J0.162
N19090 G1 X226.961
N19095 G3 X227.416 Y110.367 I0. J0.455
N19100 G1 Y123.354
N19105 G3 X226.924 I-0.246 J0.
N19110 G1 X226.981 Y111.906
N19115 G2 X226.651 Y111.154 I-1.274 J0.112
N19120 X225.942 Y110.738 I-1.03 J0.943
N19125 G1 X225.83 Y110.718
N19130 X225.718 Y110.708
N19135 X218.714 Y110.711
N19140 G2 X218.026 Y110.977 I0.101 J1.287
N19145 X217.583 Y111.567 I0.844 J1.094
N19150 G1 X217.554 Y111.651
N19155 X217.531 Y111.738
N19160 X217.514 Y111.826
N19165 X217.502 Y111.915
N19170 X217.56 Y122.288
N19175 G3 X217.069 I-0.246 J0.
N19180 G1 X217.126 Y111.914
N19185 G2 X216.846 Y111.215 I-1.371 J0.143
N19190 X216.232 Y110.779 I-1.023 J0.791
N19195 G1 X216.137 Y110.751
N19200 X216.04 Y110.728
N19205 X215.942 Y110.714
N19210 X215.844 Y110.707
N19215 X207.439
N19220 G2 X206.704 Y110.941 I0.041 J1.398
N19225 X206.22 Y111.542 I0.714 J1.07
N19230 X206.147 Y111.798 I1.292 J0.506
N19235 X206.123 Y112.063 I1.447 J0.265
N19240 G1 X206.187 Y124.244
N19245 G3 X206.002 Y124.429 I-0.185 J0.
N19250 G1 X205.881
N19255 G3 X205.696 Y124.244 I0. J-0.185
N19260 G1 Y110.367
N19265 G3 X206.151 Y109.912 I0.455 J0.
N19270 G1 X218.093
N19275 G2 X218.483 Y109.651 I0. J-0.423
N19280 G3 X218.874 Y109.391 I0.39 J0.163
N19285 G1 X227.937
N19290 Y124.227
N19295 X226.404
N19300 Y112.026
N19305 X226.402 Y111.994
N19310 X226.399 Y111.957
N19315 X226.395 Y111.926
N19320 X226.391 Y111.902
N19325 X226.386 Y111.878
N19330 X226.38 Y111.853
N19335 X226.373 Y111.829
N19340 X226.366 Y111.804
N19345 X226.357 Y111.78
N19350 X226.347 Y111.755
N19355 X226.337 Y111.731
N19360 X226.325 Y111.706
N19365 X226.312 Y111.681
N19370 X226.297 Y111.656
N19375 X226.281 Y111.63
N19380 X226.264 Y111.605
N19385 X226.246 Y111.58
N19390 X226.227 Y111.557
N19395 X226.206 Y111.533
N19400 X226.184 Y111.51
N19405 X226.158 Y111.486
N19410 X226.13 Y111.462
N19415 X226.102 Y111.44
N19420 X226.074 Y111.419
N19425 X226.047 Y111.402
N19430 X226.023 Y111.388
N19435 X225.998 Y111.375
N19440 X225.974 Y111.363
N19445 X225.949 Y111.352
N19450 X225.925 Y111.342
N19455 X225.9 Y111.333
N19460 X225.876 Y111.325
N19465 X225.845 Y111.316
N19470 X225.807 Y111.307
N19475 X225.773 Y111.301
N19480 X225.743 Y111.296
N19485 X225.713 Y111.293
N19490 X225.683 Y111.292
N19495 X225.661 Y111.291
N19500 X218.814
N19505 X218.785 Y111.292
N19510 X218.759 Y111.294
N19515 X218.734 Y111.297
N19520 X218.709 Y111.301
N19525 X218.684 Y111.305
N19530 X218.661 Y111.31
N19535 X218.637 Y111.316
N19540 X218.614 Y111.323
N19545 X218.59 Y111.331
N19550 X218.565 Y111.339
N19555 X218.541 Y111.349
N19560 X218.516 Y111.36
N19565 X218.492 Y111.372
N19570 X218.467 Y111.385
N19575 X218.443 Y111.399
N19580 X218.418 Y111.414
N19585 X218.394 Y111.431
N19590 X218.371 Y111.448
N19595 X218.347 Y111.467
N19600 X218.324 Y111.488
N19605 X218.305 Y111.506
N19610 X218.29 Y111.521
N19615 X218.276 Y111.536
N19620 X218.263 Y111.551
N19625 X218.244 Y111.573
N19630 X218.222 Y111.603
N19635 X218.204 Y111.628
N19640 X218.192 Y111.647
N19645 X218.181 Y111.666
N19650 X218.171 Y111.685
N19655 X218.159 Y111.706
N19660 X218.148 Y111.731
N19665 X218.137 Y111.755
N19670 X218.128 Y111.78
N19675 X218.119 Y111.804
N19680 X218.111 Y111.829
N19685 X218.105 Y111.853
N19690 X218.099 Y111.878
N19695 X218.094 Y111.902
N19700 X218.089 Y111.926
N19705 X218.086 Y111.951
N19710 X218.083 Y111.975
N19715 X218.082 Y112.007
N19720 X218.081 Y112.056
N19725 Y112.063
N19730 Y123.161
N19735 X216.548
N19740 Y112.063
N19745 Y112.056
N19750 X216.547 Y112.007
N19755 X216.545 Y111.975
N19760 X216.542 Y111.951
N19765 X216.539 Y111.926
N19770 X216.535 Y111.902
N19775 X216.53 Y111.877
N19780 X216.524 Y111.853
N19785 X216.517 Y111.828
N19790 X216.509 Y111.804
N19795 X216.501 Y111.78
N19800 X216.491 Y111.755
N19805 X216.478 Y111.726
N19810 X216.461 Y111.691
N19815 X216.443 Y111.659
N19820 X216.425 Y111.63
N19825 X216.408 Y111.605
N19830 X216.394 Y111.585
N19835 X216.378 Y111.565
N19840 X216.361 Y111.546
N19845 X216.344 Y111.526
N19850 X216.325 Y111.508
N19855 X216.306 Y111.49
N19860 X216.286 Y111.472
N19865 X216.266 Y111.455
N19870 X216.247 Y111.44
N19875 X216.227 Y111.426
