%
(13X13_V3_RIGHT_FRONT_6MM)
(T2  D=6. CR=0. - ZMIN=-19. - FLAT END MILL)
N10 G90 G94 G17 G91.1
N15 G21
(WHEN USING FUSION 360 FOR PERSONAL USE, THE FEEDRATE OF)
(RAPID MOVES IS REDUCED TO MATCH THE FEEDRATE OF CUTTING)
(MOVES, WHICH CAN INCREASE MACHINING TIME. UNRESTRICTED RAPID)
(MOVES ARE AVAILABLE WITH A FUSION 360 SUBSCRIPTION.)
(POCKET2)
N20 T2 M6
N25 S16000 M3
N30 G54
N35 G0 X265.257 Y136.83
N40 G43 Z15. H2
N45 G1 Z4. F2700.
N50 Z1.596 F1800.
N55 X265.267 Y136.822 Z1.474 F2700.
N60 X265.296 Y136.8 Z1.358
N65 X265.345 Y136.764 Z1.249
N70 X265.413 Y136.716 Z1.155
N75 X265.496 Y136.66 Z1.08
N80 X265.591 Y136.598 Z1.028
N85 X265.696 Y136.536 Z1.
N90 G3 X269.696 Y143.464 Z-0.5 I2. J3.464
N95 X265.696 Y136.536 Z-2. I-2. J-3.464
N100 X271.696 Y140. Z-3. I2. J3.464
N105 X268.306 I-1.695 J0.
N110 X275.296 I3.495 J0.
N115 X264.706 I-5.295 J0.
N120 X278.896 I7.095 J0.
N125 X261.106 I-8.895 J0.
N130 X278.896 I8.895 J0.
N135 G2 X280.348 Y142.368 I2.657 J0. F2900.
N140 G3 X281.28 Y144.985 I-0.916 J1.801
N145 G1 X281.114 Y145.361 F2700.
N150 X280.98 Y145.633
N155 X280.65 Y146.244
N160 X280.455 Y146.567
N165 X280.153 Y147.032
N170 X279.713 Y147.634
N175 X279.456 Y147.969
N180 X279.04 Y148.439
N185 X278.795 Y148.705
N190 X278.623 Y148.868
N195 X277.855 Y149.53
N200 X277.521 Y149.812
N205 X276.074 Y150.753
N210 X275.16 Y151.214
N215 X274.617 Y151.438
N220 X274.153 Y151.616
N225 X273.687 Y151.765
N230 X273.226 Y151.902
N235 X272.29 Y152.114
N240 X271.362 Y152.253
N245 X270.433 Y152.317
N250 X269.495 Y152.313
N255 X269.036 Y152.284
N260 X268.568 Y152.241
N265 X268.106 Y152.179
N270 X267.638 Y152.098
N275 X267.176 Y152.002
N280 X266.71 Y151.881
N285 X266.246 Y151.748
N290 X265.781 Y151.586
N295 X265.316 Y151.413
N300 X264.851 Y151.207
N305 X264.384 Y150.989
N310 X263.921 Y150.738
N315 X263.453 Y150.467
N320 X262.991 Y150.168
N325 X262.496 Y149.813
N330 X262.047 Y149.467
N335 X261.914 Y149.358
N340 X261.394 Y148.886
N345 X261.143 Y148.635
N350 X260.977 Y148.451
N355 X260.178 Y147.505
N360 X259.257 Y146.094
N365 X258.792 Y145.175
N370 X258.413 Y144.244
N375 X258.118 Y143.314
N380 X257.902 Y142.385
N385 X257.761 Y141.455
N390 X257.689 Y140.516
N395 X257.681 Y140.057
N400 X257.686 Y139.588
N405 X257.708 Y139.125
N410 X257.751 Y138.657
N415 X257.805 Y138.195
N420 X257.885 Y137.738
N425 X257.974 Y137.266
N430 X258.221 Y136.334
N435 X258.548 Y135.404
N440 X258.962 Y134.474
N445 X259.477 Y133.538
N450 X259.776 Y133.078
N455 X260.101 Y132.608
N460 X260.463 Y132.137
N465 X260.671 Y131.882
N470 X261.273 Y131.226
N475 X261.798 Y130.765
N480 X262.476 Y130.191
N485 X263.934 Y129.243
N490 X264.616 Y128.894
N495 X264.844 Y128.784
N500 X265.69 Y128.436
N505 X266.711 Y128.113
N510 X267.639 Y127.897
N515 X268.568 Y127.758
N520 X269.505 Y127.687
N525 X269.965 Y127.681
N530 X270.434 Y127.686
N535 X270.896 Y127.71
N540 X271.364 Y127.753
N545 X271.822 Y127.808
N550 X272.758 Y127.981
N555 X273.686 Y128.228
N560 X274.615 Y128.557
N565 X275.549 Y128.975
N570 X276.281 Y129.37
N575 X276.469 Y129.482
N580 X277.008 Y129.831
N585 X277.408 Y130.113
N590 X277.873 Y130.471
N595 X278.343 Y130.874
N600 X278.715 Y131.214
N605 X279.255 Y131.822
N610 X279.817 Y132.487
N615 X280.667 Y133.788
N620 X280.795 Y134.007
N625 X281.12 Y134.643
N630 X281.251 Y134.929
N635 X281.582 Y135.741
N640 X281.771 Y136.333
N645 X281.906 Y136.793
N650 X282.117 Y137.73
N655 X282.254 Y138.66
N660 X282.319 Y139.59
N665 X282.313 Y140.526
N670 X282.282 Y140.986
N675 X282.239 Y141.455
N680 X282.175 Y141.917
N685 X282.047 Y142.652
N690 X281.875 Y143.314
N695 X281.74 Y143.777
N700 X281.577 Y144.243
N705 X281.402 Y144.709
N710 X281.28 Y144.985
N715 X281.26 Y145.011 F2900.
N720 X281.231 Y145.023
N725 X281.199 Y145.021
N730 X281.172 Y145.003
N735 X280.958 Y144.772
N740 X272.527 Y136.826
N745 X272.463 Y136.779
N750 X272.456 Y136.766
N755 X272.463 Y136.753
N760 G3 X277.138 Y143.245 Z-4.766 I2.338 J3.246 F2700.
N765 X270.8 Y139.999 Z-6. I-2.338 J-3.246
N770 X272.796 I0.998 J0.
N775 X267.2 I-2.798 J0.
N780 X276.396 I4.598 J0.
N785 X263.6 I-6.398 J0.
N790 X276.396 I6.398 J0.
N795 G2 X277.781 Y142.325 I2.646 J0. F2900.
N800 G3 X278.565 Y144.916 I-0.917 J1.692
N805 G1 X278.472 Y145.09 F2700.
N810 X278.169 Y145.577
N815 X277.871 Y146.013
N820 X277.533 Y146.464
N825 X277.034 Y147.025
N830 X276.061 Y147.843
N835 X274.987 Y148.531
N840 X274.542 Y148.763
N845 X274.083 Y148.98
N850 X273.599 Y149.176
N855 X273.169 Y149.322
N860 X272.715 Y149.464
N865 X271.981 Y149.633
N870 X271.339 Y149.734
N875 X270.88 Y149.784
N880 X270.425 Y149.815
N885 X269.962 Y149.821
N890 X269.512 Y149.816
N895 X268.587 Y149.73
N900 X268.023 Y149.634
N905 X267.681 Y149.56
N910 X267.223 Y149.443
N915 X266.759 Y149.296
N920 X266.306 Y149.141
N925 X265.854 Y148.945
N930 X265.371 Y148.716
N935 X264.934 Y148.485
N940 X264.477 Y148.203
N945 X264.012 Y147.89
N950 X263.56 Y147.551
N955 X262.984 Y147.045
N960 X262.141 Y146.038
N965 X261.527 Y145.079
N970 X261.279 Y144.626
N975 X261.058 Y144.175
N980 X260.85 Y143.663
N985 X260.707 Y143.261
N990 X260.565 Y142.809
N995 X260.387 Y142.074
N1000 X260.347 Y141.89
N1005 X260.28 Y141.434
N1010 X260.222 Y140.97
N1015 X260.191 Y140.515
N1020 X260.178 Y140.052
N1025 X260.183 Y139.597
N1030 X260.214 Y139.134
N1035 X260.255 Y138.681
N1040 X260.392 Y137.869
N1045 X260.534 Y137.312
N1050 X260.673 Y136.847
N1055 X260.848 Y136.337
N1060 X261.23 Y135.471
N1065 X261.468 Y135.023
N1070 X261.768 Y134.523
N1075 X262.043 Y134.101
N1080 X262.386 Y133.647
N1085 X262.776 Y133.182
N1090 X262.968 Y132.973
N1095 X263.954 Y132.146
N1100 X264.959 Y131.503
N1105 X265.148 Y131.392
N1110 X265.85 Y131.047
N1115 X266.301 Y130.865
N1120 X266.765 Y130.699
N1125 X267.217 Y130.557
N1130 X267.678 Y130.444
N1135 X268.134 Y130.343
N1140 X268.589 Y130.276
N1145 X269.052 Y130.22
N1150 X269.507 Y130.189
N1155 X269.97 Y130.178
N1160 X270.42 Y130.183
N1165 X271.345 Y130.258
N1170 X271.793 Y130.335
N1175 X272.256 Y130.424
N1180 X272.708 Y130.54
N1185 X273.173 Y130.68
N1190 X273.625 Y130.835
N1195 X274.082 Y131.028
N1200 X274.545 Y131.239
N1205 X274.994 Y131.477
N1210 X275.617 Y131.857
N1215 X275.916 Y132.056
N1220 X276.37 Y132.398
N1225 X276.956 Y132.899
N1230 X277.026 Y132.966
N1235 X277.844 Y133.941
N1240 X278.543 Y135.032
N1245 X278.772 Y135.476
N1250 X278.988 Y135.937
N1255 X279.171 Y136.389
N1260 X279.329 Y136.853
N1265 X279.471 Y137.306
N1270 X279.575 Y137.76
N1275 X279.67 Y138.224
N1280 X279.737 Y138.678
N1285 X279.786 Y139.142
N1290 X279.816 Y139.592
N1295 Y140.515
N1300 X279.727 Y141.436
N1305 X279.65 Y141.882
N1310 X279.539 Y142.399
N1315 X279.437 Y142.8
N1320 X279.289 Y143.262
N1325 X279.13 Y143.718
N1330 X278.934 Y144.17
N1335 X278.712 Y144.638
N1340 X278.565 Y144.916
N1345 G3 X278.121 Y145.017 I-0.265 J-0.14 F2900.
N1350 G1 X276.328 Y143.695
N1355 X276.297 Y143.675
N1360 X264.809 Y137.175
N1365 X264.352 Y136.937
N1370 X264.323 Y136.915
N1375 X264.303 Y136.884
N1380 X264.295 Y136.849
N1385 X264.298 Y136.813
N1390 X264.313 Y136.78
N1395 X264.339 Y136.754
N1400 G3 X269.014 Y143.246 Z-7.766 I2.338 J3.246 F2700.
N1405 X262.677 Y140. Z-9. I-2.338 J-3.246
N1410 X270.301 I3.812 J0.
N1415 X269.699 I-0.301 J0.
N1420 X273.901 I2.101 J0.
N1425 X266.099 I-3.901 J0.
N1430 X273.901 I3.901 J0.
N1435 G2 X275.197 Y142.248 I2.597 J0. F2900.
N1440 G3 X275.734 Y144.786 I-0.874 J1.511
N1445 G1 X275.599 Y144.972 F2700.
N1450 X275.335 Y145.284
N1455 X275.286 Y145.328
N1460 X274.708 Y145.793
N1465 X274.44 Y145.978
N1470 X273.98 Y146.261
N1475 X273.531 Y146.509
N1480 X273.09 Y146.711
N1485 X272.649 Y146.883
N1490 X272.207 Y147.019
N1495 X271.755 Y147.131
N1500 X271.304 Y147.219
N1505 X270.862 Y147.282
N1510 X270.419 Y147.313
N1515 X269.964 Y147.324
N1520 X269.516 Y147.313
N1525 X269.076 Y147.275
N1530 X268.63 Y147.207
N1535 X268.176 Y147.116
N1540 X267.732 Y147.002
N1545 X267.293 Y146.857
N1550 X266.846 Y146.677
N1555 X266.395 Y146.465
N1560 X265.945 Y146.222
N1565 X265.498 Y145.942
N1570 X265.054 Y145.62
N1575 X264.706 Y145.326
N1580 X264.225 Y144.731
N1585 X264.077 Y144.528
N1590 X263.788 Y144.062
N1595 X263.533 Y143.617
N1600 X263.325 Y143.181
N1605 X263.152 Y142.74
N1610 X263.007 Y142.291
N1615 X262.887 Y141.84
N1620 X262.794 Y141.395
N1625 X262.731 Y140.953
N1630 X262.692 Y140.502
N1635 X262.675 Y140.047
N1640 X262.68 Y139.606
N1645 X262.718 Y139.166
N1650 X262.779 Y138.711
N1655 X262.862 Y138.263
N1660 X262.895 Y138.134
N1665 X262.896 Y138.128
N1670 X262.971 Y137.821
N1675 X263.114 Y137.383
N1680 X263.347 Y136.789
N1685 X263.49 Y136.482
N1690 X263.726 Y136.029
N1695 X263.995 Y135.587
N1700 X264.315 Y135.142
N1705 X264.663 Y134.719
N1710 X264.714 Y134.673
N1715 X265.153 Y134.317
N1720 X265.501 Y134.059
N1725 X265.952 Y133.78
N1730 X266.405 Y133.522
N1735 X266.842 Y133.316
N1740 X267.282 Y133.144
N1745 X267.797 Y132.98
N1750 X268.178 Y132.883
N1755 X268.628 Y132.79
N1760 X269.069 Y132.728
N1765 X269.518 Y132.691
N1770 X269.974 Y132.676
N1775 X270.416 Y132.681
N1780 X270.855 Y132.719
N1785 X271.308 Y132.783
N1790 X271.76 Y132.868
N1795 X272.215 Y132.98
N1800 X272.638 Y133.12
N1805 X273.103 Y133.302
N1810 X273.395 Y133.426
N1815 X273.992 Y133.739
N1820 X274.433 Y134.008
N1825 X274.877 Y134.328
N1830 X275.279 Y134.662
N1835 X275.7 Y135.175
N1840 X275.995 Y135.588
N1845 X276.273 Y136.039
N1850 X276.518 Y136.487
N1855 X276.719 Y136.93
N1860 X276.89 Y137.371
N1865 X277.036 Y137.852
N1870 X277.135 Y138.262
N1875 X277.222 Y138.717
N1880 X277.285 Y139.159
N1885 X277.315 Y139.601
N1890 X277.323 Y140.056
N1895 X277.311 Y140.506
N1900 X277.273 Y140.946
N1905 X277.204 Y141.391
N1910 X277.11 Y141.844
N1915 X276.994 Y142.291
N1920 X276.85 Y142.73
N1925 X276.593 Y143.358
N1930 X276.206 Y144.08
N1935 X275.925 Y144.525
N1940 X275.734 Y144.786
N1945 G3 X275.311 Y144.797 I-0.216 J-0.157 F2900.
N1950 G1 X274.514 Y143.818
N1955 X274.483 Y143.785
N1960 X266.975 Y137.207
N1965 X266.704 Y137.026
N1970 X266.683 Y137.003
N1975 X266.674 Y136.973
N1980 X266.68 Y136.943
N1985 X266.699 Y136.918
N1990 G3 X271.7 Y143.162 Z-10.766 I2.5 J3.122 F2700.
N1995 X265.205 Y140.245 Z-12. I-2.5 J-3.122
N2000 X268.218 Y136.906 I3.176 J-0.163
N2005 X271.557 Y139.92 I0.163 J3.176
N2010 G1 X271.559 Y139.959
N2015 G3 X270.124 Y141.554 I-1.518 J0.078
N2020 G1 X270.045 Y141.559
N2025 G3 X268.446 Y140.14 I-0.083 J-1.517
N2030 G1 X268.44 Y140.061
N2035 G3 X269.858 Y138.446 I1.517 J-0.099
N2040 G1 X269.938 Y138.441
N2045 G3 X271.555 Y139.879 I0.099 J1.516
N2050 G1 X271.557 Y139.92
N2055 G2 X272.573 Y142.051 I3.074 J-0.157 F2900.
N2060 G3 X272.219 Y144.386 I-0.945 J1.051
N2065 G1 X272.107 Y144.437 F2700.
N2070 X271.688 Y144.576
N2075 X271.253 Y144.69
N2080 X270.837 Y144.767
N2085 X270.398 Y144.802
N2090 X269.959 Y144.826
N2095 X269.545 Y144.807
N2100 X269.106 Y144.754
N2105 X268.667 Y144.677
N2110 X268.486 Y144.63
N2115 X267.821 Y144.408
N2120 X267.361 Y144.194
N2125 X266.972 Y143.982
N2130 X266.527 Y143.673
N2135 X266.422 Y143.595
N2140 X266.411 Y143.583
N2145 X266.258 Y143.374
N2150 X266.039 Y143.054
N2155 X265.8 Y142.62
N2160 X265.589 Y142.177
N2165 X265.519 Y141.997
N2170 X265.399 Y141.597
N2175 X265.328 Y141.33
N2180 X265.28 Y141.117
N2185 X265.246 Y140.929
N2190 X265.203 Y140.483
N2195 X265.173 Y140.029
N2200 X265.174 Y139.837
N2205 X265.184 Y139.641
N2210 X265.236 Y139.188
N2215 X265.302 Y138.759
N2220 X265.396 Y138.407
N2225 X265.567 Y137.888
N2230 X265.64 Y137.701
N2235 X265.829 Y137.316
N2240 X265.968 Y137.056
N2245 X266.263 Y136.614
N2250 X266.404 Y136.422
N2255 X266.53 Y136.326
N2260 X266.988 Y136.013
N2265 X267.15 Y135.915
N2270 X267.84 Y135.582
N2275 X268.107 Y135.485
N2280 X268.698 Y135.321
N2285 X268.901 Y135.276
N2290 X269.09 Y135.243
N2295 X269.539 Y135.202
N2300 X269.991 Y135.172
N2305 X270.18 Y135.174
N2310 X270.378 Y135.186
N2315 X270.832 Y135.238
N2320 X271.257 Y135.306
N2325 X271.681 Y135.424
N2330 X272.132 Y135.573
N2335 X272.322 Y135.649
N2340 X272.525 Y135.748
N2345 X272.962 Y135.979
N2350 X273.505 Y136.35
N2355 X273.577 Y136.404
N2360 X273.734 Y136.615
N2365 X274.042 Y137.078
N2370 X274.103 Y137.179
N2375 X274.449 Y137.922
N2380 X274.533 Y138.165
N2385 X274.695 Y138.772
N2390 X274.77 Y139.183
N2395 X274.804 Y139.622
N2400 X274.826 Y140.062
N2405 X274.806 Y140.476
N2410 X274.751 Y140.915
N2415 X274.675 Y141.336
N2420 X274.537 Y141.8
N2425 X274.4 Y142.199
N2430 X274.202 Y142.624
N2435 X273.969 Y143.049
N2440 X273.599 Y143.573
N2445 X273.34 Y143.766
N2450 X272.969 Y144.012
N2455 X272.535 Y144.24
N2460 X272.219 Y144.386
N2465 G3 X271.971 Y144.228 I-0.073 J-0.159 F2900.
N2470 G1 X271.966 Y143.385
N2475 X271.683 Y139.001
N2480 X271.726 Y138.484
N2485 X271.736 Y138.446
N2490 X271.759 Y138.412
N2495 X271.791 Y138.388
N2500 X271.829 Y138.377
N2505 X271.869 Y138.378
N2510 X271.907 Y138.393
N2515 X271.937 Y138.419
N2520 G3 X268.063 Y141.581 Z-13.104 I-1.937 J1.581 F2700.
N2525 X271.937 Y138.419 Z-14.208 I1.937 J-1.581
N2530 X270. Y142.5 Z-15. I-1.937 J1.581
N2535 G1 X267.5
N2540 Y137.5
N2545 X272.5
N2550 Y142.5
N2555 X270.
N2560 G3 X269.724 Y142.082 I0. J-0.3 F2900.
N2565 G1 X270.509 Y140.242
N2570 X271.439 Y138.47
N2575 G3 X271.937 Y138.419 I0.266 J0.139
N2580 X268.063 Y141.581 Z-16.104 I-1.937 J1.581 F2700.
N2585 X271.937 Y138.419 Z-17.208 I1.937 J-1.581
N2590 X270. Y142.5 Z-18. I-1.937 J1.581
N2595 G1 X267.5
N2600 Y137.5
N2605 X272.5
N2610 Y142.5
N2615 X270.
N2620 G3 X269.707 Y142.134 I0. J-0.3 F2900.
N2625 G1 X270.183 Y140.027
N2630 X270.341 Y137.873
N2635 G3 X270.728 Y137.608 I0.299 J0.022
N2640 X270. Y142.5 Z-19. I-0.728 J2.392 F2700.
N2645 G1 X267.5
N2650 Y137.5
N2655 X272.5
N2660 Y142.5
N2665 X270.
N2670 X269.933 Y142.496 Z-18.992 F2900.
N2675 X269.868 Y142.485 Z-18.985
N2680 X269.807 Y142.468 Z-18.963
N2685 X269.748 Y142.444 Z-18.941
N2690 X269.697 Y142.418 Z-18.905
N2695 X269.65 Y142.387 Z-18.869
N2700 X269.577 Y142.326 Z-18.774
N2705 X269.53 Y142.273 Z-18.66
N2710 X269.503 Y142.237 Z-18.534
N2715 X269.495 Y142.224 Z-18.4
N2720 Z4. F2700.
N2725 X231.923 Y136.829
N2730 Z1.596
N2735 X231.933 Y136.821 Z1.474
N2740 X231.963 Y136.799 Z1.358
N2745 X232.012 Y136.763 Z1.249
N2750 X232.079 Y136.715 Z1.155
N2755 X232.162 Y136.659 Z1.08
N2760 X232.258 Y136.598 Z1.028
N2765 X232.363 Y136.535 Z1.
N2770 G3 X236.363 Y143.463 Z-0.5 I2. J3.464
N2775 X232.363 Y136.535 Z-2. I-2. J-3.464
N2780 X238.363 Y139.999 Z-3. I2. J3.464
N2785 X234.972 I-1.695 J0.
N2790 X241.963 I3.495 J0.
N2795 X231.372 I-5.295 J0.
N2800 X245.563 I7.095 J0.
N2805 X227.772 I-8.895 J0.
N2810 X245.563 I8.895 J0.
N2815 G2 X247.015 Y142.368 I2.657 J0. F2900.
N2820 G3 X247.947 Y144.985 I-0.916 J1.801
N2825 G1 X247.863 Y145.174 F2700.
N2830 X247.643 Y145.64
N2835 X247.392 Y146.104
N2840 X247.118 Y146.573
N2845 X246.818 Y147.035
N2850 X246.478 Y147.505
N2855 X246.084 Y148.018
N2860 X245.624 Y148.529
N2865 X245.278 Y148.878
N2870 X244.184 Y149.813
N2875 X242.739 Y150.755
N2880 X241.912 Y151.177
N2885 X240.982 Y151.562
N2890 X240.054 Y151.861
N2895 X239.12 Y152.082
N2900 X238.659 Y152.159
N2905 X238.19 Y152.229
N2910 X237.727 Y152.274
N2915 X237.258 Y152.306
N2920 X236.796 Y152.32
N2925 X236.326 Y152.315
N2930 X235.868 Y152.299
N2935 X234.931 Y152.207
N2940 X234.004 Y152.044
N2945 X233.076 Y151.803
N2950 X232.146 Y151.48
N2955 X231.214 Y151.073
N2960 X230.285 Y150.575
N2965 X229.351 Y149.958
N2970 X228.57 Y149.348
N2975 X227.965 Y148.798
N2980 X227.639 Y148.446
N2985 X226.844 Y147.505
N2990 X225.924 Y146.094
N2995 X225.459 Y145.175
N3000 X225.08 Y144.244
N3005 X224.785 Y143.314
N3010 X224.569 Y142.385
N3015 X224.428 Y141.455
N3020 X224.355 Y140.516
N3025 X224.347 Y140.057
N3030 X224.352 Y139.588
N3035 X224.375 Y139.125
N3040 X224.418 Y138.657
N3045 X224.472 Y138.198
N3050 X224.642 Y137.261
N3055 X224.71 Y137.001
N3060 X224.888 Y136.335
N3065 X225.214 Y135.405
N3070 X225.644 Y134.447
N3075 X226.144 Y133.538
N3080 X226.578 Y132.869
N3085 X226.761 Y132.617
N3090 X227.123 Y132.146
N3095 X227.521 Y131.679
N3100 X227.958 Y131.21
N3105 X228.465 Y130.765
N3110 X229.139 Y130.193
N3115 X230.424 Y129.353
N3120 X230.751 Y129.166
N3125 X231.273 Y128.899
N3130 X231.676 Y128.716
N3135 X232.358 Y128.435
N3140 X233.074 Y128.205
N3145 X233.537 Y128.075
N3150 X234.004 Y127.967
N3155 X234.463 Y127.873
N3160 X235.402 Y127.74
N3165 X236.331 Y127.678
N3170 X237.26 Y127.687
N3175 X238.195 Y127.768
N3180 X238.651 Y127.837
N3185 X239.382 Y127.969
N3190 X240.051 Y128.144
N3195 X240.514 Y128.285
N3200 X240.98 Y128.447
N3205 X241.445 Y128.629
N3210 X242.062 Y128.901
N3215 X242.369 Y129.058
N3220 X242.94 Y129.366
N3225 X243.304 Y129.591
N3230 X243.77 Y129.893
N3235 X244.32 Y130.302
N3240 X244.703 Y130.598
N3245 X245.385 Y131.217
N3250 X245.794 Y131.671
N3255 X246.475 Y132.473
N3260 X247.183 Y133.557
N3265 X247.487 Y134.056
N3270 X247.698 Y134.469
N3275 X247.947 Y135.001
N3280 X248.113 Y135.402
N3285 X248.289 Y135.867
N3290 X248.438 Y136.333
N3295 X248.573 Y136.793
N3300 X248.784 Y137.73
N3305 X248.921 Y138.66
N3310 X248.985 Y139.59
N3315 X248.98 Y140.526
N3320 X248.948 Y140.983
N3325 X248.876 Y141.722
N3330 X248.76 Y142.385
N3335 X248.663 Y142.847
N3340 X248.541 Y143.314
N3345 X248.407 Y143.777
N3350 X248.244 Y144.243
N3355 X248.069 Y144.708
N3360 X247.947 Y144.985
N3365 G3 X247.455 Y145.071 I-0.274 J-0.121 F2900.
N3370 G1 X246.322 Y143.882
N3375 X239.453 Y137.133
N3380 X239.128 Y136.89
N3385 X239.107 Y136.867
N3390 X239.096 Y136.838
N3395 Y136.807
N3400 X239.108 Y136.778
N3405 X239.129 Y136.755
N3410 G3 X243.805 Y143.247 Z-4.766 I2.338 J3.246 F2700.
N3415 X237.467 Y140.001 Z-6. I-2.338 J-3.246
N3420 X239.463 I0.998 J0.
N3425 X233.867 I-2.798 J0.
N3430 X243.063 I4.598 J0.
N3435 X230.267 I-6.398 J0.
N3440 X243.063 I6.398 J0.
N3445 G2 X244.447 Y142.327 I2.646 J0. F2900.
N3450 G3 X245.23 Y144.918 I-0.917 J1.691
N3455 G1 X245.139 Y145.09 F2700.
N3460 X244.855 Y145.546
N3465 X244.532 Y146.02
N3470 X244.198 Y146.466
N3475 X243.731 Y146.996
N3480 X243.681 Y147.042
N3485 X242.741 Y147.831
N3490 X241.816 Y148.428
N3495 X241.282 Y148.726
N3500 X240.913 Y148.91
N3505 X240.258 Y149.179
N3510 X240.004 Y149.269
N3515 X239.543 Y149.414
N3520 X239.08 Y149.535
N3525 X238.631 Y149.637
N3530 X237.703 Y149.774
N3535 X237.254 Y149.804
N3540 X236.79 Y149.823
N3545 X236.336 Y149.818
N3550 X235.873 Y149.792
N3555 X235.423 Y149.752
N3560 X234.669 Y149.63
N3565 X234.507 Y149.601
N3570 X234.052 Y149.484
N3575 X233.588 Y149.352
N3580 X233.077 Y149.177
N3585 X232.674 Y149.011
N3590 X232.217 Y148.811
N3595 X231.767 Y148.573
N3600 X231.223 Y148.254
N3605 X230.843 Y148.014
N3610 X230.39 Y147.672
N3615 X229.924 Y147.29
N3620 X229.636 Y147.028
N3625 X228.813 Y146.047
N3630 X228.126 Y144.971
N3635 X227.95 Y144.635
N3640 X227.724 Y144.176
N3645 X227.541 Y143.723
N3650 X227.373 Y143.259
N3655 X227.221 Y142.774
N3660 X227.013 Y141.884
N3665 X226.946 Y141.434
N3670 X226.889 Y140.97
N3675 X226.858 Y140.515
N3680 X226.845 Y140.052
N3685 X226.849 Y139.597
N3690 X226.881 Y139.134
N3695 X226.921 Y138.68
N3700 X226.998 Y138.226
N3705 X227.085 Y137.765
N3710 X227.218 Y137.245
N3715 X227.339 Y136.85
N3720 X227.495 Y136.395
N3725 X227.687 Y135.936
N3730 X227.895 Y135.475
N3735 X228.135 Y135.023
N3740 X228.412 Y134.558
N3745 X228.71 Y134.101
N3750 X229.051 Y133.648
N3755 X229.517 Y133.098
N3760 X229.622 Y132.983
N3765 X230.635 Y132.137
N3770 X231.773 Y131.413
N3775 X232.208 Y131.195
N3780 X232.808 Y130.929
N3785 X233.129 Y130.799
N3790 X233.588 Y130.649
N3795 X234.046 Y130.512
N3800 X234.499 Y130.409
N3805 X234.963 Y130.319
N3810 X235.417 Y130.253
N3815 X235.881 Y130.209
N3820 X236.331 Y130.179
N3825 X237.257 Y130.19
N3830 X237.707 Y130.23
N3835 X238.169 Y130.285
N3840 X238.62 Y130.362
N3845 X239.134 Y130.478
N3850 X239.537 Y130.581
N3855 X239.989 Y130.732
N3860 X240.537 Y130.936
N3865 X240.904 Y131.095
N3870 X241.514 Y131.4
N3875 X241.827 Y131.566
N3880 X242.279 Y131.854
N3885 X242.746 Y132.179
N3890 X243.203 Y132.529
N3895 X243.664 Y132.937
N3900 X244.508 Y133.937
N3905 X245.209 Y135.032
N3910 X245.453 Y135.504
N3915 X245.653 Y135.933
N3920 X245.91 Y136.58
N3925 X246.137 Y137.306
N3930 X246.241 Y137.76
N3935 X246.337 Y138.224
N3940 X246.403 Y138.678
N3945 X246.452 Y139.142
N3950 X246.483 Y139.592
N3955 X246.482 Y140.515
N3960 X246.393 Y141.436
N3965 X246.316 Y141.884
N3970 X246.219 Y142.347
N3975 X246.104 Y142.798
N3980 X245.906 Y143.408
N3985 X245.799 Y143.714
N3990 X245.45 Y144.502
N3995 X245.23 Y144.918
N4000 G3 X244.791 Y145.022 I-0.265 J-0.14 F2900.
N4005 G1 X242.767 Y143.573
N4010 X242.74 Y143.556
N4015 X231.522 Y137.216
N4020 X231.02 Y136.955
N4025 X230.988 Y136.93
N4030 X230.966 Y136.897
N4035 X230.957 Y136.858
N4040 X230.961 Y136.818
N4045 X230.978 Y136.782
N4050 X231.006 Y136.754
N4055 G3 X235.681 Y143.245 Z-7.766 I2.338 J3.246 F2700.
N4060 X229.343 Y140. Z-9. I-2.338 J-3.246
N4065 X236.968 I3.812 J0.
N4070 X236.365 I-0.301 J0.
N4075 X240.568 I2.101 J0.
N4080 X232.765 I-3.901 J0.
N4085 X240.568 I3.901 J0.
N4090 G2 X241.864 Y142.247 I2.596 J0. F2900.
N4095 G3 X242.401 Y144.786 I-0.874 J1.511
N4100 G1 X242.266 Y144.972 F2700.
N4105 X242.009 Y145.276
N4110 X241.948 Y145.331
N4115 X241.252 Y145.887
N4120 X240.68 Y146.241
N4125 X240.355 Y146.432
N4130 X239.83 Y146.682
N4135 X239.477 Y146.821
N4140 X239.024 Y146.973
N4145 X238.574 Y147.098
N4150 X238.133 Y147.195
N4155 X237.689 Y147.259
N4160 X237.235 Y147.303
N4165 X236.786 Y147.325
N4170 X236.345 Y147.321
N4175 X235.899 Y147.288
N4180 X235.444 Y147.232
N4185 X235.001 Y147.156
N4190 X234.563 Y147.047
N4195 X234.114 Y146.907
N4200 X233.662 Y146.739
N4205 X233.212 Y146.544
N4210 X232.771 Y146.32
N4215 X232.329 Y146.05
N4220 X231.882 Y145.737
N4225 X231.366 Y145.318
N4230 X231.06 Y144.943
N4235 X230.739 Y144.52
N4240 X230.461 Y144.071
N4245 X230.199 Y143.617
N4250 X229.992 Y143.181
N4255 X229.819 Y142.74
N4260 X229.674 Y142.291
N4265 X229.554 Y141.84
N4270 X229.46 Y141.395
N4275 X229.397 Y140.953
N4280 X229.359 Y140.502
N4285 X229.342 Y140.047
N4290 X229.346 Y139.606
N4295 X229.384 Y139.166
N4300 X229.446 Y138.711
N4305 X229.53 Y138.261
N4310 X229.638 Y137.821
N4315 X229.718 Y137.573
N4320 X229.781 Y137.382
N4325 X229.956 Y136.929
N4330 X230.169 Y136.457
N4335 X230.393 Y136.029
N4340 X230.66 Y135.589
N4345 X231.061 Y135.037
N4350 X231.347 Y134.701
N4355 X231.879 Y134.27
N4360 X232.328 Y133.959
N4365 X232.777 Y133.684
N4370 X233.275 Y133.424
N4375 X233.664 Y133.255
N4380 X234.111 Y133.087
N4385 X234.552 Y132.954
N4390 X234.998 Y132.85
N4395 X235.452 Y132.768
N4400 X235.898 Y132.71
N4405 X236.34 Y132.681
N4410 X236.789 Y132.677
N4415 X237.245 Y132.695
N4420 X237.685 Y132.734
N4425 X238.119 Y132.806
N4430 X238.89 Y132.983
N4435 X239.467 Y133.174
N4440 X240.065 Y133.427
N4445 X240.348 Y133.573
N4450 X240.881 Y133.877
N4455 X241.264 Y134.128
N4460 X241.534 Y134.322
N4465 X241.883 Y134.606
N4470 X241.959 Y134.673
N4475 X242.52 Y135.369
N4480 X242.974 Y136.097
N4485 X243.182 Y136.482
N4490 X243.417 Y137.01
N4495 X243.557 Y137.371
N4500 X243.691 Y137.813
N4505 X243.805 Y138.276
N4510 X243.859 Y138.523
N4515 X243.952 Y139.161
N4520 X243.981 Y139.601
N4525 X243.99 Y140.056
N4530 X243.978 Y140.506
N4535 X243.94 Y140.946
N4540 X243.86 Y141.458
N4545 X243.778 Y141.841
N4550 X243.661 Y142.291
N4555 X243.516 Y142.731
N4560 X243.335 Y143.176
N4565 X243.114 Y143.64
N4570 X242.969 Y143.925
N4575 X242.591 Y144.526
N4580 X242.401 Y144.786
N4585 G3 X241.929 Y144.802 I-0.243 J-0.177 F2900.
N4590 G1 X240.942 Y143.627
N4595 X240.91 Y143.594
N4600 X233.786 Y137.359
N4605 X233.373 Y137.084
N4610 X233.346 Y137.057
N4615 X233.33 Y137.023
N4620 X233.329 Y136.985
N4625 X233.341 Y136.949
N4630 X233.366 Y136.92
N4635 G3 X238.367 Y143.164 Z-10.766 I2.5 J3.122 F2700.
N4640 X231.871 Y140.246 Z-12. I-2.5 J-3.122
N4645 X238.223 Y139.921 I3.176 J-0.163
N4650 G1 X238.225 Y139.96
N4655 G3 X236.807 Y141.554 I-1.518 J0.078
N4660 G1 X236.728 Y141.56
N4665 G3 X235.112 Y140.142 I-0.099 J-1.517
N4670 G1 X235.107 Y140.062
N4675 G3 X236.564 Y138.444 I1.516 J-0.099
N4680 G1 X236.644 Y138.441
N4685 G3 X238.221 Y139.882 I0.06 J1.519
N4690 G1 X238.223 Y139.921
N4695 G2 X239.498 Y141.774 I2.144 J-0.11 F2900.
N4700 G3 X239.613 Y144.021 I-0.51 J1.152
N4705 G1 X239.357 Y144.167 F2700.
N4710 X238.91 Y144.379
N4715 X238.712 Y144.462
N4720 X238.52 Y144.527
N4725 X238.07 Y144.652
N4730 X237.647 Y144.747
N4735 X237.222 Y144.792
N4740 X236.762 Y144.822
N4745 X236.558 Y144.827
N4750 X236.37 Y144.821
N4755 X235.927 Y144.774
N4760 X235.488 Y144.709
N4765 X235.141 Y144.626
N4770 X234.623 Y144.456
N4775 X234.42 Y144.381
N4780 X234.226 Y144.295
N4785 X233.77 Y144.058
N4790 X233.58 Y143.947
N4795 X233.107 Y143.61
N4800 X233.091 Y143.598
N4805 X233.076 Y143.58
N4810 X232.692 Y143.033
N4815 X232.651 Y142.966
N4820 X232.469 Y142.626
N4825 X232.255 Y142.175
N4830 X232.219 Y142.084
N4835 X232.118 Y141.781
N4840 X231.994 Y141.326
N4845 X231.947 Y141.117
N4850 X231.912 Y140.929
N4855 X231.87 Y140.483
N4860 X231.84 Y140.029
N4865 Y139.837
N4870 X231.851 Y139.641
N4875 X231.902 Y139.188
N4880 X231.968 Y138.762
N4885 X232.084 Y138.34
N4890 X232.221 Y137.924
N4895 X232.311 Y137.691
N4900 X232.405 Y137.493
N4905 X232.642 Y137.045
N4910 X232.929 Y136.616
N4915 X233.069 Y136.427
N4920 X233.182 Y136.336
N4925 X233.346 Y136.22
N4930 X233.832 Y135.907
N4935 X234.213 Y135.721
N4940 X234.66 Y135.524
N4945 X234.771 Y135.485
N4950 X235.056 Y135.403
N4955 X235.503 Y135.291
N4960 X235.917 Y135.221
N4965 X236.356 Y135.192
N4970 X236.795 Y135.175
N4975 X237.21 Y135.2
N4980 X237.647 Y135.259
N4985 X238.068 Y135.341
N4990 X238.52 Y135.481
N4995 X238.931 Y135.627
N5000 X239.357 Y135.834
N5005 X239.782 Y136.071
N5010 X240.252 Y136.412
N5015 X240.264 Y136.427
N5020 X240.501 Y136.756
N5025 X240.687 Y137.045
N5030 X240.93 Y137.513
N5035 X241.111 Y137.911
N5040 X241.248 Y138.331
N5045 X241.361 Y138.767
N5050 X241.436 Y139.183
N5055 X241.47 Y139.622
N5060 X241.493 Y140.062
N5065 X241.472 Y140.476
N5070 X241.417 Y140.915
N5075 X241.341 Y141.337
N5080 X241.214 Y141.768
N5085 X241.066 Y142.2
N5090 X240.868 Y142.624
N5095 X240.63 Y143.059
N5100 X240.507 Y143.242
N5105 X240.259 Y143.583
N5110 X240.225 Y143.61
N5115 X239.783 Y143.923
N5120 X239.613 Y144.021
N5125 G3 X239.168 Y143.811 I-0.149 J-0.261 F2900.
N5130 G1 X238.811 Y141.745
N5135 X238.376 Y139.018
N5140 X238.385 Y138.495
N5145 X238.393 Y138.453
N5150 X238.415 Y138.416
N5155 X238.448 Y138.389
N5160 X238.489 Y138.376
N5165 X238.531
N5170 X238.571 Y138.391
N5175 X238.604 Y138.419
N5180 G3 X234.73 Y141.581 Z-13.104 I-1.937 J1.581 F2700.
N5185 X238.604 Y138.419 Z-14.208 I1.937 J-1.581
N5190 X236.667 Y142.5 Z-15. I-1.937 J1.581
N5195 G1 X234.167
N5200 Y137.5
N5205 X239.167
N5210 Y142.5
N5215 X236.667
N5220 G3 X236.391 Y142.082 I0. J-0.3 F2900.
N5225 G1 X237.175 Y140.242
N5230 X238.106 Y138.47
N5235 G3 X238.604 Y138.419 I0.266 J0.139
N5240 X234.73 Y141.581 Z-16.104 I-1.937 J1.581 F2700.
N5245 X238.604 Y138.419 Z-17.208 I1.937 J-1.581
N5250 X236.667 Y142.5 Z-18. I-1.937 J1.581
N5255 G1 X234.167
N5260 Y137.5
N5265 X239.167
N5270 Y142.5
N5275 X236.667
N5280 G3 X236.374 Y142.134 I0. J-0.3 F2900.
N5285 G1 X236.85 Y140.027
N5290 X237.008 Y137.873
N5295 G3 X237.395 Y137.608 I0.299 J0.022
N5300 X236.667 Y142.5 Z-19. I-0.728 J2.392 F2700.
N5305 G1 X234.167
N5310 Y137.5
N5315 X239.167
N5320 Y142.5
N5325 X236.667
N5330 X236.6 Y142.496 Z-18.992 F2900.
N5335 X236.534 Y142.485 Z-18.985
N5340 X236.473 Y142.468 Z-18.963
N5345 X236.414 Y142.444 Z-18.941
N5350 X236.364 Y142.418 Z-18.905
N5355 X236.316 Y142.387 Z-18.869
N5360 X236.244 Y142.326 Z-18.774
N5365 X236.196 Y142.273 Z-18.66
N5370 X236.17 Y142.237 Z-18.534
N5375 X236.162 Y142.224 Z-18.4
N5380 Z4. F2700.
N5385 X198.587 Y136.83
N5390 Z1.596
N5395 X198.597 Y136.823 Z1.474
N5400 X198.626 Y136.8 Z1.358
N5405 X198.676 Y136.764 Z1.249
N5410 X198.743 Y136.716 Z1.155
N5415 X198.826 Y136.66 Z1.08
N5420 X198.922 Y136.599 Z1.028
N5425 X199.026 Y136.536 Z1.
N5430 G3 X203.026 Y143.464 Z-0.5 I2. J3.464
N5435 X199.026 Y136.536 Z-2. I-2. J-3.464
N5440 X205.026 Y140. Z-3. I2. J3.464
N5445 X201.636 I-1.695 J0.
N5450 X208.626 I3.495 J0.
N5455 X198.036 I-5.295 J0.
N5460 X212.226 I7.095 J0.
N5465 X194.436 I-8.895 J0.
N5470 X212.226 I8.895 J0.
N5475 G2 X213.679 Y142.371 I2.66 J0. F2900.
N5480 G3 X214.611 Y144.99 I-0.917 J1.802
N5485 G1 X214.53 Y145.174 F2700.
N5490 X214.309 Y145.64
N5495 X214.055 Y146.11
N5500 X213.846 Y146.478
N5505 X213.38 Y147.196
N5510 X212.788 Y147.969
N5515 X212.38 Y148.431
N5520 X212.001 Y148.827
N5525 X211.038 Y149.657
N5530 X210.855 Y149.811
N5535 X209.408 Y150.753
N5540 X208.494 Y151.214
N5545 X207.812 Y151.495
N5550 X207.292 Y151.678
N5555 X206.881 Y151.809
N5560 X206.418 Y151.935
N5565 X205.953 Y152.043
N5570 X205.43 Y152.143
N5575 X205.019 Y152.205
N5580 X204.558 Y152.262
N5585 X203.621 Y152.322
N5590 X202.693 Y152.312
N5595 X201.765 Y152.229
N5600 X200.829 Y152.073
N5605 X200.37 Y151.966
N5610 X199.906 Y151.845
N5615 X199.377 Y151.678
N5620 X198.974 Y151.537
N5625 X198.509 Y151.351
N5630 X198.044 Y151.146
N5635 X197.577 Y150.913
N5640 X197.116 Y150.664
N5645 X196.488 Y150.274
N5650 X196.182 Y150.076
N5655 X195.717 Y149.726
N5660 X195.238 Y149.349
N5665 X194.735 Y148.893
N5670 X194.3 Y148.439
N5675 X193.511 Y147.505
N5680 X192.591 Y146.094
N5685 X192.126 Y145.175
N5690 X191.747 Y144.244
N5695 X191.452 Y143.314
N5700 X191.236 Y142.386
N5705 X191.078 Y141.329
N5710 X191.022 Y140.52
N5715 X191.014 Y140.057
N5720 X191.019 Y139.588
N5725 X191.042 Y139.125
N5730 X191.078 Y138.725
N5735 X191.139 Y138.197
N5740 X191.309 Y137.263
N5745 X191.555 Y136.334
N5750 X191.881 Y135.404
N5755 X192.296 Y134.474
N5760 X192.811 Y133.538
N5765 X193.109 Y133.078
N5770 X193.434 Y132.608
N5775 X193.869 Y132.042
N5780 X194.34 Y131.511
N5785 X194.602 Y131.231
N5790 X195.255 Y130.66
N5795 X195.83 Y130.177
N5800 X197.128 Y129.329
N5805 X197.583 Y129.081
N5810 X198.04 Y128.848
N5815 X199.028 Y128.434
N5820 X199.899 Y128.155
N5825 X200.837 Y127.928
N5830 X201.296 Y127.848
N5835 X201.764 Y127.778
N5840 X202.227 Y127.729
N5845 X202.696 Y127.697
N5850 X203.155 Y127.679
N5855 X204.094 Y127.698
N5860 X205.022 Y127.785
N5865 X205.949 Y127.946
N5870 X206.878 Y128.185
N5875 X207.808 Y128.504
N5880 X208.74 Y128.907
N5885 X209.671 Y129.401
N5890 X210.605 Y130.008
N5895 X211.063 Y130.361
N5900 X211.555 Y130.765
N5905 X212.051 Y131.217
N5910 X212.461 Y131.672
N5915 X213.126 Y132.455
N5920 X213.856 Y133.567
N5925 X214.133 Y134.017
N5930 X214.366 Y134.472
N5935 X214.588 Y134.938
N5940 X214.779 Y135.403
N5945 X214.956 Y135.867
N5950 X215.105 Y136.333
N5955 X215.24 Y136.793
N5960 X215.45 Y137.73
N5965 X215.588 Y138.66
N5970 X215.652 Y139.59
N5975 X215.646 Y140.526
N5980 X215.615 Y140.986
N5985 X215.572 Y141.455
N5990 X215.509 Y141.917
N5995 X215.427 Y142.385
N6000 X215.329 Y142.847
N6005 X215.208 Y143.314
N6010 X215.074 Y143.775
N6015 X214.775 Y144.619
N6020 X214.611 Y144.99
N6025 X214.599 Y145.005 F2900.
N6030 X214.582 Y145.013
N6035 X214.563 Y145.011
N6040 X214.547 Y145.001
N6045 X214.418 Y144.862
N6050 X205.835 Y136.796
N6055 X205.796 Y136.752
N6060 G3 X210.471 Y143.244 Z-4.766 I2.338 J3.246 F2700.
N6065 X204.134 Y139.998 Z-6. I-2.338 J-3.246
N6070 X206.129 I0.998 J0.
N6075 X200.534 I-2.798 J0.
N6080 X209.729 I4.598 J0.
N6085 X196.934 I-6.398 J0.
N6090 X209.729 I6.398 J0.
N6095 G2 X211.114 Y142.324 I2.646 J0. F2900.
N6100 G3 X211.899 Y144.915 I-0.917 J1.692
N6105 G1 X211.806 Y145.09 F2700.
N6110 X211.362 Y145.799
N6115 X210.864 Y146.467
N6120 X210.393 Y147.001
N6125 X210.382 Y147.013
N6130 X209.358 Y147.868
N6135 X208.642 Y148.326
N6140 X208.184 Y148.608
N6145 X207.742 Y148.83
N6150 X207.277 Y149.036
N6155 X206.825 Y149.219
N6160 X206.37 Y149.364
N6165 X205.909 Y149.498
N6170 X205.317 Y149.633
N6175 X204.538 Y149.754
N6180 X203.619 Y149.824
N6185 X202.697 Y149.806
N6190 X202.248 Y149.766
N6195 X201.785 Y149.707
N6200 X201.333 Y149.63
N6205 X200.869 Y149.523
N6210 X200.417 Y149.408
N6215 X199.738 Y149.175
N6220 X199.51 Y149.085
N6225 X199.047 Y148.884
N6230 X198.583 Y148.652
N6235 X198.126 Y148.404
N6240 X197.675 Y148.117
N6245 X197.211 Y147.788
N6250 X196.751 Y147.43
N6255 X196.327 Y147.056
N6260 X195.493 Y146.063
N6265 X194.86 Y145.079
N6270 X194.613 Y144.626
N6275 X194.391 Y144.175
N6280 X194.208 Y143.723
N6285 X194.039 Y143.259
N6290 X193.897 Y142.806
N6295 X193.782 Y142.344
N6300 X193.68 Y141.888
N6305 X193.587 Y141.257
N6310 X193.556 Y140.976
N6315 X193.524 Y140.515
N6320 X193.511 Y140.052
N6325 X193.516 Y139.597
N6330 X193.548 Y139.134
N6335 X193.588 Y138.685
N6340 X193.665 Y138.226
N6345 X193.752 Y137.765
N6350 X193.867 Y137.316
N6355 X194.049 Y136.725
N6360 X194.161 Y136.397
N6365 X194.504 Y135.586
N6370 X194.807 Y135.013
N6375 X194.957 Y134.749
N6380 X195.376 Y134.103
N6385 X195.88 Y133.444
N6390 X196.272 Y133.
N6395 X196.287 Y132.985
N6400 X197.271 Y132.158
N6405 X198.148 Y131.594
N6410 X198.492 Y131.387
N6415 X199.042 Y131.112
N6420 X199.5 Y130.919
N6425 X199.959 Y130.742
N6430 X200.411 Y130.6
N6435 X200.875 Y130.475
N6440 X201.324 Y130.373
N6445 X202.251 Y130.23
N6450 X202.701 Y130.199
N6455 X203.164 Y130.177
N6460 X203.618 Y130.181
N6465 X204.081 Y130.204
N6470 X204.535 Y130.244
N6475 X204.998 Y130.313
N6480 X205.45 Y130.39
N6485 X205.904 Y130.504
N6490 X206.366 Y130.632
N6495 X206.819 Y130.788
N6500 X207.285 Y130.971
N6505 X207.738 Y131.166
N6510 X208.191 Y131.405
N6515 X208.659 Y131.671
N6520 X209.11 Y131.957
N6525 X209.578 Y132.304
N6530 X210.154 Y132.778
N6535 X210.326 Y132.932
N6540 X211.17 Y133.933
N6545 X211.876 Y135.033
N6550 X212.109 Y135.483
N6555 X212.279 Y135.833
N6560 X212.503 Y136.385
N6565 X212.743 Y137.11
N6570 X212.804 Y137.305
N6575 X212.908 Y137.76
N6580 X213.003 Y138.224
N6585 X213.07 Y138.678
N6590 X213.119 Y139.142
N6595 X213.15 Y139.592
N6600 X213.149 Y140.515
N6605 X213.06 Y141.436
N6610 X212.983 Y141.884
N6615 X212.886 Y142.347
N6620 X212.737 Y142.928
N6625 X212.463 Y143.719
N6630 X212.267 Y144.17
N6635 X212.045 Y144.638
N6640 X211.899 Y144.915
N6645 G3 X211.459 Y145.019 I-0.265 J-0.14 F2900.
N6650 G1 X209.42 Y143.562
N6655 X209.394 Y143.545
N6660 X198.192 Y137.217
N6665 X197.687 Y136.954
N6670 X197.655 Y136.93
N6675 X197.633 Y136.896
N6680 X197.623 Y136.857
N6685 X197.627 Y136.817
N6690 X197.644 Y136.78
N6695 X197.672 Y136.752
N6700 G3 X202.347 Y143.244 Z-7.766 I2.338 J3.246 F2700.
N6705 X196.01 Y139.998 Z-9. I-2.338 J-3.246
N6710 X203.634 I3.812 J0.
N6715 X203.032 I-0.301 J0.
N6720 X207.234 I2.101 J0.
N6725 X199.432 I-3.901 J0.
N6730 X207.234 I3.901 J0.
N6735 G2 X208.531 Y142.244 I2.594 J0. F2900.
N6740 G3 X209.066 Y144.782 I-0.871 J1.509
N6745 G1 X208.891 Y145.022 F2700.
N6750 X208.677 Y145.274
N6755 X208.534 Y145.397
N6760 X208.047 Y145.788
N6765 X207.631 Y146.067
N6770 X207.177 Y146.344
N6775 X206.725 Y146.577
N6780 X206.508 Y146.677
N6785 X205.839 Y146.928
N6790 X205.402 Y147.06
N6795 X204.959 Y147.16
N6800 X204.506 Y147.238
N6805 X204.056 Y147.293
N6810 X203.615 Y147.322
N6815 X203.169
N6820 X202.714 Y147.301
N6825 X202.269 Y147.259
N6830 X201.831 Y147.186
N6835 X201.383 Y147.084
N6840 X200.93 Y146.956
N6845 X200.485 Y146.806
N6850 X200.045 Y146.622
N6855 X199.591 Y146.396
N6860 X199.309 Y146.24
N6865 X198.695 Y145.841
N6870 X198.248 Y145.505
N6875 X198.03 Y145.315
N6880 X197.745 Y144.966
N6885 X197.437 Y144.571
N6890 X196.977 Y143.823
N6895 X196.871 Y143.627
N6900 X196.658 Y143.181
N6905 X196.486 Y142.74
N6910 X196.34 Y142.291
N6915 X196.221 Y141.84
N6920 X196.127 Y141.395
N6925 X196.064 Y140.953
N6930 X196.026 Y140.502
N6935 X196.009 Y140.047
N6940 X196.013 Y139.606
N6945 X196.051 Y139.161
N6950 X196.096 Y138.812
N6955 X196.197 Y138.26
N6960 X196.304 Y137.822
N6965 X196.452 Y137.369
N6970 X196.539 Y137.127
N6975 X196.827 Y136.473
N6980 X197.059 Y136.029
N6985 X197.328 Y135.587
N6990 X197.652 Y135.137
N6995 X197.883 Y134.849
N7000 X198.009 Y134.705
N7005 X198.705 Y134.144
N7010 X199.151 Y133.861
N7015 X199.603 Y133.588
N7020 X200.037 Y133.378
N7025 X200.484 Y133.195
N7030 X200.933 Y133.04
N7035 X201.38 Y132.913
N7040 X201.822 Y132.815
N7045 X202.268 Y132.747
N7050 X202.723 Y132.699
N7055 X203.169 Y132.674
N7060 X203.609 Y132.679
N7065 X204.06 Y132.709
N7070 X204.514 Y132.761
N7075 X204.954 Y132.833
N7080 X205.54 Y132.978
N7085 X206.301 Y133.245
N7090 X206.741 Y133.432
N7095 X207.182 Y133.657
N7100 X207.626 Y133.923
N7105 X208.204 Y134.324
N7110 X208.625 Y134.672
N7115 X209.004 Y135.138
N7120 X209.345 Y135.614
N7125 X209.61 Y136.046
N7130 X209.791 Y136.364
N7135 X210.052 Y136.93
N7140 X210.237 Y137.414
N7145 X210.358 Y137.813
N7150 X210.469 Y138.264
N7155 X210.556 Y138.717
N7160 X210.618 Y139.159
N7165 X210.648 Y139.601
N7170 X210.657 Y140.056
N7175 X210.644 Y140.506
N7180 X210.606 Y140.946
N7185 X210.537 Y141.391
N7190 X210.444 Y141.844
N7195 X210.328 Y142.291
N7200 X210.183 Y142.731
N7205 X210.001 Y143.176
N7210 X209.787 Y143.627
N7215 X209.536 Y144.086
N7220 X209.346 Y144.4
N7225 X209.066 Y144.782
N7230 G3 X208.54 Y144.701 I-0.242 J-0.177 F2900.
N7235 G1 X205.955 Y137.038
N7240 G3 X206.477 Y136.759 I0.284 J-0.096
N7245 X200.138 Y141.64 Z-10.766 I-3.169 J2.44 F2700.
N7250 X203.18 Y135.202 Z-12. I3.169 J-2.44
N7255 X203.383 Y141.558 I0.102 J3.178
N7260 G1 X203.344 Y141.56
N7265 G3 X201.779 Y140.14 I-0.049 J-1.519
N7270 G1 X201.774 Y140.063
N7275 G3 X203.179 Y138.449 I1.516 J-0.099
N7280 G1 X203.259 Y138.443
N7285 G3 X204.888 Y139.881 I0.111 J1.516
N7290 G1 X204.892 Y139.96
N7295 G3 X203.473 Y141.554 I-1.518 J0.078
N7300 G1 X203.41 Y141.557
N7305 X203.383 Y141.558
N7310 G2 X201.51 Y142.792 I0.069 J2.143 F2900.
N7315 G3 X199.268 Y142.865 I-1.139 J-0.534
N7320 G1 X199.133 Y142.62 F2700.
N7325 X198.923 Y142.177
N7330 X198.85 Y141.991
N7335 X198.787 Y141.79
N7340 X198.661 Y141.327
N7345 X198.601 Y141.059
N7350 X198.58 Y140.935
N7355 X198.536 Y140.483
N7360 X198.507 Y140.029
N7365 Y139.837
N7370 X198.517 Y139.641
N7375 X198.569 Y139.184
N7380 X198.607 Y138.925
N7385 X198.633 Y138.767
N7390 X198.751 Y138.34
N7395 X198.897 Y137.897
N7400 X199.028 Y137.581
N7405 X199.31 Y137.041
N7410 X199.451 Y136.817
N7415 X199.744 Y136.416
N7420 X200.183 Y136.1
N7425 X200.488 Y135.912
N7430 X201.051 Y135.639
N7435 X201.253 Y135.552
N7440 X201.439 Y135.485
N7445 X201.887 Y135.359
N7450 X202.326 Y135.257
N7455 X202.499 Y135.232
N7460 X203.2 Y135.18
N7465 X203.407 Y135.173
N7470 X203.59 Y135.175
N7475 X204.027 Y135.22
N7480 X204.48 Y135.286
N7485 X204.675 Y135.326
N7490 X204.867 Y135.376
N7495 X205.551 Y135.607
N7500 X205.732 Y135.685
N7505 X206.186 Y135.919
N7510 X206.387 Y136.033
N7515 X206.589 Y136.169
N7520 X206.914 Y136.408
N7525 X207.067 Y136.615
N7530 X207.358 Y137.051
N7535 X207.586 Y137.49
N7540 X207.743 Y137.821
N7545 X207.916 Y138.335
N7550 X208.028 Y138.767
N7555 X208.103 Y139.183
N7560 X208.137 Y139.622
N7565 X208.16 Y140.062
N7570 X208.139 Y140.476
N7575 X208.084 Y140.915
N7580 X208.008 Y141.337
N7585 X207.881 Y141.768
N7590 X207.733 Y142.2
N7595 X207.535 Y142.624
N7600 X207.303 Y143.047
N7605 X206.922 Y143.584
N7610 X206.601 Y143.817
N7615 X206.172 Y144.091
N7620 X205.742 Y144.3
N7625 X205.316 Y144.485
N7630 X204.844 Y144.624
N7635 X204.444 Y144.721
N7640 X204.248 Y144.757
N7645 X204.054 Y144.782
N7650 X203.599 Y144.811
N7655 X203.155 Y144.825
N7660 X202.967 Y144.816
N7665 X202.758 Y144.796
N7670 X202.309 Y144.734
N7675 X201.89 Y144.649
N7680 X201.457 Y144.512
N7685 X201.027 Y144.356
N7690 X200.588 Y144.138
N7695 X200.378 Y144.026
N7700 X200.188 Y143.908
N7705 X199.754 Y143.591
N7710 X199.672 Y143.488
N7715 X199.371 Y143.052
N7720 X199.268 Y142.865
N7725 G3 X199.398 Y142.452 I0.263 J-0.145 F2900.
N7730 G1 X201.391 Y141.461
N7735 X201.442 Y141.428
N7740 X204.677 Y138.894
N7745 X204.697 Y138.875
N7750 X205.075 Y138.419
N7755 X205.109 Y138.39
N7760 X205.15 Y138.375
N7765 X205.195
N7770 X205.237 Y138.39
N7775 X205.27 Y138.419
N7780 G3 X201.396 Y141.581 Z-13.104 I-1.937 J1.581 F2700.
N7785 X205.27 Y138.419 Z-14.208 I1.937 J-1.581
N7790 X203.333 Y142.5 Z-15. I-1.937 J1.581
N7795 G1 X200.833
N7800 Y137.5
N7805 X205.833
N7810 Y142.5
N7815 X203.333
N7820 G3 X203.057 Y142.082 I0. J-0.3 F2900.
N7825 G1 X203.842 Y140.242
N7830 X204.772 Y138.47
N7835 G3 X205.27 Y138.419 I0.266 J0.139
N7840 X201.396 Y141.581 Z-16.104 I-1.937 J1.581 F2700.
N7845 X205.27 Y138.419 Z-17.208 I1.937 J-1.581
N7850 X203.333 Y142.5 Z-18. I-1.937 J1.581
N7855 G1 X200.833
N7860 Y137.5
N7865 X205.833
N7870 Y142.5
N7875 X203.333
N7880 G3 X203.041 Y142.134 I0. J-0.3 F2900.
N7885 G1 X203.516 Y140.027
N7890 X203.675 Y137.873
N7895 G3 X204.061 Y137.608 I0.299 J0.022
N7900 X203.333 Y142.5 Z-19. I-0.728 J2.392 F2700.
N7905 G1 X200.833
N7910 Y137.5
N7915 X205.833
N7920 Y142.5
N7925 X203.333
N7930 X203.267 Y142.496 Z-18.992 F2900.
N7935 X203.201 Y142.485 Z-18.985
N7940 X203.14 Y142.468 Z-18.963
N7945 X203.081 Y142.444 Z-18.941
N7950 X203.031 Y142.418 Z-18.905
N7955 X202.983 Y142.387 Z-18.869
N7960 X202.911 Y142.326 Z-18.774
N7965 X202.863 Y142.273 Z-18.66
N7970 X202.837 Y142.237 Z-18.534
N7975 X202.828 Y142.224 Z-18.4
N7980 Z4. F2700.
N7985 X165.257 Y136.829
N7990 Z1.596
N7995 X165.267 Y136.821 Z1.474
N8000 X165.296 Y136.799 Z1.358
N8005 X165.345 Y136.763 Z1.249
N8010 X165.413 Y136.715 Z1.155
N8015 X165.496 Y136.659 Z1.08
N8020 X165.591 Y136.598 Z1.028
N8025 X165.696 Y136.535 Z1.
N8030 G3 X169.696 Y143.463 Z-0.5 I2. J3.464
N8035 X165.696 Y136.535 Z-2. I-2. J-3.464
N8040 X171.696 Y139.999 Z-3. I2. J3.464
N8045 X168.306 I-1.695 J0.
N8050 X175.296 I3.495 J0.
N8055 X164.706 I-5.295 J0.
N8060 X178.896 I7.095 J0.
N8065 X161.106 I-8.895 J0.
N8070 X178.896 I8.895 J0.
N8075 G2 X180.348 Y142.368 I2.657 J0. F2900.
N8080 G3 X181.28 Y144.985 I-0.916 J1.801
N8085 G1 X181.137 Y145.308 F2700.
N8090 X180.978 Y145.636
N8095 X180.673 Y146.201
N8100 X180.453 Y146.569
N8105 X180.152 Y147.033
N8110 X179.737 Y147.602
N8115 X179.456 Y147.969
N8120 X179.04 Y148.439
N8125 X178.817 Y148.681
N8130 X178.62 Y148.871
N8135 X177.879 Y149.509
N8140 X177.521 Y149.812
N8145 X176.074 Y150.753
N8150 X175.16 Y151.214
N8155 X174.64 Y151.429
N8160 X174.18 Y151.607
N8165 X173.244 Y151.898
N8170 X172.314 Y152.11
N8175 X171.385 Y152.249
N8180 X170.456 Y152.315
N8185 X169.517 Y152.313
N8190 X169.059 Y152.286
N8195 X168.59 Y152.243
N8200 X168.128 Y152.183
N8205 X167.661 Y152.102
N8210 X167.199 Y152.008
N8215 X166.732 Y151.887
N8220 X166.273 Y151.757
N8225 X165.339 Y151.423
N8230 X164.404 Y151.
N8235 X163.938 Y150.748
N8240 X163.476 Y150.482
N8245 X163.015 Y150.183
N8250 X162.495 Y149.812
N8255 X162.069 Y149.485
N8260 X161.913 Y149.356
N8265 X161.392 Y148.884
N8270 X161.166 Y148.661
N8275 X160.976 Y148.451
N8280 X160.178 Y147.505
N8285 X159.257 Y146.094
N8290 X158.792 Y145.175
N8295 X158.413 Y144.244
N8300 X158.118 Y143.314
N8305 X157.902 Y142.385
N8310 X157.761 Y141.455
N8315 X157.689 Y140.516
N8320 X157.681 Y140.057
N8325 X157.686 Y139.588
N8330 X157.708 Y139.125
N8335 X157.751 Y138.657
N8340 X157.805 Y138.194
N8345 X157.909 Y137.6
N8350 X157.974 Y137.269
N8355 X158.221 Y136.334
N8360 X158.548 Y135.404
N8365 X158.964 Y134.471
N8370 X159.307 Y133.836
N8375 X159.474 Y133.544
N8380 X159.776 Y133.078
N8385 X160.101 Y132.608
N8390 X160.462 Y132.139
N8395 X160.694 Y131.857
N8400 X161.273 Y131.226
N8405 X161.797 Y130.766
N8410 X162.494 Y130.178
N8415 X163.77 Y129.345
N8420 X163.947 Y129.236
N8425 X164.614 Y128.895
N8430 X164.867 Y128.775
N8435 X165.689 Y128.436
N8440 X166.734 Y128.107
N8445 X167.662 Y127.893
N8450 X168.591 Y127.754
N8455 X169.527 Y127.686
N8460 X169.987 Y127.681
N8465 X170.456 Y127.686
N8470 X170.919 Y127.712
N8475 X171.387 Y127.755
N8480 X171.846 Y127.813
N8485 X172.712 Y127.969
N8490 X173.709 Y128.236
N8495 X174.641 Y128.568
N8500 X175.404 Y128.905
N8505 X175.56 Y128.981
N8510 X176.279 Y129.369
N8515 X176.492 Y129.497
N8520 X177.007 Y129.831
N8525 X177.432 Y130.132
N8530 X177.896 Y130.488
N8535 X178.366 Y130.895
N8540 X178.717 Y131.216
N8545 X179.126 Y131.67
N8550 X179.826 Y132.501
N8555 X180.689 Y133.822
N8560 X180.793 Y134.003
N8565 X181.143 Y134.688
N8570 X181.25 Y134.927
N8575 X181.446 Y135.403
N8580 X181.622 Y135.867
N8585 X181.771 Y136.333
N8590 X181.907 Y136.797
N8595 X182.072 Y137.506
N8600 X182.115 Y137.72
N8605 X182.254 Y138.66
N8610 X182.319 Y139.59
N8615 X182.313 Y140.526
N8620 X182.282 Y140.986
N8625 X182.239 Y141.455
N8630 X182.175 Y141.917
N8635 X182.069 Y142.527
N8640 X181.998 Y142.84
N8645 X181.875 Y143.314
N8650 X181.74 Y143.777
N8655 X181.577 Y144.243
N8660 X181.402 Y144.708
N8665 X181.28 Y144.985
N8670 X181.259 Y145.015 F2900.
N8675 X181.227 Y145.035
N8680 X181.191 Y145.041
N8685 X181.155 Y145.032
N8690 X181.125 Y145.011
N8695 X180.817 Y144.677
N8700 X172.555 Y136.858
N8705 X172.463 Y136.791
N8710 X172.454 Y136.779
N8715 Y136.764
N8720 X172.463 Y136.753
N8725 G3 X177.138 Y143.244 Z-4.766 I2.338 J3.246 F2700.
N8730 X170.8 Y139.999 Z-6. I-2.338 J-3.246
N8735 X172.796 I0.998 J0.
N8740 X167.2 I-2.798 J0.
N8745 X176.396 I4.598 J0.
N8750 X163.6 I-6.398 J0.
N8755 X176.396 I6.398 J0.
N8760 G2 X177.781 Y142.325 I2.646 J0. F2900.
N8765 G3 X178.565 Y144.916 I-0.917 J1.692
N8770 G1 X178.472 Y145.091 F2700.
N8775 X178.188 Y145.546
N8780 X177.87 Y146.014
N8785 X177.532 Y146.465
N8790 X177.042 Y147.019
N8795 X176.067 Y147.838
N8800 X175.009 Y148.517
N8805 X174.563 Y148.753
N8810 X174.106 Y148.971
N8815 X173.599 Y149.176
N8820 X173.193 Y149.315
N8825 X172.739 Y149.457
N8830 X171.98 Y149.634
N8835 X171.361 Y149.731
N8840 X170.902 Y149.783
N8845 X170.448 Y149.814
N8850 X169.985 Y149.821
N8855 X169.535 Y149.817
N8860 X168.609 Y149.734
N8865 X168.022 Y149.634
N8870 X167.704 Y149.566
N8875 X167.246 Y149.449
N8880 X166.781 Y149.304
N8885 X166.329 Y149.15
N8890 X165.877 Y148.955
N8895 X165.37 Y148.716
N8900 X164.957 Y148.497
N8905 X164.498 Y148.216
N8910 X164.035 Y147.907
N8915 X163.581 Y147.566
N8920 X163.12 Y147.169
N8925 X162.97 Y147.029
N8930 X162.146 Y146.046
N8935 X161.527 Y145.079
N8940 X161.279 Y144.626
N8945 X161.058 Y144.175
N8950 X160.874 Y143.721
N8955 X160.706 Y143.259
N8960 X160.564 Y142.808
N8965 X160.411 Y142.179
N8970 X160.347 Y141.889
N8975 X160.28 Y141.434
N8980 X160.222 Y140.97
N8985 X160.191 Y140.515
N8990 X160.178 Y140.052
N8995 X160.183 Y139.597
N9000 X160.214 Y139.134
N9005 X160.254 Y138.685
N9010 X160.416 Y137.776
N9015 X160.534 Y137.312
N9020 X160.673 Y136.85
N9025 X160.871 Y136.281
N9030 X161.23 Y135.472
N9035 X161.468 Y135.024
N9040 X161.792 Y134.485
N9045 X162.043 Y134.102
N9050 X162.386 Y133.647
N9055 X162.78 Y133.176
N9060 X162.936 Y133.003
N9065 X163.935 Y132.161
N9070 X164.982 Y131.488
N9075 X165.146 Y131.394
N9080 X165.874 Y131.038
N9085 X166.323 Y130.855
N9090 X166.787 Y130.691
N9095 X167.24 Y130.55
N9100 X167.699 Y130.439
N9105 X168.157 Y130.34
N9110 X168.611 Y130.273
N9115 X169.075 Y130.219
N9120 X169.529 Y130.188
N9125 X169.993 Y130.178
N9130 X170.442 Y130.183
N9135 X171.368 Y130.262
N9140 X171.816 Y130.339
N9145 X172.279 Y130.43
N9150 X172.731 Y130.546
N9155 X173.196 Y130.688
N9160 X173.648 Y130.843
N9165 X174.103 Y131.037
N9170 X174.568 Y131.251
N9175 X175.018 Y131.49
N9180 X175.614 Y131.855
N9185 X175.939 Y132.073
N9190 X176.394 Y132.415
N9195 X176.967 Y132.909
N9200 X177.03 Y132.972
N9205 X177.855 Y133.956
N9210 X178.542 Y135.032
N9215 X178.772 Y135.476
N9220 X178.988 Y135.937
N9225 X179.171 Y136.389
N9230 X179.329 Y136.853
N9235 X179.471 Y137.306
N9240 X179.575 Y137.76
N9245 X179.67 Y138.224
N9250 X179.737 Y138.678
N9255 X179.786 Y139.142
N9260 X179.816 Y139.592
N9265 Y140.515
N9270 X179.727 Y141.436
N9275 X179.65 Y141.884
N9280 X179.553 Y142.347
N9285 X179.437 Y142.8
N9290 X179.29 Y143.258
N9295 X179.105 Y143.776
N9300 X178.934 Y144.17
N9305 X178.712 Y144.638
N9310 X178.565 Y144.916
N9315 G3 X178.122 Y145.018 I-0.265 J-0.14 F2900.
N9320 G1 X176.278 Y143.668
N9325 X176.249 Y143.649
N9330 X164.819 Y137.184
N9335 X164.352 Y136.941
N9340 X164.323 Y136.918
N9345 X164.302 Y136.887
N9350 X164.294 Y136.851
N9355 X164.297 Y136.814
N9360 X164.313 Y136.781
N9365 X164.339 Y136.754
N9370 G3 X169.014 Y143.246 Z-7.766 I2.338 J3.246 F2700.
N9375 X162.677 Y140. Z-9. I-2.338 J-3.246
N9380 X170.301 I3.812 J0.
N9385 X169.699 I-0.301 J0.
N9390 X173.901 I2.101 J0.
N9395 X166.099 I-3.901 J0.
N9400 X173.901 I3.901 J0.
N9405 G2 X175.197 Y142.248 I2.597 J0. F2900.
N9410 G3 X175.734 Y144.786 I-0.874 J1.511
N9415 G1 X175.601 Y144.969 F2700.
N9420 X175.317 Y145.301
N9425 X174.706 Y145.794
N9430 X174.463 Y145.964
N9435 X174.003 Y146.247
N9440 X173.553 Y146.499
N9445 X173.113 Y146.702
N9450 X172.671 Y146.874
N9455 X172.228 Y147.012
N9460 X171.775 Y147.127
N9465 X171.327 Y147.216
N9470 X170.885 Y147.279
N9475 X170.44 Y147.312
N9480 X169.985 Y147.324
N9485 X169.539 Y147.315
N9490 X169.099 Y147.277
N9495 X168.651 Y147.211
N9500 X168.197 Y147.121
N9505 X167.755 Y147.01
N9510 X167.316 Y146.865
N9515 X166.858 Y146.682
N9520 X166.416 Y146.476
N9525 X165.961 Y146.231
N9530 X165.52 Y145.958
N9535 X165.077 Y145.639
N9540 X164.726 Y145.343
N9545 X164.247 Y144.757
N9550 X164.076 Y144.526
N9555 X163.794 Y144.071
N9560 X163.532 Y143.617
N9565 X163.325 Y143.181
N9570 X163.152 Y142.74
N9575 X163.004 Y142.283
N9580 X162.921 Y141.988
N9585 X162.793 Y141.393
N9590 X162.731 Y140.953
N9595 X162.692 Y140.502
N9600 X162.675 Y140.047
N9605 X162.68 Y139.606
N9610 X162.718 Y139.166
N9615 X162.779 Y138.711
N9620 X162.863 Y138.262
N9625 X162.92 Y138.032
N9630 X162.921 Y138.027
N9635 X162.971 Y137.821
N9640 X163.114 Y137.383
N9645 X163.37 Y136.733
N9650 X163.487 Y136.486
N9655 X163.726 Y136.029
N9660 X163.995 Y135.587
N9665 X164.314 Y135.143
N9670 X164.668 Y134.714
N9675 X165.154 Y134.317
N9680 X165.524 Y134.045
N9685 X165.975 Y133.766
N9690 X166.426 Y133.512
N9695 X166.865 Y133.307
N9700 X167.305 Y133.135
N9705 X167.795 Y132.981
N9710 X168.2 Y132.878
N9715 X168.65 Y132.787
N9720 X169.092 Y132.724
N9725 X169.539 Y132.69
N9730 X169.995 Y132.676
N9735 X170.439 Y132.683
N9740 X170.878 Y132.721
N9745 X171.329 Y132.786
N9750 X171.782 Y132.874
N9755 X172.222 Y132.982
N9760 X172.661 Y133.128
N9765 X173.125 Y133.311
N9770 X173.394 Y133.425
N9775 X174.013 Y133.752
N9780 X174.457 Y134.025
N9785 X174.899 Y134.344
N9790 X175.299 Y134.681
N9795 X175.722 Y135.202
N9800 X175.994 Y135.586
N9805 X176.273 Y136.039
N9810 X176.518 Y136.487
N9815 X176.719 Y136.93
N9820 X176.89 Y137.371
N9825 X177.059 Y137.928
N9830 X177.134 Y138.256
N9835 X177.222 Y138.717
N9840 X177.285 Y139.159
N9845 X177.315 Y139.601
N9850 X177.323 Y140.056
N9855 X177.311 Y140.506
N9860 X177.273 Y140.946
N9865 X177.204 Y141.391
N9870 X177.11 Y141.844
N9875 X176.994 Y142.291
N9880 X176.849 Y142.73
N9885 X176.612 Y143.311
N9890 X176.46 Y143.614
N9895 X176.161 Y144.152
N9900 X175.925 Y144.524
N9905 X175.734 Y144.786
N9910 G3 X175.291 Y144.798 I-0.226 J-0.165 F2900.
N9915 G1 X174.458 Y143.774
N9920 X174.426 Y143.74
N9925 X166.988 Y137.22
N9930 X166.704 Y137.031
N9935 X166.682 Y137.008
N9940 X166.673 Y136.976
N9945 X166.679 Y136.944
N9950 X166.699 Y136.919
N9955 G3 X171.7 Y143.163 Z-10.766 I2.5 J3.122 F2700.
N9960 X165.205 Y140.245 Z-12. I-2.5 J-3.122
N9965 X168.218 Y136.907 I3.176 J-0.163
N9970 X171.557 Y139.92 I0.163 J3.176
N9975 G1 X171.559 Y139.96
N9980 G3 X170.13 Y141.554 I-1.518 J0.078
N9985 G1 X170.051 Y141.559
N9990 G3 X168.446 Y140.141 I-0.089 J-1.517
N9995 G1 X168.44 Y140.062
N10000 G3 X169.863 Y138.446 I1.516 J-0.099
N10005 G1 X169.943 Y138.441
N10010 G3 X171.555 Y139.88 I0.094 J1.517
N10015 G1 X171.557 Y139.92
N10020 G2 X172.57 Y142.052 I3.081 J-0.158 F2900.
N10025 G3 X172.219 Y144.387 I-0.949 J1.051
N10030 G1 X172.128 Y144.429 F2700.
N10035 X171.709 Y144.57
N10040 X171.274 Y144.686
N10045 X170.858 Y144.764
N10050 X170.419 Y144.801
N10055 X169.98 Y144.827
N10060 X169.566 Y144.809
N10065 X169.127 Y144.756
N10070 X168.689 Y144.682
N10075 X168.484 Y144.629
N10080 X167.844 Y144.417
N10085 X167.359 Y144.193
N10090 X166.994 Y143.995
N10095 X166.548 Y143.689
N10100 X166.425 Y143.598
N10105 X166.279 Y143.403
N10110 X166.034 Y143.046
N10115 X165.85 Y142.726
N10120 X165.589 Y142.177
N10125 X165.518 Y141.993
N10130 X165.423 Y141.686
N10135 X165.328 Y141.33
N10140 X165.28 Y141.117
N10145 X165.246 Y140.929
N10150 X165.203 Y140.483
N10155 X165.173 Y140.029
N10160 X165.174 Y139.837
N10165 X165.184 Y139.641
N10170 X165.236 Y139.188
N10175 X165.301 Y138.763
N10180 X165.419 Y138.336
N10185 X165.567 Y137.888
N10190 X165.64 Y137.702
N10195 X165.853 Y137.271
N10200 X165.967 Y137.057
N10205 X166.284 Y136.586
N10210 X166.408 Y136.418
N10215 X166.549 Y136.313
N10220 X167.011 Y135.999
N10225 X167.149 Y135.915
N10230 X167.863 Y135.573
N10235 X168.106 Y135.485
N10240 X168.72 Y135.315
N10245 X168.92 Y135.272
N10250 X169.109 Y135.24
N10255 X169.56 Y135.2
N10260 X169.999 Y135.173
N10265 X170.412 Y135.189
N10270 X170.852 Y135.241
N10275 X171.277 Y135.311
N10280 X171.704 Y135.432
N10285 X172.153 Y135.58
N10290 X172.333 Y135.654
N10295 X172.85 Y135.918
N10300 X172.979 Y135.989
N10305 X173.503 Y136.349
N10310 X173.568 Y136.397
N10315 X173.737 Y136.62
N10320 X174.037 Y137.071
N10325 X174.124 Y137.22
N10330 X174.445 Y137.914
N10335 X174.582 Y138.331
N10340 X174.694 Y138.767
N10345 X174.77 Y139.183
N10350 X174.804 Y139.622
N10355 X174.826 Y140.062
N10360 X174.806 Y140.476
N10365 X174.751 Y140.915
N10370 X174.674 Y141.337
N10375 X174.547 Y141.768
N10380 X174.4 Y142.2
N10385 X174.202 Y142.624
N10390 X173.969 Y143.049
N10395 X173.6 Y143.573
N10400 X173.338 Y143.767
N10405 X172.991 Y143.999
N10410 X172.556 Y144.23
N10415 X172.219 Y144.387
N10420 X172.173 Y144.399 F2900.
N10425 X172.126 Y144.397
N10430 X172.083 Y144.378
N10435 X172.048 Y144.347
N10440 X172.025 Y144.306
N10445 X172.017 Y144.259
N10450 X172.009 Y143.574
N10455 X171.69 Y138.989
N10460 X171.73 Y138.484
N10465 X171.74 Y138.445
N10470 X171.762 Y138.413
N10475 X171.794 Y138.389
N10480 X171.831 Y138.378
N10485 X171.871 Y138.379
N10490 X171.907 Y138.394
N10495 X171.937 Y138.419
N10500 G3 X168.063 Y141.581 Z-13.104 I-1.937 J1.581 F2700.
N10505 X171.937 Y138.419 Z-14.208 I1.937 J-1.581
N10510 X170. Y142.5 Z-15. I-1.937 J1.581
N10515 G1 X167.5
N10520 Y137.5
N10525 X172.5
N10530 Y142.5
N10535 X170.
N10540 G3 X169.724 Y142.082 I0. J-0.3 F2900.
N10545 G1 X170.509 Y140.242
N10550 X171.439 Y138.47
N10555 G3 X171.937 Y138.419 I0.266 J0.139
N10560 X168.063 Y141.581 Z-16.104 I-1.937 J1.581 F2700.
N10565 X171.937 Y138.419 Z-17.208 I1.937 J-1.581
N10570 X170. Y142.5 Z-18. I-1.937 J1.581
N10575 G1 X167.5
N10580 Y137.5
N10585 X172.5
N10590 Y142.5
N10595 X170.
N10600 G3 X169.707 Y142.134 I0. J-0.3 F2900.
N10605 G1 X170.183 Y140.027
N10610 X170.341 Y137.873
N10615 G3 X170.728 Y137.608 I0.299 J0.022
N10620 X170. Y142.5 Z-19. I-0.728 J2.392 F2700.
N10625 G1 X167.5
N10630 Y137.5
N10635 X172.5
N10640 Y142.5
N10645 X170.
N10650 X169.933 Y142.496 Z-18.992 F2900.
N10655 X169.868 Y142.485 Z-18.985
N10660 X169.807 Y142.468 Z-18.963
N10665 X169.748 Y142.444 Z-18.941
N10670 X169.697 Y142.418 Z-18.905
N10675 X169.65 Y142.387 Z-18.869
N10680 X169.577 Y142.326 Z-18.774
N10685 X169.53 Y142.273 Z-18.66
N10690 X169.503 Y142.237 Z-18.534
N10695 X169.495 Y142.224 Z-18.4
N10700 Z4. F2700.
N10705 X131.923 Y136.829
N10710 Z1.596
N10715 X131.933 Y136.821 Z1.474
N10720 X131.963 Y136.799 Z1.358
N10725 X132.012 Y136.763 Z1.249
N10730 X132.079 Y136.715 Z1.155
N10735 X132.162 Y136.659 Z1.08
N10740 X132.258 Y136.598 Z1.028
N10745 X132.363 Y136.535 Z1.
N10750 G3 X136.363 Y143.463 Z-0.5 I2. J3.464
N10755 X132.363 Y136.535 Z-2. I-2. J-3.464
N10760 X138.363 Y139.999 Z-3. I2. J3.464
N10765 X134.972 I-1.695 J0.
N10770 X141.963 I3.495 J0.
N10775 X131.372 I-5.295 J0.
N10780 X145.563 I7.095 J0.
N10785 X127.772 I-8.895 J0.
N10790 X145.563 I8.895 J0.
N10795 G2 X147.015 Y142.367 I2.657 J0. F2900.
N10800 G3 X147.947 Y144.985 I-0.916 J1.801
N10805 G1 X147.863 Y145.174 F2700.
N10810 X147.643 Y145.64
N10815 X147.392 Y146.104
N10820 X147.118 Y146.573
N10825 X146.814 Y147.04
N10830 X146.575 Y147.38
N10835 X146.108 Y147.988
N10840 X145.646 Y148.504
N10845 X145.277 Y148.879
N10850 X144.184 Y149.813
N10855 X142.739 Y150.755
N10860 X141.936 Y151.165
N10865 X141.005 Y151.553
N10870 X140.076 Y151.853
N10875 X139.141 Y152.077
N10880 X138.681 Y152.155
N10885 X138.213 Y152.225
N10890 X137.75 Y152.272
N10895 X137.281 Y152.305
N10900 X136.818 Y152.32
N10905 X136.349 Y152.315
N10910 X135.889 Y152.301
N10915 X134.954 Y152.211
N10920 X134.027 Y152.05
N10925 X133.1 Y151.809
N10930 X132.169 Y151.488
N10935 X131.237 Y151.083
N10940 X130.307 Y150.587
N10945 X129.375 Y149.976
N10950 X128.57 Y149.348
N10955 X127.981 Y148.813
N10960 X127.815 Y148.641
N10965 X127.54 Y148.329
N10970 X126.845 Y147.505
N10975 X125.924 Y146.094
N10980 X125.459 Y145.175
N10985 X125.08 Y144.244
N10990 X124.785 Y143.314
N10995 X124.569 Y142.385
N11000 X124.428 Y141.455
N11005 X124.355 Y140.516
N11010 X124.347 Y140.057
N11015 X124.352 Y139.588
N11020 X124.375 Y139.125
N11025 X124.418 Y138.657
N11030 X124.472 Y138.198
N11035 X124.642 Y137.261
N11040 X124.735 Y136.907
N11045 X124.888 Y136.335
N11050 X125.215 Y135.404
N11055 X125.629 Y134.474
N11060 X126.144 Y133.538
N11065 X126.596 Y132.84
N11070 X127.125 Y132.143
N11075 X127.527 Y131.672
N11080 X127.98 Y131.19
N11085 X128.464 Y130.766
N11090 X129.148 Y130.187
N11095 X130.423 Y129.354
N11100 X130.774 Y129.154
N11105 X131.272 Y128.899
N11110 X131.7 Y128.706
N11115 X132.358 Y128.435
N11120 X133.097 Y128.198
N11125 X133.56 Y128.07
N11130 X134.027 Y127.961
N11135 X134.49 Y127.869
N11140 X134.959 Y127.799
N11145 X135.42 Y127.739
N11150 X136.355 Y127.678
N11155 X137.283 Y127.688
N11160 X138.212 Y127.769
N11165 X139.164 Y127.926
N11170 X139.374 Y127.967
N11175 X140.073 Y128.15
N11180 X140.537 Y128.292
N11185 X141.003 Y128.455
N11190 X141.468 Y128.639
N11195 X142.061 Y128.901
N11200 X142.393 Y129.071
N11205 X142.935 Y129.364
N11210 X143.695 Y129.845
N11215 X143.794 Y129.909
N11220 X144.317 Y130.3
N11225 X144.726 Y130.619
N11230 X145.39 Y131.221
N11235 X145.626 Y131.478
N11240 X146.487 Y132.492
N11245 X147.185 Y133.56
N11250 X147.467 Y134.017
N11255 X147.699 Y134.472
N11260 X147.921 Y134.938
N11265 X148.113 Y135.403
N11270 X148.289 Y135.867
N11275 X148.438 Y136.333
N11280 X148.573 Y136.793
N11285 X148.784 Y137.73
N11290 X148.921 Y138.66
N11295 X148.985 Y139.59
N11300 X148.98 Y140.526
N11305 X148.948 Y140.986
N11310 X148.899 Y141.53
N11315 X148.843 Y141.913
N11320 X148.76 Y142.385
N11325 X148.664 Y142.843
N11330 X148.433 Y143.701
N11335 X148.244 Y144.243
N11340 X148.069 Y144.708
N11345 X147.947 Y144.985
N11350 G3 X147.473 Y145.061 I-0.262 J-0.116 F2900.
N11355 G1 X146.547 Y144.038
N11360 X139.409 Y137.079
N11365 X139.129 Y136.871
N11370 X139.107 Y136.845
N11375 X139.1 Y136.813
N11380 X139.108 Y136.781
N11385 X139.129 Y136.755
N11390 G3 X143.805 Y143.247 Z-4.766 I2.338 J3.246 F2700.
N11395 X137.467 Y140.001 Z-6. I-2.338 J-3.246
N11400 X139.463 I0.998 J0.
N11405 X133.867 I-2.798 J0.
N11410 X143.063 I4.598 J0.
N11415 X130.267 I-6.398 J0.
N11420 X143.063 I6.398 J0.
N11425 G2 X144.447 Y142.327 I2.646 J0. F2900.
N11430 G3 X145.23 Y144.918 I-0.917 J1.691
N11435 G1 X145.139 Y145.09 F2700.
N11440 X144.855 Y145.546
N11445 X144.537 Y146.014
N11450 X144.199 Y146.465
N11455 X143.711 Y147.016
N11460 X142.705 Y147.859
N11465 X141.837 Y148.415
N11470 X141.381 Y148.677
N11475 X140.937 Y148.899
N11480 X140.255 Y149.18
N11485 X140.027 Y149.262
N11490 X139.566 Y149.407
N11495 X139.103 Y149.53
N11500 X138.652 Y149.633
N11505 X137.726 Y149.772
N11510 X137.276 Y149.803
N11515 X136.813 Y149.823
N11520 X136.359 Y149.818
N11525 X135.896 Y149.794
N11530 X135.446 Y149.754
N11535 X134.663 Y149.629
N11540 X134.527 Y149.606
N11545 X134.075 Y149.49
N11550 X133.611 Y149.36
N11555 X133.081 Y149.178
N11560 X132.236 Y148.822
N11565 X131.791 Y148.585
N11570 X131.223 Y148.253
N11575 X130.866 Y148.028
N11580 X130.412 Y147.688
N11585 X129.946 Y147.309
N11590 X129.639 Y147.032
N11595 X128.815 Y146.05
N11600 X128.149 Y145.007
N11605 X127.95 Y144.635
N11610 X127.697 Y144.108
N11615 X127.541 Y143.723
N11620 X127.372 Y143.259
N11625 X127.23 Y142.806
N11630 X127.116 Y142.344
N11635 X127.013 Y141.888
N11640 X126.946 Y141.434
N11645 X126.889 Y140.97
N11650 X126.858 Y140.515
N11655 X126.845 Y140.052
N11660 X126.849 Y139.597
N11665 X126.881 Y139.134
N11670 X126.921 Y138.68
N11675 X126.998 Y138.226
N11680 X127.085 Y137.764
N11685 X127.24 Y137.16
N11690 X127.496 Y136.392
N11695 X127.699 Y135.907
N11700 X127.895 Y135.476
N11705 X128.155 Y134.985
N11710 X128.414 Y134.555
N11715 X128.621 Y134.229
N11720 X128.701 Y134.112
N11725 X129.07 Y133.623
N11730 X129.536 Y133.077
N11735 X129.633 Y132.974
N11740 X130.59 Y132.17
N11745 X131.335 Y131.688
N11750 X131.829 Y131.385
N11755 X132.232 Y131.183
N11760 X132.807 Y130.93
N11765 X133.152 Y130.79
N11770 X133.609 Y130.643
N11775 X134.069 Y130.507
N11780 X134.522 Y130.403
N11785 X134.986 Y130.316
N11790 X135.44 Y130.249
N11795 X135.903 Y130.208
N11800 X136.354 Y130.177
N11805 X137.28 Y130.192
N11810 X137.729 Y130.232
N11815 X138.192 Y130.289
N11820 X138.644 Y130.366
N11825 X139.133 Y130.478
N11830 X139.56 Y130.586
N11835 X140.011 Y130.739
N11840 X140.537 Y130.936
N11845 X140.928 Y131.105
N11850 X141.511 Y131.398
N11855 X141.85 Y131.581
N11860 X142.302 Y131.869
N11865 X142.768 Y132.196
N11870 X143.225 Y132.549
N11875 X143.685 Y132.958
N11880 X144.53 Y133.969
N11885 X145.209 Y135.031
N11890 X145.477 Y135.551
N11895 X145.654 Y135.935
N11900 X145.841 Y136.397
N11905 X145.93 Y136.643
N11910 X146.137 Y137.306
N11915 X146.241 Y137.76
N11920 X146.337 Y138.224
N11925 X146.403 Y138.678
N11930 X146.452 Y139.142
N11935 X146.483 Y139.592
N11940 X146.482 Y140.515
N11945 X146.393 Y141.436
N11950 X146.316 Y141.884
N11955 X146.219 Y142.347
N11960 X146.104 Y142.799
N11965 X145.93 Y143.338
N11970 X145.798 Y143.716
N11975 X145.474 Y144.458
N11980 X145.23 Y144.918
N11985 G3 X144.791 Y145.022 I-0.265 J-0.14 F2900.
N11990 G1 X142.739 Y143.557
N11995 X142.713 Y143.54
N12000 X131.528 Y137.221
N12005 X131.02 Y136.957
N12010 X130.988 Y136.932
N12015 X130.966 Y136.898
N12020 X130.956 Y136.859
N12025 X130.96 Y136.819
N12030 X130.977 Y136.782
N12035 X131.006 Y136.753
N12040 G3 X135.681 Y143.245 Z-7.766 I2.338 J3.246 F2700.
N12045 X129.343 Y139.999 Z-9. I-2.338 J-3.246
N12050 X136.968 I3.812 J0.
N12055 X136.365 I-0.301 J0.
N12060 X140.568 I2.101 J0.
N12065 X132.765 I-3.901 J0.
N12070 X140.568 I3.901 J0.
N12075 G2 X141.864 Y142.247 I2.597 J0. F2900.
N12080 G3 X142.401 Y144.786 I-0.874 J1.511
N12085 G1 X142.266 Y144.971 F2700.
N12090 X142.002 Y145.283
N12095 X141.725 Y145.515
N12100 X141.277 Y145.87
N12105 X140.677 Y146.243
N12110 X140.377 Y146.421
N12115 X139.83 Y146.682
N12120 X139.5 Y146.812
N12125 X139.045 Y146.967
N12130 X138.597 Y147.092
N12135 X138.155 Y147.19
N12140 X137.711 Y147.256
N12145 X137.256 Y147.302
N12150 X136.809 Y147.326
N12155 X136.368 Y147.321
N12160 X135.919 Y147.29
N12165 X135.465 Y147.236
N12170 X135.024 Y147.161
N12175 X134.586 Y147.053
N12180 X134.135 Y146.914
N12185 X133.683 Y146.748
N12190 X133.236 Y146.556
N12195 X132.795 Y146.331
N12200 X132.351 Y146.063
N12205 X131.902 Y145.751
N12210 X131.374 Y145.328
N12215 X131.081 Y144.97
N12220 X130.739 Y144.519
N12225 X130.462 Y144.073
N12230 X130.182 Y143.581
N12235 X129.992 Y143.182
N12240 X129.819 Y142.74
N12245 X129.674 Y142.291
N12250 X129.554 Y141.84
N12255 X129.46 Y141.395
N12260 X129.397 Y140.953
N12265 X129.359 Y140.502
N12270 X129.342 Y140.047
N12275 X129.346 Y139.606
N12280 X129.384 Y139.166
N12285 X129.446 Y138.711
N12290 X129.53 Y138.261
N12295 X129.637 Y137.822
N12300 X129.743 Y137.5
N12305 X129.781 Y137.38
N12310 X129.955 Y136.931
N12315 X130.193 Y136.412
N12320 X130.393 Y136.029
N12325 X130.66 Y135.59
N12330 X131.083 Y135.01
N12335 X131.352 Y134.697
N12340 X131.902 Y134.253
N12345 X132.35 Y133.945
N12350 X132.8 Y133.67
N12355 X133.273 Y133.425
N12360 X133.686 Y133.246
N12365 X134.134 Y133.08
N12370 X134.575 Y132.947
N12375 X135.019 Y132.845
N12380 X135.473 Y132.765
N12385 X135.921 Y132.708
N12390 X136.362 Y132.679
N12395 X136.81 Y132.677
N12400 X137.265 Y132.697
N12405 X137.708 Y132.737
N12410 X138.142 Y132.809
N12415 X138.887 Y132.982
N12420 X139.49 Y133.184
N12425 X140.066 Y133.428
N12430 X140.372 Y133.585
N12435 X140.879 Y133.876
N12440 X141.287 Y134.146
N12445 X141.534 Y134.322
N12450 X141.894 Y134.615
N12455 X141.96 Y134.674
N12460 X142.543 Y135.398
N12465 X142.996 Y136.133
N12470 X143.183 Y136.482
N12475 X143.386 Y136.93
N12480 X143.557 Y137.372
N12485 X143.691 Y137.813
N12490 X143.802 Y138.264
N12495 X143.889 Y138.717
N12500 X143.952 Y139.159
N12505 X143.981 Y139.601
N12510 X143.99 Y140.056
N12515 X143.978 Y140.506
N12520 X143.94 Y140.946
N12525 X143.871 Y141.391
N12530 X143.777 Y141.844
N12535 X143.661 Y142.291
N12540 X143.516 Y142.731
N12545 X143.336 Y143.172
N12550 X142.987 Y143.892
N12555 X142.59 Y144.527
N12560 X142.401 Y144.786
N12565 G3 X141.93 Y144.803 I-0.243 J-0.177 F2900.
N12570 G1 X140.9 Y143.593
N12575 X140.869 Y143.561
N12580 X133.795 Y137.368
N12585 X133.373 Y137.087
N12590 X133.345 Y137.06
N12595 X133.33 Y137.025
N12600 X133.328 Y136.986
N12605 X133.34 Y136.949
N12610 X133.366 Y136.919
N12615 G3 X138.367 Y143.164 Z-10.766 I2.5 J3.122 F2700.
N12620 X131.871 Y140.246 Z-12. I-2.5 J-3.122
N12625 X138.223 Y139.921 I3.176 J-0.163
N12630 G1 X138.225 Y139.96
N12635 G3 X136.807 Y141.554 I-1.518 J0.078
N12640 G1 X136.728 Y141.56
N12645 G3 X135.112 Y140.142 I-0.099 J-1.517
N12650 G1 X135.107 Y140.062
N12655 G3 X136.569 Y138.444 I1.517 J-0.099
N12660 G1 X136.649 Y138.441
N12665 G3 X138.221 Y139.882 I0.054 J1.519
N12670 G1 X138.223 Y139.921
N12675 G2 X139.484 Y141.782 I2.167 J-0.111 F2900.
N12680 G3 X139.616 Y144.025 I-0.532 J1.157
N12685 G1 X139.6 Y144.035 F2700.
N12690 X139.301 Y144.193
N12695 X138.931 Y144.369
N12700 X138.729 Y144.455
N12705 X138.54 Y144.521
N12710 X138.091 Y144.647
N12715 X137.667 Y144.744
N12720 X137.245 Y144.791
N12725 X136.783 Y144.821
N12730 X136.575 Y144.827
N12735 X136.39 Y144.823
N12740 X135.95 Y144.777
N12745 X135.498 Y144.711
N12750 X135.329 Y144.675
N12755 X135.107 Y144.615
N12760 X134.644 Y144.463
N12765 X134.438 Y144.389
N12770 X134.247 Y144.305
N12775 X133.792 Y144.069
N12780 X133.601 Y143.959
N12785 X133.114 Y143.615
N12790 X133.089 Y143.597
N12795 X133.012 Y143.496
N12800 X132.662 Y142.981
N12805 X132.47 Y142.627
N12810 X132.233 Y142.116
N12815 X132.117 Y141.778
N12820 X131.994 Y141.326
N12825 X131.947 Y141.117
N12830 X131.912 Y140.929
N12835 X131.87 Y140.483
N12840 X131.84 Y140.029
N12845 Y139.837
N12850 X131.851 Y139.641
N12855 X131.902 Y139.188
N12860 X131.968 Y138.762
N12865 X132.084 Y138.34
N12870 X132.243 Y137.858
N12875 X132.314 Y137.683
N12880 X132.403 Y137.497
N12885 X132.664 Y137.007
N12890 X132.928 Y136.617
N12895 X133.075 Y136.419
N12900 X133.376 Y136.2
N12905 X133.831 Y135.908
N12910 X134.235 Y135.711
N12915 X134.68 Y135.516
N12920 X134.767 Y135.486
N12925 X135.079 Y135.397
N12930 X135.537 Y135.283
N12935 X135.734 Y135.246
N12940 X135.925 Y135.22
N12945 X136.378 Y135.19
N12950 X136.826 Y135.174
N12955 X137.015 Y135.183
N12960 X137.22 Y135.201
N12965 X137.669 Y135.262
N12970 X138.09 Y135.346
N12975 X138.521 Y135.481
N12980 X138.949 Y135.634
N12985 X139.511 Y135.915
N12990 X139.801 Y136.084
N12995 X140.242 Y136.403
N13000 X140.41 Y136.628
N13005 X140.522 Y136.786
N13010 X140.685 Y137.041
N13015 X140.953 Y137.563
N13020 X141.111 Y137.91
N13025 X141.247 Y138.329
N13030 X141.377 Y138.843
N13035 X141.436 Y139.18
N13040 X141.47 Y139.622
N13045 X141.493 Y140.062
N13050 X141.472 Y140.476
N13055 X141.416 Y140.925
N13060 X141.373 Y141.196
N13065 X141.346 Y141.321
N13070 X141.214 Y141.768
N13075 X141.063 Y142.208
N13080 X140.95 Y142.464
N13085 X140.876 Y142.611
N13090 X140.629 Y143.061
N13095 X140.532 Y143.207
N13100 X140.254 Y143.586
N13105 X140.241 Y143.597
N13110 X139.794 Y143.916
N13115 X139.616 Y144.025
N13120 X139.583 Y144.039 F2900.
N13125 X139.548 Y144.041
N13130 X139.514 Y144.032
N13135 X139.484 Y144.012
N13140 X139.463 Y143.984
N13145 X139.451 Y143.951
N13150 X139.361 Y143.43
N13155 X138.29 Y139.387
N13160 X138.283 Y139.345
N13165 X138.246 Y138.557
N13170 G3 X138.604 Y138.419 I0.202 J-0.01
N13175 X134.73 Y141.581 Z-13.104 I-1.937 J1.581 F2700.
N13180 X138.604 Y138.419 Z-14.208 I1.937 J-1.581
N13185 X136.667 Y142.5 Z-15. I-1.937 J1.581
N13190 G1 X134.167
N13195 Y137.5
N13200 X139.167
N13205 Y142.5
N13210 X136.667
N13215 G3 X136.391 Y142.082 I0. J-0.3 F2900.
N13220 G1 X137.175 Y140.242
N13225 X138.106 Y138.47
N13230 G3 X138.604 Y138.419 I0.266 J0.139
N13235 X134.73 Y141.581 Z-16.104 I-1.937 J1.581 F2700.
N13240 X138.604 Y138.419 Z-17.208 I1.937 J-1.581
N13245 X136.667 Y142.5 Z-18. I-1.937 J1.581
N13250 G1 X134.167
N13255 Y137.5
N13260 X139.167
N13265 Y142.5
N13270 X136.667
N13275 G3 X136.374 Y142.134 I0. J-0.3 F2900.
N13280 G1 X136.85 Y140.027
N13285 X137.008 Y137.873
N13290 G3 X137.395 Y137.608 I0.299 J0.022
N13295 X136.667 Y142.5 Z-19. I-0.728 J2.392 F2700.
N13300 G1 X134.167
N13305 Y137.5
N13310 X139.167
N13315 Y142.5
N13320 X136.667
N13325 X136.6 Y142.496 Z-18.992 F2900.
N13330 X136.534 Y142.485 Z-18.985
N13335 X136.473 Y142.468 Z-18.963
N13340 X136.414 Y142.444 Z-18.941
N13345 X136.364 Y142.418 Z-18.905
N13350 X136.316 Y142.387 Z-18.869
N13355 X136.244 Y142.326 Z-18.774
N13360 X136.196 Y142.273 Z-18.66
N13365 X136.17 Y142.237 Z-18.534
N13370 X136.162 Y142.224 Z-18.4
N13375 Z4. F2700.
N13380 X98.59 Y136.827
N13385 Z1.596
N13390 X98.6 Y136.82 Z1.474
N13395 X98.629 Y136.798 Z1.358
N13400 X98.679 Y136.761 Z1.249
N13405 X98.746 Y136.713 Z1.155
N13410 X98.829 Y136.657 Z1.08
N13415 X98.925 Y136.596 Z1.028
N13420 X99.029 Y136.533 Z1.
N13425 G3 X103.029 Y143.462 Z-0.5 I2. J3.464
N13430 X99.029 Y136.533 Z-2. I-2. J-3.464
N13435 X105.029 Y139.998 Z-3. I2. J3.464
N13440 X101.639 I-1.695 J0.
N13445 X108.629 I3.495 J0.
N13450 X98.039 I-5.295 J0.
N13455 X112.229 I7.095 J0.
N13460 X94.439 I-8.895 J0.
N13465 X112.229 I8.895 J0.
N13470 G2 X113.682 Y142.366 I2.658 J0. F2900.
N13475 G3 X114.614 Y144.983 I-0.917 J1.801
N13480 G1 X114.53 Y145.174 F2700.
N13485 X114.311 Y145.637
N13490 X113.866 Y146.447
N13495 X113.404 Y147.159
N13500 X112.787 Y147.971
N13505 X112.379 Y148.432
N13510 X112.023 Y148.807
N13515 X111.394 Y149.354
N13520 X110.854 Y149.812
N13525 X109.408 Y150.753
N13530 X108.493 Y151.214
N13535 X107.836 Y151.485
N13540 X107.29 Y151.679
N13545 X106.904 Y151.802
N13550 X106.44 Y151.93
N13555 X105.976 Y152.038
N13560 X105.434 Y152.142
N13565 X104.576 Y152.261
N13570 X103.645 Y152.322
N13575 X102.717 Y152.312
N13580 X101.788 Y152.231
N13585 X100.851 Y152.077
N13590 X100.393 Y151.972
N13595 X99.929 Y151.851
N13600 X99.376 Y151.677
N13605 X98.997 Y151.545
N13610 X98.532 Y151.361
N13615 X98.067 Y151.156
N13620 X97.6 Y150.926
N13625 X97.14 Y150.677
N13630 X96.488 Y150.273
N13635 X96.205 Y150.091
N13640 X95.74 Y149.744
N13645 X95.238 Y149.349
N13650 X94.735 Y148.893
N13655 X94.3 Y148.439
N13660 X93.511 Y147.505
N13665 X92.591 Y146.094
N13670 X92.126 Y145.175
N13675 X91.747 Y144.244
N13680 X91.452 Y143.314
N13685 X91.236 Y142.385
N13690 X91.094 Y141.455
N13695 X91.022 Y140.516
N13700 X91.014 Y140.057
N13705 X91.019 Y139.588
N13710 X91.042 Y139.125
N13715 X91.102 Y138.465
N13720 X91.137 Y138.207
N13725 X91.309 Y137.264
N13730 X91.566 Y136.3
N13735 X91.881 Y135.404
N13740 X92.296 Y134.474
N13745 X92.811 Y133.538
N13750 X93.109 Y133.078
N13755 X93.434 Y132.608
N13760 X93.892 Y132.012
N13765 X94.362 Y131.486
N13770 X94.603 Y131.23
N13775 X95.132 Y130.765
N13780 X95.794 Y130.202
N13785 X97.151 Y129.314
N13790 X97.605 Y129.069
N13795 X98.064 Y128.835
N13800 X99.027 Y128.434
N13805 X99.922 Y128.147
N13810 X100.859 Y127.923
N13815 X101.319 Y127.845
N13820 X101.787 Y127.775
N13825 X102.25 Y127.728
N13830 X102.719 Y127.695
N13835 X103.182 Y127.68
N13840 X103.651 Y127.685
N13845 X104.111 Y127.699
N13850 X105.046 Y127.789
N13855 X105.973 Y127.95
N13860 X106.9 Y128.191
N13865 X107.831 Y128.512
N13870 X108.763 Y128.917
N13875 X109.696 Y129.415
N13880 X110.35 Y129.837
N13885 X110.622 Y130.022
N13890 X111.087 Y130.379
N13895 X111.558 Y130.768
N13900 X112.051 Y131.217
N13905 X112.465 Y131.676
N13910 X113.135 Y132.465
N13915 X113.88 Y133.604
N13920 X114.133 Y134.016
N13925 X114.366 Y134.472
N13930 X114.588 Y134.938
N13935 X114.799 Y135.45
N13940 X114.955 Y135.865
N13945 X115.103 Y136.328
N13950 X115.262 Y136.89
N13955 X115.45 Y137.73
N13960 X115.588 Y138.66
N13965 X115.652 Y139.59
N13970 X115.646 Y140.526
N13975 X115.615 Y140.986
N13980 X115.572 Y141.455
N13985 X115.509 Y141.917
N13990 X115.427 Y142.385
N13995 X115.329 Y142.847
N14000 X115.208 Y143.314
N14005 X115.073 Y143.777
N14010 X114.799 Y144.565
N14015 X114.614 Y144.983
N14020 G3 X114.234 Y145.045 I-0.21 J-0.093 F2900.
N14025 G1 X113.488 Y144.226
N14030 X106.021 Y137.012
N14035 X105.796 Y136.845
N14040 X105.778 Y136.824
N14045 X105.772 Y136.798
N14050 X105.779 Y136.772
N14055 X105.796 Y136.752
N14060 G3 X110.471 Y143.244 Z-4.766 I2.338 J3.246 F2700.
N14065 X104.134 Y139.998 Z-6. I-2.338 J-3.246
N14070 X106.129 I0.998 J0.
N14075 X100.534 I-2.798 J0.
N14080 X109.729 I4.598 J0.
N14085 X96.934 I-6.398 J0.
N14090 X109.729 I6.398 J0.
N14095 G2 X111.114 Y142.324 I2.646 J0. F2900.
N14100 G3 X111.898 Y144.915 I-0.917 J1.692
N14105 G1 X111.806 Y145.09 F2700.
N14110 X111.386 Y145.761
N14115 X110.863 Y146.468
N14120 X110.378 Y147.017
N14125 X109.365 Y147.863
N14130 X108.203 Y148.599
N14135 X107.765 Y148.819
N14140 X107.3 Y149.027
N14145 X106.848 Y149.21
N14150 X106.391 Y149.357
N14155 X105.931 Y149.493
N14160 X105.317 Y149.633
N14165 X104.556 Y149.751
N14170 X104.097 Y149.792
N14175 X103.646 Y149.823
N14180 X102.72 Y149.808
N14185 X102.271 Y149.768
N14190 X101.808 Y149.711
N14195 X101.355 Y149.634
N14200 X100.892 Y149.529
N14205 X100.44 Y149.414
N14210 X99.735 Y149.174
N14215 X99.533 Y149.095
N14220 X99.07 Y148.893
N14225 X98.605 Y148.663
N14230 X98.149 Y148.419
N14235 X97.698 Y148.131
N14240 X97.227 Y147.8
N14245 X96.776 Y147.452
N14250 X96.309 Y147.035
N14255 X95.493 Y146.063
N14260 X94.86 Y145.079
N14265 X94.613 Y144.626
N14270 X94.391 Y144.175
N14275 X94.208 Y143.723
N14280 X94.039 Y143.259
N14285 X93.897 Y142.806
N14290 X93.782 Y142.344
N14295 X93.68 Y141.888
N14300 X93.611 Y141.419
N14305 X93.555 Y140.97
N14310 X93.524 Y140.515
N14315 X93.511 Y140.052
N14320 X93.516 Y139.597
N14325 X93.548 Y139.134
N14330 X93.588 Y138.677
N14335 X93.605 Y138.572
N14340 X93.753 Y137.761
N14345 X93.868 Y137.312
N14350 X94.007 Y136.847
N14355 X94.16 Y136.399
N14360 X94.528 Y135.539
N14365 X94.805 Y135.016
N14370 X94.98 Y134.713
N14375 X95.377 Y134.1
N14380 X95.726 Y133.638
N14385 X95.896 Y133.426
N14390 X96.293 Y132.98
N14395 X97.295 Y132.141
N14400 X98.171 Y131.58
N14405 X98.491 Y131.388
N14410 X99.065 Y131.1
N14415 X99.521 Y130.911
N14420 X99.981 Y130.735
N14425 X100.434 Y130.593
N14430 X100.897 Y130.47
N14435 X101.346 Y130.368
N14440 X102.274 Y130.228
N14445 X102.724 Y130.197
N14450 X103.187 Y130.177
N14455 X103.641 Y130.182
N14460 X104.104 Y130.206
N14465 X104.558 Y130.246
N14470 X105.02 Y130.316
N14475 X105.473 Y130.394
N14480 X105.925 Y130.51
N14485 X106.389 Y130.64
N14490 X106.842 Y130.795
N14495 X107.308 Y130.981
N14500 X107.76 Y131.176
N14505 X108.213 Y131.416
N14510 X108.682 Y131.686
N14515 X109.133 Y131.972
N14520 X109.586 Y132.31
N14525 X110.149 Y132.774
N14530 X110.357 Y132.964
N14535 X111.17 Y133.932
N14540 X111.876 Y135.033
N14545 X112.106 Y135.476
N14550 X112.321 Y135.937
N14555 X112.504 Y136.389
N14560 X112.662 Y136.853
N14565 X112.804 Y137.306
N14570 X112.908 Y137.76
N14575 X113.003 Y138.224
N14580 X113.07 Y138.678
N14585 X113.119 Y139.142
N14590 X113.15 Y139.592
N14595 X113.149 Y140.515
N14600 X113.06 Y141.436
N14605 X112.983 Y141.884
N14610 X112.886 Y142.347
N14615 X112.761 Y142.839
N14620 X112.462 Y143.722
N14625 X112.267 Y144.17
N14630 X112.045 Y144.638
N14635 X111.898 Y144.915
N14640 G3 X111.453 Y145.015 I-0.265 J-0.14 F2900.
N14645 G1 X109.776 Y143.757
N14650 X109.744 Y143.736
N14655 X98.119 Y137.153
N14660 X97.685 Y136.926
N14665 X97.657 Y136.905
N14670 X97.638 Y136.876
N14675 X97.63 Y136.843
N14680 X97.633 Y136.808
N14685 X97.648 Y136.777
N14690 X97.672 Y136.752
N14695 G3 X102.347 Y143.244 Z-7.766 I2.338 J3.246 F2700.
N14700 X96.01 Y139.998 Z-9. I-2.338 J-3.246
N14705 X103.634 I3.812 J0.
N14710 X103.032 I-0.301 J0.
N14715 X107.234 I2.101 J0.
N14720 X99.432 I-3.901 J0.
N14725 X107.234 I3.901 J0.
N14730 G2 X108.525 Y142.247 I2.604 J0. F2900.
N14735 G3 X109.067 Y144.784 I-0.884 J1.515
N14740 G1 X108.93 Y144.975 F2700.
N14745 X108.675 Y145.276
N14750 X108.614 Y145.332
N14755 X108.046 Y145.789
N14760 X107.654 Y146.052
N14765 X107.199 Y146.33
N14770 X106.747 Y146.566
N14775 X106.507 Y146.678
N14780 X105.863 Y146.921
N14785 X105.425 Y147.053
N14790 X104.98 Y147.155
N14795 X104.527 Y147.235
N14800 X104.079 Y147.292
N14805 X103.638 Y147.321
N14810 X103.19 Y147.323
N14815 X102.735 Y147.303
N14820 X102.292 Y147.263
N14825 X101.854 Y147.19
N14830 X101.403 Y147.089
N14835 X100.95 Y146.963
N14840 X100.508 Y146.815
N14845 X100.068 Y146.631
N14850 X99.613 Y146.407
N14855 X99.306 Y146.238
N14860 X98.718 Y145.858
N14865 X98.27 Y145.522
N14870 X98.037 Y145.323
N14875 X97.457 Y144.602
N14880 X97. Y143.861
N14885 X96.869 Y143.624
N14890 X96.658 Y143.181
N14895 X96.486 Y142.74
N14900 X96.34 Y142.291
N14905 X96.222 Y141.844
N14910 X96.118 Y141.33
N14915 X96.064 Y140.953
N14920 X96.026 Y140.502
N14925 X96.009 Y140.047
N14930 X96.013 Y139.606
N14935 X96.051 Y139.167
N14940 X96.119 Y138.673
N14945 X96.196 Y138.262
N14950 X96.304 Y137.822
N14955 X96.45 Y137.373
N14960 X96.561 Y137.074
N14965 X96.829 Y136.468
N14970 X97.011 Y136.109
N14975 X97.329 Y135.586
N14980 X97.648 Y135.142
N14985 X98.002 Y134.713
N14990 X98.021 Y134.695
N14995 X98.727 Y134.127
N15000 X99.171 Y133.849
N15005 X99.626 Y133.577
N15010 X100.059 Y133.368
N15015 X100.505 Y133.186
N15020 X100.955 Y133.033
N15025 X101.403 Y132.908
N15030 X101.845 Y132.81
N15035 X102.289 Y132.744
N15040 X102.744 Y132.698
N15045 X103.191 Y132.674
N15050 X103.632 Y132.679
N15055 X104.08 Y132.71
N15060 X104.535 Y132.764
N15065 X104.976 Y132.839
N15070 X105.547 Y132.98
N15075 X105.854 Y133.082
N15080 X106.317 Y133.252
N15085 X106.764 Y133.444
N15090 X107.205 Y133.669
N15095 X107.648 Y133.936
N15100 X108.203 Y134.323
N15105 X108.627 Y134.673
N15110 X109.003 Y135.137
N15115 X109.368 Y135.652
N15120 X109.606 Y136.039
N15125 X109.851 Y136.487
N15130 X110.052 Y136.93
N15135 X110.224 Y137.372
N15140 X110.358 Y137.813
N15145 X110.469 Y138.264
N15150 X110.556 Y138.717
N15155 X110.618 Y139.159
N15160 X110.648 Y139.601
N15165 X110.657 Y140.056
N15170 X110.644 Y140.506
N15175 X110.606 Y140.946
N15180 X110.537 Y141.391
N15185 X110.444 Y141.844
N15190 X110.328 Y142.291
N15195 X110.183 Y142.731
N15200 X110.001 Y143.176
N15205 X109.787 Y143.627
N15210 X109.537 Y144.085
N15215 X109.368 Y144.363
N15220 X109.067 Y144.784
N15225 G3 X108.642 Y144.797 I-0.218 J-0.156 F2900.
N15230 G1 X107.841 Y143.819
N15235 X107.811 Y143.787
N15240 X100.309 Y137.207
N15245 X100.037 Y137.026
N15250 X100.016 Y137.003
N15255 X100.007 Y136.973
N15260 X100.013 Y136.943
N15265 X100.032 Y136.918
N15270 G3 X105.033 Y143.162 Z-10.766 I2.5 J3.122 F2700.
N15275 X98.538 Y140.245 Z-12. I-2.5 J-3.122
N15280 X101.551 Y136.906 I3.176 J-0.163
N15285 X104.89 Y139.92 I0.163 J3.176
N15290 G1 X104.892 Y139.96
N15295 G3 X103.429 Y141.556 I-1.518 J0.078
N15300 G1 X103.35 Y141.559
N15305 G3 X101.779 Y140.14 I-0.054 J-1.519
N15310 G1 X101.774 Y140.061
N15315 G3 X103.191 Y138.446 I1.516 J-0.099
N15320 G1 X103.271 Y138.44
N15325 G3 X104.888 Y139.879 I0.099 J1.517
N15330 G1 X104.89 Y139.92
N15335 G2 X106.136 Y141.784 I2.184 J-0.112 F2900.
N15340 G3 X106.281 Y144.021 I-0.55 J1.159
N15345 G1 X106.193 Y144.078 F2700.
N15350 X105.762 Y144.29
N15355 X105.337 Y144.476
N15360 X104.841 Y144.624
N15365 X104.465 Y144.717
N15370 X104.266 Y144.754
N15375 X104.075 Y144.78
N15380 X103.622 Y144.81
N15385 X103.174 Y144.826
N15390 X102.985 Y144.817
N15395 X102.78 Y144.799
N15400 X102.331 Y144.738
N15405 X101.91 Y144.654
N15410 X101.479 Y144.519
N15415 X101.048 Y144.364
N15420 X100.617 Y144.153
N15425 X100.283 Y143.969
N15430 X100.211 Y143.925
N15435 X99.753 Y143.592
N15440 X99.47 Y143.202
N15445 X99.376 Y143.061
N15450 X99.133 Y142.62
N15455 X98.923 Y142.177
N15460 X98.85 Y141.991
N15465 X98.787 Y141.79
N15470 X98.66 Y141.325
N15475 X98.623 Y141.162
N15480 X98.579 Y140.926
N15485 X98.536 Y140.483
N15490 X98.507 Y140.029
N15495 Y139.837
N15500 X98.517 Y139.641
N15505 X98.569 Y139.187
N15510 X98.631 Y138.778
N15515 X98.633 Y138.769
N15520 X98.751 Y138.34
N15525 X98.9 Y137.887
N15530 X98.965 Y137.723
N15535 X99.074 Y137.49
N15540 X99.307 Y137.045
N15545 X99.475 Y136.783
N15550 X99.738 Y136.421
N15555 X99.842 Y136.342
N15560 X100.203 Y136.086
N15565 X100.486 Y135.914
N15570 X101.073 Y135.629
N15575 X101.26 Y135.549
N15580 X101.46 Y135.479
N15585 X101.909 Y135.353
N15590 X102.333 Y135.256
N15595 X102.755 Y135.209
N15600 X103.217 Y135.179
N15605 X103.425 Y135.173
N15610 X103.61 Y135.177
N15615 X104.05 Y135.223
N15620 X104.501 Y135.289
N15625 X104.693 Y135.33
N15630 X104.891 Y135.384
N15635 X105.356 Y135.537
N15640 X105.562 Y135.611
N15645 X105.753 Y135.695
N15650 X106.208 Y135.931
N15655 X106.4 Y136.041
N15660 X106.834 Y136.347
N15665 X106.914 Y136.406
N15670 X107.066 Y136.613
N15675 X107.358 Y137.051
N15680 X107.582 Y137.483
N15685 X107.778 Y137.912
N15690 X107.915 Y138.331
N15695 X108.028 Y138.767
N15700 X108.103 Y139.183
N15705 X108.137 Y139.622
N15710 X108.159 Y140.062
N15715 X108.139 Y140.476
N15720 X108.084 Y140.915
N15725 X108.008 Y141.337
N15730 X107.881 Y141.768
N15735 X107.733 Y142.2
N15740 X107.535 Y142.624
N15745 X107.302 Y143.049
N15750 X106.925 Y143.583
N15755 X106.87 Y143.626
N15760 X106.629 Y143.797
N15765 X106.281 Y144.021
N15770 X106.243 Y144.039 F2900.
N15775 X106.202 Y144.045
N15780 X106.161 Y144.038
N15785 X106.123 Y144.021
N15790 X106.092 Y143.993
N15795 X106.07 Y143.958
N15800 X105.799 Y143.34
N15805 X105.781 Y143.31
N15810 X102.173 Y138.595
N15815 X101.751 Y138.237
N15820 X101.726 Y138.207
N15825 X101.713 Y138.17
N15830 Y138.13
N15835 X101.727 Y138.093
N15840 X101.753 Y138.063
N15845 G3 X104.914 Y141.937 Z-13.104 I1.581 J1.937 F2700.
N15850 X101.753 Y138.063 Z-14.208 I-1.581 J-1.937
N15855 X105.833 Y140. Z-15. I1.581 J1.937
N15860 G1 Y142.5
N15865 X100.833
N15870 Y137.5
N15875 X105.833
N15880 Y140.
N15885 G3 X105.416 Y140.276 I-0.3 J0. F2900.
N15890 G1 X103.575 Y139.491
N15895 X101.803 Y138.561
N15900 G3 X101.753 Y138.063 I0.139 J-0.266
N15905 X104.914 Y141.937 Z-16.104 I1.581 J1.937 F2700.
N15910 X101.753 Y138.063 Z-17.208 I-1.581 J-1.937
N15915 X105.833 Y140. Z-18. I1.581 J1.937
N15920 G1 Y142.5
N15925 X100.833
N15930 Y137.5
N15935 X105.833
N15940 Y140.
N15945 G3 X100.833 Z-18.5 I-2.5 J0.
N15950 X105.833 Z-19. I2.5 J0.
N15955 G1 Y142.5
N15960 X100.833
N15965 Y137.5
N15970 X105.833
N15975 Y140.
N15980 X105.83 Y140.067 Z-18.992 F2900.
N15985 X105.819 Y140.132 Z-18.985
N15990 X105.801 Y140.193 Z-18.963
N15995 X105.778 Y140.252 Z-18.941
N16000 X105.751 Y140.303 Z-18.905
N16005 X105.72 Y140.35 Z-18.869
N16010 X105.659 Y140.423 Z-18.774
N16015 X105.606 Y140.47 Z-18.66
N16020 X105.57 Y140.497 Z-18.534
N16025 X105.558 Y140.505 Z-18.4
N16030 Z4. F2700.
N16035 X65.257 Y136.831
N16040 Z1.596
N16045 X65.267 Y136.823 Z1.474
N16050 X65.296 Y136.801 Z1.358
N16055 X65.345 Y136.764 Z1.249
N16060 X65.413 Y136.716 Z1.155
N16065 X65.496 Y136.66 Z1.08
N16070 X65.591 Y136.599 Z1.028
N16075 X65.696 Y136.537 Z1.
N16080 G3 X69.696 Y143.465 Z-0.5 I2. J3.464
N16085 X65.696 Y136.537 Z-2. I-2. J-3.464
N16090 X71.696 Y140.001 Z-3. I2. J3.464
N16095 X68.306 I-1.695 J0.
N16100 X75.296 I3.495 J0.
N16105 X64.706 I-5.295 J0.
N16110 X78.896 I7.095 J0.
N16115 X61.106 I-8.895 J0.
N16120 X78.896 I8.895 J0.
N16125 G2 X80.348 Y142.369 I2.658 J0. F2900.
N16130 G3 X81.279 Y144.986 I-0.917 J1.801
N16135 G1 X81.161 Y145.254 F2700.
N16140 X80.977 Y145.638
N16145 X80.697 Y146.157
N16150 X80.452 Y146.571
N16155 X80.152 Y147.034
N16160 X79.761 Y147.571
N16165 X79.456 Y147.969
N16170 X79.039 Y148.439
N16175 X78.84 Y148.657
N16180 X78.618 Y148.873
N16185 X77.904 Y149.488
N16190 X77.521 Y149.812
N16195 X76.074 Y150.753
N16200 X75.164 Y151.212
N16205 X74.197 Y151.602
N16210 X73.267 Y151.893
N16215 X72.338 Y152.107
N16220 X71.409 Y152.246
N16225 X70.473 Y152.314
N16230 X70.012 Y152.319
N16235 X69.544 Y152.314
N16240 X69.081 Y152.288
N16245 X68.613 Y152.245
N16250 X68.151 Y152.187
N16255 X67.683 Y152.106
N16260 X67.225 Y152.015
N16265 X66.291 Y151.764
N16270 X65.362 Y151.433
N16275 X64.427 Y151.013
N16280 X63.937 Y150.747
N16285 X63.499 Y150.497
N16290 X63.039 Y150.199
N16295 X62.495 Y149.812
N16300 X62.093 Y149.503
N16305 X61.911 Y149.355
N16310 X61.39 Y148.882
N16315 X61.188 Y148.686
N16320 X60.976 Y148.45
N16325 X60.178 Y147.505
N16330 X59.257 Y146.094
N16335 X58.792 Y145.175
N16340 X58.413 Y144.244
N16345 X58.118 Y143.314
N16350 X57.902 Y142.385
N16355 X57.761 Y141.455
N16360 X57.689 Y140.516
N16365 X57.681 Y140.057
N16370 X57.686 Y139.588
N16375 X57.708 Y139.125
N16380 X57.751 Y138.657
N16385 X57.805 Y138.194
N16390 X57.932 Y137.465
N16395 X57.972 Y137.276
N16400 X58.221 Y136.334
N16405 X58.548 Y135.404
N16410 X58.964 Y134.471
N16415 X59.331 Y133.792
N16420 X59.473 Y133.545
N16425 X59.79 Y133.056
N16430 X60.1 Y132.609
N16435 X60.46 Y132.141
N16440 X60.718 Y131.831
N16445 X61.273 Y131.227
N16450 X61.799 Y130.765
N16455 X62.455 Y130.207
N16460 X63.768 Y129.346
N16465 X63.968 Y129.225
N16470 X64.613 Y128.896
N16475 X64.889 Y128.766
N16480 X65.692 Y128.435
N16485 X66.291 Y128.242
N16490 X66.752 Y128.103
N16495 X67.686 Y127.89
N16500 X68.615 Y127.751
N16505 X69.544 Y127.685
N16510 X70.483 Y127.687
N16515 X70.941 Y127.714
N16520 X71.41 Y127.757
N16525 X71.869 Y127.816
N16530 X72.715 Y127.97
N16535 X73.268 Y128.113
N16540 X73.727 Y128.243
N16545 X74.665 Y128.579
N16550 X75.402 Y128.904
N16555 X75.583 Y128.993
N16560 X76.278 Y129.369
N16565 X76.515 Y129.512
N16570 X77.006 Y129.83
N16575 X77.456 Y130.15
N16580 X77.919 Y130.506
N16585 X78.389 Y130.916
N16590 X78.717 Y131.216
N16595 X79.127 Y131.672
N16600 X79.803 Y132.467
N16605 X80.711 Y133.855
N16610 X80.79 Y133.997
N16615 X81.162 Y134.726
N16620 X81.447 Y135.404
N16625 X81.627 Y135.883
N16630 X81.771 Y136.333
N16635 X81.907 Y136.797
N16640 X82.092 Y137.589
N16645 X82.255 Y138.662
N16650 X82.319 Y139.59
N16655 X82.313 Y140.526
N16660 X82.282 Y140.986
N16665 X82.239 Y141.455
N16670 X82.175 Y141.917
N16675 X82.092 Y142.393
N16680 X81.996 Y142.847
N16685 X81.875 Y143.314
N16690 X81.74 Y143.777
N16695 X81.577 Y144.243
N16700 X81.402 Y144.708
N16705 X81.279 Y144.986
N16710 X81.257 Y145.021 F2900.
N16715 X81.225 Y145.046
N16720 X81.186 Y145.059
N16725 X81.145
N16730 X81.106 Y145.045
N16735 X81.074 Y145.02
N16740 X80.668 Y144.578
N16745 X72.585 Y136.893
N16750 X72.463 Y136.803
N16755 X72.451 Y136.787
N16760 Y136.768
N16765 X72.463 Y136.753
N16770 G3 X77.138 Y143.244 Z-4.766 I2.338 J3.246 F2700.
N16775 X70.8 Y139.998 Z-6. I-2.338 J-3.246
N16780 X72.796 I0.998 J0.
N16785 X67.2 I-2.798 J0.
N16790 X76.396 I4.598 J0.
N16795 X63.6 I-6.398 J0.
N16800 X76.396 I6.398 J0.
N16805 G2 X77.781 Y142.325 I2.646 J0. F2900.
N16810 G3 X78.565 Y144.916 I-0.918 J1.692
N16815 G1 X78.472 Y145.091 F2700.
N16820 X78.188 Y145.546
N16825 X77.87 Y146.014
N16830 X77.532 Y146.466
N16835 X77.05 Y147.012
N16840 X76.033 Y147.862
N16845 X75.033 Y148.502
N16850 X74.583 Y148.742
N16855 X74.129 Y148.961
N16860 X73.598 Y149.176
N16865 X73.217 Y149.307
N16870 X72.762 Y149.45
N16875 X71.963 Y149.638
N16880 X71.855 Y149.658
N16885 X71.389 Y149.727
N16890 X70.925 Y149.781
N16895 X70.47 Y149.812
N16900 X70.007 Y149.822
N16905 X69.558 Y149.817
N16910 X68.632 Y149.738
N16915 X68.02 Y149.633
N16920 X67.727 Y149.572
N16925 X67.269 Y149.454
N16930 X66.804 Y149.312
N16935 X66.352 Y149.157
N16940 X65.9 Y148.964
N16945 X65.37 Y148.716
N16950 X64.98 Y148.509
N16955 X64.519 Y148.23
N16960 X64.058 Y147.925
N16965 X63.604 Y147.583
N16970 X63.141 Y147.188
N16975 X62.975 Y147.035
N16980 X62.151 Y146.053
N16985 X61.523 Y145.073
N16990 X61.351 Y144.769
N16995 X61.057 Y144.175
N17000 X60.874 Y143.723
N17005 X60.706 Y143.259
N17010 X60.564 Y142.807
N17015 X60.436 Y142.285
N17020 X60.347 Y141.889
N17025 X60.28 Y141.434
N17030 X60.222 Y140.97
N17035 X60.191 Y140.515
N17040 X60.178 Y140.052
N17045 X60.183 Y139.597
N17050 X60.214 Y139.134
N17055 X60.255 Y138.68
N17060 X60.331 Y138.23
N17065 X60.438 Y137.69
N17070 X60.534 Y137.312
N17075 X60.673 Y136.847
N17080 X60.828 Y136.395
N17085 X61.02 Y135.936
N17090 X61.228 Y135.475
N17095 X61.467 Y135.025
N17100 X61.816 Y134.448
N17105 X62.042 Y134.102
N17110 X62.386 Y133.647
N17115 X62.78 Y133.177
N17120 X62.947 Y132.99
N17125 X63.949 Y132.15
N17130 X65.004 Y131.475
N17135 X65.143 Y131.395
N17140 X65.898 Y131.028
N17145 X66.346 Y130.846
N17150 X66.81 Y130.684
N17155 X67.263 Y130.543
N17160 X67.72 Y130.435
N17165 X68.18 Y130.337
N17170 X68.634 Y130.27
N17175 X69.098 Y130.217
N17180 X69.552 Y130.186
N17185 X70.015 Y130.179
N17190 X70.465 Y130.183
N17195 X71.391 Y130.266
N17200 X71.839 Y130.342
N17205 X72.301 Y130.436
N17210 X72.754 Y130.551
N17215 X73.219 Y130.696
N17220 X73.671 Y130.85
N17225 X74.124 Y131.046
N17230 X74.591 Y131.263
N17235 X75.042 Y131.502
N17240 X75.611 Y131.853
N17245 X75.962 Y132.091
N17250 X76.416 Y132.432
N17255 X77.01 Y132.948
N17260 X77.864 Y133.97
N17265 X78.542 Y135.032
N17270 X78.772 Y135.476
N17275 X78.988 Y135.937
N17280 X79.171 Y136.389
N17285 X79.329 Y136.853
N17290 X79.471 Y137.306
N17295 X79.585 Y137.805
N17300 X79.67 Y138.223
N17305 X79.737 Y138.678
N17310 X79.786 Y139.142
N17315 X79.816 Y139.592
N17320 Y140.515
N17325 X79.727 Y141.432
N17330 X79.585 Y142.223
N17335 X79.437 Y142.8
N17340 X79.289 Y143.262
N17345 X79.128 Y143.723
N17350 X78.935 Y144.167
N17355 X78.665 Y144.726
N17360 X78.565 Y144.916
N17365 G3 X78.127 Y145.021 I-0.265 J-0.14 F2900.
N17370 G1 X75.963 Y143.495
N17375 X75.938 Y143.479
N17380 X64.912 Y137.242
N17385 X64.383 Y136.966
N17390 X64.349 Y136.941
N17395 X64.326 Y136.905
N17400 X64.316 Y136.864
N17405 X64.32 Y136.822
N17410 X64.338 Y136.784
N17415 X64.368 Y136.754
N17420 G3 X69.043 Y143.246 Z-7.766 I2.338 J3.246 F2700.
N17425 X62.705 Y140. Z-9. I-2.338 J-3.246
N17430 X70.301 I3.798 J0.
N17435 X69.699 I-0.301 J0.
N17440 X73.901 I2.101 J0.
N17445 X66.099 I-3.901 J0.
N17450 X73.901 I3.901 J0.
N17455 G2 X75.197 Y142.248 I2.597 J0. F2900.
N17460 G3 X75.734 Y144.787 I-0.875 J1.511
N17465 G1 X75.599 Y144.971 F2700.
N17470 X75.338 Y145.28
N17475 X74.702 Y145.797
N17480 X74.485 Y145.95
N17485 X74.021 Y146.236
N17490 X73.574 Y146.488
N17495 X73.135 Y146.693
N17500 X72.694 Y146.865
N17505 X72.25 Y147.006
N17510 X71.773 Y147.128
N17515 X71.35 Y147.213
N17520 X70.908 Y147.276
N17525 X70.461 Y147.31
N17530 X70.005 Y147.324
N17535 X69.561 Y147.317
N17540 X69.122 Y147.279
N17545 X68.671 Y147.214
N17550 X68.216 Y147.126
N17555 X67.778 Y147.018
N17560 X67.34 Y146.872
N17565 X66.856 Y146.681
N17570 X66.44 Y146.488
N17575 X65.958 Y146.23
N17580 X65.543 Y145.975
N17585 X65.101 Y145.656
N17590 X64.701 Y145.319
N17595 X64.272 Y144.789
N17600 X64.075 Y144.524
N17605 X63.794 Y144.071
N17610 X63.532 Y143.617
N17615 X63.325 Y143.181
N17620 X63.154 Y142.743
N17625 X62.941 Y142.071
N17630 X62.793 Y141.391
N17635 X62.731 Y140.953
N17640 X62.692 Y140.502
N17645 X62.675 Y140.047
N17650 X62.68 Y139.606
N17655 X62.718 Y139.166
N17660 X62.779 Y138.711
N17665 X62.863 Y138.262
N17670 X62.945 Y137.93
N17675 X62.971 Y137.821
N17680 X63.114 Y137.384
N17685 X63.389 Y136.688
N17690 X63.728 Y136.026
N17695 X63.995 Y135.587
N17700 X64.313 Y135.145
N17705 X64.689 Y134.694
N17710 X65.15 Y134.319
N17715 X65.546 Y134.031
N17720 X65.997 Y133.753
N17725 X66.447 Y133.501
N17730 X66.887 Y133.298
N17735 X67.328 Y133.126
N17740 X67.793 Y132.982
N17745 X68.222 Y132.874
N17750 X68.673 Y132.784
N17755 X69.115 Y132.721
N17760 X69.56 Y132.688
N17765 X70.015 Y132.676
N17770 X70.461 Y132.685
N17775 X70.901 Y132.723
N17780 X71.349 Y132.789
N17785 X71.803 Y132.879
N17790 X72.245 Y132.99
N17795 X72.68 Y133.134
N17800 X73.398 Y133.428
N17805 X74.035 Y133.766
N17810 X74.48 Y134.042
N17815 X74.923 Y134.361
N17820 X75.288 Y134.668
N17825 X75.303 Y134.685
N17830 X75.745 Y135.231
N17835 X75.993 Y135.585
N17840 X76.273 Y136.039
N17845 X76.523 Y136.495
N17850 X76.636 Y136.733
N17855 X76.715 Y136.918
N17860 X76.889 Y137.368
N17865 X77.082 Y138.022
N17870 X77.134 Y138.253
N17875 X77.222 Y138.717
N17880 X77.285 Y139.159
N17885 X77.315 Y139.601
N17890 X77.323 Y140.056
N17895 X77.311 Y140.506
N17900 X77.273 Y140.946
N17905 X77.205 Y141.387
N17910 X77.078 Y141.976
N17915 X76.995 Y142.289
N17920 X76.849 Y142.73
N17925 X76.635 Y143.256
N17930 X76.457 Y143.62
N17935 X76.185 Y144.114
N17940 X75.925 Y144.525
N17945 X75.734 Y144.787
N17950 G3 X75.264 Y144.806 I-0.243 J-0.177 F2900.
N17955 G1 X74.189 Y143.557
N17960 X74.159 Y143.527
N17965 X67.046 Y137.282
N17970 X66.705 Y137.055
N17975 X66.683 Y137.033
N17980 X66.67 Y137.004
N17985 X66.668 Y136.973
N17990 X66.679 Y136.943
N17995 X66.699 Y136.919
N18000 G3 X71.7 Y143.163 Z-10.766 I2.5 J3.122 F2700.
N18005 X65.205 Y140.246 Z-12. I-2.5 J-3.122
N18010 X71.557 Y139.921 I3.176 J-0.163
N18015 G1 X71.559 Y139.96
N18020 G3 X70.135 Y141.554 I-1.518 J0.078
N18025 G1 X70.056 Y141.559
N18030 G3 X68.446 Y140.142 I-0.094 J-1.517
N18035 G1 X68.441 Y140.062
N18040 G3 X69.868 Y138.446 I1.516 J-0.099
N18045 G1 X69.948 Y138.441
N18050 G3 X71.555 Y139.881 I0.089 J1.517
N18055 G1 X71.557 Y139.921
N18060 G2 X72.846 Y141.77 I2.127 J-0.109 F2900.
N18065 G3 X72.946 Y144.022 I-0.492 J1.15
N18070 G1 X72.577 Y144.22 F2700.
N18075 X72.149 Y144.421
N18080 X71.73 Y144.564
N18085 X71.283 Y144.684
N18090 X71.08 Y144.728
N18095 X70.891 Y144.76
N18100 X70.44 Y144.8
N18105 X70.001 Y144.827
N18110 X69.588 Y144.811
N18115 X69.147 Y144.759
N18120 X68.71 Y144.687
N18125 X68.483 Y144.629
N18130 X67.846 Y144.42
N18135 X67.662 Y144.344
N18140 X67.37 Y144.199
N18145 X67.016 Y144.008
N18150 X66.573 Y143.707
N18155 X66.428 Y143.599
N18160 X66.337 Y143.485
N18165 X66.03 Y143.04
N18170 X65.873 Y142.773
N18175 X65.589 Y142.177
N18180 X65.517 Y141.991
N18185 X65.446 Y141.765
N18190 X65.328 Y141.327
N18195 X65.28 Y141.117
N18200 X65.246 Y140.929
N18205 X65.203 Y140.483
N18210 X65.173 Y140.029
N18215 X65.174 Y139.837
N18220 X65.184 Y139.641
N18225 X65.236 Y139.188
N18230 X65.301 Y138.766
N18235 X65.442 Y138.263
N18240 X65.566 Y137.888
N18245 X65.643 Y137.695
N18250 X65.739 Y137.492
N18255 X65.968 Y137.056
N18260 X66.309 Y136.551
N18265 X66.402 Y136.425
N18270 X66.574 Y136.295
N18275 X67.034 Y135.985
N18280 X67.148 Y135.916
N18285 X67.886 Y135.565
N18290 X68.105 Y135.486
N18295 X68.73 Y135.314
N18300 X69.142 Y135.236
N18305 X69.581 Y135.199
N18310 X70.02 Y135.173
N18315 X70.434 Y135.191
N18320 X70.873 Y135.244
N18325 X71.293 Y135.315
N18330 X71.867 Y135.485
N18335 X72.157 Y135.583
N18340 X72.581 Y135.776
N18345 X73.004 Y136.004
N18350 X73.575 Y136.403
N18355 X73.735 Y136.616
N18360 X74.033 Y137.064
N18365 X74.145 Y137.264
N18370 X74.445 Y137.914
N18375 X74.582 Y138.331
N18380 X74.694 Y138.767
N18385 X74.77 Y139.183
N18390 X74.804 Y139.622
N18395 X74.826 Y140.062
N18400 X74.806 Y140.476
N18405 X74.751 Y140.915
N18410 X74.674 Y141.337
N18415 X74.547 Y141.768
N18420 X74.4 Y142.2
N18425 X74.202 Y142.624
N18430 X73.969 Y143.049
N18435 X73.599 Y143.574
N18440 X73.338 Y143.767
N18445 X73.012 Y143.986
N18450 X72.946 Y144.022
N18455 X72.909 Y144.034 F2900.
N18460 X72.87 Y144.035
N18465 X72.833 Y144.023
N18470 X72.802 Y143.999
N18475 X72.78 Y143.967
N18480 X72.769 Y143.93
N18485 X72.697 Y143.349
N18490 X71.741 Y138.98
N18495 X71.731 Y138.495
N18500 X71.737 Y138.454
N18505 X71.757 Y138.419
N18510 X71.788 Y138.392
N18515 X71.827 Y138.378
N18520 X71.868 Y138.379
N18525 X71.906 Y138.393
N18530 X71.937 Y138.419
N18535 G3 X68.063 Y141.581 Z-13.104 I-1.937 J1.581 F2700.
N18540 X71.937 Y138.419 Z-14.208 I1.937 J-1.581
N18545 X70. Y142.5 Z-15. I-1.937 J1.581
N18550 G1 X67.5
N18555 Y137.5
N18560 X72.5
N18565 Y142.5
N18570 X70.
N18575 G3 X69.724 Y142.082 I0. J-0.3 F2900.
N18580 G1 X70.509 Y140.242
N18585 X71.439 Y138.47
N18590 G3 X71.937 Y138.419 I0.266 J0.139
N18595 X68.063 Y141.581 Z-16.104 I-1.937 J1.581 F2700.
N18600 X71.937 Y138.419 Z-17.208 I1.937 J-1.581
N18605 X70. Y142.5 Z-18. I-1.937 J1.581
N18610 G1 X67.5
N18615 Y137.5
N18620 X72.5
N18625 Y142.5
N18630 X70.
N18635 G3 Y137.5 Z-18.5 I0. J-2.5
N18640 Y142.5 Z-19. I0. J2.5
N18645 G1 X67.5
N18650 Y137.5
N18655 X72.5
N18660 Y142.5
N18665 X70.
N18670 X69.933 Y142.496 Z-18.992 F2900.
N18675 X69.868 Y142.485 Z-18.985
N18680 X69.807 Y142.468 Z-18.963
N18685 X69.748 Y142.444 Z-18.941
N18690 X69.697 Y142.418 Z-18.905
N18695 X69.65 Y142.387 Z-18.869
N18700 X69.577 Y142.326 Z-18.774
N18705 X69.53 Y142.273 Z-18.66
N18710 X69.503 Y142.237 Z-18.534
N18715 X69.495 Y142.224 Z-18.4
N18720 Z4. F2700.
N18725 X65.255 Y103.498
N18730 Z1.596
N18735 X65.265 Y103.49 Z1.474
N18740 X65.294 Y103.468 Z1.358
N18745 X65.344 Y103.431 Z1.249
N18750 X65.411 Y103.383 Z1.155
N18755 X65.494 Y103.327 Z1.08
N18760 X65.59 Y103.266 Z1.028
N18765 X65.694 Y103.204 Z1.
N18770 G3 X69.694 Y110.132 Z-0.5 I2. J3.464
N18775 X65.694 Y103.204 Z-2. I-2. J-3.464
N18780 X71.694 Y106.668 Z-3. I2. J3.464
N18785 X68.304 I-1.695 J0.
N18790 X75.294 I3.495 J0.
N18795 X64.704 I-5.295 J0.
N18800 X78.894 I7.095 J0.
N18805 X61.104 I-8.895 J0.
N18810 X78.894 I8.895 J0.
N18815 G2 X80.346 Y109.039 I2.662 J0. F2900.
N18820 G3 X81.277 Y111.658 I-0.92 J1.802
N18825 G1 X81.131 Y111.988 F2700.
N18830 X80.895 Y112.455
N18835 X80.646 Y112.917
N18840 X80.222 Y113.592
N18845 X80.054 Y113.851
N18850 X79.703 Y114.314
N18855 X79.299 Y114.817
N18860 X78.836 Y115.327
N18865 X78.653 Y115.508
N18870 X78.4 Y115.733
N18875 X77.511 Y116.485
N18880 X76.504 Y117.143
N18885 X76.05 Y117.432
N18890 X75.127 Y117.894
N18895 X74.197 Y118.268
N18900 X73.267 Y118.559
N18905 X72.338 Y118.774
N18910 X71.409 Y118.913
N18915 X70.473 Y118.981
N18920 X70.012 Y118.986
N18925 X69.544 Y118.981
N18930 X69.081 Y118.954
N18935 X68.613 Y118.912
N18940 X68.151 Y118.854
N18945 X67.684 Y118.772
N18950 X67.221 Y118.681
N18955 X66.487 Y118.489
N18960 X66.304 Y118.435
N18965 X65.362 Y118.1
N18970 X64.427 Y117.679
N18975 X63.966 Y117.43
N18980 X63.499 Y117.164
N18985 X63.029 Y116.859
N18990 X62.693 Y116.631
N18995 X62.088 Y116.166
N19000 X61.552 Y115.698
N19005 X61.19 Y115.353
N19010 X60.691 Y114.781
N19015 X60.176 Y114.169
N19020 X59.317 Y112.854
N19025 X59.099 Y112.453
N19030 X58.862 Y111.988
N19035 X58.464 Y111.045
N19040 X58.399 Y110.867
N19045 X58.163 Y110.129
N19050 X58.045 Y109.666
N19055 X57.93 Y109.172
N19060 X57.853 Y108.736
N19065 X57.783 Y108.266
N19070 X57.731 Y107.803
N19075 X57.699 Y107.334
N19080 X57.679 Y106.874
N19085 X57.695 Y105.936
N19090 X57.78 Y105.008
N19095 X57.93 Y104.146
N19100 X58.058 Y103.611
N19105 X58.177 Y103.153
N19110 X58.494 Y102.219
N19115 X58.862 Y101.362
N19120 X59.138 Y100.816
N19125 X59.385 Y100.359
N19130 X59.988 Y99.421
N19135 X60.341 Y98.962
N19140 X60.724 Y98.491
N19145 X61.184 Y97.984
N19150 X61.385 Y97.792
N19155 X62.198 Y97.092
N19160 X62.467 Y96.863
N19165 X63.529 Y96.168
N19170 X63.976 Y95.888
N19175 X64.429 Y95.656
N19180 X64.895 Y95.43
N19185 X65.36 Y95.238
N19190 X65.823 Y95.059
N19195 X66.689 Y94.784
N19200 X67.686 Y94.556
N19205 X68.615 Y94.417
N19210 X69.544 Y94.351
N19215 X70.483 Y94.353
N19220 X70.941 Y94.381
N19225 X71.41 Y94.424
N19230 X71.872 Y94.484
N19235 X72.339 Y94.565
N19240 X72.801 Y94.659
N19245 X73.282 Y94.784
N19250 X73.726 Y94.909
N19255 X74.672 Y95.249
N19260 X75.596 Y95.667
N19265 X76.056 Y95.916
N19270 X76.524 Y96.184
N19275 X77.234 Y96.646
N19280 X77.919 Y97.173
N19285 X78.381 Y97.575
N19290 X78.851 Y98.025
N19295 X79.8 Y99.131
N19300 X80.703 Y100.511
N19305 X81.122 Y101.314
N19310 X81.162 Y101.391
N19315 X81.508 Y102.219
N19320 X81.669 Y102.681
N19325 X81.818 Y103.147
N19330 X81.942 Y103.61
N19335 X82.092 Y104.257
N19340 X82.209 Y105.013
N19345 X82.264 Y105.469
N19350 X82.322 Y106.409
N19355 X82.31 Y107.338
N19360 X82.226 Y108.266
N19365 X82.068 Y109.2
N19370 X81.958 Y109.661
N19375 X81.837 Y110.124
N19380 X81.625 Y110.774
N19385 X81.526 Y111.058
N19390 X81.337 Y111.523
N19395 X81.277 Y111.658
N19400 G3 X80.789 Y111.747 I-0.274 J-0.121 F2900.
N19405 G1 X79.544 Y110.478
N19410 X72.811 Y103.827
N19415 X72.465 Y103.566
N19420 X72.442 Y103.542
N19425 X72.43 Y103.511
N19430 X72.431 Y103.478
N19435 X72.443 Y103.447
N19440 X72.466 Y103.423
N19445 G3 X77.141 Y109.915 Z-4.766 I2.338 J3.246 F2700.
N19450 X70.803 Y106.669 Z-6. I-2.338 J-3.246
N19455 X72.797 I0.997 J0.
N19460 X67.203 I-2.797 J0.
N19465 X76.397 I4.597 J0.
N19470 X63.603 I-6.397 J0.
N19475 X76.397 I6.397 J0.
N19480 G2 X77.788 Y108.993 I2.637 J0. F2900.
N19485 G3 X78.557 Y111.59 I-0.9 J1.679
N19490 G1 X78.383 Y111.906 F2700.
N19495 X78.096 Y112.358
