%
(13X13_V3_RIGHT_FRONT_VBIT)
(T50  D=32. CR=0. TAPER=30DEG - ZMIN=-18. - CHAMFER MILL)
N10 G90 G94 G17 G91.1
N15 G21
(WHEN USING FUSION 360 FOR PERSONAL USE, THE FEEDRATE OF)
(RAPID MOVES IS REDUCED TO MATCH THE FEEDRATE OF CUTTING)
(MOVES, WHICH CAN INCREASE MACHINING TIME. UNRESTRICTED RAPID)
(MOVES ARE AVAILABLE WITH A FUSION 360 SUBSCRIPTION.)
(2D CONT POCKET)
N20 T50 M6
N25 S1200 M3
N30 G54
N35 M8
N40 G0 X266.425 Y134.3
N45 G43 Z15. H50
N50 G1 Z5. F1000.
N55 Z1. F500.
N60 Z0.
N65 S10000
N70 X265.5 Z-0.248
N75 G2 X264.3 Y135.5 Z-0.753 I0. J1.2
N80 G1 Y144.5 Z-3.164
N85 G2 X265.5 Y145.7 Z-3.669 I1.2 J0.
N90 G1 X274.5 Z-6.081
N95 G2 X275.7 Y144.5 Z-6.586 I0. J-1.2
N100 G1 Y135.5 Z-8.998
N105 G2 X274.5 Y134.3 Z-9.503 I-1.2 J0.
N110 G1 X265.5 Z-11.914
N115 G2 X264.3 Y135.5 Z-12.419 I0. J1.2
N120 G1 Y144.5 Z-14.831
N125 G2 X265.5 Y145.7 Z-15.336 I1.2 J0.
N130 G1 X274.5 Z-17.747
N135 G2 X275.349 Y145.349 Z-18. I0. J-1.2
N140 S1200
N145 X275.7 Y144.5 I-0.849 J-0.849 F1000.
N150 G1 Y135.5
N155 G2 X274.5 Y134.3 I-1.2 J0.
N160 G1 X265.5
N165 G2 X264.3 Y135.5 I0. J1.2
N170 G1 Y144.5
N175 G2 X265.5 Y145.7 I1.2 J0.
N180 G1 X274.5
N185 G2 X275.349 Y145.349 I0. J-1.2
N190 G1 Z5.
N195 X266.425 Y167.633
N200 Z1. F500.
N205 Z0.
N210 S10000
N215 X265.5 Z-0.248
N220 G2 X264.3 Y168.833 Z-0.753 I0. J1.2
N225 G1 Y177.833 Z-3.164
N230 G2 X265.5 Y179.033 Z-3.669 I1.2 J0.
N235 G1 X274.5 Z-6.081
N240 G2 X275.7 Y177.833 Z-6.586 I0. J-1.2
N245 G1 Y168.833 Z-8.998
N250 G2 X274.5 Y167.633 Z-9.503 I-1.2 J0.
N255 G1 X265.5 Z-11.914
N260 G2 X264.3 Y168.833 Z-12.419 I0. J1.2
N265 G1 Y177.833 Z-14.831
N270 G2 X265.5 Y179.033 Z-15.336 I1.2 J0.
N275 G1 X274.5 Z-17.747
N280 G2 X275.349 Y178.682 Z-18. I0. J-1.2
N285 S1200
N290 X275.7 Y177.833 I-0.849 J-0.849 F1000.
N295 G1 Y168.833
N300 G2 X274.5 Y167.633 I-1.2 J0.
N305 G1 X265.5
N310 G2 X264.3 Y168.833 I0. J1.2
N315 G1 Y177.833
N320 G2 X265.5 Y179.033 I1.2 J0.
N325 G1 X274.5
N330 G2 X275.349 Y178.682 I0. J-1.2
N335 G1 Z5.
N340 X299.758 Y167.633
N345 Z1. F500.
N350 Z0.
N355 S10000
N360 X298.833 Z-0.248
N365 G2 X297.633 Y168.833 Z-0.753 I0. J1.2
N370 G1 Y177.833 Z-3.164
N375 G2 X298.833 Y179.033 Z-3.669 I1.2 J0.
N380 G1 X307.833 Z-6.081
N385 G2 X308.682 Y178.682 Z-6.334 I0. J-1.2
N390 X309.033 Y177.833 Z-6.586 I-0.849 J-0.849
N395 G1 Y168.833 Z-8.998
N400 G2 X307.833 Y167.633 Z-9.503 I-1.2 J0.
N405 G1 X298.833 Z-11.914
N410 G2 X297.633 Y168.833 Z-12.419 I0. J1.2
N415 G1 Y177.833 Z-14.831
N420 G2 X298.833 Y179.033 Z-15.336 I1.2 J0.
N425 G1 X307.833 Z-17.747
N430 G2 X308.682 Y178.682 Z-18. I0. J-1.2
N435 S1200
N440 X309.033 Y177.833 I-0.849 J-0.849 F1000.
N445 G1 Y168.833
N450 G2 X307.833 Y167.633 I-1.2 J0.
N455 G1 X298.833
N460 G2 X297.633 Y168.833 I0. J1.2
N465 G1 Y177.833
N470 G2 X298.833 Y179.033 I1.2 J0.
N475 G1 X307.833
N480 G2 X308.682 Y178.682 I0. J-1.2
N485 G1 Z5.
N490 X297.633 Y210.242
N495 Z1. F500.
N500 Z0.
N505 S10000
N510 Y211.167 Z-0.248
N515 G2 X298.833 Y212.367 Z-0.753 I1.2 J0.
N520 G1 X307.833 Z-3.164
N525 G2 X309.033 Y211.167 Z-3.669 I0. J-1.2
N530 G1 Y202.167 Z-6.081
N535 G2 X308.682 Y201.318 Z-6.334 I-1.2 J0.
N540 X307.833 Y200.967 Z-6.586 I-0.849 J0.849
N545 G1 X298.833 Z-8.998
N550 G2 X297.633 Y202.167 Z-9.503 I0. J1.2
N555 G1 Y211.167 Z-11.914
N560 G2 X298.833 Y212.367 Z-12.419 I1.2 J0.
N565 G1 X307.833 Z-14.831
N570 G2 X309.033 Y211.167 Z-15.336 I0. J-1.2
N575 G1 Y202.167 Z-17.747
N580 G2 X308.682 Y201.318 Z-18. I-1.2 J0.
N585 S1200
N590 X307.833 Y200.967 I-0.849 J0.849 F1000.
N595 G1 X298.833
N600 G2 X297.633 Y202.167 I0. J1.2
N605 G1 Y211.167
N610 G2 X298.833 Y212.367 I1.2 J0.
N615 G1 X307.833
N620 G2 X309.033 Y211.167 I0. J-1.2
N625 G1 Y202.167
N630 G2 X308.682 Y201.318 I-1.2 J0.
N635 G1 Z5.
N640 X340.242 Y212.367
N645 Z1. F500.
N650 Z0.
N655 S10000
N660 X341.167 Z-0.248
N665 G2 X342.367 Y211.167 Z-0.753 I0. J-1.2
N670 G1 Y202.167 Z-3.164
N675 G2 X341.167 Y200.967 Z-3.669 I-1.2 J0.
N680 G1 X332.167 Z-6.081
N685 G2 X331.318 Y201.318 Z-6.334 I0. J1.2
N690 X330.967 Y202.167 Z-6.586 I0.849 J0.849
N695 G1 Y211.167 Z-8.998
N700 G2 X332.167 Y212.367 Z-9.503 I1.2 J0.
N705 G1 X341.167 Z-11.914
N710 G2 X342.367 Y211.167 Z-12.419 I0. J-1.2
N715 G1 Y202.167 Z-14.831
N720 G2 X341.167 Y200.967 Z-15.336 I-1.2 J0.
N725 G1 X332.167 Z-17.747
N730 G2 X331.318 Y201.318 Z-18. I0. J1.2
N735 S1200
N740 X330.967 Y202.167 I0.849 J0.849 F1000.
N745 G1 Y211.167
N750 G2 X332.167 Y212.367 I1.2 J0.
N755 G1 X341.167
N760 G2 X342.367 Y211.167 I0. J-1.2
N765 G1 Y202.167
N770 G2 X341.167 Y200.967 I-1.2 J0.
N775 G1 X332.167
N780 G2 X331.318 Y201.318 I0. J1.2
N785 G1 Z5.
N790 X342.367 Y169.758
N795 Z1. F500.
N800 Z0.
N805 S10000
N810 Y168.833 Z-0.248
N815 G2 X341.167 Y167.633 Z-0.753 I-1.2 J0.
N820 G1 X332.167 Z-3.164
N825 G2 X330.967 Y168.833 Z-3.669 I0. J1.2
N830 G1 Y177.833 Z-6.081
N835 G2 X331.318 Y178.682 Z-6.334 I1.2 J0.
N840 X332.167 Y179.033 Z-6.586 I0.849 J-0.849
N845 G1 X341.167 Z-8.998
N850 G2 X342.367 Y177.833 Z-9.503 I0. J-1.2
N855 G1 Y168.833 Z-11.914
N860 G2 X341.167 Y167.633 Z-12.419 I-1.2 J0.
N865 G1 X332.167 Z-14.831
N870 G2 X330.967 Y168.833 Z-15.336 I0. J1.2
N875 G1 Y177.833 Z-17.747
N880 G2 X331.318 Y178.682 Z-18. I1.2 J0.
N885 S1200
N890 X332.167 Y179.033 I0.849 J-0.849 F1000.
N895 G1 X341.167
N900 G2 X342.367 Y177.833 I0. J-1.2
N905 G1 Y168.833
N910 G2 X341.167 Y167.633 I-1.2 J0.
N915 G1 X332.167
N920 G2 X330.967 Y168.833 I0. J1.2
N925 G1 Y177.833
N930 G2 X331.318 Y178.682 I1.2 J0.
N935 G1 Z5.
N940 X375.7 Y169.758
N945 Z1. F500.
N950 Z0.
N955 S10000
N960 Y168.833 Z-0.248
N965 G2 X374.5 Y167.633 Z-0.753 I-1.2 J0.
N970 G1 X365.5 Z-3.164
N975 G2 X364.3 Y168.833 Z-3.669 I0. J1.2
N980 G1 Y177.833 Z-6.081
N985 G2 X365.5 Y179.033 Z-6.586 I1.2 J0.
N990 G1 X374.5 Z-8.998
N995 G2 X375.7 Y177.833 Z-9.503 I0. J-1.2
N1000 G1 Y168.833 Z-11.914
N1005 G2 X374.5 Y167.633 Z-12.419 I-1.2 J0.
N1010 G1 X365.5 Z-14.831
N1015 G2 X364.3 Y168.833 Z-15.336 I0. J1.2
N1020 G1 Y177.833 Z-17.747
N1025 G2 X364.651 Y178.682 Z-18. I1.2 J0.
N1030 S1200
N1035 X365.5 Y179.033 I0.849 J-0.849 F1000.
N1040 G1 X374.5
N1045 G2 X375.7 Y177.833 I0. J-1.2
N1050 G1 Y168.833
N1055 G2 X374.5 Y167.633 I-1.2 J0.
N1060 G1 X365.5
N1065 G2 X364.3 Y168.833 I0. J1.2
N1070 G1 Y177.833
N1075 G2 X364.651 Y178.682 I1.2 J0.
N1080 G1 Z5.
N1085 X373.575 Y212.367
N1090 Z1. F500.
N1095 Z0.
N1100 S10000
N1105 X374.5 Z-0.248
N1110 G2 X375.7 Y211.167 Z-0.753 I0. J-1.2
N1115 G1 Y202.167 Z-3.164
N1120 G2 X374.5 Y200.967 Z-3.669 I-1.2 J0.
N1125 G1 X365.5 Z-6.081
N1130 G2 X364.3 Y202.167 Z-6.586 I0. J1.2
N1135 G1 Y211.167 Z-8.998
N1140 G2 X365.5 Y212.367 Z-9.503 I1.2 J0.
N1145 G1 X374.5 Z-11.914
N1150 G2 X375.7 Y211.167 Z-12.419 I0. J-1.2
N1155 G1 Y202.167 Z-14.831
N1160 G2 X374.5 Y200.967 Z-15.336 I-1.2 J0.
N1165 G1 X365.5 Z-17.747
N1170 G2 X364.651 Y201.318 Z-18. I0. J1.2
N1175 S1200
N1180 X364.3 Y202.167 I0.849 J0.849 F1000.
N1185 G1 Y211.167
N1190 G2 X365.5 Y212.367 I1.2 J0.
N1195 G1 X374.5
N1200 G2 X375.7 Y211.167 I0. J-1.2
N1205 G1 Y202.167
N1210 G2 X374.5 Y200.967 I-1.2 J0.
N1215 G1 X365.5
N1220 G2 X364.651 Y201.318 I0. J1.2
N1225 G1 Z5.
N1230 X397.633 Y210.242
N1235 Z1. F500.
N1240 Z0.
N1245 S10000
N1250 Y211.167 Z-0.248
N1255 G2 X398.833 Y212.367 Z-0.753 I1.2 J0.
N1260 G1 X407.833 Z-3.164
N1265 G2 X409.033 Y211.167 Z-3.669 I0. J-1.2
N1270 G1 Y202.167 Z-6.081
N1275 G2 X408.682 Y201.318 Z-6.334 I-1.2 J0.
N1280 X407.833 Y200.967 Z-6.586 I-0.849 J0.849
N1285 G1 X398.833 Z-8.998
N1290 G2 X397.633 Y202.167 Z-9.503 I0. J1.2
N1295 G1 Y211.167 Z-11.914
N1300 G2 X398.833 Y212.367 Z-12.419 I1.2 J0.
N1305 G1 X407.833 Z-14.831
N1310 G2 X409.033 Y211.167 Z-15.336 I0. J-1.2
N1315 G1 Y202.167 Z-17.747
N1320 G2 X408.682 Y201.318 Z-18. I-1.2 J0.
N1325 S1200
N1330 X407.833 Y200.967 I-0.849 J0.849 F1000.
N1335 G1 X398.833
N1340 G2 X397.633 Y202.167 I0. J1.2
N1345 G1 Y211.167
N1350 G2 X398.833 Y212.367 I1.2 J0.
N1355 G1 X407.833
N1360 G2 X409.033 Y211.167 I0. J-1.2
N1365 G1 Y202.167
N1370 G2 X408.682 Y201.318 I-1.2 J0.
N1375 G1 Z5.
N1380 X440.242 Y212.367
N1385 Z1. F500.
N1390 Z0.
N1395 S10000
N1400 X441.167 Z-0.248
N1405 G2 X442.367 Y211.167 Z-0.753 I0. J-1.2
N1410 G1 Y202.167 Z-3.164
N1415 G2 X441.167 Y200.967 Z-3.669 I-1.2 J0.
N1420 G1 X432.167 Z-6.081
N1425 G2 X431.318 Y201.318 Z-6.334 I0. J1.2
N1430 X430.967 Y202.167 Z-6.586 I0.849 J0.849
N1435 G1 Y211.167 Z-8.998
N1440 G2 X432.167 Y212.367 Z-9.503 I1.2 J0.
N1445 G1 X441.167 Z-11.914
N1450 G2 X442.367 Y211.167 Z-12.419 I0. J-1.2
N1455 G1 Y202.167 Z-14.831
N1460 G2 X441.167 Y200.967 Z-15.336 I-1.2 J0.
N1465 G1 X432.167 Z-17.747
N1470 G2 X431.318 Y201.318 Z-18. I0. J1.2
N1475 S1200
N1480 X430.967 Y202.167 I0.849 J0.849 F1000.
N1485 G1 Y211.167
N1490 G2 X432.167 Y212.367 I1.2 J0.
N1495 G1 X441.167
N1500 G2 X442.367 Y211.167 I0. J-1.2
N1505 G1 Y202.167
N1510 G2 X441.167 Y200.967 I-1.2 J0.
N1515 G1 X432.167
N1520 G2 X431.318 Y201.318 I0. J1.2
N1525 G1 Z5.
N1530 X442.367 Y169.758
N1535 Z1. F500.
N1540 Z0.
N1545 S10000
N1550 Y168.833 Z-0.248
N1555 G2 X441.167 Y167.633 Z-0.753 I-1.2 J0.
N1560 G1 X432.167 Z-3.164
N1565 G2 X430.967 Y168.833 Z-3.669 I0. J1.2
N1570 G1 Y177.833 Z-6.081
N1575 G2 X431.318 Y178.682 Z-6.334 I1.2 J0.
N1580 X432.167 Y179.033 Z-6.586 I0.849 J-0.849
N1585 G1 X441.167 Z-8.998
N1590 G2 X442.367 Y177.833 Z-9.503 I0. J-1.2
N1595 G1 Y168.833 Z-11.914
N1600 G2 X441.167 Y167.633 Z-12.419 I-1.2 J0.
N1605 G1 X432.167 Z-14.831
N1610 G2 X430.967 Y168.833 Z-15.336 I0. J1.2
N1615 G1 Y177.833 Z-17.747
N1620 G2 X431.318 Y178.682 Z-18. I1.2 J0.
N1625 S1200
N1630 X432.167 Y179.033 I0.849 J-0.849 F1000.
N1635 G1 X441.167
N1640 G2 X442.367 Y177.833 I0. J-1.2
N1645 G1 Y168.833
N1650 G2 X441.167 Y167.633 I-1.2 J0.
N1655 G1 X432.167
N1660 G2 X430.967 Y168.833 I0. J1.2
N1665 G1 Y177.833
N1670 G2 X431.318 Y178.682 I1.2 J0.
N1675 G1 Z5.
N1680 X399.758 Y167.633
N1685 Z1. F500.
N1690 Z0.
N1695 S10000
N1700 X398.833 Z-0.248
N1705 G2 X397.633 Y168.833 Z-0.753 I0. J1.2
N1710 G1 Y177.833 Z-3.164
N1715 G2 X398.833 Y179.033 Z-3.669 I1.2 J0.
N1720 G1 X407.833 Z-6.081
N1725 G2 X408.682 Y178.682 Z-6.334 I0. J-1.2
N1730 X409.033 Y177.833 Z-6.586 I-0.849 J-0.849
N1735 G1 Y168.833 Z-8.998
N1740 G2 X407.833 Y167.633 Z-9.503 I-1.2 J0.
N1745 G1 X398.833 Z-11.914
N1750 G2 X397.633 Y168.833 Z-12.419 I0. J1.2
N1755 G1 Y177.833 Z-14.831
N1760 G2 X398.833 Y179.033 Z-15.336 I1.2 J0.
N1765 G1 X407.833 Z-17.747
N1770 G2 X408.682 Y178.682 Z-18. I0. J-1.2
N1775 S1200
N1780 X409.033 Y177.833 I-0.849 J-0.849 F1000.
N1785 G1 Y168.833
N1790 G2 X407.833 Y167.633 I-1.2 J0.
N1795 G1 X398.833
N1800 G2 X397.633 Y168.833 I0. J1.2
N1805 G1 Y177.833
N1810 G2 X398.833 Y179.033 I1.2 J0.
N1815 G1 X407.833
N1820 G2 X408.682 Y178.682 I0. J-1.2
N1825 G1 Z5.
N1830 X399.758 Y134.3
N1835 Z1. F500.
N1840 Z0.
N1845 S10000
N1850 X398.833 Z-0.248
N1855 G2 X397.633 Y135.5 Z-0.753 I0. J1.2
N1860 G1 Y144.5 Z-3.164
N1865 G2 X398.833 Y145.7 Z-3.669 I1.2 J0.
N1870 G1 X407.833 Z-6.081
N1875 G2 X409.033 Y144.5 Z-6.586 I0. J-1.2
N1880 G1 Y135.5 Z-8.998
N1885 G2 X407.833 Y134.3 Z-9.503 I-1.2 J0.
N1890 G1 X398.833 Z-11.914
N1895 G2 X397.633 Y135.5 Z-12.419 I0. J1.2
N1900 G1 Y144.5 Z-14.831
N1905 G2 X398.833 Y145.7 Z-15.336 I1.2 J0.
N1910 G1 X407.833 Z-17.747
N1915 G2 X408.682 Y145.349 Z-18. I0. J-1.2
N1920 S1200
N1925 X409.033 Y144.5 I-0.849 J-0.849 F1000.
N1930 G1 Y135.5
N1935 G2 X407.833 Y134.3 I-1.2 J0.
N1940 G1 X398.833
N1945 G2 X397.633 Y135.5 I0. J1.2
N1950 G1 Y144.5
N1955 G2 X398.833 Y145.7 I1.2 J0.
N1960 G1 X407.833
N1965 G2 X408.682 Y145.349 I0. J-1.2
N1970 G1 Z5.
N1975 X442.367 Y136.425
N1980 Z1. F500.
N1985 Z0.
N1990 S10000
N1995 Y135.5 Z-0.248
N2000 G2 X441.167 Y134.3 Z-0.753 I-1.2 J0.
N2005 G1 X432.167 Z-3.164
N2010 G2 X430.967 Y135.5 Z-3.669 I0. J1.2
N2015 G1 Y144.5 Z-6.081
N2020 G2 X432.167 Y145.7 Z-6.586 I1.2 J0.
N2025 G1 X441.167 Z-8.998
N2030 G2 X442.367 Y144.5 Z-9.503 I0. J-1.2
N2035 G1 Y135.5 Z-11.914
N2040 G2 X441.167 Y134.3 Z-12.419 I-1.2 J0.
N2045 G1 X432.167 Z-14.831
N2050 G2 X430.967 Y135.5 Z-15.336 I0. J1.2
N2055 G1 Y144.5 Z-17.747
N2060 G2 X431.318 Y145.349 Z-18. I1.2 J0.
N2065 S1200
N2070 X432.167 Y145.7 I0.849 J-0.849 F1000.
N2075 G1 X441.167
N2080 G2 X442.367 Y144.5 I0. J-1.2
N2085 G1 Y135.5
N2090 G2 X441.167 Y134.3 I-1.2 J0.
N2095 G1 X432.167
N2100 G2 X430.967 Y135.5 I0. J1.2
N2105 G1 Y144.5
N2110 G2 X431.318 Y145.349 I1.2 J0.
N2115 G1 Z5.
N2120 X440.242 Y112.367
N2125 Z1. F500.
N2130 Z0.
N2135 S10000
N2140 X441.167 Z-0.248
N2145 G2 X442.367 Y111.167 Z-0.753 I0. J-1.2
N2150 G1 Y102.167 Z-3.164
N2155 G2 X441.167 Y100.967 Z-3.669 I-1.2 J0.
N2160 G1 X432.167 Z-6.081
N2165 G2 X431.318 Y101.318 Z-6.334 I0. J1.2
N2170 X430.967 Y102.167 Z-6.586 I0.849 J0.849
N2175 G1 Y111.167 Z-8.998
N2180 G2 X432.167 Y112.367 Z-9.503 I1.2 J0.
N2185 G1 X441.167 Z-11.914
N2190 G2 X442.367 Y111.167 Z-12.419 I0. J-1.2
N2195 G1 Y102.167 Z-14.831
N2200 G2 X441.167 Y100.967 Z-15.336 I-1.2 J0.
N2205 G1 X432.167 Z-17.747
N2210 G2 X431.318 Y101.318 Z-18. I0. J1.2
N2215 S1200
N2220 X430.967 Y102.167 I0.849 J0.849 F1000.
N2225 G1 Y111.167
N2230 G2 X432.167 Y112.367 I1.2 J0.
N2235 G1 X441.167
N2240 G2 X442.367 Y111.167 I0. J-1.2
N2245 G1 Y102.167
N2250 G2 X441.167 Y100.967 I-1.2 J0.
N2255 G1 X432.167
N2260 G2 X431.318 Y101.318 I0. J1.2
N2265 G1 Z5.
N2270 X442.367 Y69.758
N2275 Z1. F500.
N2280 Z0.
N2285 S10000
N2290 Y68.833 Z-0.248
N2295 G2 X441.167 Y67.633 Z-0.753 I-1.2 J0.
N2300 G1 X432.167 Z-3.164
N2305 G2 X430.967 Y68.833 Z-3.669 I0. J1.2
N2310 G1 Y77.833 Z-6.081
N2315 G2 X432.167 Y79.033 Z-6.586 I1.2 J0.
N2320 G1 X441.167 Z-8.998
N2325 G2 X442.367 Y77.833 Z-9.503 I0. J-1.2
N2330 G1 Y68.833 Z-11.914
N2335 G2 X441.167 Y67.633 Z-12.419 I-1.2 J0.
N2340 G1 X432.167 Z-14.831
N2345 G2 X430.967 Y68.833 Z-15.336 I0. J1.2
N2350 G1 Y77.833 Z-17.747
N2355 G2 X431.318 Y78.682 Z-18. I1.2 J0.
N2360 S1200
N2365 X432.167 Y79.033 I0.849 J-0.849 F1000.
N2370 G1 X441.167
N2375 G2 X442.367 Y77.833 I0. J-1.2
N2380 G1 Y68.833
N2385 G2 X441.167 Y67.633 I-1.2 J0.
N2390 G1 X432.167
N2395 G2 X430.967 Y68.833 I0. J1.2
N2400 G1 Y77.833
N2405 G2 X431.318 Y78.682 I1.2 J0.
N2410 G1 Z5.
N2415 X399.758 Y67.633
N2420 Z1. F500.
N2425 Z0.
N2430 S10000
N2435 X398.833 Z-0.248
N2440 G2 X397.633 Y68.833 Z-0.753 I0. J1.2
N2445 G1 Y77.833 Z-3.164
N2450 G2 X398.833 Y79.033 Z-3.669 I1.2 J0.
N2455 G1 X407.833 Z-6.081
N2460 G2 X408.682 Y78.682 Z-6.334 I0. J-1.2
N2465 X409.033 Y77.833 Z-6.586 I-0.849 J-0.849
N2470 G1 Y68.833 Z-8.998
N2475 G2 X407.833 Y67.633 Z-9.503 I-1.2 J0.
N2480 G1 X398.833 Z-11.914
N2485 G2 X397.633 Y68.833 Z-12.419 I0. J1.2
N2490 G1 Y77.833 Z-14.831
N2495 G2 X398.833 Y79.033 Z-15.336 I1.2 J0.
N2500 G1 X407.833 Z-17.747
N2505 G2 X408.682 Y78.682 Z-18. I0. J-1.2
N2510 S1200
N2515 X409.033 Y77.833 I-0.849 J-0.849 F1000.
N2520 G1 Y68.833
N2525 G2 X407.833 Y67.633 I-1.2 J0.
N2530 G1 X398.833
N2535 G2 X397.633 Y68.833 I0. J1.2
N2540 G1 Y77.833
N2545 G2 X398.833 Y79.033 I1.2 J0.
N2550 G1 X407.833
N2555 G2 X408.682 Y78.682 I0. J-1.2
N2560 G1 Z5.
N2565 X397.633 Y110.242
N2570 Z1. F500.
N2575 Z0.
N2580 S10000
N2585 Y111.167 Z-0.248
N2590 G2 X398.833 Y112.367 Z-0.753 I1.2 J0.
N2595 G1 X407.833 Z-3.164
N2600 G2 X409.033 Y111.167 Z-3.669 I0. J-1.2
N2605 G1 Y102.167 Z-6.081
N2610 G2 X407.833 Y100.967 Z-6.586 I-1.2 J0.
N2615 G1 X398.833 Z-8.998
N2620 G2 X397.633 Y102.167 Z-9.503 I0. J1.2
N2625 G1 Y111.167 Z-11.914
N2630 G2 X398.833 Y112.367 Z-12.419 I1.2 J0.
N2635 G1 X407.833 Z-14.831
N2640 G2 X409.033 Y111.167 Z-15.336 I0. J-1.2
N2645 G1 Y102.167 Z-17.747
N2650 G2 X408.682 Y101.318 Z-18. I-1.2 J0.
N2655 S1200
N2660 X407.833 Y100.967 I-0.849 J0.849 F1000.
N2665 G1 X398.833
N2670 G2 X397.633 Y102.167 I0. J1.2
N2675 G1 Y111.167
N2680 G2 X398.833 Y112.367 I1.2 J0.
N2685 G1 X407.833
N2690 G2 X409.033 Y111.167 I0. J-1.2
N2695 G1 Y102.167
N2700 G2 X408.682 Y101.318 I-1.2 J0.
N2705 G1 Z5.
N2710 X364.3 Y110.242
N2715 Z1. F500.
N2720 Z0.
N2725 S10000
N2730 Y111.167 Z-0.248
N2735 G2 X365.5 Y112.367 Z-0.753 I1.2 J0.
N2740 G1 X374.5 Z-3.164
N2745 G2 X375.7 Y111.167 Z-3.669 I0. J-1.2
N2750 G1 Y102.167 Z-6.081
N2755 G2 X374.5 Y100.967 Z-6.586 I-1.2 J0.
N2760 G1 X365.5 Z-8.998
N2765 G2 X364.3 Y102.167 Z-9.503 I0. J1.2
N2770 G1 Y111.167 Z-11.914
N2775 G2 X365.5 Y112.367 Z-12.419 I1.2 J0.
N2780 G1 X374.5 Z-14.831
N2785 G2 X375.7 Y111.167 Z-15.336 I0. J-1.2
N2790 G1 Y102.167 Z-17.747
N2795 G2 X375.349 Y101.318 Z-18. I-1.2 J0.
N2800 S1200
N2805 X374.5 Y100.967 I-0.849 J0.849 F1000.
N2810 G1 X365.5
N2815 G2 X364.3 Y102.167 I0. J1.2
N2820 G1 Y111.167
N2825 G2 X365.5 Y112.367 I1.2 J0.
N2830 G1 X374.5
N2835 G2 X375.7 Y111.167 I0. J-1.2
N2840 G1 Y102.167
N2845 G2 X375.349 Y101.318 I-1.2 J0.
N2850 G1 Z5.
N2855 X375.7 Y69.758
N2860 Z1. F500.
N2865 Z0.
N2870 S10000
N2875 Y68.833 Z-0.248
N2880 G2 X374.5 Y67.633 Z-0.753 I-1.2 J0.
N2885 G1 X365.5 Z-3.164
N2890 G2 X364.3 Y68.833 Z-3.669 I0. J1.2
N2895 G1 Y77.833 Z-6.081
N2900 G2 X365.5 Y79.033 Z-6.586 I1.2 J0.
N2905 G1 X374.5 Z-8.998
N2910 G2 X375.7 Y77.833 Z-9.503 I0. J-1.2
N2915 G1 Y68.833 Z-11.914
N2920 G2 X374.5 Y67.633 Z-12.419 I-1.2 J0.
N2925 G1 X365.5 Z-14.831
N2930 G2 X364.3 Y68.833 Z-15.336 I0. J1.2
N2935 G1 Y77.833 Z-17.747
N2940 G2 X364.651 Y78.682 Z-18. I1.2 J0.
N2945 S1200
N2950 X365.5 Y79.033 I0.849 J-0.849 F1000.
N2955 G1 X374.5
N2960 G2 X375.7 Y77.833 I0. J-1.2
N2965 G1 Y68.833
N2970 G2 X374.5 Y67.633 I-1.2 J0.
N2975 G1 X365.5
N2980 G2 X364.3 Y68.833 I0. J1.2
N2985 G1 Y77.833
N2990 G2 X364.651 Y78.682 I1.2 J0.
N2995 G1 Z5.
N3000 X342.367 Y69.758
N3005 Z1. F500.
N3010 Z0.
N3015 S10000
N3020 Y68.833 Z-0.248
N3025 G2 X341.167 Y67.633 Z-0.753 I-1.2 J0.
N3030 G1 X332.167 Z-3.164
N3035 G2 X330.967 Y68.833 Z-3.669 I0. J1.2
N3040 G1 Y77.833 Z-6.081
N3045 G2 X332.167 Y79.033 Z-6.586 I1.2 J0.
N3050 G1 X341.167 Z-8.998
N3055 G2 X342.367 Y77.833 Z-9.503 I0. J-1.2
N3060 G1 Y68.833 Z-11.914
N3065 G2 X341.167 Y67.633 Z-12.419 I-1.2 J0.
N3070 G1 X332.167 Z-14.831
N3075 G2 X330.967 Y68.833 Z-15.336 I0. J1.2
N3080 G1 Y77.833 Z-17.747
N3085 G2 X331.318 Y78.682 Z-18. I1.2 J0.
N3090 S1200
N3095 X332.167 Y79.033 I0.849 J-0.849 F1000.
N3100 G1 X341.167
N3105 G2 X342.367 Y77.833 I0. J-1.2
N3110 G1 Y68.833
N3115 G2 X341.167 Y67.633 I-1.2 J0.
N3120 G1 X332.167
N3125 G2 X330.967 Y68.833 I0. J1.2
N3130 G1 Y77.833
N3135 G2 X331.318 Y78.682 I1.2 J0.
N3140 G1 Z5.
N3145 X340.242 Y112.367
N3150 Z1. F500.
N3155 Z0.
N3160 S10000
N3165 X341.167 Z-0.248
N3170 G2 X342.367 Y111.167 Z-0.753 I0. J-1.2
N3175 G1 Y102.167 Z-3.164
N3180 G2 X341.167 Y100.967 Z-3.669 I-1.2 J0.
N3185 G1 X332.167 Z-6.081
N3190 G2 X331.318 Y101.318 Z-6.334 I0. J1.2
N3195 X330.967 Y102.167 Z-6.586 I0.849 J0.849
N3200 G1 Y111.167 Z-8.998
N3205 G2 X332.167 Y112.367 Z-9.503 I1.2 J0.
N3210 G1 X341.167 Z-11.914
N3215 G2 X342.367 Y111.167 Z-12.419 I0. J-1.2
N3220 G1 Y102.167 Z-14.831
N3225 G2 X341.167 Y100.967 Z-15.336 I-1.2 J0.
N3230 G1 X332.167 Z-17.747
N3235 G2 X331.318 Y101.318 Z-18. I0. J1.2
N3240 S1200
N3245 X330.967 Y102.167 I0.849 J0.849 F1000.
N3250 G1 Y111.167
N3255 G2 X332.167 Y112.367 I1.2 J0.
N3260 G1 X341.167
N3265 G2 X342.367 Y111.167 I0. J-1.2
N3270 G1 Y102.167
N3275 G2 X341.167 Y100.967 I-1.2 J0.
N3280 G1 X332.167
N3285 G2 X331.318 Y101.318 I0. J1.2
N3290 G1 Z5.
N3295 X297.633 Y110.242
N3300 Z1. F500.
N3305 Z0.
N3310 S10000
N3315 Y111.167 Z-0.248
N3320 G2 X298.833 Y112.367 Z-0.753 I1.2 J0.
N3325 G1 X307.833 Z-3.164
N3330 G2 X309.033 Y111.167 Z-3.669 I0. J-1.2
N3335 G1 Y102.167 Z-6.081
N3340 G2 X307.833 Y100.967 Z-6.586 I-1.2 J0.
N3345 G1 X298.833 Z-8.998
N3350 G2 X297.633 Y102.167 Z-9.503 I0. J1.2
N3355 G1 Y111.167 Z-11.914
N3360 G2 X298.833 Y112.367 Z-12.419 I1.2 J0.
N3365 G1 X307.833 Z-14.831
N3370 G2 X309.033 Y111.167 Z-15.336 I0. J-1.2
N3375 G1 Y102.167 Z-17.747
N3380 G2 X308.682 Y101.318 Z-18. I-1.2 J0.
N3385 S1200
N3390 X307.833 Y100.967 I-0.849 J0.849 F1000.
N3395 G1 X298.833
N3400 G2 X297.633 Y102.167 I0. J1.2
N3405 G1 Y111.167
N3410 G2 X298.833 Y112.367 I1.2 J0.
N3415 G1 X307.833
N3420 G2 X309.033 Y111.167 I0. J-1.2
N3425 G1 Y102.167
N3430 G2 X308.682 Y101.318 I-1.2 J0.
N3435 G1 Z5.
N3440 X299.758 Y67.633
N3445 Z1. F500.
N3450 Z0.
N3455 S10000
N3460 X298.833 Z-0.248
N3465 G2 X297.633 Y68.833 Z-0.753 I0. J1.2
N3470 G1 Y77.833 Z-3.164
N3475 G2 X298.833 Y79.033 Z-3.669 I1.2 J0.
N3480 G1 X307.833 Z-6.081
N3485 G2 X308.682 Y78.682 Z-6.334 I0. J-1.2
N3490 X309.033 Y77.833 Z-6.586 I-0.849 J-0.849
N3495 G1 Y68.833 Z-8.998
N3500 G2 X307.833 Y67.633 Z-9.503 I-1.2 J0.
N3505 G1 X298.833 Z-11.914
N3510 G2 X297.633 Y68.833 Z-12.419 I0. J1.2
N3515 G1 Y77.833 Z-14.831
N3520 G2 X298.833 Y79.033 Z-15.336 I1.2 J0.
N3525 G1 X307.833 Z-17.747
N3530 G2 X308.682 Y78.682 Z-18. I0. J-1.2
N3535 S1200
N3540 X309.033 Y77.833 I-0.849 J-0.849 F1000.
N3545 G1 Y68.833
N3550 G2 X307.833 Y67.633 I-1.2 J0.
N3555 G1 X298.833
N3560 G2 X297.633 Y68.833 I0. J1.2
N3565 G1 Y77.833
N3570 G2 X298.833 Y79.033 I1.2 J0.
N3575 G1 X307.833
N3580 G2 X308.682 Y78.682 I0. J-1.2
N3585 G1 Z5.
N3590 X266.425 Y67.633
N3595 Z1. F500.
N3600 Z0.
N3605 S10000
N3610 X265.5 Z-0.248
N3615 G2 X264.3 Y68.833 Z-0.753 I0. J1.2
N3620 G1 Y77.833 Z-3.164
N3625 G2 X265.5 Y79.033 Z-3.669 I1.2 J0.
N3630 G1 X274.5 Z-6.081
N3635 G2 X275.7 Y77.833 Z-6.586 I0. J-1.2
N3640 G1 Y68.833 Z-8.998
N3645 G2 X274.5 Y67.633 Z-9.503 I-1.2 J0.
N3650 G1 X265.5 Z-11.914
N3655 G2 X264.3 Y68.833 Z-12.419 I0. J1.2
N3660 G1 Y77.833 Z-14.831
N3665 G2 X265.5 Y79.033 Z-15.336 I1.2 J0.
N3670 G1 X274.5 Z-17.747
N3675 G2 X275.349 Y78.682 Z-18. I0. J-1.2
N3680 S1200
N3685 X275.7 Y77.833 I-0.849 J-0.849 F1000.
N3690 G1 Y68.833
N3695 G2 X274.5 Y67.633 I-1.2 J0.
N3700 G1 X265.5
N3705 G2 X264.3 Y68.833 I0. J1.2
N3710 G1 Y77.833
N3715 G2 X265.5 Y79.033 I1.2 J0.
N3720 G1 X274.5
N3725 G2 X275.349 Y78.682 I0. J-1.2
N3730 G1 Z5.
N3735 X264.3 Y110.242
N3740 Z1. F500.
N3745 Z0.
N3750 S10000
N3755 Y111.167 Z-0.248
N3760 G2 X265.5 Y112.367 Z-0.753 I1.2 J0.
N3765 G1 X274.5 Z-3.164
N3770 G2 X275.7 Y111.167 Z-3.669 I0. J-1.2
N3775 G1 Y102.167 Z-6.081
N3780 G2 X274.5 Y100.967 Z-6.586 I-1.2 J0.
N3785 G1 X265.5 Z-8.998
N3790 G2 X264.3 Y102.167 Z-9.503 I0. J1.2
N3795 G1 Y111.167 Z-11.914
N3800 G2 X265.5 Y112.367 Z-12.419 I1.2 J0.
N3805 G1 X274.5 Z-14.831
N3810 G2 X275.7 Y111.167 Z-15.336 I0. J-1.2
N3815 G1 Y102.167 Z-17.747
N3820 G2 X275.349 Y101.318 Z-18. I-1.2 J0.
N3825 S1200
N3830 X274.5 Y100.967 I-0.849 J0.849 F1000.
N3835 G1 X265.5
N3840 G2 X264.3 Y102.167 I0. J1.2
N3845 G1 Y111.167
N3850 G2 X265.5 Y112.367 I1.2 J0.
N3855 G1 X274.5
N3860 G2 X275.7 Y111.167 I0. J-1.2
N3865 G1 Y102.167
N3870 G2 X275.349 Y101.318 I-1.2 J0.
N3875 G1 Z5.
N3880 X240.242 Y112.367
N3885 Z1. F500.
N3890 Z0.
N3895 S10000
N3900 X241.167 Z-0.248
N3905 G2 X242.367 Y111.167 Z-0.753 I0. J-1.2
N3910 G1 Y102.167 Z-3.164
N3915 G2 X241.167 Y100.967 Z-3.669 I-1.2 J0.
N3920 G1 X232.167 Z-6.081
N3925 G2 X230.967 Y102.167 Z-6.586 I0. J1.2
N3930 G1 Y111.167 Z-8.998
N3935 G2 X232.167 Y112.367 Z-9.503 I1.2 J0.
N3940 G1 X241.167 Z-11.914
N3945 G2 X242.367 Y111.167 Z-12.419 I0. J-1.2
N3950 G1 Y102.167 Z-14.831
N3955 G2 X241.167 Y100.967 Z-15.336 I-1.2 J0.
N3960 G1 X232.167 Z-17.747
N3965 G2 X231.318 Y101.318 Z-18. I0. J1.2
N3970 S1200
N3975 X230.967 Y102.167 I0.849 J0.849 F1000.
N3980 G1 Y111.167
N3985 G2 X232.167 Y112.367 I1.2 J0.
N3990 G1 X241.167
N3995 G2 X242.367 Y111.167 I0. J-1.2
N4000 G1 Y102.167
N4005 G2 X241.167 Y100.967 I-1.2 J0.
N4010 G1 X232.167
N4015 G2 X231.318 Y101.318 I0. J1.2
N4020 G1 Z5.
N4025 X242.367 Y69.758
N4030 Z1. F500.
N4035 Z0.
N4040 S10000
N4045 Y68.833 Z-0.248
N4050 G2 X241.167 Y67.633 Z-0.753 I-1.2 J0.
N4055 G1 X232.167 Z-3.164
N4060 G2 X230.967 Y68.833 Z-3.669 I0. J1.2
N4065 G1 Y77.833 Z-6.081
N4070 G2 X232.167 Y79.033 Z-6.586 I1.2 J0.
N4075 G1 X241.167 Z-8.998
N4080 G2 X242.367 Y77.833 Z-9.503 I0. J-1.2
N4085 G1 Y68.833 Z-11.914
N4090 G2 X241.167 Y67.633 Z-12.419 I-1.2 J0.
N4095 G1 X232.167 Z-14.831
N4100 G2 X230.967 Y68.833 Z-15.336 I0. J1.2
N4105 G1 Y77.833 Z-17.747
N4110 G2 X231.318 Y78.682 Z-18. I1.2 J0.
N4115 S1200
N4120 X232.167 Y79.033 I0.849 J-0.849 F1000.
N4125 G1 X241.167
N4130 G2 X242.367 Y77.833 I0. J-1.2
N4135 G1 Y68.833
N4140 G2 X241.167 Y67.633 I-1.2 J0.
N4145 G1 X232.167
N4150 G2 X230.967 Y68.833 I0. J1.2
N4155 G1 Y77.833
N4160 G2 X231.318 Y78.682 I1.2 J0.
N4165 G1 Z5.
N4170 X199.758 Y67.633
N4175 Z1. F500.
N4180 Z0.
N4185 S10000
N4190 X198.833 Z-0.248
N4195 G2 X197.633 Y68.833 Z-0.753 I0. J1.2
N4200 G1 Y77.833 Z-3.164
N4205 G2 X198.833 Y79.033 Z-3.669 I1.2 J0.
N4210 G1 X207.833 Z-6.081
N4215 G2 X209.033 Y77.833 Z-6.586 I0. J-1.2
N4220 G1 Y68.833 Z-8.998
N4225 G2 X207.833 Y67.633 Z-9.503 I-1.2 J0.
N4230 G1 X198.833 Z-11.914
N4235 G2 X197.633 Y68.833 Z-12.419 I0. J1.2
N4240 G1 Y77.833 Z-14.831
N4245 G2 X198.833 Y79.033 Z-15.336 I1.2 J0.
N4250 G1 X207.833 Z-17.747
N4255 G2 X208.682 Y78.682 Z-18. I0. J-1.2
N4260 S1200
N4265 X209.033 Y77.833 I-0.849 J-0.849 F1000.
N4270 G1 Y68.833
N4275 G2 X207.833 Y67.633 I-1.2 J0.
N4280 G1 X198.833
N4285 G2 X197.633 Y68.833 I0. J1.2
N4290 G1 Y77.833
N4295 G2 X198.833 Y79.033 I1.2 J0.
N4300 G1 X207.833
N4305 G2 X208.682 Y78.682 I0. J-1.2
N4310 G1 Z5.
N4315 X197.633 Y110.242
N4320 Z1. F500.
N4325 Z0.
N4330 S10000
N4335 Y111.167 Z-0.248
N4340 G2 X198.833 Y112.367 Z-0.753 I1.2 J0.
N4345 G1 X207.833 Z-3.164
N4350 G2 X209.033 Y111.167 Z-3.669 I0. J-1.2
N4355 G1 Y102.167 Z-6.081
N4360 G2 X207.833 Y100.967 Z-6.586 I-1.2 J0.
N4365 G1 X198.833 Z-8.998
N4370 G2 X197.633 Y102.167 Z-9.503 I0. J1.2
N4375 G1 Y111.167 Z-11.914
N4380 G2 X198.833 Y112.367 Z-12.419 I1.2 J0.
N4385 G1 X207.833 Z-14.831
N4390 G2 X209.033 Y111.167 Z-15.336 I0. J-1.2
N4395 G1 Y102.167 Z-17.747
N4400 G2 X208.682 Y101.318 Z-18. I-1.2 J0.
N4405 S1200
N4410 X207.833 Y100.967 I-0.849 J0.849 F1000.
N4415 G1 X198.833
N4420 G2 X197.633 Y102.167 I0. J1.2
N4425 G1 Y111.167
N4430 G2 X198.833 Y112.367 I1.2 J0.
N4435 G1 X207.833
N4440 G2 X209.033 Y111.167 I0. J-1.2
N4445 G1 Y102.167
N4450 G2 X208.682 Y101.318 I-1.2 J0.
N4455 G1 Z5.
N4460 X197.633 Y143.575
N4465 Z1. F500.
N4470 Z0.
N4475 S10000
N4480 Y144.5 Z-0.248
N4485 G2 X198.833 Y145.7 Z-0.753 I1.2 J0.
N4490 G1 X207.833 Z-3.164
N4495 G2 X209.033 Y144.5 Z-3.669 I0. J-1.2
N4500 G1 Y135.5 Z-6.081
N4505 G2 X207.833 Y134.3 Z-6.586 I-1.2 J0.
N4510 G1 X198.833 Z-8.998
N4515 G2 X197.633 Y135.5 Z-9.503 I0. J1.2
N4520 G1 Y144.5 Z-11.914
N4525 G2 X198.833 Y145.7 Z-12.419 I1.2 J0.
N4530 G1 X207.833 Z-14.831
N4535 G2 X209.033 Y144.5 Z-15.336 I0. J-1.2
N4540 G1 Y135.5 Z-17.747
N4545 G2 X208.682 Y134.651 Z-18. I-1.2 J0.
N4550 S1200
N4555 X207.833 Y134.3 I-0.849 J0.849 F1000.
N4560 G1 X198.833
N4565 G2 X197.633 Y135.5 I0. J1.2
N4570 G1 Y144.5
N4575 G2 X198.833 Y145.7 I1.2 J0.
N4580 G1 X207.833
N4585 G2 X209.033 Y144.5 I0. J-1.2
N4590 G1 Y135.5
N4595 G2 X208.682 Y134.651 I-1.2 J0.
N4600 G1 Z5.
N4605 X242.367 Y136.425
N4610 Z1. F500.
N4615 Z0.
N4620 S10000
N4625 Y135.5 Z-0.248
N4630 G2 X241.167 Y134.3 Z-0.753 I-1.2 J0.
N4635 G1 X232.167 Z-3.164
N4640 G2 X230.967 Y135.5 Z-3.669 I0. J1.2
N4645 G1 Y144.5 Z-6.081
N4650 G2 X232.167 Y145.7 Z-6.586 I1.2 J0.
N4655 G1 X241.167 Z-8.998
N4660 G2 X242.367 Y144.5 Z-9.503 I0. J-1.2
N4665 G1 Y135.5 Z-11.914
N4670 G2 X241.167 Y134.3 Z-12.419 I-1.2 J0.
N4675 G1 X232.167 Z-14.831
N4680 G2 X230.967 Y135.5 Z-15.336 I0. J1.2
N4685 G1 Y144.5 Z-17.747
N4690 G2 X231.318 Y145.349 Z-18. I1.2 J0.
N4695 S1200
N4700 X232.167 Y145.7 I0.849 J-0.849 F1000.
N4705 G1 X241.167
N4710 G2 X242.367 Y144.5 I0. J-1.2
N4715 G1 Y135.5
N4720 G2 X241.167 Y134.3 I-1.2 J0.
N4725 G1 X232.167
N4730 G2 X230.967 Y135.5 I0. J1.2
N4735 G1 Y144.5
N4740 G2 X231.318 Y145.349 I1.2 J0.
N4745 G1 Z5.
N4750 X242.367 Y169.758
N4755 Z1. F500.
N4760 Z0.
N4765 S10000
N4770 Y168.833 Z-0.248
N4775 G2 X241.167 Y167.633 Z-0.753 I-1.2 J0.
N4780 G1 X232.167 Z-3.164
N4785 G2 X230.967 Y168.833 Z-3.669 I0. J1.2
N4790 G1 Y177.833 Z-6.081
N4795 G2 X232.167 Y179.033 Z-6.586 I1.2 J0.
N4800 G1 X241.167 Z-8.998
N4805 G2 X242.367 Y177.833 Z-9.503 I0. J-1.2
N4810 G1 Y168.833 Z-11.914
N4815 G2 X241.167 Y167.633 Z-12.419 I-1.2 J0.
N4820 G1 X232.167 Z-14.831
N4825 G2 X230.967 Y168.833 Z-15.336 I0. J1.2
N4830 G1 Y177.833 Z-17.747
N4835 G2 X231.318 Y178.682 Z-18. I1.2 J0.
N4840 S1200
N4845 X232.167 Y179.033 I0.849 J-0.849 F1000.
N4850 G1 X241.167
N4855 G2 X242.367 Y177.833 I0. J-1.2
N4860 G1 Y168.833
N4865 G2 X241.167 Y167.633 I-1.2 J0.
N4870 G1 X232.167
N4875 G2 X230.967 Y168.833 I0. J1.2
N4880 G1 Y177.833
N4885 G2 X231.318 Y178.682 I1.2 J0.
N4890 G1 Z5.
N4895 X240.242 Y212.367
N4900 Z1. F500.
N4905 Z0.
N4910 S10000
N4915 X241.167 Z-0.248
N4920 G2 X242.367 Y211.167 Z-0.753 I0. J-1.2
N4925 G1 Y202.167 Z-3.164
N4930 G2 X241.167 Y200.967 Z-3.669 I-1.2 J0.
N4935 G1 X232.167 Z-6.081
N4940 G2 X230.967 Y202.167 Z-6.586 I0. J1.2
N4945 G1 Y211.167 Z-8.998
N4950 G2 X232.167 Y212.367 Z-9.503 I1.2 J0.
N4955 G1 X241.167 Z-11.914
N4960 G2 X242.367 Y211.167 Z-12.419 I0. J-1.2
N4965 G1 Y202.167 Z-14.831
N4970 G2 X241.167 Y200.967 Z-15.336 I-1.2 J0.
N4975 G1 X232.167 Z-17.747
N4980 G2 X231.318 Y201.318 Z-18. I0. J1.2
N4985 S1200
N4990 X230.967 Y202.167 I0.849 J0.849 F1000.
N4995 G1 Y211.167
N5000 G2 X232.167 Y212.367 I1.2 J0.
N5005 G1 X241.167
N5010 G2 X242.367 Y211.167 I0. J-1.2
N5015 G1 Y202.167
N5020 G2 X241.167 Y200.967 I-1.2 J0.
N5025 G1 X232.167
N5030 G2 X231.318 Y201.318 I0. J1.2
N5035 G1 Z5.
N5040 X197.633 Y210.242
N5045 Z1. F500.
N5050 Z0.
N5055 S10000
N5060 Y211.167 Z-0.248
N5065 G2 X198.833 Y212.367 Z-0.753 I1.2 J0.
N5070 G1 X207.833 Z-3.164
N5075 G2 X209.033 Y211.167 Z-3.669 I0. J-1.2
N5080 G1 Y202.167 Z-6.081
N5085 G2 X207.833 Y200.967 Z-6.586 I-1.2 J0.
N5090 G1 X198.833 Z-8.998
N5095 G2 X197.633 Y202.167 Z-9.503 I0. J1.2
N5100 G1 Y211.167 Z-11.914
N5105 G2 X198.833 Y212.367 Z-12.419 I1.2 J0.
N5110 G1 X207.833 Z-14.831
N5115 G2 X209.033 Y211.167 Z-15.336 I0. J-1.2
N5120 G1 Y202.167 Z-17.747
N5125 G2 X208.682 Y201.318 Z-18. I-1.2 J0.
N5130 S1200
N5135 X207.833 Y200.967 I-0.849 J0.849 F1000.
N5140 G1 X198.833
N5145 G2 X197.633 Y202.167 I0. J1.2
N5150 G1 Y211.167
N5155 G2 X198.833 Y212.367 I1.2 J0.
N5160 G1 X207.833
N5165 G2 X209.033 Y211.167 I0. J-1.2
N5170 G1 Y202.167
N5175 G2 X208.682 Y201.318 I-1.2 J0.
N5180 G1 Z5.
N5185 X199.758 Y167.633
N5190 Z1. F500.
N5195 Z0.
N5200 S10000
N5205 X198.833 Z-0.248
N5210 G2 X197.633 Y168.833 Z-0.753 I0. J1.2
N5215 G1 Y177.833 Z-3.164
N5220 G2 X198.833 Y179.033 Z-3.669 I1.2 J0.
N5225 G1 X207.833 Z-6.081
N5230 G2 X209.033 Y177.833 Z-6.586 I0. J-1.2
N5235 G1 Y168.833 Z-8.998
N5240 G2 X207.833 Y167.633 Z-9.503 I-1.2 J0.
N5245 G1 X198.833 Z-11.914
N5250 G2 X197.633 Y168.833 Z-12.419 I0. J1.2
N5255 G1 Y177.833 Z-14.831
N5260 G2 X198.833 Y179.033 Z-15.336 I1.2 J0.
N5265 G1 X207.833 Z-17.747
N5270 G2 X208.682 Y178.682 Z-18. I0. J-1.2
N5275 S1200
N5280 X209.033 Y177.833 I-0.849 J-0.849 F1000.
N5285 G1 Y168.833
N5290 G2 X207.833 Y167.633 I-1.2 J0.
N5295 G1 X198.833
N5300 G2 X197.633 Y168.833 I0. J1.2
N5305 G1 Y177.833
N5310 G2 X198.833 Y179.033 I1.2 J0.
N5315 G1 X207.833
N5320 G2 X208.682 Y178.682 I0. J-1.2
N5325 G1 Z5.
N5330 X175.7 Y169.758
N5335 Z1. F500.
N5340 Z0.
N5345 S10000
N5350 Y168.833 Z-0.248
N5355 G2 X174.5 Y167.633 Z-0.753 I-1.2 J0.
N5360 G1 X165.5 Z-3.164
N5365 G2 X164.3 Y168.833 Z-3.669 I0. J1.2
N5370 G1 Y177.833 Z-6.081
N5375 G2 X165.5 Y179.033 Z-6.586 I1.2 J0.
N5380 G1 X174.5 Z-8.998
N5385 G2 X175.7 Y177.833 Z-9.503 I0. J-1.2
N5390 G1 Y168.833 Z-11.914
N5395 G2 X174.5 Y167.633 Z-12.419 I-1.2 J0.
N5400 G1 X165.5 Z-14.831
N5405 G2 X164.3 Y168.833 Z-15.336 I0. J1.2
N5410 G1 Y177.833 Z-17.747
N5415 G2 X164.651 Y178.682 Z-18. I1.2 J0.
N5420 S1200
N5425 X165.5 Y179.033 I0.849 J-0.849 F1000.
N5430 G1 X174.5
N5435 G2 X175.7 Y177.833 I0. J-1.2
N5440 G1 Y168.833
N5445 G2 X174.5 Y167.633 I-1.2 J0.
N5450 G1 X165.5
N5455 G2 X164.3 Y168.833 I0. J1.2
N5460 G1 Y177.833
N5465 G2 X164.651 Y178.682 I1.2 J0.
N5470 G1 Z5.
N5475 X142.367 Y169.758
N5480 Z1. F500.
N5485 Z0.
N5490 S10000
N5495 Y168.833 Z-0.248
N5500 G2 X141.167 Y167.633 Z-0.753 I-1.2 J0.
N5505 G1 X132.167 Z-3.164
N5510 G2 X130.967 Y168.833 Z-3.669 I0. J1.2
N5515 G1 Y177.833 Z-6.081
N5520 G2 X132.167 Y179.033 Z-6.586 I1.2 J0.
N5525 G1 X141.167 Z-8.998
N5530 G2 X142.367 Y177.833 Z-9.503 I0. J-1.2
N5535 G1 Y168.833 Z-11.914
N5540 G2 X141.167 Y167.633 Z-12.419 I-1.2 J0.
N5545 G1 X132.167 Z-14.831
N5550 G2 X130.967 Y168.833 Z-15.336 I0. J1.2
N5555 G1 Y177.833 Z-17.747
N5560 G2 X131.318 Y178.682 Z-18. I1.2 J0.
N5565 S1200
N5570 X132.167 Y179.033 I0.849 J-0.849 F1000.
N5575 G1 X141.167
N5580 G2 X142.367 Y177.833 I0. J-1.2
N5585 G1 Y168.833
N5590 G2 X141.167 Y167.633 I-1.2 J0.
N5595 G1 X132.167
N5600 G2 X130.967 Y168.833 I0. J1.2
N5605 G1 Y177.833
N5610 G2 X131.318 Y178.682 I1.2 J0.
N5615 G1 Z5.
N5620 X140.242 Y212.367
N5625 Z1. F500.
N5630 Z0.
N5635 S10000
N5640 X141.167 Z-0.248
N5645 G2 X142.367 Y211.167 Z-0.753 I0. J-1.2
N5650 G1 Y202.167 Z-3.164
N5655 G2 X141.167 Y200.967 Z-3.669 I-1.2 J0.
N5660 G1 X132.167 Z-6.081
N5665 G2 X130.967 Y202.167 Z-6.586 I0. J1.2
N5670 G1 Y211.167 Z-8.998
N5675 G2 X132.167 Y212.367 Z-9.503 I1.2 J0.
N5680 G1 X141.167 Z-11.914
N5685 G2 X142.367 Y211.167 Z-12.419 I0. J-1.2
N5690 G1 Y202.167 Z-14.831
N5695 G2 X141.167 Y200.967 Z-15.336 I-1.2 J0.
N5700 G1 X132.167 Z-17.747
N5705 G2 X131.318 Y201.318 Z-18. I0. J1.2
N5710 S1200
N5715 X130.967 Y202.167 I0.849 J0.849 F1000.
N5720 G1 Y211.167
N5725 G2 X132.167 Y212.367 I1.2 J0.
N5730 G1 X141.167
N5735 G2 X142.367 Y211.167 I0. J-1.2
N5740 G1 Y202.167
N5745 G2 X141.167 Y200.967 I-1.2 J0.
N5750 G1 X132.167
N5755 G2 X131.318 Y201.318 I0. J1.2
N5760 G1 Z5.
N5765 X97.633 Y210.241
N5770 Z1. F500.
N5775 Z0.
N5780 S10000
N5785 Y211.167 Z-0.248
N5790 G2 X98.833 Y212.367 Z-0.753 I1.2 J0.
N5795 G1 X107.833 Z-3.165
N5800 G2 X109.033 Y211.167 Z-3.67 I0. J-1.2
N5805 G1 Y202.167 Z-6.081
N5810 G2 X107.833 Y200.967 Z-6.586 I-1.2 J0.
N5815 G1 X98.833 Z-8.998
N5820 G2 X97.633 Y202.167 Z-9.503 I0. J1.2
N5825 G1 Y211.167 Z-11.914
N5830 G2 X98.833 Y212.367 Z-12.419 I1.2 J0.
N5835 G1 X107.833 Z-14.831
N5840 G2 X109.033 Y211.167 Z-15.336 I0. J-1.2
N5845 G1 Y202.167 Z-17.747
N5850 G2 X108.682 Y201.318 Z-18. I-1.2 J0.
N5855 S1200
N5860 X107.833 Y200.967 I-0.849 J0.849 F1000.
N5865 G1 X98.833
N5870 G2 X97.633 Y202.167 I0. J1.2
N5875 G1 Y211.167
N5880 G2 X98.833 Y212.367 I1.2 J0.
N5885 G1 X107.833
N5890 G2 X109.033 Y211.167 I0. J-1.2
N5895 G1 Y202.167
N5900 G2 X108.682 Y201.318 I-1.2 J0.
N5905 G1 Z5.
N5910 X99.759 Y167.633
N5915 Z1. F500.
N5920 Z0.
N5925 S10000
N5930 X98.833 Z-0.248
N5935 G2 X97.633 Y168.833 Z-0.753 I0. J1.2
N5940 G1 Y177.833 Z-3.165
N5945 G2 X98.833 Y179.033 Z-3.67 I1.2 J0.
N5950 G1 X107.833 Z-6.081
N5955 G2 X109.033 Y177.833 Z-6.586 I0. J-1.2
N5960 G1 Y168.833 Z-8.998
N5965 G2 X107.833 Y167.633 Z-9.503 I-1.2 J0.
N5970 G1 X98.833 Z-11.914
N5975 G2 X97.633 Y168.833 Z-12.419 I0. J1.2
N5980 G1 Y177.833 Z-14.831
N5985 G2 X98.833 Y179.033 Z-15.336 I1.2 J0.
N5990 G1 X107.833 Z-17.747
N5995 G2 X108.682 Y178.682 Z-18. I0. J-1.2
N6000 S1200
N6005 X109.033 Y177.833 I-0.849 J-0.849 F1000.
N6010 G1 Y168.833
N6015 G2 X107.833 Y167.633 I-1.2 J0.
N6020 G1 X98.833
N6025 G2 X97.633 Y168.833 I0. J1.2
N6030 G1 Y177.833
N6035 G2 X98.833 Y179.033 I1.2 J0.
N6040 G1 X107.833
N6045 G2 X108.682 Y178.682 I0. J-1.2
N6050 G1 Z5.
N6055 X74.471 Y179.033
N6060 Z1. F500.
N6065 Z0.
N6070 S10000
N6075 X74.5 Z-0.008
N6080 G2 X75.7 Y177.833 Z-0.513 I0. J-1.2
N6085 G1 Y168.833 Z-2.924
N6090 G2 X74.5 Y167.633 Z-3.429 I-1.2 J0.
N6095 G1 X65.5 Z-5.841
N6100 G2 X64.3 Y168.833 Z-6.346 I0. J1.2
N6105 G1 Y177.833 Z-8.758
N6110 G2 X65.5 Y179.033 Z-9.263 I1.2 J0.
N6115 G1 X74.5 Z-11.674
N6120 G2 X75.7 Y177.833 Z-12.179 I0. J-1.2
N6125 G1 Y168.833 Z-14.591
N6130 G2 X74.5 Y167.633 Z-15.096 I-1.2 J0.
N6135 G1 X65.5 Z-17.507
N6140 G2 X64.301 Y168.787 Z-18. I0. J1.2
N6145 S1200
N6150 G1 X64.3 Y168.833 F1000.
N6155 Y177.833
N6160 G2 X65.5 Y179.033 I1.2 J0.
N6165 G1 X74.5
N6170 G2 X75.7 Y177.833 I0. J-1.2
N6175 G1 Y168.833
N6180 G2 X74.5 Y167.633 I-1.2 J0.
N6185 G1 X65.5
N6190 G2 X64.301 Y168.787 I0. J1.2
N6195 G1 Z5.
N6200 X75.7 Y141.867
N6205 Z1. F500.
N6210 Z0.
N6215 S10000
N6220 Y135.5 Z-1.706
N6225 G2 X74.5 Y134.3 Z-2.211 I-1.2 J0.
N6230 G1 X65.5 Z-4.623
N6235 G2 X64.3 Y135.5 Z-5.128 I0. J1.2
N6240 G1 Y144.5 Z-7.539
N6245 G2 X65.5 Y145.7 Z-8.044 I1.2 J0.
N6250 G1 X74.5 Z-10.456
N6255 G2 X75.7 Y144.5 Z-10.961 I0. J-1.2
N6260 G1 Y135.5 Z-13.373
N6265 G2 X74.5 Y134.3 Z-13.878 I-1.2 J0.
N6270 G1 X65.5 Z-16.289
N6275 G2 X64.3 Y135.5 Z-16.794 I0. J1.2
N6280 G1 Y140. Z-18.
N6285 S1200
N6290 Y144.5 F1000.
N6295 G2 X65.5 Y145.7 I1.2 J0.
N6300 G1 X74.5
N6305 G2 X75.7 Y144.5 I0. J-1.2
N6310 G1 Y135.5
N6315 G2 X74.5 Y134.3 I-1.2 J0.
N6320 G1 X65.5
N6325 G2 X64.3 Y135.5 I0. J1.2
N6330 G1 Y140.
N6335 Z5.
N6340 X75.7 Y103.988
N6345 Z1. F500.
N6350 Z0.
N6355 S10000
N6360 Y102.167 Z-0.488
N6365 G2 X74.5 Y100.967 Z-0.993 I-1.2 J0.
N6370 G1 X65.5 Z-3.404
N6375 G2 X64.3 Y102.167 Z-3.91 I0. J1.2
N6380 G1 Y111.167 Z-6.321
N6385 X64.301 Y111.213 Z-6.334
N6390 G2 X65.5 Y112.367 Z-6.826 I1.199 J-0.046
N6395 G1 X74.5 Z-9.238
N6400 G2 X75.7 Y111.167 Z-9.743 I0. J-1.2
N6405 G1 Y102.167 Z-12.154
N6410 G2 X74.5 Y100.967 Z-12.659 I-1.2 J0.
N6415 G1 X65.5 Z-15.071
N6420 G2 X64.3 Y102.167 Z-15.576 I0. J1.2
N6425 G1 Y111.167 Z-17.988
N6430 X64.301 Y111.213 Z-18.
N6435 S1200
N6440 G2 X65.5 Y112.367 I1.199 J-0.046 F1000.
N6445 G1 X74.5
N6450 G2 X75.7 Y111.167 I0. J-1.2
N6455 G1 Y102.167
N6460 G2 X74.5 Y100.967 I-1.2 J0.
N6465 G1 X65.5
N6470 G2 X64.3 Y102.167 I0. J1.2
N6475 G1 Y111.167
N6480 X64.301 Y111.213
N6485 Z5.
N6490 X75.7 Y70.65
N6495 Z1. F500.
N6500 Z0.
N6505 S10000
N6510 Y68.833 Z-0.487
N6515 G2 X74.5 Y67.633 Z-0.992 I-1.2 J0.
N6520 G1 X65.5 Z-3.404
N6525 G2 X64.3 Y68.833 Z-3.909 I0. J1.2
N6530 G1 Y77.833 Z-6.32
N6535 G2 X65.5 Y79.033 Z-6.825 I1.2 J0.
N6540 G1 X74.5 Z-9.237
N6545 G2 X75.7 Y77.833 Z-9.742 I0. J-1.2
N6550 G1 Y68.833 Z-12.153
N6555 G2 X74.5 Y67.633 Z-12.658 I-1.2 J0.
N6560 G1 X65.5 Z-15.07
N6565 G2 X64.3 Y68.833 Z-15.575 I0. J1.2
N6570 G1 Y77.833 Z-17.987
N6575 X64.301 Y77.883 Z-18.
N6580 S1200
N6585 G2 X65.5 Y79.033 I1.199 J-0.05 F1000.
N6590 G1 X74.5
N6595 G2 X75.7 Y77.833 I0. J-1.2
N6600 G1 Y68.833
N6605 G2 X74.5 Y67.633 I-1.2 J0.
N6610 G1 X65.5
N6615 G2 X64.3 Y68.833 I0. J1.2
N6620 G1 Y77.833
N6625 X64.301 Y77.883
N6630 Z5.
N6635 X64.3 Y44.491
N6640 Z1. F500.
N6645 Z0.
N6650 S10000
N6655 Y44.5 Z-0.002
N6660 G2 X65.5 Y45.7 Z-0.507 I1.2 J0.
N6665 G1 X74.5 Z-2.919
N6670 G2 X75.7 Y44.5 Z-3.424 I0. J-1.2
N6675 G1 Y35.5 Z-5.836
N6680 G2 X74.5 Y34.3 Z-6.341 I-1.2 J0.
N6685 G1 X65.5 Z-8.752
N6690 G2 X64.3 Y35.5 Z-9.257 I0. J1.2
N6695 G1 Y44.5 Z-11.669
N6700 G2 X65.5 Y45.7 Z-12.174 I1.2 J0.
N6705 G1 X74.5 Z-14.585
N6710 G2 X75.7 Y44.5 Z-15.09 I0. J-1.2
N6715 G1 Y35.5 Z-17.502
N6720 G2 X74.526 Y34.3 Z-18. I-1.2 J0.
N6725 S1200
N6730 G1 X74.5 F1000.
N6735 X65.5
N6740 G2 X64.3 Y35.5 I0. J1.2
N6745 G1 Y44.5
N6750 G2 X65.5 Y45.7 I1.2 J0.
N6755 G1 X74.5
N6760 G2 X75.7 Y44.5 I0. J-1.2
N6765 G1 Y35.5
N6770 G2 X74.526 Y34.3 I-1.2 J0.
N6775 G1 Z5.
N6780 X97.633 Y44.493
N6785 Z1. F500.
N6790 Z0.
N6795 S10000
N6800 Y44.5 Z-0.002
N6805 G2 X98.833 Y45.7 Z-0.507 I1.2 J0.
N6810 G1 X107.833 Z-2.918
N6815 G2 X109.033 Y44.5 Z-3.423 I0. J-1.2
N6820 G1 Y35.5 Z-5.835
N6825 G2 X107.833 Y34.3 Z-6.34 I-1.2 J0.
N6830 G1 X98.833 Z-8.751
N6835 G2 X97.633 Y35.5 Z-9.257 I0. J1.2
N6840 G1 Y44.5 Z-11.668
N6845 G2 X98.833 Y45.7 Z-12.173 I1.2 J0.
N6850 G1 X107.833 Z-14.585
N6855 G2 X109.033 Y44.5 Z-15.09 I0. J-1.2
N6860 G1 Y35.5 Z-17.501
N6865 G2 X107.856 Y34.3 Z-18. I-1.2 J0.
N6870 S1200
N6875 G1 X107.833 F1000.
N6880 X98.833
N6885 G2 X97.633 Y35.5 I0. J1.2
N6890 G1 Y44.5
N6895 G2 X98.833 Y45.7 I1.2 J0.
N6900 G1 X107.833
N6905 G2 X109.033 Y44.5 I0. J-1.2
N6910 G1 Y35.5
N6915 G2 X107.856 Y34.3 I-1.2 J0.
N6920 G1 Z5.
N6925 X130.967 Y44.497
N6930 Z1. F500.
N6935 Z0.
N6940 S10000
N6945 Y44.5 Z-0.001
N6950 G2 X132.167 Y45.7 Z-0.506 I1.2 J0.
N6955 G1 X141.167 Z-2.917
N6960 G2 X142.367 Y44.5 Z-3.423 I0. J-1.2
N6965 G1 Y35.5 Z-5.834
N6970 G2 X141.167 Y34.3 Z-6.339 I-1.2 J0.
N6975 G1 X132.167 Z-8.751
N6980 G2 X130.967 Y35.5 Z-9.256 I0. J1.2
N6985 G1 Y44.5 Z-11.667
N6990 G2 X132.167 Y45.7 Z-12.172 I1.2 J0.
N6995 G1 X141.167 Z-14.584
N7000 G2 X142.367 Y44.5 Z-15.089 I0. J-1.2
N7005 G1 Y35.5 Z-17.501
N7010 G2 X141.188 Y34.3 Z-18. I-1.2 J0.
N7015 S1200
N7020 G1 X141.167 F1000.
N7025 X132.167
N7030 G2 X130.967 Y35.5 I0. J1.2
N7035 G1 Y44.5
N7040 G2 X132.167 Y45.7 I1.2 J0.
N7045 G1 X141.167
N7050 G2 X142.367 Y44.5 I0. J-1.2
N7055 G1 Y35.5
N7060 G2 X141.188 Y34.3 I-1.2 J0.
N7065 G1 Z5.
N7070 X164.3 Y44.499
N7075 Z1. F500.
N7080 Z0.
N7085 S10000
N7090 Y44.5
N7095 G2 X165.5 Y45.7 Z-0.505 I1.2 J0.
N7100 G1 X174.5 Z-2.917
N7105 G2 X175.7 Y44.5 Z-3.422 I0. J-1.2
N7110 G1 Y35.5 Z-5.833
N7115 G2 X174.5 Y34.3 Z-6.339 I-1.2 J0.
N7120 G1 X165.5 Z-8.75
N7125 G2 X164.3 Y35.5 Z-9.255 I0. J1.2
N7130 G1 Y44.5 Z-11.667
N7135 G2 X165.5 Y45.7 Z-12.172 I1.2 J0.
N7140 G1 X174.5 Z-14.583
N7145 G2 X175.7 Y44.5 Z-15.088 I0. J-1.2
N7150 G1 Y35.5 Z-17.5
N7155 G2 X174.519 Y34.3 Z-18. I-1.2 J0.
N7160 S1200
N7165 G1 X174.5 F1000.
N7170 X165.5
N7175 G2 X164.3 Y35.5 I0. J1.2
N7180 G1 Y44.5
N7185 G2 X165.5 Y45.7 I1.2 J0.
N7190 G1 X174.5
N7195 G2 X175.7 Y44.5 I0. J-1.2
N7200 G1 Y35.5
N7205 G2 X174.519 Y34.3 I-1.2 J0.
N7210 G1 Z5.
N7215 X197.633 Y44.501
N7220 Z1. F500.
N7225 Z0.
N7230 S10000
N7235 G2 X198.833 Y45.7 Z-0.505 I1.2 J-0.001
N7240 G1 X207.833 Z-2.916
N7245 G2 X209.033 Y44.5 Z-3.421 I0. J-1.2
N7250 G1 Y35.5 Z-5.833
N7255 G2 X207.833 Y34.3 Z-6.338 I-1.2 J0.
N7260 G1 X198.833 Z-8.75
N7265 G2 X197.633 Y35.5 Z-9.255 I0. J1.2
N7270 G1 Y44.5 Z-11.666
N7275 G2 X198.833 Y45.7 Z-12.171 I1.2 J0.
N7280 G1 X207.833 Z-14.583
N7285 G2 X209.033 Y44.5 Z-15.088 I0. J-1.2
N7290 G1 Y35.5 Z-17.499
N7295 G2 X207.85 Y34.3 Z-18. I-1.2 J0.
N7300 S1200
N7305 G1 X207.833 F1000.
N7310 X198.833
N7315 G2 X197.633 Y35.5 I0. J1.2
N7320 G1 Y44.5
N7325 G2 X198.833 Y45.7 I1.2 J0.
N7330 G1 X207.833
N7335 G2 X209.033 Y44.5 I0. J-1.2
N7340 G1 Y35.5
N7345 G2 X207.85 Y34.3 I-1.2 J0.
N7350 G1 Z5.
N7355 X230.967 Y44.503
N7360 Z1. F500.
N7365 Z0.
N7370 S10000
N7375 G2 X232.167 Y45.7 Z-0.504 I1.2 J-0.003
N7380 G1 X241.167 Z-2.916
N7385 G2 X242.367 Y44.5 Z-3.421 I0. J-1.2
N7390 G1 Y35.5 Z-5.833
N7395 G2 X241.167 Y34.3 Z-6.338 I-1.2 J0.
N7400 G1 X232.167 Z-8.749
N7405 G2 X230.967 Y35.5 Z-9.254 I0. J1.2
N7410 G1 Y44.5 Z-11.666
N7415 G2 X232.167 Y45.7 Z-12.171 I1.2 J0.
N7420 G1 X241.167 Z-14.582
N7425 G2 X242.367 Y44.5 Z-15.087 I0. J-1.2
N7430 G1 Y35.5 Z-17.499
N7435 G2 X241.182 Y34.3 Z-18. I-1.2 J0.
N7440 S1200
N7445 G1 X241.167 F1000.
N7450 X232.167
N7455 G2 X230.967 Y35.5 I0. J1.2
N7460 G1 Y44.5
N7465 G2 X232.167 Y45.7 I1.2 J0.
N7470 G1 X241.167
N7475 G2 X242.367 Y44.5 I0. J-1.2
N7480 G1 Y35.5
N7485 G2 X241.182 Y34.3 I-1.2 J0.
N7490 G1 Z5.
N7495 X268.133 Y45.7
N7500 Z1. F500.
N7505 Z0.
N7510 S10000
N7515 X274.5 Z-1.706
N7520 G2 X275.7 Y44.5 Z-2.211 I0. J-1.2
N7525 G1 Y35.5 Z-4.623
N7530 G2 X274.5 Y34.3 Z-5.128 I-1.2 J0.
N7535 G1 X265.5 Z-7.539
N7540 G2 X264.3 Y35.5 Z-8.044 I0. J1.2
N7545 G1 Y44.5 Z-10.456
N7550 G2 X265.5 Y45.7 Z-10.961 I1.2 J0.
N7555 G1 X274.5 Z-13.373
N7560 G2 X275.7 Y44.5 Z-13.878 I0. J-1.2
N7565 G1 Y35.5 Z-16.289
N7570 G2 X274.5 Y34.3 Z-16.794 I-1.2 J0.
N7575 G1 X270. Z-18.
N7580 S1200
N7585 X265.5 F1000.
N7590 G2 X264.3 Y35.5 I0. J1.2
N7595 G1 Y44.5
N7600 G2 X265.5 Y45.7 I1.2 J0.
N7605 G1 X274.5
N7610 G2 X275.7 Y44.5 I0. J-1.2
N7615 G1 Y35.5
N7620 G2 X274.5 Y34.3 I-1.2 J0.
N7625 G1 X270.
N7630 Z5.
N7635 X305.981 Y45.7
N7640 Z1. F500.
N7645 Z0.
N7650 S10000
N7655 X307.833 Z-0.496
N7660 G2 X309.033 Y44.5 Z-1.001 I0. J-1.2
N7665 G1 Y35.5 Z-3.413
N7670 G2 X307.833 Y34.3 Z-3.918 I-1.2 J0.
N7675 G1 X298.833 Z-6.329
N7680 X298.818 Z-6.334
N7685 G2 X297.633 Y35.5 Z-6.835 I0.015 J1.2
N7690 G1 Y44.5 Z-9.246
N7695 G2 X298.833 Y45.7 Z-9.751 I1.2 J0.
N7700 G1 X307.833 Z-12.163
N7705 G2 X309.033 Y44.5 Z-12.668 I0. J-1.2
N7710 G1 Y35.5 Z-15.079
N7715 G2 X307.833 Y34.3 Z-15.584 I-1.2 J0.
N7720 G1 X298.833 Z-17.996
N7725 X298.818 Z-18.
N7730 S1200
N7735 G2 X297.633 Y35.5 I0.015 J1.2 F1000.
N7740 G1 Y44.5
N7745 G2 X298.833 Y45.7 I1.2 J0.
N7750 G1 X307.833
N7755 G2 X309.033 Y44.5 I0. J-1.2
N7760 G1 Y35.5
N7765 G2 X307.833 Y34.3 I-1.2 J0.
N7770 G1 X298.833
N7775 X298.818
N7780 Z5.
N7785 X339.317 Y45.7
N7790 Z1. F500.
N7795 Z0.
N7800 S10000
N7805 X341.167 Z-0.496
N7810 G2 X342.367 Y44.5 Z-1.001 I0. J-1.2
N7815 G1 Y35.5 Z-3.412
N7820 G2 X341.167 Y34.3 Z-3.917 I-1.2 J0.
N7825 G1 X332.167 Z-6.329
N7830 X332.15 Z-6.334
N7835 G2 X330.967 Y35.5 Z-6.834 I0.017 J1.2
N7840 G1 Y44.5 Z-9.246
N7845 G2 X332.167 Y45.7 Z-9.751 I1.2 J0.
N7850 G1 X341.167 Z-12.162
N7855 G2 X342.367 Y44.5 Z-12.667 I0. J-1.2
N7860 G1 Y35.5 Z-15.079
N7865 G2 X341.167 Y34.3 Z-15.584 I-1.2 J0.
N7870 G1 X332.167 Z-17.995
N7875 X332.15 Z-18.
N7880 S1200
N7885 G2 X330.967 Y35.5 I0.017 J1.2 F1000.
N7890 G1 Y44.5
N7895 G2 X332.167 Y45.7 I1.2 J0.
N7900 G1 X341.167
N7905 G2 X342.367 Y44.5 I0. J-1.2
N7910 G1 Y35.5
N7915 G2 X341.167 Y34.3 I-1.2 J0.
N7920 G1 X332.167
N7925 X332.15
N7930 Z5.
N7935 X372.652 Y45.7
N7940 Z1. F500.
N7945 Z0.
N7950 S10000
N7955 X374.5 Z-0.495
N7960 G2 X375.7 Y44.5 Z-1. I0. J-1.2
N7965 G1 Y35.5 Z-3.412
N7970 G2 X374.5 Y34.3 Z-3.917 I-1.2 J0.
N7975 G1 X365.5 Z-6.329
N7980 X365.481 Z-6.334
N7985 G2 X364.3 Y35.5 Z-6.834 I0.019 J1.2
N7990 G1 Y44.5 Z-9.245
N7995 G2 X365.5 Y45.7 Z-9.75 I1.2 J0.
N8000 G1 X374.5 Z-12.162
N8005 G2 X375.7 Y44.5 Z-12.667 I0. J-1.2
N8010 G1 Y35.5 Z-15.078
N8015 G2 X374.5 Y34.3 Z-15.583 I-1.2 J0.
N8020 G1 X365.5 Z-17.995
N8025 X365.481 Z-18.
N8030 S1200
N8035 G2 X364.3 Y35.5 I0.019 J1.2 F1000.
N8040 G1 Y44.5
N8045 G2 X365.5 Y45.7 I1.2 J0.
N8050 G1 X374.5
N8055 G2 X375.7 Y44.5 I0. J-1.2
N8060 G1 Y35.5
N8065 G2 X374.5 Y34.3 I-1.2 J0.
N8070 G1 X365.5
N8075 X365.481
N8080 Z5.
N8085 X405.987 Y45.7
N8090 Z1. F500.
N8095 Z0.
N8100 S10000
N8105 X407.833 Z-0.495
N8110 G2 X409.033 Y44.5 Z-1. I0. J-1.2
N8115 G1 Y35.5 Z-3.411
N8120 G2 X407.833 Y34.3 Z-3.916 I-1.2 J0.
N8125 G1 X398.833 Z-6.328
N8130 X398.812 Z-6.334
N8135 G2 X397.633 Y35.5 Z-6.833 I0.021 J1.2
N8140 G1 Y44.5 Z-9.245
N8145 G2 X398.833 Y45.7 Z-9.75 I1.2 J0.
N8150 G1 X407.833 Z-12.161
N8155 G2 X409.033 Y44.5 Z-12.666 I0. J-1.2
N8160 G1 Y35.5 Z-15.078
N8165 G2 X407.833 Y34.3 Z-15.583 I-1.2 J0.
N8170 G1 X398.833 Z-17.994
N8175 X398.812 Z-18.
N8180 S1200
N8185 G2 X397.633 Y35.5 I0.021 J1.2 F1000.
N8190 G1 Y44.5
N8195 G2 X398.833 Y45.7 I1.2 J0.
N8200 G1 X407.833
N8205 G2 X409.033 Y44.5 I0. J-1.2
N8210 G1 Y35.5
N8215 G2 X407.833 Y34.3 I-1.2 J0.
N8220 G1 X398.833
N8225 X398.812
N8230 Z5.
N8235 X439.323 Y45.7
N8240 Z1. F500.
N8245 Z0.
N8250 S10000
N8255 X441.167 Z-0.494
N8260 G2 X442.367 Y44.5 Z-0.999 I0. J-1.2
N8265 G1 Y35.5 Z-3.411
N8270 G2 X441.167 Y34.3 Z-3.916 I-1.2 J0.
N8275 G1 X432.167 Z-6.327
N8280 X432.144 Z-6.334
N8285 G2 X430.967 Y35.5 Z-6.832 I0.023 J1.2
N8290 G1 Y44.5 Z-9.244
N8295 G2 X432.167 Y45.7 Z-9.749 I1.2 J0.
N8300 G1 X441.167 Z-12.16
N8305 G2 X442.367 Y44.5 Z-12.666 I0. J-1.2
N8310 G1 Y35.5 Z-15.077
N8315 G2 X441.167 Y34.3 Z-15.582 I-1.2 J0.
N8320 G1 X432.167 Z-17.994
N8325 X432.144 Z-18.
N8330 S1200
N8335 G2 X430.967 Y35.5 I0.023 J1.2 F1000.
N8340 G1 Y44.5
N8345 G2 X432.167 Y45.7 I1.2 J0.
N8350 G1 X441.167
N8355 G2 X442.367 Y44.5 I0. J-1.2
N8360 G1 Y35.5
N8365 G2 X441.167 Y34.3 I-1.2 J0.
N8370 G1 X432.167
N8375 X432.144
N8380 Z5.
N8385 X472.659 Y45.7
N8390 Z1. F500.
N8395 Z0.
N8400 S10000
N8405 X474.5 Z-0.493
N8410 G2 X475.7 Y44.5 Z-0.998 I0. J-1.2
N8415 G1 Y35.5 Z-3.41
N8420 G2 X474.5 Y34.3 Z-3.915 I-1.2 J0.
N8425 G1 X465.5 Z-6.326
N8430 X465.474 Z-6.334
N8435 G2 X464.3 Y35.5 Z-6.832 I0.026 J1.2
N8440 G1 Y44.5 Z-9.243
N8445 G2 X465.5 Y45.7 Z-9.748 I1.2 J0.
N8450 G1 X474.5 Z-12.16
N8455 G2 X475.7 Y44.5 Z-12.665 I0. J-1.2
N8460 G1 Y35.5 Z-15.076
N8465 G2 X474.5 Y34.3 Z-15.581 I-1.2 J0.
N8470 G1 X465.5 Z-17.993
N8475 X465.474 Z-18.
N8480 S1200
N8485 G2 X464.3 Y35.5 I0.026 J1.2 F1000.
N8490 G1 Y44.5
N8495 G2 X465.5 Y45.7 I1.2 J0.
N8500 G1 X474.5
N8505 G2 X475.7 Y44.5 I0. J-1.2
N8510 G1 Y35.5
N8515 G2 X474.5 Y34.3 I-1.2 J0.
N8520 G1 X465.5
N8525 X465.474
N8530 Z5.
N8535 X465.532 Y67.633
N8540 Z1. F500.
N8545 Z0.
N8550 S10000
N8555 X465.5 Z-0.009
N8560 G2 X464.3 Y68.833 Z-0.514 I0. J1.2
N8565 G1 Y77.833 Z-2.925
N8570 G2 X465.5 Y79.033 Z-3.43 I1.2 J0.
N8575 G1 X474.5 Z-5.842
N8580 G2 X475.7 Y77.833 Z-6.347 I0. J-1.2
N8585 G1 Y68.833 Z-8.758
N8590 G2 X474.5 Y67.633 Z-9.264 I-1.2 J0.
N8595 G1 X465.5 Z-11.675
N8600 G2 X464.3 Y68.833 Z-12.18 I0. J1.2
N8605 G1 Y77.833 Z-14.592
N8610 G2 X465.5 Y79.033 Z-15.097 I1.2 J0.
N8615 G1 X474.5 Z-17.508
N8620 G2 X475.699 Y77.883 Z-18. I0. J-1.2
N8625 S1200
N8630 G1 X475.7 Y77.833 F1000.
N8635 Y68.833
N8640 G2 X474.5 Y67.633 I-1.2 J0.
N8645 G1 X465.5
N8650 G2 X464.3 Y68.833 I0. J1.2
N8655 G1 Y77.833
N8660 G2 X465.5 Y79.033 I1.2 J0.
N8665 G1 X474.5
N8670 G2 X475.699 Y77.883 I0. J-1.2
N8675 G1 Z5.
N8680 X465.529 Y100.967
N8685 Z1. F500.
N8690 Z0.
N8695 S10000
N8700 X465.5 Z-0.008
N8705 G2 X464.3 Y102.167 Z-0.513 I0. J1.2
N8710 G1 Y111.167 Z-2.924
N8715 G2 X465.5 Y112.367 Z-3.429 I1.2 J0.
N8720 G1 X474.5 Z-5.841
N8725 G2 X475.7 Y111.167 Z-6.346 I0. J-1.2
N8730 G1 Y102.167 Z-8.758
N8735 G2 X474.5 Y100.967 Z-9.263 I-1.2 J0.
N8740 G1 X465.5 Z-11.674
N8745 G2 X464.3 Y102.167 Z-12.179 I0. J1.2
N8750 G1 Y111.167 Z-14.591
N8755 G2 X465.5 Y112.367 Z-15.096 I1.2 J0.
N8760 G1 X474.5 Z-17.507
N8765 G2 X475.699 Y111.213 Z-18. I0. J-1.2
N8770 S1200
N8775 G1 X475.7 Y111.167 F1000.
N8780 Y102.167
N8785 G2 X474.5 Y100.967 I-1.2 J0.
N8790 G1 X465.5
N8795 G2 X464.3 Y102.167 I0. J1.2
N8800 G1 Y111.167
N8805 G2 X465.5 Y112.367 I1.2 J0.
N8810 G1 X474.5
N8815 G2 X475.699 Y111.213 I0. J-1.2
N8820 G1 Z5.
N8825 X464.3 Y138.133
N8830 Z1. F500.
N8835 Z0.
N8840 S10000
N8845 Y144.5 Z-1.706
N8850 G2 X465.5 Y145.7 Z-2.211 I1.2 J0.
N8855 G1 X474.5 Z-4.623
N8860 G2 X475.7 Y144.5 Z-5.128 I0. J-1.2
N8865 G1 Y135.5 Z-7.539
N8870 G2 X474.5 Y134.3 Z-8.044 I-1.2 J0.
N8875 G1 X465.5 Z-10.456
N8880 G2 X464.3 Y135.5 Z-10.961 I0. J1.2
N8885 G1 Y144.5 Z-13.373
N8890 G2 X465.5 Y145.7 Z-13.878 I1.2 J0.
N8895 G1 X474.5 Z-16.289
N8900 G2 X475.7 Y144.5 Z-16.794 I0. J-1.2
N8905 G1 Y140. Z-18.
N8910 S1200
N8915 Y135.5 F1000.
N8920 G2 X474.5 Y134.3 I-1.2 J0.
N8925 G1 X465.5
N8930 G2 X464.3 Y135.5 I0. J1.2
N8935 G1 Y144.5
N8940 G2 X465.5 Y145.7 I1.2 J0.
N8945 G1 X474.5
N8950 G2 X475.7 Y144.5 I0. J-1.2
N8955 G1 Y140.
N8960 Z5.
N8965 X464.3 Y176.012
N8970 Z1. F500.
N8975 Z0.
N8980 S10000
N8985 Y177.833 Z-0.488
N8990 G2 X465.5 Y179.033 Z-0.993 I1.2 J0.
N8995 G1 X474.5 Z-3.404
N9000 G2 X475.7 Y177.833 Z-3.91 I0. J-1.2
N9005 G1 Y168.833 Z-6.321
N9010 X475.699 Y168.787 Z-6.334
N9015 G2 X474.5 Y167.633 Z-6.826 I-1.199 J0.046
N9020 G1 X465.5 Z-9.238
N9025 G2 X464.3 Y168.833 Z-9.743 I0. J1.2
N9030 G1 Y177.833 Z-12.154
N9035 G2 X465.5 Y179.033 Z-12.659 I1.2 J0.
N9040 G1 X474.5 Z-15.071
N9045 G2 X475.7 Y177.833 Z-15.576 I0. J-1.2
N9050 G1 Y168.833 Z-17.988
N9055 X475.699 Y168.787 Z-18.
N9060 S1200
N9065 G2 X474.5 Y167.633 I-1.199 J0.046 F1000.
N9070 G1 X465.5
N9075 G2 X464.3 Y168.833 I0. J1.2
N9080 G1 Y177.833
N9085 G2 X465.5 Y179.033 I1.2 J0.
N9090 G1 X474.5
N9095 G2 X475.7 Y177.833 I0. J-1.2
N9100 G1 Y168.833
N9105 X475.699 Y168.787
N9110 Z5.
N9115 X464.3 Y209.35
N9120 Z1. F500.
N9125 Z0.
N9130 S10000
N9135 Y211.167 Z-0.487
N9140 G2 X465.5 Y212.367 Z-0.992 I1.2 J0.
N9145 G1 X474.5 Z-3.404
N9150 G2 X475.7 Y211.167 Z-3.909 I0. J-1.2
N9155 G1 Y202.167 Z-6.32
N9160 X475.699 Y202.117 Z-6.334
N9165 G2 X474.5 Y200.967 Z-6.825 I-1.199 J0.05
N9170 G1 X465.5 Z-9.237
N9175 G2 X464.3 Y202.167 Z-9.742 I0. J1.2
N9180 G1 Y211.167 Z-12.153
N9185 G2 X465.5 Y212.367 Z-12.658 I1.2 J0.
N9190 G1 X474.5 Z-15.07
N9195 G2 X475.7 Y211.167 Z-15.575 I0. J-1.2
N9200 G1 Y202.167 Z-17.987
N9205 X475.699 Y202.117 Z-18.
N9210 S1200
N9215 G2 X474.5 Y200.967 I-1.199 J0.05 F1000.
N9220 G1 X465.5
N9225 G2 X464.3 Y202.167 I0. J1.2
N9230 G1 Y211.167
N9235 G2 X465.5 Y212.367 I1.2 J0.
N9240 G1 X474.5
N9245 G2 X475.7 Y211.167 I0. J-1.2
N9250 G1 Y202.167
N9255 X475.699 Y202.117
N9260 Z5.
N9265 X475.7 Y235.509
N9270 Z1. F500.
N9275 Z0.
N9280 S10000
N9285 Y235.5 Z-0.002
N9290 G2 X474.5 Y234.3 Z-0.507 I-1.2 J0.
N9295 G1 X465.5 Z-2.919
N9300 G2 X464.3 Y235.5 Z-3.424 I0. J1.2
N9305 G1 Y244.5 Z-5.836
N9310 G2 X465.5 Y245.7 Z-6.341 I1.2 J0.
N9315 G1 X474.5 Z-8.752
N9320 G2 X475.7 Y244.5 Z-9.257 I0. J-1.2
N9325 G1 Y235.5 Z-11.669
N9330 G2 X474.5 Y234.3 Z-12.174 I-1.2 J0.
N9335 G1 X465.5 Z-14.585
N9340 G2 X464.3 Y235.5 Z-15.09 I0. J1.2
N9345 G1 Y244.5 Z-17.502
N9350 G2 X465.474 Y245.7 Z-18. I1.2 J0.
N9355 S1200
N9360 G1 X465.5 F1000.
N9365 X474.5
N9370 G2 X475.7 Y244.5 I0. J-1.2
N9375 G1 Y235.5
N9380 G2 X474.5 Y234.3 I-1.2 J0.
N9385 G1 X465.5
N9390 G2 X464.3 Y235.5 I0. J1.2
N9395 G1 Y244.5
N9400 G2 X465.474 Y245.7 I1.2 J0.
N9405 G1 Z5.
N9410 X442.367 Y235.506
N9415 Z1. F500.
N9420 Z0.
N9425 S10000
N9430 Y235.5 Z-0.002
N9435 G2 X441.167 Y234.3 Z-0.507 I-1.2 J0.
N9440 G1 X432.167 Z-2.918
N9445 G2 X430.967 Y235.5 Z-3.423 I0. J1.2
N9450 G1 Y244.5 Z-5.835
N9455 G2 X432.167 Y245.7 Z-6.34 I1.2 J0.
N9460 G1 X441.167 Z-8.751
N9465 G2 X442.367 Y244.5 Z-9.256 I0. J-1.2
N9470 G1 Y235.5 Z-11.668
N9475 G2 X441.167 Y234.3 Z-12.173 I-1.2 J0.
N9480 G1 X432.167 Z-14.585
N9485 G2 X430.967 Y235.5 Z-15.09 I0. J1.2
N9490 G1 Y244.5 Z-17.501
N9495 G2 X432.144 Y245.7 Z-18. I1.2 J0.
N9500 S1200
N9505 G1 X432.167 F1000.
N9510 X441.167
N9515 G2 X442.367 Y244.5 I0. J-1.2
N9520 G1 Y235.5
N9525 G2 X441.167 Y234.3 I-1.2 J0.
N9530 G1 X432.167
N9535 G2 X430.967 Y235.5 I0. J1.2
N9540 G1 Y244.5
N9545 G2 X432.144 Y245.7 I1.2 J0.
N9550 G1 Z5.
N9555 X409.033 Y235.503
N9560 Z1. F500.
N9565 Z0.
N9570 S10000
N9575 Y235.5 Z-0.001
N9580 G2 X407.833 Y234.3 Z-0.506 I-1.2 J0.
N9585 G1 X398.833 Z-2.917
N9590 G2 X397.633 Y235.5 Z-3.423 I0. J1.2
N9595 G1 Y244.5 Z-5.834
N9600 G2 X398.833 Y245.7 Z-6.339 I1.2 J0.
N9605 G1 X407.833 Z-8.751
N9610 G2 X409.033 Y244.5 Z-9.256 I0. J-1.2
N9615 G1 Y235.5 Z-11.667
N9620 G2 X407.833 Y234.3 Z-12.172 I-1.2 J0.
N9625 G1 X398.833 Z-14.584
N9630 G2 X397.633 Y235.5 Z-15.089 I0. J1.2
N9635 G1 Y244.5 Z-17.501
N9640 G2 X398.812 Y245.7 Z-18. I1.2 J0.
N9645 S1200
N9650 G1 X398.833 F1000.
N9655 X407.833
N9660 G2 X409.033 Y244.5 I0. J-1.2
N9665 G1 Y235.5
N9670 G2 X407.833 Y234.3 I-1.2 J0.
N9675 G1 X398.833
N9680 G2 X397.633 Y235.5 I0. J1.2
N9685 G1 Y244.5
N9690 G2 X398.812 Y245.7 I1.2 J0.
N9695 G1 Z5.
N9700 X375.7 Y235.501
N9705 Z1. F500.
N9710 Z0.
N9715 S10000
N9720 Y235.5
N9725 G2 X374.5 Y234.3 Z-0.505 I-1.2 J0.
N9730 G1 X365.5 Z-2.917
N9735 G2 X364.3 Y235.5 Z-3.422 I0. J1.2
N9740 G1 Y244.5 Z-5.833
N9745 G2 X365.5 Y245.7 Z-6.339 I1.2 J0.
N9750 G1 X374.5 Z-8.75
N9755 G2 X375.7 Y244.5 Z-9.255 I0. J-1.2
N9760 G1 Y235.5 Z-11.667
N9765 G2 X374.5 Y234.3 Z-12.172 I-1.2 J0.
N9770 G1 X365.5 Z-14.583
N9775 G2 X364.3 Y235.5 Z-15.088 I0. J1.2
N9780 G1 Y244.5 Z-17.5
N9785 G2 X365.481 Y245.7 Z-18. I1.2 J0.
N9790 S1200
N9795 G1 X365.5 F1000.
N9800 X374.5
N9805 G2 X375.7 Y244.5 I0. J-1.2
N9810 G1 Y235.5
N9815 G2 X374.5 Y234.3 I-1.2 J0.
N9820 G1 X365.5
N9825 G2 X364.3 Y235.5 I0. J1.2
N9830 G1 Y244.5
N9835 G2 X365.481 Y245.7 I1.2 J0.
N9840 G1 Z5.
N9845 X342.367 Y235.499
N9850 Z1. F500.
N9855 Z0.
N9860 S10000
N9865 G2 X341.167 Y234.3 Z-0.505 I-1.2 J0.001
N9870 G1 X332.167 Z-2.916
N9875 G2 X330.967 Y235.5 Z-3.421 I0. J1.2
N9880 G1 Y244.5 Z-5.833
N9885 G2 X332.167 Y245.7 Z-6.338 I1.2 J0.
N9890 G1 X341.167 Z-8.75
N9895 G2 X342.367 Y244.5 Z-9.255 I0. J-1.2
N9900 G1 Y235.5 Z-11.666
N9905 G2 X341.167 Y234.3 Z-12.171 I-1.2 J0.
N9910 G1 X332.167 Z-14.583
N9915 G2 X330.967 Y235.5 Z-15.088 I0. J1.2
N9920 G1 Y244.5 Z-17.499
N9925 G2 X332.15 Y245.7 Z-18. I1.2 J0.
N9930 S1200
N9935 G1 X332.167 F1000.
N9940 X341.167
N9945 G2 X342.367 Y244.5 I0. J-1.2
N9950 G1 Y235.5
N9955 G2 X341.167 Y234.3 I-1.2 J0.
N9960 G1 X332.167
N9965 G2 X330.967 Y235.5 I0. J1.2
N9970 G1 Y244.5
N9975 G2 X332.15 Y245.7 I1.2 J0.
N9980 G1 Z5.
N9985 X309.033 Y235.497
N9990 Z1. F500.
N9995 Z0.
N10000 S10000
N10005 G2 X307.833 Y234.3 Z-0.504 I-1.2 J0.003
N10010 G1 X298.833 Z-2.916
N10015 G2 X297.633 Y235.5 Z-3.421 I0. J1.2
N10020 G1 Y244.5 Z-5.833
N10025 G2 X298.833 Y245.7 Z-6.338 I1.2 J0.
N10030 G1 X307.833 Z-8.749
N10035 G2 X309.033 Y244.5 Z-9.254 I0. J-1.2
N10040 G1 Y235.5 Z-11.666
N10045 G2 X307.833 Y234.3 Z-12.171 I-1.2 J0.
N10050 G1 X298.833 Z-14.582
N10055 G2 X297.633 Y235.5 Z-15.087 I0. J1.2
N10060 G1 Y244.5 Z-17.499
N10065 G2 X298.818 Y245.7 Z-18. I1.2 J0.
N10070 S1200
N10075 G1 X298.833 F1000.
N10080 X307.833
N10085 G2 X309.033 Y244.5 I0. J-1.2
N10090 G1 Y235.5
N10095 G2 X307.833 Y234.3 I-1.2 J0.
N10100 G1 X298.833
N10105 G2 X297.633 Y235.5 I0. J1.2
N10110 G1 Y244.5
N10115 G2 X298.818 Y245.7 I1.2 J0.
N10120 G1 Z5.
N10125 X271.867 Y234.3
N10130 Z1. F500.
N10135 Z0.
N10140 S10000
N10145 X265.5 Z-1.706
N10150 G2 X264.3 Y235.5 Z-2.211 I0. J1.2
N10155 G1 Y244.5 Z-4.623
N10160 G2 X265.5 Y245.7 Z-5.128 I1.2 J0.
N10165 G1 X274.5 Z-7.539
N10170 G2 X275.7 Y244.5 Z-8.044 I0. J-1.2
N10175 G1 Y235.5 Z-10.456
N10180 G2 X274.5 Y234.3 Z-10.961 I-1.2 J0.
N10185 G1 X265.5 Z-13.373
N10190 G2 X264.3 Y235.5 Z-13.878 I0. J1.2
N10195 G1 Y244.5 Z-16.289
N10200 G2 X265.5 Y245.7 Z-16.794 I1.2 J0.
N10205 G1 X270. Z-18.
N10210 S1200
N10215 X274.5 F1000.
N10220 G2 X275.7 Y244.5 I0. J-1.2
N10225 G1 Y235.5
N10230 G2 X274.5 Y234.3 I-1.2 J0.
N10235 G1 X265.5
N10240 G2 X264.3 Y235.5 I0. J1.2
N10245 G1 Y244.5
N10250 G2 X265.5 Y245.7 I1.2 J0.
N10255 G1 X270.
N10260 Z5.
N10265 X234.019 Y234.3
N10270 Z1. F500.
N10275 Z0.
N10280 S10000
N10285 X232.167 Z-0.496
N10290 G2 X230.967 Y235.5 Z-1.001 I0. J1.2
N10295 G1 Y244.5 Z-3.413
N10300 G2 X232.167 Y245.7 Z-3.918 I1.2 J0.
N10305 G1 X241.167 Z-6.329
N10310 X241.182 Z-6.334
N10315 G2 X242.367 Y244.5 Z-6.835 I-0.015 J-1.2
N10320 G1 Y235.5 Z-9.246
N10325 G2 X241.167 Y234.3 Z-9.751 I-1.2 J0.
N10330 G1 X232.167 Z-12.163
N10335 G2 X230.967 Y235.5 Z-12.668 I0. J1.2
N10340 G1 Y244.5 Z-15.079
N10345 G2 X232.167 Y245.7 Z-15.584 I1.2 J0.
N10350 G1 X241.167 Z-17.996
N10355 X241.182 Z-18.
N10360 S1200
N10365 G2 X242.367 Y244.5 I-0.015 J-1.2 F1000.
N10370 G1 Y235.5
N10375 G2 X241.167 Y234.3 I-1.2 J0.
N10380 G1 X232.167
N10385 G2 X230.967 Y235.5 I0. J1.2
N10390 G1 Y244.5
N10395 G2 X232.167 Y245.7 I1.2 J0.
N10400 G1 X241.167
N10405 X241.182
N10410 Z5.
N10415 X200.683 Y234.3
N10420 Z1. F500.
N10425 Z0.
N10430 S10000
N10435 X198.833 Z-0.496
N10440 G2 X197.633 Y235.5 Z-1.001 I0. J1.2
N10445 G1 Y244.5 Z-3.412
N10450 G2 X198.833 Y245.7 Z-3.917 I1.2 J0.
N10455 G1 X207.833 Z-6.329
N10460 X207.85 Z-6.334
N10465 G2 X209.033 Y244.5 Z-6.834 I-0.017 J-1.2
N10470 G1 Y235.5 Z-9.246
N10475 G2 X207.833 Y234.3 Z-9.751 I-1.2 J0.
N10480 G1 X198.833 Z-12.162
N10485 G2 X197.633 Y235.5 Z-12.667 I0. J1.2
N10490 G1 Y244.5 Z-15.079
N10495 G2 X198.833 Y245.7 Z-15.584 I1.2 J0.
N10500 G1 X207.833 Z-17.995
N10505 X207.85 Z-18.
N10510 S1200
N10515 G2 X209.033 Y244.5 I-0.017 J-1.2 F1000.
N10520 G1 Y235.5
N10525 G2 X207.833 Y234.3 I-1.2 J0.
N10530 G1 X198.833
N10535 G2 X197.633 Y235.5 I0. J1.2
N10540 G1 Y244.5
N10545 G2 X198.833 Y245.7 I1.2 J0.
N10550 G1 X207.833
N10555 X207.85
N10560 Z5.
N10565 X167.348 Y234.3
N10570 Z1. F500.
N10575 Z0.
N10580 S10000
N10585 X165.5 Z-0.495
N10590 G2 X164.3 Y235.5 Z-1. I0. J1.2
N10595 G1 Y244.5 Z-3.412
N10600 G2 X165.5 Y245.7 Z-3.917 I1.2 J0.
N10605 G1 X174.5 Z-6.329
N10610 X174.519 Z-6.334
N10615 G2 X175.7 Y244.5 Z-6.834 I-0.019 J-1.2
N10620 G1 Y235.5 Z-9.245
N10625 G2 X174.5 Y234.3 Z-9.75 I-1.2 J0.
N10630 G1 X165.5 Z-12.162
N10635 G2 X164.3 Y235.5 Z-12.667 I0. J1.2
N10640 G1 Y244.5 Z-15.078
N10645 G2 X165.5 Y245.7 Z-15.583 I1.2 J0.
N10650 G1 X174.5 Z-17.995
N10655 X174.519 Z-18.
N10660 S1200
N10665 G2 X175.7 Y244.5 I-0.019 J-1.2 F1000.
N10670 G1 Y235.5
N10675 G2 X174.5 Y234.3 I-1.2 J0.
N10680 G1 X165.5
N10685 G2 X164.3 Y235.5 I0. J1.2
N10690 G1 Y244.5
N10695 G2 X165.5 Y245.7 I1.2 J0.
N10700 G1 X174.5
N10705 X174.519
N10710 Z5.
N10715 X134.013 Y234.3
N10720 Z1. F500.
N10725 Z0.
N10730 S10000
N10735 X132.167 Z-0.495
N10740 G2 X130.967 Y235.5 Z-1. I0. J1.2
N10745 G1 Y244.5 Z-3.411
N10750 G2 X132.167 Y245.7 Z-3.916 I1.2 J0.
N10755 G1 X141.167 Z-6.328
N10760 X141.188 Z-6.334
N10765 G2 X142.367 Y244.5 Z-6.833 I-0.021 J-1.2
N10770 G1 Y235.5 Z-9.245
N10775 G2 X141.167 Y234.3 Z-9.75 I-1.2 J0.
N10780 G1 X132.167 Z-12.161
N10785 G2 X130.967 Y235.5 Z-12.666 I0. J1.2
N10790 G1 Y244.5 Z-15.078
N10795 G2 X132.167 Y245.7 Z-15.583 I1.2 J0.
N10800 G1 X141.167 Z-17.994
N10805 X141.188 Z-18.
N10810 S1200
N10815 G2 X142.367 Y244.5 I-0.021 J-1.2 F1000.
N10820 G1 Y235.5
N10825 G2 X141.167 Y234.3 I-1.2 J0.
N10830 G1 X132.167
N10835 G2 X130.967 Y235.5 I0. J1.2
N10840 G1 Y244.5
N10845 G2 X132.167 Y245.7 I1.2 J0.
N10850 G1 X141.167
N10855 X141.188
N10860 Z5.
N10865 X100.678 Y234.3
N10870 Z1. F500.
N10875 Z0.
N10880 S10000
N10885 X98.833 Z-0.494
N10890 G2 X97.633 Y235.5 Z-0.999 I0. J1.2
N10895 G1 Y244.5 Z-3.411
N10900 G2 X98.833 Y245.7 Z-3.916 I1.2 J0.
N10905 G1 X107.833 Z-6.327
N10910 X107.856 Z-6.334
N10915 G2 X109.033 Y244.5 Z-6.832 I-0.023 J-1.2
N10920 G1 Y235.5 Z-9.244
N10925 G2 X107.833 Y234.3 Z-9.749 I-1.2 J0.
N10930 G1 X98.833 Z-12.161
N10935 G2 X97.633 Y235.5 Z-12.666 I0. J1.2
N10940 G1 Y244.5 Z-15.077
N10945 G2 X98.833 Y245.7 Z-15.582 I1.2 J0.
N10950 G1 X107.833 Z-17.994
N10955 X107.856 Z-18.
N10960 S1200
N10965 G2 X109.033 Y244.5 I-0.023 J-1.2 F1000.
N10970 G1 Y235.5
N10975 G2 X107.833 Y234.3 I-1.2 J0.
N10980 G1 X98.833
N10985 G2 X97.633 Y235.5 I0. J1.2
N10990 G1 Y244.5
N10995 G2 X98.833 Y245.7 I1.2 J0.
N11000 G1 X107.833
N11005 X107.856
N11010 Z5.
N11015 X67.341 Y234.3
N11020 Z1. F500.
N11025 Z0.
N11030 S10000
N11035 X65.5 Z-0.493
N11040 G2 X64.3 Y235.5 Z-0.998 I0. J1.2
N11045 G1 Y244.5 Z-3.41
N11050 G2 X65.5 Y245.7 Z-3.915 I1.2 J0.
N11055 G1 X74.5 Z-6.326
N11060 X74.526 Z-6.334
N11065 G2 X75.7 Y244.5 Z-6.832 I-0.026 J-1.2
N11070 G1 Y235.5 Z-9.243
N11075 G2 X74.5 Y234.3 Z-9.748 I-1.2 J0.
N11080 G1 X65.5 Z-12.16
N11085 G2 X64.3 Y235.5 Z-12.665 I0. J1.2
N11090 G1 Y244.5 Z-15.076
N11095 G2 X65.5 Y245.7 Z-15.581 I1.2 J0.
N11100 G1 X74.5 Z-17.993
N11105 X74.526 Z-18.
N11110 S1200
N11115 G2 X75.7 Y244.5 I-0.026 J-1.2 F1000.
N11120 G1 Y235.5
N11125 G2 X74.5 Y234.3 I-1.2 J0.
N11130 G1 X65.5
N11135 G2 X64.3 Y235.5 I0. J1.2
N11140 G1 Y244.5
N11145 G2 X65.5 Y245.7 I1.2 J0.
N11150 G1 X74.5
N11155 X74.526
N11160 Z5.
N11165 X74.468 Y212.367
N11170 Z1. F500.
N11175 Z0.
N11180 S10000
N11185 X74.5 Z-0.009
N11190 G2 X75.7 Y211.167 Z-0.514 I0. J-1.2
N11195 G1 Y202.167 Z-2.925
N11200 G2 X74.5 Y200.967 Z-3.43 I-1.2 J0.
N11205 G1 X65.5 Z-5.842
N11210 G2 X64.3 Y202.167 Z-6.347 I0. J1.2
N11215 G1 Y211.167 Z-8.758
N11220 G2 X65.5 Y212.367 Z-9.264 I1.2 J0.
N11225 G1 X74.5 Z-11.675
N11230 G2 X75.7 Y211.167 Z-12.18 I0. J-1.2
N11235 G1 Y202.167 Z-14.592
N11240 G2 X74.5 Y200.967 Z-15.097 I-1.2 J0.
N11245 G1 X65.5 Z-17.508
N11250 G2 X64.301 Y202.117 Z-18. I0. J1.2
N11255 S1200
N11260 G1 X64.3 Y202.167 F1000.
N11265 Y211.167
N11270 G2 X65.5 Y212.367 I1.2 J0.
N11275 G1 X74.5
N11280 G2 X75.7 Y211.167 I0. J-1.2
N11285 G1 Y202.167
N11290 G2 X74.5 Y200.967 I-1.2 J0.
N11295 G1 X65.5
N11300 G2 X64.301 Y202.117 I0. J1.2
N11305 G1 Z5.
N11310 X97.633 Y143.574
N11315 Z1. F500.
N11320 Z0.
N11325 S10000
N11330 Y144.5 Z-0.248
N11335 G2 X98.833 Y145.7 Z-0.753 I1.2 J0.
N11340 G1 X107.833 Z-3.165
N11345 G2 X109.033 Y144.5 Z-3.67 I0. J-1.2
N11350 G1 Y135.5 Z-6.081
N11355 G2 X107.833 Y134.3 Z-6.586 I-1.2 J0.
N11360 G1 X98.833 Z-8.998
N11365 G2 X97.633 Y135.5 Z-9.503 I0. J1.2
N11370 G1 Y144.5 Z-11.914
N11375 G2 X98.833 Y145.7 Z-12.419 I1.2 J0.
N11380 G1 X107.833 Z-14.831
N11385 G2 X109.033 Y144.5 Z-15.336 I0. J-1.2
N11390 G1 Y135.5 Z-17.747
N11395 G2 X108.682 Y134.651 Z-18. I-1.2 J0.
N11400 S1200
N11405 X107.833 Y134.3 I-0.849 J0.849 F1000.
N11410 G1 X98.833
N11415 G2 X97.633 Y135.5 I0. J1.2
N11420 G1 Y144.5
N11425 G2 X98.833 Y145.7 I1.2 J0.
N11430 G1 X107.833
N11435 G2 X109.033 Y144.5 I0. J-1.2
N11440 G1 Y135.5
N11445 G2 X108.682 Y134.651 I-1.2 J0.
N11450 G1 Z5.
N11455 X97.633 Y110.241
N11460 Z1. F500.
N11465 Z0.
N11470 S10000
N11475 Y111.167 Z-0.248
N11480 G2 X98.833 Y112.367 Z-0.753 I1.2 J0.
N11485 G1 X107.833 Z-3.165
N11490 G2 X109.033 Y111.167 Z-3.67 I0. J-1.2
N11495 G1 Y102.167 Z-6.081
N11500 G2 X107.833 Y100.967 Z-6.586 I-1.2 J0.
N11505 G1 X98.833 Z-8.998
N11510 G2 X97.633 Y102.167 Z-9.503 I0. J1.2
N11515 G1 Y111.167 Z-11.914
N11520 G2 X98.833 Y112.367 Z-12.419 I1.2 J0.
N11525 G1 X107.833 Z-14.831
N11530 G2 X109.033 Y111.167 Z-15.336 I0. J-1.2
N11535 G1 Y102.167 Z-17.747
N11540 G2 X108.682 Y101.318 Z-18. I-1.2 J0.
N11545 S1200
N11550 X107.833 Y100.967 I-0.849 J0.849 F1000.
N11555 G1 X98.833
N11560 G2 X97.633 Y102.167 I0. J1.2
N11565 G1 Y111.167
N11570 G2 X98.833 Y112.367 I1.2 J0.
N11575 G1 X107.833
N11580 G2 X109.033 Y111.167 I0. J-1.2
N11585 G1 Y102.167
N11590 G2 X108.682 Y101.318 I-1.2 J0.
N11595 G1 Z5.
N11600 X99.759 Y67.633
N11605 Z1. F500.
N11610 Z0.
N11615 S10000
N11620 X98.833 Z-0.248
N11625 G2 X97.633 Y68.833 Z-0.753 I0. J1.2
N11630 G1 Y77.833 Z-3.165
N11635 G2 X98.833 Y79.033 Z-3.67 I1.2 J0.
N11640 G1 X107.833 Z-6.081
N11645 G2 X109.033 Y77.833 Z-6.586 I0. J-1.2
N11650 G1 Y68.833 Z-8.998
N11655 G2 X107.833 Y67.633 Z-9.503 I-1.2 J0.
N11660 G1 X98.833 Z-11.914
N11665 G2 X97.633 Y68.833 Z-12.419 I0. J1.2
N11670 G1 Y77.833 Z-14.831
N11675 G2 X98.833 Y79.033 Z-15.336 I1.2 J0.
N11680 G1 X107.833 Z-17.747
N11685 G2 X108.682 Y78.682 Z-18. I0. J-1.2
N11690 S1200
N11695 X109.033 Y77.833 I-0.849 J-0.849 F1000.
N11700 G1 Y68.833
N11705 G2 X107.833 Y67.633 I-1.2 J0.
N11710 G1 X98.833
N11715 G2 X97.633 Y68.833 I0. J1.2
N11720 G1 Y77.833
N11725 G2 X98.833 Y79.033 I1.2 J0.
N11730 G1 X107.833
N11735 G2 X108.682 Y78.682 I0. J-1.2
N11740 G1 Z5.
N11745 X142.367 Y69.758
N11750 Z1. F500.
N11755 Z0.
N11760 S10000
N11765 Y68.833 Z-0.248
N11770 G2 X141.167 Y67.633 Z-0.753 I-1.2 J0.
N11775 G1 X132.167 Z-3.164
N11780 G2 X130.967 Y68.833 Z-3.669 I0. J1.2
N11785 G1 Y77.833 Z-6.081
N11790 G2 X132.167 Y79.033 Z-6.586 I1.2 J0.
N11795 G1 X141.167 Z-8.998
N11800 G2 X142.367 Y77.833 Z-9.503 I0. J-1.2
N11805 G1 Y68.833 Z-11.914
N11810 G2 X141.167 Y67.633 Z-12.419 I-1.2 J0.
N11815 G1 X132.167 Z-14.831
N11820 G2 X130.967 Y68.833 Z-15.336 I0. J1.2
N11825 G1 Y77.833 Z-17.747
N11830 G2 X131.318 Y78.682 Z-18. I1.2 J0.
N11835 S1200
N11840 X132.167 Y79.033 I0.849 J-0.849 F1000.
N11845 G1 X141.167
N11850 G2 X142.367 Y77.833 I0. J-1.2
N11855 G1 Y68.833
N11860 G2 X141.167 Y67.633 I-1.2 J0.
N11865 G1 X132.167
N11870 G2 X130.967 Y68.833 I0. J1.2
N11875 G1 Y77.833
N11880 G2 X131.318 Y78.682 I1.2 J0.
N11885 G1 Z5.
N11890 X140.242 Y112.367
N11895 Z1. F500.
N11900 Z0.
N11905 S10000
N11910 X141.167 Z-0.248
N11915 G2 X142.367 Y111.167 Z-0.753 I0. J-1.2
N11920 G1 Y102.167 Z-3.164
N11925 G2 X141.167 Y100.967 Z-3.669 I-1.2 J0.
N11930 G1 X132.167 Z-6.081
N11935 G2 X130.967 Y102.167 Z-6.586 I0. J1.2
N11940 G1 Y111.167 Z-8.998
N11945 G2 X132.167 Y112.367 Z-9.503 I1.2 J0.
N11950 G1 X141.167 Z-11.914
N11955 G2 X142.367 Y111.167 Z-12.419 I0. J-1.2
N11960 G1 Y102.167 Z-14.831
N11965 G2 X141.167 Y100.967 Z-15.336 I-1.2 J0.
N11970 G1 X132.167 Z-17.747
N11975 G2 X131.318 Y101.318 Z-18. I0. J1.2
N11980 S1200
N11985 X130.967 Y102.167 I0.849 J0.849 F1000.
N11990 G1 Y111.167
N11995 G2 X132.167 Y112.367 I1.2 J0.
N12000 G1 X141.167
N12005 G2 X142.367 Y111.167 I0. J-1.2
N12010 G1 Y102.167
N12015 G2 X141.167 Y100.967 I-1.2 J0.
N12020 G1 X132.167
N12025 G2 X131.318 Y101.318 I0. J1.2
N12030 G1 Z5.
N12035 X140.242 Y145.7
N12040 Z1. F500.
N12045 Z0.
N12050 S10000
N12055 X141.167 Z-0.248
N12060 G2 X142.367 Y144.5 Z-0.753 I0. J-1.2
N12065 G1 Y135.5 Z-3.164
N12070 G2 X141.167 Y134.3 Z-3.669 I-1.2 J0.
N12075 G1 X132.167 Z-6.081
N12080 G2 X130.967 Y135.5 Z-6.586 I0. J1.2
N12085 G1 Y144.5 Z-8.998
N12090 G2 X132.167 Y145.7 Z-9.503 I1.2 J0.
N12095 G1 X141.167 Z-11.914
N12100 G2 X142.367 Y144.5 Z-12.419 I0. J-1.2
N12105 G1 Y135.5 Z-14.831
N12110 G2 X141.167 Y134.3 Z-15.336 I-1.2 J0.
N12115 G1 X132.167 Z-17.747
N12120 G2 X131.318 Y134.651 Z-18. I0. J1.2
N12125 S1200
N12130 X130.967 Y135.5 I0.849 J0.849 F1000.
N12135 G1 Y144.5
N12140 G2 X132.167 Y145.7 I1.2 J0.
N12145 G1 X141.167
N12150 G2 X142.367 Y144.5 I0. J-1.2
N12155 G1 Y135.5
N12160 G2 X141.167 Y134.3 I-1.2 J0.
N12165 G1 X132.167
N12170 G2 X131.318 Y134.651 I0. J1.2
N12175 G1 Z5.
N12180 X166.425 Y134.3
N12185 Z1. F500.
N12190 Z0.
N12195 S10000
N12200 X165.5 Z-0.248
N12205 G2 X164.3 Y135.5 Z-0.753 I0. J1.2
N12210 G1 Y144.5 Z-3.164
N12215 G2 X165.5 Y145.7 Z-3.669 I1.2 J0.
N12220 G1 X174.5 Z-6.081
N12225 G2 X175.7 Y144.5 Z-6.586 I0. J-1.2
N12230 G1 Y135.5 Z-8.998
N12235 G2 X174.5 Y134.3 Z-9.503 I-1.2 J0.
N12240 G1 X165.5 Z-11.914
N12245 G2 X164.3 Y135.5 Z-12.419 I0. J1.2
N12250 G1 Y144.5 Z-14.831
N12255 G2 X165.5 Y145.7 Z-15.336 I1.2 J0.
N12260 G1 X174.5 Z-17.747
N12265 G2 X175.349 Y145.349 Z-18. I0. J-1.2
N12270 S1200
N12275 X175.7 Y144.5 I-0.849 J-0.849 F1000.
N12280 G1 Y135.5
N12285 G2 X174.5 Y134.3 I-1.2 J0.
N12290 G1 X165.5
N12295 G2 X164.3 Y135.5 I0. J1.2
N12300 G1 Y144.5
N12305 G2 X165.5 Y145.7 I1.2 J0.
N12310 G1 X174.5
N12315 G2 X175.349 Y145.349 I0. J-1.2
N12320 G1 Z5.
N12325 X164.3 Y110.242
N12330 Z1. F500.
N12335 Z0.
N12340 S10000
N12345 Y111.167 Z-0.248
N12350 G2 X165.5 Y112.367 Z-0.753 I1.2 J0.
N12355 G1 X174.5 Z-3.164
N12360 G2 X175.7 Y111.167 Z-3.669 I0. J-1.2
N12365 G1 Y102.167 Z-6.081
N12370 G2 X174.5 Y100.967 Z-6.586 I-1.2 J0.
N12375 G1 X165.5 Z-8.998
N12380 G2 X164.3 Y102.167 Z-9.503 I0. J1.2
N12385 G1 Y111.167 Z-11.914
N12390 G2 X165.5 Y112.367 Z-12.419 I1.2 J0.
N12395 G1 X174.5 Z-14.831
N12400 G2 X175.7 Y111.167 Z-15.336 I0. J-1.2
N12405 G1 Y102.167 Z-17.747
N12410 G2 X175.349 Y101.318 Z-18. I-1.2 J0.
N12415 S1200
N12420 X174.5 Y100.967 I-0.849 J0.849 F1000.
N12425 G1 X165.5
N12430 G2 X164.3 Y102.167 I0. J1.2
N12435 G1 Y111.167
N12440 G2 X165.5 Y112.367 I1.2 J0.
N12445 G1 X174.5
N12450 G2 X175.7 Y111.167 I0. J-1.2
N12455 G1 Y102.167
N12460 G2 X175.349 Y101.318 I-1.2 J0.
N12465 G1 Z5.
N12470 X175.7 Y69.758
N12475 Z1. F500.
N12480 Z0.
N12485 S10000
N12490 Y68.833 Z-0.248
N12495 G2 X174.5 Y67.633 Z-0.753 I-1.2 J0.
N12500 G1 X165.5 Z-3.164
N12505 G2 X164.3 Y68.833 Z-3.669 I0. J1.2
N12510 G1 Y77.833 Z-6.081
N12515 G2 X165.5 Y79.033 Z-6.586 I1.2 J0.
N12520 G1 X174.5 Z-8.998
N12525 G2 X175.7 Y77.833 Z-9.503 I0. J-1.2
N12530 G1 Y68.833 Z-11.914
N12535 G2 X174.5 Y67.633 Z-12.419 I-1.2 J0.
N12540 G1 X165.5 Z-14.831
N12545 G2 X164.3 Y68.833 Z-15.336 I0. J1.2
N12550 G1 Y77.833 Z-17.747
N12555 G2 X164.651 Y78.682 Z-18. I1.2 J0.
N12560 S1200
N12565 X165.5 Y79.033 I0.849 J-0.849 F1000.
N12570 G1 X174.5
N12575 G2 X175.7 Y77.833 I0. J-1.2
N12580 G1 Y68.833
N12585 G2 X174.5 Y67.633 I-1.2 J0.
N12590 G1 X165.5
N12595 G2 X164.3 Y68.833 I0. J1.2
N12600 G1 Y77.833
N12605 G2 X164.651 Y78.682 I1.2 J0.
N12610 G1 Z5.
N12615 X173.575 Y212.367
N12620 Z1. F500.
N12625 Z0.
N12630 S10000
N12635 X174.5 Z-0.248
N12640 G2 X175.7 Y211.167 Z-0.753 I0. J-1.2
N12645 G1 Y202.167 Z-3.164
N12650 G2 X174.5 Y200.967 Z-3.669 I-1.2 J0.
N12655 G1 X165.5 Z-6.081
N12660 G2 X164.3 Y202.167 Z-6.586 I0. J1.2
N12665 G1 Y211.167 Z-8.998
N12670 G2 X165.5 Y212.367 Z-9.503 I1.2 J0.
N12675 G1 X174.5 Z-11.914
N12680 G2 X175.7 Y211.167 Z-12.419 I0. J-1.2
N12685 G1 Y202.167 Z-14.831
N12690 G2 X174.5 Y200.967 Z-15.336 I-1.2 J0.
N12695 G1 X165.5 Z-17.747
N12700 G2 X164.651 Y201.318 Z-18. I0. J1.2
N12705 S1200
N12710 X164.3 Y202.167 I0.849 J0.849 F1000.
N12715 G1 Y211.167
N12720 G2 X165.5 Y212.367 I1.2 J0.
N12725 G1 X174.5
N12730 G2 X175.7 Y211.167 I0. J-1.2
N12735 G1 Y202.167
N12740 G2 X174.5 Y200.967 I-1.2 J0.
N12745 G1 X165.5
N12750 G2 X164.651 Y201.318 I0. J1.2
N12755 G1 Z5.
N12760 X264.3 Y210.242
N12765 Z1. F500.
N12770 Z0.
N12775 S10000
N12780 Y211.167 Z-0.248
N12785 G2 X265.5 Y212.367 Z-0.753 I1.2 J0.
N12790 G1 X274.5 Z-3.164
N12795 G2 X275.7 Y211.167 Z-3.669 I0. J-1.2
N12800 G1 Y202.167 Z-6.081
N12805 G2 X274.5 Y200.967 Z-6.586 I-1.2 J0.
N12810 G1 X265.5 Z-8.998
N12815 G2 X264.3 Y202.167 Z-9.503 I0. J1.2
N12820 G1 Y211.167 Z-11.914
N12825 G2 X265.5 Y212.367 Z-12.419 I1.2 J0.
N12830 G1 X274.5 Z-14.831
N12835 G2 X275.7 Y211.167 Z-15.336 I0. J-1.2
N12840 G1 Y202.167 Z-17.747
N12845 G2 X275.349 Y201.318 Z-18. I-1.2 J0.
N12850 S1200
N12855 X274.5 Y200.967 I-0.849 J0.849 F1000.
N12860 G1 X265.5
N12865 G2 X264.3 Y202.167 I0. J1.2
N12870 G1 Y211.167
N12875 G2 X265.5 Y212.367 I1.2 J0.
N12880 G1 X274.5
N12885 G2 X275.7 Y211.167 I0. J-1.2
N12890 G1 Y202.167
N12895 G2 X275.349 Y201.318 I-1.2 J0.
N12900 G1 Z5.
N12905 X299.758 Y134.3
N12910 Z1. F500.
N12915 Z0.
N12920 S10000
N12925 X298.833 Z-0.248
N12930 G2 X297.633 Y135.5 Z-0.753 I0. J1.2
N12935 G1 Y144.5 Z-3.164
N12940 G2 X298.833 Y145.7 Z-3.669 I1.2 J0.
N12945 G1 X307.833 Z-6.081
N12950 G2 X309.033 Y144.5 Z-6.586 I0. J-1.2
N12955 G1 Y135.5 Z-8.998
N12960 G2 X307.833 Y134.3 Z-9.503 I-1.2 J0.
N12965 G1 X298.833 Z-11.914
N12970 G2 X297.633 Y135.5 Z-12.419 I0. J1.2
N12975 G1 Y144.5 Z-14.831
N12980 G2 X298.833 Y145.7 Z-15.336 I1.2 J0.
N12985 G1 X307.833 Z-17.747
N12990 G2 X308.682 Y145.349 Z-18. I0. J-1.2
N12995 S1200
N13000 X309.033 Y144.5 I-0.849 J-0.849 F1000.
N13005 G1 Y135.5
N13010 G2 X307.833 Y134.3 I-1.2 J0.
N13015 G1 X298.833
N13020 G2 X297.633 Y135.5 I0. J1.2
N13025 G1 Y144.5
N13030 G2 X298.833 Y145.7 I1.2 J0.
N13035 G1 X307.833
N13040 G2 X308.682 Y145.349 I0. J-1.2
N13045 G1 Z5.
N13050 X340.242 Y145.7
N13055 Z1. F500.
N13060 Z0.
N13065 S10000
N13070 X341.167 Z-0.248
N13075 G2 X342.367 Y144.5 Z-0.753 I0. J-1.2
N13080 G1 Y135.5 Z-3.164
N13085 G2 X341.167 Y134.3 Z-3.669 I-1.2 J0.
N13090 G1 X332.167 Z-6.081
N13095 G2 X330.967 Y135.5 Z-6.586 I0. J1.2
N13100 G1 Y144.5 Z-8.998
N13105 G2 X332.167 Y145.7 Z-9.503 I1.2 J0.
N13110 G1 X341.167 Z-11.914
N13115 G2 X342.367 Y144.5 Z-12.419 I0. J-1.2
N13120 G1 Y135.5 Z-14.831
N13125 G2 X341.167 Y134.3 Z-15.336 I-1.2 J0.
N13130 G1 X332.167 Z-17.747
N13135 G2 X331.318 Y134.651 Z-18. I0. J1.2
N13140 S1200
N13145 X330.967 Y135.5 I0.849 J0.849 F1000.
N13150 G1 Y144.5
N13155 G2 X332.167 Y145.7 I1.2 J0.
N13160 G1 X341.167
N13165 G2 X342.367 Y144.5 I0. J-1.2
N13170 G1 Y135.5
N13175 G2 X341.167 Y134.3 I-1.2 J0.
N13180 G1 X332.167
N13185 G2 X331.318 Y134.651 I0. J1.2
N13190 G1 Z5.
N13195 X373.575 Y145.7
N13200 Z1. F500.
N13205 Z0.
N13210 S10000
N13215 X374.5 Z-0.248
N13220 G2 X375.7 Y144.5 Z-0.753 I0. J-1.2
N13225 G1 Y135.5 Z-3.164
N13230 G2 X374.5 Y134.3 Z-3.669 I-1.2 J0.
N13235 G1 X365.5 Z-6.081
N13240 G2 X364.3 Y135.5 Z-6.586 I0. J1.2
N13245 G1 Y144.5 Z-8.998
N13250 G2 X365.5 Y145.7 Z-9.503 I1.2 J0.
N13255 G1 X374.5 Z-11.914
N13260 G2 X375.7 Y144.5 Z-12.419 I0. J-1.2
N13265 G1 Y135.5 Z-14.831
N13270 G2 X374.5 Y134.3 Z-15.336 I-1.2 J0.
N13275 G1 X365.5 Z-17.747
N13280 G2 X364.651 Y134.651 Z-18. I0. J1.2
N13285 S1200
N13290 X364.3 Y135.5 I0.849 J0.849 F1000.
N13295 G1 Y144.5
N13300 G2 X365.5 Y145.7 I1.2 J0.
N13305 G1 X374.5
N13310 G2 X375.7 Y144.5 I0. J-1.2
N13315 G1 Y135.5
N13320 G2 X374.5 Y134.3 I-1.2 J0.
N13325 G1 X365.5
N13330 G2 X364.651 Y134.651 I0. J1.2
N13335 G1 Z15.
N13340 M9
N13345 M30
%
