%
(13X13_V3_RIGHT_BACK_6MM)
(T2  D=6. CR=0. - ZMIN=-1. - FLAT END MILL)
N10 G90 G94 G17 G91.1
N15 G21
(WHEN USING FUSION 360 FOR PERSONAL USE, THE FEEDRATE OF)
(RAPID MOVES IS REDUCED TO MATCH THE FEEDRATE OF CUTTING)
(MOVES, WHICH CAN INCREASE MACHINING TIME. UNRESTRICTED RAPID)
(MOVES ARE AVAILABLE WITH A FUSION 360 SUBSCRIPTION.)
(2D CONTOUR3)
N20 T2 M6
N25 S16000 M3
N30 G54
N35 M8
N40 G0 X271.7 Y-17.271
N45 G43 Z15. H2
N50 G1 Z5. F2900.
N55 Z1. F1800.
N60 Z-0.4
N65 G18 G2 X272.3 Z-1. I0.6 K0. F2900.
N70 G1 X272.9
N75 G17 G3 X273.5 Y-16.671 I0. J0.6
N80 G1 Y218.662
N85 X266.5
N90 Y-16.671
N95 G3 X267.1 Y-17.271 I0.6 J0.
N100 G1 X267.7
N105 G18 G2 X268.3 Z-0.4 I0. K0.6
N110 G1 Z5.
N115 X238.367
N120 Z1. F1800.
N125 Z-0.4
N130 G2 X238.967 Z-1. I0.6 K0. F2900.
N135 G1 X239.567
N140 G17 G3 X240.167 Y-16.671 I0. J0.6
N145 G1 Y218.662
N150 X233.167
N155 Y-16.671
N160 G3 X233.767 Y-17.271 I0.6 J0.
N165 G1 X234.367
N170 G18 G2 X234.967 Z-0.4 I0. K0.6
N175 G1 Z5.
N180 X205.033
N185 Z1. F1800.
N190 Z-0.4
N195 G2 X205.633 Z-1. I0.6 K0. F2900.
N200 G1 X206.233
N205 G17 G3 X206.833 Y-16.671 I0. J0.6
N210 G1 Y218.662
N215 X199.833
N220 Y-16.671
N225 G3 X200.433 Y-17.271 I0.6 J0.
N230 G1 X201.033
N235 G18 G2 X201.633 Z-0.4 I0. K0.6
N240 G1 Z5.
N245 X171.7
N250 Z1. F1800.
N255 Z-0.4
N260 G2 X172.3 Z-1. I0.6 K0. F2900.
N265 G1 X172.9
N270 G17 G3 X173.5 Y-16.671 I0. J0.6
N275 G1 Y218.662
N280 X166.5
N285 Y-16.671
N290 G3 X167.1 Y-17.271 I0.6 J0.
N295 G1 X167.7
N300 G18 G2 X168.3 Z-0.4 I0. K0.6
N305 G1 Z5.
N310 X138.367
N315 Z1. F1800.
N320 Z-0.4
N325 G2 X138.967 Z-1. I0.6 K0. F2900.
N330 G1 X139.567
N335 G17 G3 X140.167 Y-16.671 I0. J0.6
N340 G1 Y218.662
N345 X133.167
N350 Y-16.671
N355 G3 X133.767 Y-17.271 I0.6 J0.
N360 G1 X134.367
N365 G18 G2 X134.967 Z-0.4 I0. K0.6
N370 G1 Z5.
N375 X105.033
N380 Z1. F1800.
N385 Z-0.4
N390 G2 X105.633 Z-1. I0.6 K0. F2900.
N395 G1 X106.233
N400 G17 G3 X106.833 Y-16.671 I0. J0.6
N405 G1 Y218.662
N410 X99.833
N415 Y-16.671
N420 G3 X100.433 Y-17.271 I0.6 J0.
N425 G1 X101.033
N430 G18 G2 X101.633 Z-0.4 I0. K0.6
N435 G1 Z5.
N440 X71.7
N445 Z1. F1800.
N450 Z-0.4
N455 G2 X72.3 Z-1. I0.6 K0. F2900.
N460 G1 X72.9
N465 G17 G3 X73.5 Y-16.671 I0. J0.6
N470 G1 Y218.662
N475 X66.5
N480 Y-16.671
N485 G3 X67.1 Y-17.271 I0.6 J0.
N490 G1 X67.7
N495 G18 G2 X68.3 Z-0.4 I0. K0.6
N500 G1 Z5.
N505 X305.033
N510 Z1. F1800.
N515 Z-0.4
N520 G2 X305.633 Z-1. I0.6 K0. F2900.
N525 G1 X306.233
N530 G17 G3 X306.833 Y-16.671 I0. J0.6
N535 G1 Y218.662
N540 X299.833
N545 Y-16.671
N550 G3 X300.433 Y-17.271 I0.6 J0.
N555 G1 X301.033
N560 G18 G2 X301.633 Z-0.4 I0. K0.6
N565 G1 Z5.
N570 X338.367
N575 Z1. F1800.
N580 Z-0.4
N585 G2 X338.967 Z-1. I0.6 K0. F2900.
N590 G1 X339.567
N595 G17 G3 X340.167 Y-16.671 I0. J0.6
N600 G1 Y218.662
N605 X333.167
N610 Y-16.671
N615 G3 X333.767 Y-17.271 I0.6 J0.
N620 G1 X334.367
N625 G18 G2 X334.967 Z-0.4 I0. K0.6
N630 G1 Z5.
N635 X371.7
N640 Z1. F1800.
N645 Z-0.4
N650 G2 X372.3 Z-1. I0.6 K0. F2900.
N655 G1 X372.9
N660 G17 G3 X373.5 Y-16.671 I0. J0.6
N665 G1 Y218.662
N670 X366.5
N675 Y-16.671
N680 G3 X367.1 Y-17.271 I0.6 J0.
N685 G1 X367.7
N690 G18 G2 X368.3 Z-0.4 I0. K0.6
N695 G1 Z5.
N700 X405.033
N705 Z1. F1800.
N710 Z-0.4
N715 G2 X405.633 Z-1. I0.6 K0. F2900.
N720 G1 X406.233
N725 G17 G3 X406.833 Y-16.671 I0. J0.6
N730 G1 Y218.662
N735 X399.833
N740 Y-16.671
N745 G3 X400.433 Y-17.271 I0.6 J0.
N750 G1 X401.033
N755 G18 G2 X401.633 Z-0.4 I0. K0.6
N760 G1 Z5.
N765 X438.367
N770 Z1. F1800.
N775 Z-0.4
N780 G2 X438.967 Z-1. I0.6 K0. F2900.
N785 G1 X439.567
N790 G17 G3 X440.167 Y-16.671 I0. J0.6
N795 G1 Y218.662
N800 X433.167
N805 Y-16.671
N810 G3 X433.767 Y-17.271 I0.6 J0.
N815 G1 X434.367
N820 G18 G2 X434.967 Z-0.4 I0. K0.6
N825 G1 Z5.
N830 X471.7
N835 Z1. F1800.
N840 Z-0.4
N845 G2 X472.3 Z-1. I0.6 K0. F2900.
N850 G1 X472.9
N855 G17 G3 X473.5 Y-16.671 I0. J0.6
N860 G1 Y218.662
N865 X466.5
N870 Y-16.671
N875 G3 X467.1 Y-17.271 I0.6 J0.
N880 G1 X467.7
N885 G18 G2 X468.3 Z-0.4 I0. K0.6
N890 G1 Z15.
N895 G17
N900 M9
N905 M30
%
