( Made using CamBam - http://www.cambam.co.uk )
( gatenboard_groot_13x13_half 11/20/2017 11:27:22 PM )
( T0 : 2.0 )
(G21 G90 G64 G40)
G0 Z20.0
( gaten7x11 )
G64 G17
M3 S10000
G0 X4.333 Y286.667
G0 Z10.0
G1 F300.0 Z6.0
G1 F1000.0 Y298.667
G2 X11.333 Y305.667 I7.0 J0.0
G1 X23.333
G2 X30.333 Y298.667 I0.0 J-7.0
G1 Y286.667
G2 X23.333 Y279.667 I-7.0 J0.0
G1 X11.333
G2 X4.333 Y286.667 I0.0 J7.0
G1 F300.0 Z3.0
G1 F1000.0 Y298.667
G2 X11.333 Y305.667 I7.0 J0.0
G1 X23.333
G2 X30.333 Y298.667 I0.0 J-7.0
G1 Y286.667
G2 X23.333 Y279.667 I-7.0 J0.0
G1 X11.333
G2 X4.333 Y286.667 I0.0 J7.0
G1 F300.0 Z0.0
G1 F1000.0 Y298.667
G2 X4.449 Y299.934 I7.0 J0.0
G2 X4.896 Y301.417 Z2.0 I6.884 J-1.267
G2 X5.937 Y303.125 I6.437 J-2.751
G2 X7.05 Y304.204 Z0.0 I5.396 J-4.459
G2 X11.333 Y305.667 I4.283 J-5.537
G1 X23.333
G2 X29.872 Y301.167 I0.0 J-7.0
G2 X30.262 Y299.667 Z2.0 I-6.538 J-2.5
G2 X30.333 Y298.667 I-6.928 J-1.0
G1 Y297.667
G1 Y296.167 Z0.0
G1 Y286.667
G2 X23.333 Y279.667 I-7.0 J0.0
G1 X17.645
G1 X16.145 Z2.0
G1 X14.145
G1 X12.645 Z0.0
G1 X11.333
G2 X4.333 Y286.667 I0.0 J7.0
G0 Z20.0
G0 X-3.0
G0 Z10.0
G1 F300.0 Z6.0
G2 F1000.0 X-10.0 Y279.667 I-7.0 J0.0
G1 X-22.0
G2 X-29.0 Y286.667 I0.0 J7.0
G1 Y298.667
G2 X-22.0 Y305.667 I7.0 J0.0
G1 X-10.0
G2 X-3.0 Y298.667 I0.0 J-7.0
G1 Y286.667
G1 F300.0 Z3.0
G2 F1000.0 X-10.0 Y279.667 I-7.0 J0.0
G1 X-22.0
G2 X-29.0 Y286.667 I0.0 J7.0
G1 Y298.667
G2 X-22.0 Y305.667 I7.0 J0.0
G1 X-10.0
G2 X-3.0 Y298.667 I0.0 J-7.0
G1 Y286.667
G1 F300.0 Z0.0
G2 F1000.0 X-6.342 Y280.699 I-7.0 J0.0
G2 X-7.744 Y280.04 Z2.0 I-3.658 J5.968
G2 X-9.71 Y279.673 I-2.256 J6.627
G2 X-10.0 Y279.667 Z1.614 I-0.29 J6.994
G1 X-11.235 Z0.0
G1 X-22.0
G2 X-29.0 Y286.667 I0.0 J7.0
G1 Y296.555
G1 Y298.057 Z2.0
G1 Y298.667
G2 X-28.861 Y300.053 I7.0 J0.0
G2 X-28.388 Y301.528 Z0.0 I6.861 J-1.386
G2 X-22.0 Y305.667 I6.388 J-2.862
G1 X-10.0
G2 X-3.462 Y301.167 I0.0 J-7.0
G2 X-3.072 Y299.667 Z2.0 I-6.538 J-2.5
G2 X-3.0 Y298.667 I-6.928 J-1.0
G1 Y297.667
G1 Y296.167 Z0.0
G1 Y286.667
G0 Z20.0
G0 X-7.818 Y271.984
G0 Z10.0
G1 F300.0 Z6.0
G2 F1000.0 X-3.0 Y265.333 I-2.182 J-6.651
G1 Y253.333
G2 X-10.0 Y246.333 I-7.0 J0.0
G1 X-22.0
G2 X-29.0 Y253.333 I0.0 J7.0
G1 Y265.333
G2 X-22.0 Y272.333 I7.0 J0.0
G1 X-10.0
G2 X-7.818 Y271.984 I0.0 J-7.0
G1 F300.0 Z3.0
G2 F1000.0 X-3.0 Y265.333 I-2.182 J-6.651
G1 Y253.333
G2 X-10.0 Y246.333 I-7.0 J0.0
G1 X-22.0
G2 X-29.0 Y253.333 I0.0 J7.0
G1 Y265.333
G2 X-22.0 Y272.333 I7.0 J0.0
G1 X-10.0
G2 X-7.818 Y271.984 I0.0 J-7.0
G1 F300.0 Z0.0
G2 F1000.0 X-3.462 Y267.833 I-2.182 J-6.651
G2 X-3.072 Y266.333 Z2.0 I-6.538 J-2.5
G2 X-3.0 Y265.333 I-6.928 J-1.0
G1 Y264.333
G1 Y262.833 Z0.0
G1 Y253.333
G2 X-6.368 Y247.349 I-7.0 J0.0
G2 X-7.774 Y246.697 Z2.0 I-3.632 J5.984
G2 X-9.741 Y246.338 I-2.226 J6.637
G2 X-10.0 Y246.333 Z1.655 I-0.259 J6.995
G1 X-11.265 Z0.0
G1 X-22.0
G2 X-29.0 Y253.333 I0.0 J7.0
G1 Y261.956
G1 Y263.456 Z2.0
G1 Y265.333
G2 X-28.999 Y265.456 I7.0 J0.0
G2 X-28.809 Y266.956 Z0.0 I6.999 J-0.122
G2 X-22.0 Y272.333 I6.809 J-1.622
G1 X-10.0
G2 X-7.818 Y271.984 I0.0 J-7.0
G0 Z20.0
G0 X4.721 Y267.63
G0 Z10.0
G1 F300.0 Z6.0
G2 F1000.0 X11.333 Y272.333 I6.613 J-2.297
G1 X23.333
G2 X30.333 Y265.333 I0.0 J-7.0
G1 Y253.333
G2 X23.333 Y246.333 I-7.0 J0.0
G1 X11.333
G2 X4.333 Y253.333 I0.0 J7.0
G1 Y265.333
G2 X4.721 Y267.63 I7.0 J0.0
G1 F300.0 Z3.0
G2 F1000.0 X11.333 Y272.333 I6.613 J-2.297
G1 X23.333
G2 X30.333 Y265.333 I0.0 J-7.0
G1 Y253.333
G2 X23.333 Y246.333 I-7.0 J0.0
G1 X11.333
G2 X4.333 Y253.333 I0.0 J7.0
G1 Y265.333
G2 X4.721 Y267.63 I7.0 J0.0
G1 F300.0 Z1.42
G2 F1000.0 X4.896 Y268.084 Z2.0 I6.613 J-2.297
G2 X5.937 Y269.792 I6.437 J-2.751
G2 X7.05 Y270.87 Z0.0 I5.396 J-4.459
G2 X11.333 Y272.333 I4.283 J-5.537
G1 X23.333
G2 X29.872 Y267.833 I0.0 J-7.0
G2 X30.262 Y266.333 Z2.0 I-6.538 J-2.5
G2 X30.333 Y265.333 I-6.928 J-1.0
G1 Y264.333
G1 Y262.833 Z0.0
G1 Y253.333
G2 X23.333 Y246.333 I-7.0 J0.0
G1 X17.645
G1 X16.145 Z2.0
G1 X14.145
G1 X12.645 Z0.0
G1 X11.333
G2 X4.333 Y253.333 I0.0 J7.0
G1 Y265.333
G2 X4.449 Y266.6 I7.0 J0.0
G2 X4.721 Y267.63 Z1.42 I6.884 J-1.267
G0 Z20.0
G0 X10.056 Y238.882
G0 Z10.0
G1 F300.0 Z6.0
G2 F1000.0 X11.333 Y239.0 I1.277 J-6.882
G1 X23.333
G2 X30.333 Y232.0 I0.0 J-7.0
G1 Y220.0
G2 X23.333 Y213.0 I-7.0 J0.0
G1 X11.333
G2 X4.333 Y220.0 I0.0 J7.0
G1 Y232.0
G2 X10.056 Y238.882 I7.0 J0.0
G1 F300.0 Z3.0
G2 F1000.0 X11.333 Y239.0 I1.277 J-6.882
G1 X23.333
G2 X30.333 Y232.0 I0.0 J-7.0
G1 Y220.0
G2 X23.333 Y213.0 I-7.0 J0.0
G1 X11.333
G2 X4.333 Y220.0 I0.0 J7.0
G1 Y232.0
G2 X10.056 Y238.882 I7.0 J0.0
G1 F300.0 Z0.0
G2 F1000.0 X11.333 Y239.0 I1.277 J-6.882
G1 X23.333
G2 X29.872 Y234.5 I0.0 J-7.0
G2 X30.262 Y233.0 Z2.0 I-6.538 J-2.5
G2 X30.333 Y232.0 I-6.928 J-1.0
G1 Y231.0
G1 Y229.5 Z0.0
G1 Y220.0
G2 X23.333 Y213.0 I-7.0 J0.0
G1 X17.645
G1 X16.145 Z2.0
G1 X14.145
G1 X12.645 Z0.0
G1 X11.333
G2 X4.333 Y220.0 I0.0 J7.0
G1 Y232.0
G2 X4.449 Y233.267 I7.0 J0.0
G2 X4.896 Y234.751 Z2.0 I6.884 J-1.267
G2 X5.937 Y236.459 I6.437 J-2.751
G2 X7.05 Y237.537 Z0.0 I5.396 J-4.459
G2 X10.056 Y238.882 I4.283 J-5.537
G0 Z20.0
G0 X-3.379 Y234.272
G0 Z10.0
G1 F300.0 Z6.0
G2 F1000.0 X-3.0 Y232.0 I-6.621 J-2.272
G1 Y220.0
G2 X-10.0 Y213.0 I-7.0 J0.0
G1 X-22.0
G2 X-29.0 Y220.0 I0.0 J7.0
G1 Y232.0
G2 X-22.0 Y239.0 I7.0 J0.0
G1 X-10.0
G2 X-3.379 Y234.272 I0.0 J-7.0
G1 F300.0 Z3.0
G2 F1000.0 X-3.0 Y232.0 I-6.621 J-2.272
G1 Y220.0
G2 X-10.0 Y213.0 I-7.0 J0.0
G1 X-22.0
G2 X-29.0 Y220.0 I0.0 J7.0
G1 Y232.0
G2 X-22.0 Y239.0 I7.0 J0.0
G1 X-10.0
G2 X-3.379 Y234.272 I0.0 J-7.0
G1 F300.0 Z0.323
G2 F1000.0 X-3.072 Y233.0 Z2.0 I-6.621 J-2.272
G2 X-3.0 Y232.0 I-6.928 J-1.0
G1 Y231.0
G1 Y229.5 Z0.0
G1 Y220.0
G2 X-6.468 Y213.956 I-7.0 J0.0
G2 X-7.885 Y213.327 Z2.0 I-3.532 J6.044
G2 X-9.858 Y213.001 I-2.115 J6.673
G2 X-10.0 Y213.0 Z1.811 I-0.142 J6.999
G1 X-11.378 Z0.0
G1 X-22.0
G2 X-29.0 Y220.0 I0.0 J7.0
G1 Y229.482
G1 Y230.982 Z2.0
G1 Y232.0
G2 X-28.931 Y232.982 I7.0 J0.0
G2 X-28.545 Y234.482 Z0.0 I6.931 J-0.982
G2 X-22.0 Y239.0 I6.545 J-2.482
G1 X-10.0
G2 X-3.462 Y234.5 I0.0 J-7.0
G2 X-3.379 Y234.272 Z0.323 I-6.538 J-2.5
G0 Z20.0
G0 X-8.72 Y205.549
G0 Z10.0
G1 F300.0 Z6.0
G2 F1000.0 X-3.0 Y198.667 I-1.28 J-6.882
G1 Y186.667
G2 X-10.0 Y179.667 I-7.0 J0.0
G1 X-22.0
G2 X-29.0 Y186.667 I0.0 J7.0
G1 Y198.667
G2 X-22.0 Y205.667 I7.0 J0.0
G1 X-10.0
G2 X-8.72 Y205.549 I0.0 J-7.0
G1 F300.0 Z3.0
G2 F1000.0 X-3.0 Y198.667 I-1.28 J-6.882
G1 Y186.667
G2 X-10.0 Y179.667 I-7.0 J0.0
G1 X-22.0
G2 X-29.0 Y186.667 I0.0 J7.0
G1 Y198.667
G2 X-22.0 Y205.667 I7.0 J0.0
G1 X-10.0
G2 X-8.72 Y205.549 I0.0 J-7.0
G1 F300.0 Z0.0
G2 F1000.0 X-3.462 Y201.167 I-1.28 J-6.882
G2 X-3.072 Y199.667 Z2.0 I-6.538 J-2.5
G2 X-3.0 Y198.667 I-6.928 J-1.0
G1 Y197.667
G1 Y196.167 Z0.0
G1 Y186.667
G2 X-7.5 Y180.128 I-7.0 J0.0
G2 X-9.0 Y179.738 Z2.0 I-2.5 J6.538
G2 X-10.0 Y179.667 I-1.0 J6.928
G1 X-11.0
G1 X-12.5 Z0.0
G1 X-22.0
G2 X-29.0 Y186.667 I0.0 J7.0
G1 Y195.028
G1 Y196.528 Z2.0
G1 Y198.528
G1 Y198.667 Z1.815
G2 X-28.866 Y200.028 Z0.0 I7.0 J0.0
G2 X-22.0 Y205.667 I6.866 J-1.362
G1 X-10.0
G2 X-8.72 Y205.549 I0.0 J-7.0
G0 Z20.0
G0 X4.712 Y200.939
G0 Z10.0
G1 F300.0 Z6.0
G2 F1000.0 X11.333 Y205.667 I6.621 J-2.272
G1 X23.333
G2 X30.333 Y198.667 I0.0 J-7.0
G1 Y186.667
G2 X23.333 Y179.667 I-7.0 J0.0
G1 X11.333
G2 X4.333 Y186.667 I0.0 J7.0
G1 Y198.667
G2 X4.712 Y200.939 I7.0 J0.0
G1 F300.0 Z3.0
G2 F1000.0 X11.333 Y205.667 I6.621 J-2.272
G1 X23.333
G2 X30.333 Y198.667 I0.0 J-7.0
G1 Y186.667
G2 X23.333 Y179.667 I-7.0 J0.0
G1 X11.333
G2 X4.333 Y186.667 I0.0 J7.0
G1 Y198.667
G2 X4.712 Y200.939 I7.0 J0.0
G1 F300.0 Z1.386
G2 F1000.0 X4.896 Y201.417 Z2.0 I6.621 J-2.272
G2 X5.937 Y203.125 I6.437 J-2.751
G2 X7.05 Y204.204 Z0.0 I5.396 J-4.459
G2 X11.333 Y205.667 I4.283 J-5.537
G1 X23.333
G2 X29.872 Y201.167 I0.0 J-7.0
G2 X30.262 Y199.667 Z2.0 I-6.538 J-2.5
G2 X30.333 Y198.667 I-6.928 J-1.0
G1 Y197.667
G1 Y196.167 Z0.0
G1 Y186.667
G2 X23.333 Y179.667 I-7.0 J0.0
G1 X17.645
G1 X16.145 Z2.0
G1 X14.145
G1 X12.645 Z0.0
G1 X11.333
G2 X4.333 Y186.667 I0.0 J7.0
G1 Y198.667
G2 X4.449 Y199.934 I7.0 J0.0
G2 X4.712 Y200.939 Z1.386 I6.884 J-1.267
G0 Z20.0
G0 X10.054 Y172.215
G0 Z10.0
G1 F300.0 Z6.0
G2 F1000.0 X11.333 Y172.333 I1.28 J-6.882
G1 X23.333
G2 X30.333 Y165.333 I0.0 J-7.0
G1 Y153.333
G2 X23.333 Y146.333 I-7.0 J0.0
G1 X11.333
G2 X4.333 Y153.333 I0.0 J7.0
G1 Y165.333
G2 X10.054 Y172.215 I7.0 J0.0
G1 F300.0 Z3.0
G2 F1000.0 X11.333 Y172.333 I1.28 J-6.882
G1 X23.333
G2 X30.333 Y165.333 I0.0 J-7.0
G1 Y153.333
G2 X23.333 Y146.333 I-7.0 J0.0
G1 X11.333
G2 X4.333 Y153.333 I0.0 J7.0
G1 Y165.333
G2 X10.054 Y172.215 I7.0 J0.0
G1 F300.0 Z0.0
G2 F1000.0 X11.333 Y172.333 I1.28 J-6.882
G1 X23.333
G2 X29.872 Y167.833 I0.0 J-7.0
G2 X30.262 Y166.333 Z2.0 I-6.538 J-2.5
G2 X30.333 Y165.333 I-6.928 J-1.0
G1 Y164.333
G1 Y162.833 Z0.0
G1 Y153.333
G2 X23.333 Y146.333 I-7.0 J0.0
G1 X17.645
G1 X16.145 Z2.0
G1 X14.145
G1 X12.645 Z0.0
G1 X11.333
G2 X4.333 Y153.333 I0.0 J7.0
G1 Y165.333
G2 X4.449 Y166.6 I7.0 J0.0
G2 X4.896 Y168.084 Z2.0 I6.884 J-1.267
G2 X5.937 Y169.792 I6.437 J-2.751
G2 X7.05 Y170.87 Z0.0 I5.396 J-4.459
G2 X10.054 Y172.215 I4.283 J-5.537
G0 Z20.0
G0 X-3.379 Y167.606
G0 Z10.0
G1 F300.0 Z6.0
G2 F1000.0 X-3.0 Y165.333 I-6.621 J-2.272
G1 Y153.333
G2 X-10.0 Y146.333 I-7.0 J0.0
G1 X-22.0
G2 X-29.0 Y153.333 I0.0 J7.0
G1 Y165.333
G2 X-22.0 Y172.333 I7.0 J0.0
G1 X-10.0
G2 X-3.379 Y167.606 I0.0 J-7.0
G1 F300.0 Z3.0
G2 F1000.0 X-3.0 Y165.333 I-6.621 J-2.272
G1 Y153.333
G2 X-10.0 Y146.333 I-7.0 J0.0
G1 X-22.0
G2 X-29.0 Y153.333 I0.0 J7.0
G1 Y165.333
G2 X-22.0 Y172.333 I7.0 J0.0
G1 X-10.0
G2 X-3.379 Y167.606 I0.0 J-7.0
G1 F300.0 Z0.323
G2 F1000.0 X-3.072 Y166.333 Z2.0 I-6.621 J-2.272
G2 X-3.0 Y165.333 I-6.928 J-1.0
G1 Y164.333
G1 Y162.833 Z0.0
G1 Y153.333
G2 X-6.206 Y147.451 I-7.0 J0.0
G2 X-7.593 Y146.76 Z2.0 I-3.794 J5.883
G2 X-9.55 Y146.348 I-2.407 J6.573
G2 X-10.0 Y146.333 Z1.4 I-0.45 J6.986
G1 X-11.08 Z0.0
G1 X-22.0
G2 X-29.0 Y153.333 I0.0 J7.0
G1 Y161.763
G1 Y163.263 Z2.0
G1 Y165.263
G1 Y165.333 Z1.906
G2 X-28.853 Y166.763 Z0.0 I7.0 J0.0
G2 X-22.0 Y172.333 I6.853 J-1.429
G1 X-10.0
G2 X-3.462 Y167.833 I0.0 J-7.0
G2 X-3.379 Y167.606 Z0.323 I-6.538 J-2.5
G0 Z20.0
G0 X-8.72 Y138.882
G0 Z10.0
G1 F300.0 Z6.0
G2 F1000.0 X-3.0 Y132.0 I-1.28 J-6.882
G1 Y120.0
G2 X-10.0 Y113.0 I-7.0 J0.0
G1 X-22.0
G2 X-29.0 Y120.0 I0.0 J7.0
G1 Y132.0
G2 X-22.0 Y139.0 I7.0 J0.0
G1 X-10.0
G2 X-8.72 Y138.882 I0.0 J-7.0
G1 F300.0 Z3.0
G2 F1000.0 X-3.0 Y132.0 I-1.28 J-6.882
G1 Y120.0
G2 X-10.0 Y113.0 I-7.0 J0.0
G1 X-22.0
G2 X-29.0 Y120.0 I0.0 J7.0
G1 Y132.0
G2 X-22.0 Y139.0 I7.0 J0.0
G1 X-10.0
G2 X-8.72 Y138.882 I0.0 J-7.0
G1 F300.0 Z0.0
G2 F1000.0 X-3.462 Y134.5 I-1.28 J-6.882
G2 X-3.072 Y133.0 Z2.0 I-6.538 J-2.5
G2 X-3.0 Y132.0 I-6.928 J-1.0
G1 Y131.0
G1 Y129.5 Z0.0
G1 Y120.0
G2 X-7.5 Y113.462 I-7.0 J0.0
G2 X-9.0 Y113.072 Z2.0 I-2.5 J6.538
G2 X-10.0 Y113.0 I-1.0 J6.928
G1 X-11.0
G1 X-12.5 Z0.0
G1 X-22.0
G2 X-29.0 Y120.0 I0.0 J7.0
G1 Y128.101
G1 Y129.601 Z2.0
G1 Y131.601
G1 Y132.0 Z1.468
G2 X-28.913 Y133.101 Z0.0 I7.0 J0.0
G2 X-22.0 Y139.0 I6.913 J-1.101
G1 X-10.0
G2 X-8.72 Y138.882 I0.0 J-7.0
G0 Z20.0
G0 X4.712 Y134.272
G0 Z10.0
G1 F300.0 Z6.0
G2 F1000.0 X11.333 Y139.0 I6.621 J-2.272
G1 X23.333
G2 X30.333 Y132.0 I0.0 J-7.0
G1 Y120.0
G2 X23.333 Y113.0 I-7.0 J0.0
G1 X11.333
G2 X4.333 Y120.0 I0.0 J7.0
G1 Y132.0
G2 X4.712 Y134.272 I7.0 J0.0
G1 F300.0 Z3.0
G2 F1000.0 X11.333 Y139.0 I6.621 J-2.272
G1 X23.333
G2 X30.333 Y132.0 I0.0 J-7.0
G1 Y120.0
G2 X23.333 Y113.0 I-7.0 J0.0
G1 X11.333
G2 X4.333 Y120.0 I0.0 J7.0
G1 Y132.0
G2 X4.712 Y134.272 I7.0 J0.0
G1 F300.0 Z1.386
G2 F1000.0 X4.896 Y134.751 Z2.0 I6.621 J-2.272
G2 X5.937 Y136.459 I6.437 J-2.751
G2 X7.05 Y137.537 Z0.0 I5.396 J-4.459
G2 X11.333 Y139.0 I4.283 J-5.537
G1 X23.333
G2 X29.872 Y134.5 I0.0 J-7.0
G2 X30.262 Y133.0 Z2.0 I-6.538 J-2.5
G2 X30.333 Y132.0 I-6.928 J-1.0
G1 Y131.0
G1 Y129.5 Z0.0
G1 Y120.0
G2 X23.333 Y113.0 I-7.0 J0.0
G1 X17.645
G1 X16.145 Z2.0
G1 X14.145
G1 X12.645 Z0.0
G1 X11.333
G2 X4.333 Y120.0 I0.0 J7.0
G1 Y132.0
G2 X4.449 Y133.267 I7.0 J0.0
G2 X4.712 Y134.272 Z1.386 I6.884 J-1.267
G0 Z20.0
G0 X10.054 Y105.549
G0 Z10.0
G1 F300.0 Z6.0
G2 F1000.0 X11.333 Y105.667 I1.28 J-6.882
G1 X23.333
G2 X30.333 Y98.667 I0.0 J-7.0
G1 Y86.667
G2 X23.333 Y79.667 I-7.0 J0.0
G1 X11.333
G2 X4.333 Y86.667 I0.0 J7.0
G1 Y98.667
G2 X10.054 Y105.549 I7.0 J0.0
G1 F300.0 Z3.0
G2 F1000.0 X11.333 Y105.667 I1.28 J-6.882
G1 X23.333
G2 X30.333 Y98.667 I0.0 J-7.0
G1 Y86.667
G2 X23.333 Y79.667 I-7.0 J0.0
G1 X11.333
G2 X4.333 Y86.667 I0.0 J7.0
G1 Y98.667
G2 X10.054 Y105.549 I7.0 J0.0
G1 F300.0 Z0.0
G2 F1000.0 X11.333 Y105.667 I1.28 J-6.882
G1 X12.645
G1 X14.145 Z2.0
G1 X16.145
G1 X17.645 Z0.0
G1 X23.333
G2 X30.333 Y98.667 I0.0 J-7.0
G1 Y89.167
G1 Y87.667 Z2.0
G1 Y86.667
G2 X30.262 Y85.667 I-7.0 J0.0
G2 X29.872 Y84.167 Z0.0 I-6.928 J1.0
G2 X23.333 Y79.667 I-6.538 J2.5
G1 X11.333
G2 X7.05 Y81.13 I0.0 J7.0
G2 X5.937 Y82.208 Z2.0 I4.283 J5.537
G2 X4.896 Y83.916 I5.396 J4.459
G2 X4.449 Y85.4 Z0.0 I6.437 J2.751
G2 X4.333 Y86.667 I6.884 J1.267
G1 Y98.667
G2 X10.054 Y105.549 I7.0 J0.0
G0 Z20.0
G0 X-3.379 Y100.939
G0 Z10.0
G1 F300.0 Z6.0
G2 F1000.0 X-3.0 Y98.667 I-6.621 J-2.272
G1 Y86.667
G2 X-10.0 Y79.667 I-7.0 J0.0
G1 X-22.0
G2 X-29.0 Y86.667 I0.0 J7.0
G1 Y98.667
G2 X-22.0 Y105.667 I7.0 J0.0
G1 X-10.0
G2 X-3.379 Y100.939 I0.0 J-7.0
G1 F300.0 Z3.0
G2 F1000.0 X-3.0 Y98.667 I-6.621 J-2.272
G1 Y86.667
G2 X-10.0 Y79.667 I-7.0 J0.0
G1 X-22.0
G2 X-29.0 Y86.667 I0.0 J7.0
G1 Y98.667
G2 X-22.0 Y105.667 I7.0 J0.0
G1 X-10.0
G2 X-3.379 Y100.939 I0.0 J-7.0
G1 F300.0 Z0.0
G2 F1000.0 X-3.0 Y98.667 I-6.621 J-2.272
G1 Y89.167
G1 Y87.667 Z2.0
G1 Y86.667
G2 X-3.072 Y85.667 I-7.0 J0.0
G2 X-3.462 Y84.167 Z0.0 I-6.928 J1.0
G2 X-10.0 Y79.667 I-6.538 J2.5
G1 X-22.0
G2 X-29.0 Y86.667 I0.0 J7.0
G1 Y90.875
G1 Y92.375 Z2.0
G1 Y94.375
G1 Y95.875 Z0.0
G1 Y98.667
G2 X-22.0 Y105.667 I7.0 J0.0
G1 X-12.5
G1 X-11.0 Z2.0
G1 X-10.0
G2 X-9.0 Y105.595 I0.0 J-7.0
G2 X-7.5 Y105.205 Z0.0 I-1.0 J-6.928
G2 X-3.379 Y100.939 I-2.5 J-6.538
G0 Z20.0
G0 X-8.72 Y72.215
G0 Z10.0
G1 F300.0 Z6.0
G2 F1000.0 X-3.0 Y65.333 I-1.28 J-6.882
G1 Y53.333
G2 X-10.0 Y46.333 I-7.0 J0.0
G1 X-22.0
G2 X-29.0 Y53.333 I0.0 J7.0
G1 Y65.333
G2 X-22.0 Y72.333 I7.0 J0.0
G1 X-10.0
G2 X-8.72 Y72.215 I0.0 J-7.0
G1 F300.0 Z3.0
G2 F1000.0 X-3.0 Y65.333 I-1.28 J-6.882
G1 Y53.333
G2 X-10.0 Y46.333 I-7.0 J0.0
G1 X-22.0
G2 X-29.0 Y53.333 I0.0 J7.0
G1 Y65.333
G2 X-22.0 Y72.333 I7.0 J0.0
G1 X-10.0
G2 X-8.72 Y72.215 I0.0 J-7.0
G1 F300.0 Z1.622
G2 F1000.0 X-7.5 Y71.872 Z0.0 I-1.28 J-6.882
G2 X-3.0 Y65.333 I-2.5 J-6.538
G1 Y53.333
G2 X-4.463 Y49.05 I-7.0 J0.0
G2 X-5.541 Y47.937 Z2.0 I-5.537 J4.283
G2 X-7.249 Y46.896 I-4.459 J5.396
G2 X-8.733 Y46.449 Z0.0 I-2.751 J6.437
G2 X-10.0 Y46.333 I-1.267 J6.884
G1 X-22.0
G2 X-29.0 Y53.333 I0.0 J7.0
G1 Y54.645
G1 Y56.145 Z2.0
G1 Y58.145
G1 Y59.645 Z0.0
G1 Y65.333
G2 X-22.0 Y72.333 I7.0 J0.0
G1 X-12.5
G1 X-11.0 Z2.0
G1 X-10.0
G2 X-9.0 Y72.262 I0.0 J-7.0
G2 X-8.72 Y72.215 Z1.622 I-1.0 J-6.928
G0 Z20.0
G0 X4.712 Y67.606
G0 Z10.0
G1 F300.0 Z6.0
G2 F1000.0 X11.333 Y72.333 I6.621 J-2.272
G1 X23.333
G2 X30.333 Y65.333 I0.0 J-7.0
G1 Y53.333
G2 X23.333 Y46.333 I-7.0 J0.0
G1 X11.333
G2 X4.333 Y53.333 I0.0 J7.0
G1 Y65.333
G2 X4.712 Y67.606 I7.0 J0.0
G1 F300.0 Z3.0
G2 F1000.0 X11.333 Y72.333 I6.621 J-2.272
G1 X23.333
G2 X30.333 Y65.333 I0.0 J-7.0
G1 Y53.333
G2 X23.333 Y46.333 I-7.0 J0.0
G1 X11.333
G2 X4.333 Y53.333 I0.0 J7.0
G1 Y65.333
G2 X4.712 Y67.606 I7.0 J0.0
G1 F300.0 Z0.0
G2 F1000.0 X11.333 Y72.333 I6.621 J-2.272
G1 X20.833
G1 X22.333 Z2.0
G1 X23.333
G2 X24.333 Y72.262 I0.0 J-7.0
G2 X25.833 Y71.872 Z0.0 I-1.0 J-6.928
G2 X30.333 Y65.333 I-2.5 J-6.538
G1 Y53.333
G2 X28.87 Y49.05 I-7.0 J0.0
G2 X27.792 Y47.937 Z2.0 I-5.537 J4.283
G2 X26.084 Y46.896 I-4.459 J5.396
G2 X24.6 Y46.449 Z0.0 I-2.751 J6.437
G2 X23.333 Y46.333 I-1.267 J6.884
G1 X11.333
G2 X4.333 Y53.333 I0.0 J7.0
G1 Y54.645
G1 Y56.145 Z2.0
G1 Y58.145
G1 Y59.645 Z0.0
G1 Y65.333
G2 X4.712 Y67.606 I7.0 J0.0
G0 Z20.0
G0 X10.054 Y38.882
G0 Z10.0
G1 F300.0 Z6.0
G2 F1000.0 X11.333 Y39.0 I1.28 J-6.882
G1 X23.333
G2 X30.333 Y32.0 I0.0 J-7.0
G1 Y20.0
G2 X23.333 Y13.0 I-7.0 J0.0
G1 X11.333
G2 X4.333 Y20.0 I0.0 J7.0
G1 Y32.0
G2 X10.054 Y38.882 I7.0 J0.0
G1 F300.0 Z3.0
G2 F1000.0 X11.333 Y39.0 I1.28 J-6.882
G1 X23.333
G2 X30.333 Y32.0 I0.0 J-7.0
G1 Y20.0
G2 X23.333 Y13.0 I-7.0 J0.0
G1 X11.333
G2 X4.333 Y20.0 I0.0 J7.0
G1 Y32.0
G2 X10.054 Y38.882 I7.0 J0.0
G1 F300.0 Z0.0
G2 F1000.0 X11.333 Y39.0 I1.28 J-6.882
G1 X23.333
G2 X29.872 Y34.5 I0.0 J-7.0
G2 X30.262 Y33.0 Z2.0 I-6.538 J-2.5
G2 X30.333 Y32.0 I-6.928 J-1.0
G1 Y31.0
G1 Y29.5 Z0.0
G1 Y20.0
G2 X23.333 Y13.0 I-7.0 J0.0
G1 X17.645
G1 X16.145 Z2.0
G1 X14.145
G1 X12.645 Z0.0
G1 X11.333
G2 X4.333 Y20.0 I0.0 J7.0
G1 Y32.0
G2 X4.449 Y33.267 I7.0 J0.0
G2 X4.896 Y34.751 Z2.0 I6.884 J-1.267
G2 X5.937 Y36.459 I6.437 J-2.751
G2 X7.05 Y37.537 Z0.0 I5.396 J-4.459
G2 X10.054 Y38.882 I4.283 J-5.537
G0 Z20.0
G0 X-3.379 Y34.272
G0 Z10.0
G1 F300.0 Z6.0
G2 F1000.0 X-3.0 Y32.0 I-6.621 J-2.272
G1 Y20.0
G2 X-10.0 Y13.0 I-7.0 J0.0
G1 X-22.0
G2 X-29.0 Y20.0 I0.0 J7.0
G1 Y32.0
G2 X-22.0 Y39.0 I7.0 J0.0
G1 X-10.0
G2 X-3.379 Y34.272 I0.0 J-7.0
G1 F300.0 Z3.0
G2 F1000.0 X-3.0 Y32.0 I-6.621 J-2.272
G1 Y20.0
G2 X-10.0 Y13.0 I-7.0 J0.0
G1 X-22.0
G2 X-29.0 Y20.0 I0.0 J7.0
G1 Y32.0
G2 X-22.0 Y39.0 I7.0 J0.0
G1 X-10.0
G2 X-3.379 Y34.272 I0.0 J-7.0
G1 F300.0 Z0.323
G2 F1000.0 X-3.072 Y33.0 Z2.0 I-6.621 J-2.272
G2 X-3.0 Y32.0 I-6.928 J-1.0
G1 Y31.0
G1 Y29.5 Z0.0
G1 Y20.0
G2 X-6.837 Y13.755 I-7.0 J0.0
G2 X-8.289 Y13.212 Z2.0 I-3.163 J6.245
G2 X-10.0 Y13.0 I-1.711 J6.788
G1 X-10.277
G1 X-11.785 Z0.0
G1 X-22.0
G2 X-29.0 Y20.0 I0.0 J7.0
G1 Y27.844
G1 Y29.344 Z2.0
G1 Y31.344
G1 Y32.0 Z1.126
G2 X-28.949 Y32.844 Z0.0 I7.0 J0.0
G2 X-22.0 Y39.0 I6.949 J-0.844
G1 X-10.0
G2 X-3.462 Y34.5 I0.0 J-7.0
G2 X-3.379 Y34.272 Z0.323 I-6.538 J-2.5
G0 Z20.0
G0 X37.674 Y32.331
G0 Z10.0
G1 F300.0 Z6.0
G2 F1000.0 X44.667 Y39.0 I6.992 J-0.331
G1 X56.667
G2 X63.667 Y32.0 I0.0 J-7.0
G1 Y20.0
G2 X56.667 Y13.0 I-7.0 J0.0
G1 X44.667
G2 X37.667 Y20.0 I0.0 J7.0
G1 Y32.0
G2 X37.674 Y32.331 I7.0 J0.0
G1 F300.0 Z3.0
G2 F1000.0 X44.667 Y39.0 I6.992 J-0.331
G1 X56.667
G2 X63.667 Y32.0 I0.0 J-7.0
G1 Y20.0
G2 X56.667 Y13.0 I-7.0 J0.0
G1 X44.667
G2 X37.667 Y20.0 I0.0 J7.0
G1 Y32.0
G2 X37.674 Y32.331 I7.0 J0.0
G1 F300.0 Z0.0
G2 F1000.0 X44.667 Y39.0 I6.992 J-0.331
G1 X45.978
G1 X47.478 Z2.0
G1 X49.478
G1 X50.978 Z0.0
G1 X56.667
G2 X63.667 Y32.0 I0.0 J-7.0
G1 Y22.5
G1 Y21.0 Z2.0
G1 Y20.0
G2 X63.595 Y19.0 I-7.0 J0.0
G2 X63.205 Y17.5 Z0.0 I-6.928 J1.0
G2 X56.667 Y13.0 I-6.538 J2.5
G1 X44.667
G2 X40.384 Y14.463 I0.0 J7.0
G2 X39.27 Y15.541 Z2.0 I4.283 J5.537
G2 X38.23 Y17.249 I5.396 J4.459
G2 X37.782 Y18.733 Z0.0 I6.437 J2.751
G2 X37.667 Y20.0 I6.884 J1.267
G1 Y32.0
G2 X37.674 Y32.331 I7.0 J0.0
G0 Z20.0
G0 X42.456 Y46.692
G0 Z10.0
G1 F300.0 Z6.0
G2 F1000.0 X37.667 Y53.333 I2.211 J6.642
G1 Y65.333
G2 X44.667 Y72.333 I7.0 J0.0
G1 X56.667
G2 X63.667 Y65.333 I0.0 J-7.0
G1 Y53.333
G2 X56.667 Y46.333 I-7.0 J0.0
G1 X44.667
G2 X42.456 Y46.692 I0.0 J7.0
G1 F300.0 Z3.0
G2 F1000.0 X37.667 Y53.333 I2.211 J6.642
G1 Y65.333
G2 X44.667 Y72.333 I7.0 J0.0
G1 X56.667
G2 X63.667 Y65.333 I0.0 J-7.0
G1 Y53.333
G2 X56.667 Y46.333 I-7.0 J0.0
G1 X44.667
G2 X42.456 Y46.692 I0.0 J7.0
G1 F300.0 Z0.0
G2 F1000.0 X37.667 Y53.333 I2.211 J6.642
G1 Y65.333
G2 X37.782 Y66.6 I7.0 J0.0
G2 X38.23 Y68.084 Z2.0 I6.884 J-1.267
G2 X39.27 Y69.792 I6.437 J-2.751
G2 X40.384 Y70.87 Z0.0 I5.396 J-4.459
G2 X44.667 Y72.333 I4.283 J-5.537
G1 X56.667
G2 X63.205 Y67.833 I0.0 J-7.0
G2 X63.595 Y66.333 Z2.0 I-6.538 J-2.5
G2 X63.667 Y65.333 I-6.928 J-1.0
G1 Y64.333
G1 Y62.833 Z0.0
G1 Y53.333
G2 X56.667 Y46.333 I-7.0 J0.0
G1 X50.978
G1 X49.478 Z2.0
G1 X47.478
G1 X45.978 Z0.0
G1 X44.667
G2 X42.456 Y46.692 I0.0 J7.0
G0 Z20.0
G0 X71.119 Y52.048
G0 Z10.0
G1 F300.0 Z6.0
G2 F1000.0 X71.0 Y53.333 I6.881 J1.286
G1 Y65.333
G2 X78.0 Y72.333 I7.0 J0.0
G1 X90.0
G2 X97.0 Y65.333 I0.0 J-7.0
G1 Y53.333
G2 X90.0 Y46.333 I-7.0 J0.0
G1 X78.0
G2 X71.119 Y52.048 I0.0 J7.0
G1 F300.0 Z3.0
G2 F1000.0 X71.0 Y53.333 I6.881 J1.286
G1 Y65.333
G2 X78.0 Y72.333 I7.0 J0.0
G1 X90.0
G2 X97.0 Y65.333 I0.0 J-7.0
G1 Y53.333
G2 X90.0 Y46.333 I-7.0 J0.0
G1 X78.0
G2 X71.119 Y52.048 I0.0 J7.0
G1 F300.0 Z0.0
G2 F1000.0 X71.0 Y53.333 I6.881 J1.286
G1 Y65.333
G2 X71.116 Y66.6 I7.0 J0.0
G2 X71.563 Y68.084 Z2.0 I6.884 J-1.267
G2 X72.604 Y69.792 I6.437 J-2.751
G2 X73.717 Y70.87 Z0.0 I5.396 J-4.459
G2 X78.0 Y72.333 I4.283 J-5.537
G1 X90.0
G2 X96.538 Y67.833 I0.0 J-7.0
G2 X96.928 Y66.333 Z2.0 I-6.538 J-2.5
G2 X97.0 Y65.333 I-6.928 J-1.0
G1 Y64.333
G1 Y62.833 Z0.0
G1 Y53.333
G2 X90.0 Y46.333 I-7.0 J0.0
G1 X84.311
G1 X82.811 Z2.0
G1 X80.811
G1 X79.311 Z0.0
G1 X78.0
G2 X71.119 Y52.048 I0.0 J7.0
G0 Z20.0
G0 X75.728 Y38.621
G0 Z10.0
G1 F300.0 Z6.0
G2 F1000.0 X78.0 Y39.0 I2.272 J-6.621
G1 X90.0
G2 X97.0 Y32.0 I0.0 J-7.0
G1 Y20.0
G2 X90.0 Y13.0 I-7.0 J0.0
G1 X78.0
G2 X71.0 Y20.0 I0.0 J7.0
G1 Y32.0
G2 X75.728 Y38.621 I7.0 J0.0
G1 F300.0 Z3.0
G2 F1000.0 X78.0 Y39.0 I2.272 J-6.621
G1 X90.0
G2 X97.0 Y32.0 I0.0 J-7.0
G1 Y20.0
G2 X90.0 Y13.0 I-7.0 J0.0
G1 X78.0
G2 X71.0 Y20.0 I0.0 J7.0
G1 Y32.0
G2 X75.728 Y38.621 I7.0 J0.0
G1 F300.0 Z0.0
G2 F1000.0 X78.0 Y39.0 I2.272 J-6.621
G1 X90.0
G2 X96.538 Y34.5 I0.0 J-7.0
G2 X96.928 Y33.0 Z2.0 I-6.538 J-2.5
G2 X97.0 Y32.0 I-6.928 J-1.0
G1 Y31.0
G1 Y29.5 Z0.0
G1 Y20.0
G2 X90.0 Y13.0 I-7.0 J0.0
G1 X84.311
G1 X82.811 Z2.0
G1 X80.811
G1 X79.311 Z0.0
G1 X78.0
G2 X71.0 Y20.0 I0.0 J7.0
G1 Y32.0
G2 X71.116 Y33.267 I7.0 J0.0
G2 X71.563 Y34.751 Z2.0 I6.884 J-1.267
G2 X72.604 Y36.459 I6.437 J-2.751
G2 X73.717 Y37.537 Z0.0 I5.396 J-4.459
G2 X75.728 Y38.621 I4.283 J-5.537
G0 Z20.0
G0 X104.451 Y33.28
G0 Z10.0
G1 F300.0 Z6.0
G2 F1000.0 X111.333 Y39.0 I6.882 J-1.28
G1 X123.333
G2 X130.333 Y32.0 I0.0 J-7.0
G1 Y20.0
G2 X123.333 Y13.0 I-7.0 J0.0
G1 X111.333
G2 X104.333 Y20.0 I0.0 J7.0
G1 Y32.0
G2 X104.451 Y33.28 I7.0 J0.0
G1 F300.0 Z3.0
G2 F1000.0 X111.333 Y39.0 I6.882 J-1.28
G1 X123.333
G2 X130.333 Y32.0 I0.0 J-7.0
G1 Y20.0
G2 X123.333 Y13.0 I-7.0 J0.0
G1 X111.333
G2 X104.333 Y20.0 I0.0 J7.0
G1 Y32.0
G2 X104.451 Y33.28 I7.0 J0.0
G1 F300.0 Z0.017
G2 F1000.0 X104.896 Y34.751 Z2.0 I6.882 J-1.28
G2 X105.937 Y36.459 I6.437 J-2.751
G2 X107.05 Y37.537 Z0.0 I5.396 J-4.459
G2 X111.333 Y39.0 I4.283 J-5.537
G1 X123.333
G2 X129.872 Y34.5 I0.0 J-7.0
G2 X130.262 Y33.0 Z2.0 I-6.538 J-2.5
G2 X130.333 Y32.0 I-6.928 J-1.0
G1 Y31.0
G1 Y29.5 Z0.0
G1 Y20.0
G2 X123.333 Y13.0 I-7.0 J0.0
G1 X117.645
G1 X116.145 Z2.0
G1 X114.145
G1 X112.645 Z0.0
G1 X111.333
G2 X104.333 Y20.0 I0.0 J7.0
G1 Y32.0
G2 X104.449 Y33.267 I7.0 J0.0
G1 X104.451 Y33.28 Z0.017
G0 Z20.0
G0 X109.061 Y46.712
G0 Z10.0
G1 F300.0 Z6.0
G2 F1000.0 X104.333 Y53.333 I2.272 J6.621
G1 Y65.333
G2 X111.333 Y72.333 I7.0 J0.0
G1 X123.333
G2 X130.333 Y65.333 I0.0 J-7.0
G1 Y53.333
G2 X123.333 Y46.333 I-7.0 J0.0
G1 X111.333
G2 X109.061 Y46.712 I0.0 J7.0
G1 F300.0 Z3.0
G2 F1000.0 X104.333 Y53.333 I2.272 J6.621
G1 Y65.333
G2 X111.333 Y72.333 I7.0 J0.0
G1 X123.333
G2 X130.333 Y65.333 I0.0 J-7.0
G1 Y53.333
G2 X123.333 Y46.333 I-7.0 J0.0
G1 X111.333
G2 X109.061 Y46.712 I0.0 J7.0
G1 F300.0 Z0.0
G2 F1000.0 X104.333 Y53.333 I2.272 J6.621
G1 Y65.333
G2 X104.449 Y66.6 I7.0 J0.0
G2 X104.896 Y68.084 Z2.0 I6.884 J-1.267
G2 X105.937 Y69.792 I6.437 J-2.751
G2 X107.05 Y70.87 Z0.0 I5.396 J-4.459
G2 X111.333 Y72.333 I4.283 J-5.537
G1 X123.333
G2 X129.872 Y67.833 I0.0 J-7.0
G2 X130.262 Y66.333 Z2.0 I-6.538 J-2.5
G2 X130.333 Y65.333 I-6.928 J-1.0
G1 Y64.333
G1 Y62.833 Z0.0
G1 Y53.333
G2 X123.333 Y46.333 I-7.0 J0.0
G1 X117.645
G1 X116.145 Z2.0
G1 X114.145
G1 X112.645 Z0.0
G1 X111.333
G2 X109.061 Y46.712 I0.0 J7.0
G0 Z20.0
G0 X137.785 Y52.054
G0 Z10.0
G1 F300.0 Z6.0
G2 F1000.0 X137.667 Y53.333 I6.882 J1.28
G1 Y65.333
G2 X144.667 Y72.333 I7.0 J0.0
G1 X156.667
G2 X163.667 Y65.333 I0.0 J-7.0
G1 Y53.333
G2 X156.667 Y46.333 I-7.0 J0.0
G1 X144.667
G2 X137.785 Y52.054 I0.0 J7.0
G1 F300.0 Z3.0
G2 F1000.0 X137.667 Y53.333 I6.882 J1.28
G1 Y65.333
G2 X144.667 Y72.333 I7.0 J0.0
G1 X156.667
G2 X163.667 Y65.333 I0.0 J-7.0
G1 Y53.333
G2 X156.667 Y46.333 I-7.0 J0.0
G1 X144.667
G2 X137.785 Y52.054 I0.0 J7.0
G1 F300.0 Z0.0
G2 F1000.0 X137.667 Y53.333 I6.882 J1.28
G1 Y65.333
G2 X137.782 Y66.6 I7.0 J0.0
G2 X138.23 Y68.084 Z2.0 I6.884 J-1.267
G2 X139.27 Y69.792 I6.437 J-2.751
G2 X140.384 Y70.87 Z0.0 I5.396 J-4.459
G2 X144.667 Y72.333 I4.283 J-5.537
G1 X156.667
G2 X163.205 Y67.833 I0.0 J-7.0
G2 X163.595 Y66.333 Z2.0 I-6.538 J-2.5
G2 X163.667 Y65.333 I-6.928 J-1.0
G1 Y64.333
G1 Y62.833 Z0.0
G1 Y53.333
G2 X156.667 Y46.333 I-7.0 J0.0
G1 X150.978
G1 X149.478 Z2.0
G1 X147.478
G1 X145.978 Z0.0
G1 X144.667
G2 X137.785 Y52.054 I0.0 J7.0
G0 Z20.0
G0 X142.394 Y38.621
G0 Z10.0
G1 F300.0 Z6.0
G2 F1000.0 X144.667 Y39.0 I2.272 J-6.621
G1 X156.667
G2 X163.667 Y32.0 I0.0 J-7.0
G1 Y20.0
G2 X156.667 Y13.0 I-7.0 J0.0
G1 X144.667
G2 X137.667 Y20.0 I0.0 J7.0
G1 Y32.0
G2 X142.394 Y38.621 I7.0 J0.0
G1 F300.0 Z3.0
G2 F1000.0 X144.667 Y39.0 I2.272 J-6.621
G1 X156.667
G2 X163.667 Y32.0 I0.0 J-7.0
G1 Y20.0
G2 X156.667 Y13.0 I-7.0 J0.0
G1 X144.667
G2 X137.667 Y20.0 I0.0 J7.0
G1 Y32.0
G2 X142.394 Y38.621 I7.0 J0.0
G1 F300.0 Z0.0
G2 F1000.0 X144.667 Y39.0 I2.272 J-6.621
G1 X156.667
G2 X163.205 Y34.5 I0.0 J-7.0
G2 X163.595 Y33.0 Z2.0 I-6.538 J-2.5
G2 X163.667 Y32.0 I-6.928 J-1.0
G1 Y31.0
G1 Y29.5 Z0.0
G1 Y20.0
G2 X156.667 Y13.0 I-7.0 J0.0
G1 X150.978
G1 X149.478 Z2.0
G1 X147.478
G1 X145.978 Z0.0
G1 X144.667
G2 X137.667 Y20.0 I0.0 J7.0
G1 Y32.0
G2 X137.782 Y33.267 I7.0 J0.0
G2 X138.23 Y34.751 Z2.0 I6.884 J-1.267
G2 X139.27 Y36.459 I6.437 J-2.751
G2 X140.384 Y37.537 Z0.0 I5.396 J-4.459
G2 X142.394 Y38.621 I4.283 J-5.537
G0 Z20.0
G0 X171.118 Y33.28
G0 Z10.0
G1 F300.0 Z6.0
G2 F1000.0 X178.0 Y39.0 I6.882 J-1.28
G1 X190.0
G2 X197.0 Y32.0 I0.0 J-7.0
G1 Y20.0
G2 X190.0 Y13.0 I-7.0 J0.0
G1 X178.0
G2 X171.0 Y20.0 I0.0 J7.0
G1 Y32.0
G2 X171.118 Y33.28 I7.0 J0.0
G1 F300.0 Z3.0
G2 F1000.0 X178.0 Y39.0 I6.882 J-1.28
G1 X190.0
G2 X197.0 Y32.0 I0.0 J-7.0
G1 Y20.0
G2 X190.0 Y13.0 I-7.0 J0.0
G1 X178.0
G2 X171.0 Y20.0 I0.0 J7.0
G1 Y32.0
G2 X171.118 Y33.28 I7.0 J0.0
G1 F300.0 Z0.017
G2 F1000.0 X171.563 Y34.751 Z2.0 I6.882 J-1.28
G2 X172.604 Y36.459 I6.437 J-2.751
G2 X173.717 Y37.537 Z0.0 I5.396 J-4.459
G2 X178.0 Y39.0 I4.283 J-5.537
G1 X190.0
G2 X196.538 Y34.5 I0.0 J-7.0
G2 X196.928 Y33.0 Z2.0 I-6.538 J-2.5
G2 X197.0 Y32.0 I-6.928 J-1.0
G1 Y31.0
G1 Y29.5 Z0.0
G1 Y20.0
G2 X190.0 Y13.0 I-7.0 J0.0
G1 X184.311
G1 X182.811 Z2.0
G1 X180.811
G1 X179.311 Z0.0
G1 X178.0
G2 X171.0 Y20.0 I0.0 J7.0
G1 Y32.0
G2 X171.116 Y33.267 I7.0 J0.0
G1 X171.118 Y33.28 Z0.017
G0 Z20.0
G0 X175.728 Y46.712
G0 Z10.0
G1 F300.0 Z6.0
G2 F1000.0 X171.0 Y53.333 I2.272 J6.621
G1 Y65.333
G2 X178.0 Y72.333 I7.0 J0.0
G1 X190.0
G2 X197.0 Y65.333 I0.0 J-7.0
G1 Y53.333
G2 X190.0 Y46.333 I-7.0 J0.0
G1 X178.0
G2 X175.728 Y46.712 I0.0 J7.0
G1 F300.0 Z3.0
G2 F1000.0 X171.0 Y53.333 I2.272 J6.621
G1 Y65.333
G2 X178.0 Y72.333 I7.0 J0.0
G1 X190.0
G2 X197.0 Y65.333 I0.0 J-7.0
G1 Y53.333
G2 X190.0 Y46.333 I-7.0 J0.0
G1 X178.0
G2 X175.728 Y46.712 I0.0 J7.0
G1 F300.0 Z0.0
G2 F1000.0 X171.0 Y53.333 I2.272 J6.621
G1 Y65.333
G2 X171.116 Y66.6 I7.0 J0.0
G2 X171.563 Y68.084 Z2.0 I6.884 J-1.267
G2 X172.604 Y69.792 I6.437 J-2.751
G2 X173.717 Y70.87 Z0.0 I5.396 J-4.459
G2 X178.0 Y72.333 I4.283 J-5.537
G1 X190.0
G2 X196.538 Y67.833 I0.0 J-7.0
G2 X196.928 Y66.333 Z2.0 I-6.538 J-2.5
G2 X197.0 Y65.333 I-6.928 J-1.0
G1 Y64.333
G1 Y62.833 Z0.0
G1 Y53.333
G2 X190.0 Y46.333 I-7.0 J0.0
G1 X184.311
G1 X182.811 Z2.0
G1 X180.811
G1 X179.311 Z0.0
G1 X178.0
G2 X175.728 Y46.712 I0.0 J7.0
G0 Z20.0
G0 X177.603 Y79.678
G0 Z10.0
G1 F300.0 Z6.0
G2 F1000.0 X171.0 Y86.667 I0.397 J6.989
G1 Y98.667
G2 X178.0 Y105.667 I7.0 J0.0
G1 X190.0
G2 X197.0 Y98.667 I0.0 J-7.0
G1 Y86.667
G2 X190.0 Y79.667 I-7.0 J0.0
G1 X178.0
G2 X177.603 Y79.678 I0.0 J7.0
G1 F300.0 Z3.0
G2 F1000.0 X171.0 Y86.667 I0.397 J6.989
G1 Y98.667
G2 X178.0 Y105.667 I7.0 J0.0
G1 X190.0
G2 X197.0 Y98.667 I0.0 J-7.0
G1 Y86.667
G2 X190.0 Y79.667 I-7.0 J0.0
G1 X178.0
G2 X177.603 Y79.678 I0.0 J7.0
G1 F300.0 Z0.0
G2 F1000.0 X173.717 Y81.13 I0.397 J6.989
G2 X172.604 Y82.208 Z2.0 I4.283 J5.537
G2 X171.563 Y83.916 I5.396 J4.459
G2 X171.116 Y85.4 Z0.0 I6.437 J2.751
G2 X171.0 Y86.667 I6.884 J1.267
G1 Y98.667
G2 X178.0 Y105.667 I7.0 J0.0
G1 X179.311
G1 X180.811 Z2.0
G1 X182.811
G1 X184.311 Z0.0
G1 X190.0
G2 X197.0 Y98.667 I0.0 J-7.0
G1 Y89.167
G1 Y87.667 Z2.0
G1 Y86.667
G2 X196.928 Y85.667 I-7.0 J0.0
G2 X196.538 Y84.167 Z0.0 I-6.928 J1.0
G2 X190.0 Y79.667 I-6.538 J2.5
G1 X178.0
G2 X177.603 Y79.678 I0.0 J7.0
G0 Z20.0
G0 X163.306 Y84.45
G0 Z10.0
G1 F300.0 Z6.0
G2 F1000.0 X156.667 Y79.667 I-6.64 J2.216
G1 X144.667
G2 X137.667 Y86.667 I0.0 J7.0
G1 Y98.667
G2 X144.667 Y105.667 I7.0 J0.0
G1 X156.667
G2 X163.667 Y98.667 I0.0 J-7.0
G1 Y86.667
G2 X163.306 Y84.45 I-7.0 J0.0
G1 F300.0 Z3.0
G2 F1000.0 X156.667 Y79.667 I-6.64 J2.216
G1 X144.667
G2 X137.667 Y86.667 I0.0 J7.0
G1 Y98.667
G2 X144.667 Y105.667 I7.0 J0.0
G1 X156.667
G2 X163.667 Y98.667 I0.0 J-7.0
G1 Y86.667
G2 X163.306 Y84.45 I-7.0 J0.0
G1 F300.0 Z0.333
G2 F1000.0 X163.205 Y84.167 Z0.0 I-6.64 J2.216
G2 X156.667 Y79.667 I-6.538 J2.5
G1 X144.667
G2 X140.384 Y81.13 I0.0 J7.0
G2 X139.27 Y82.208 Z2.0 I4.283 J5.537
G2 X138.23 Y83.916 I5.396 J4.459
G2 X137.782 Y85.4 Z0.0 I6.437 J2.751
G2 X137.667 Y86.667 I6.884 J1.267
G1 Y98.667
G2 X144.667 Y105.667 I7.0 J0.0
G1 X145.978
G1 X147.478 Z2.0
G1 X149.478
G1 X150.978 Z0.0
G1 X156.667
G2 X163.667 Y98.667 I0.0 J-7.0
G1 Y89.167
G1 Y87.667 Z2.0
G1 Y86.667
G2 X163.595 Y85.667 I-7.0 J0.0
G2 X163.306 Y84.45 Z0.333 I-6.928 J1.0
G0 Z20.0
G0 X157.952 Y113.119
G0 Z10.0
G1 F300.0 Z6.0
G2 F1000.0 X156.667 Y113.0 I-1.285 J6.881
G1 X144.667
G2 X137.667 Y120.0 I0.0 J7.0
G1 Y132.0
G2 X144.667 Y139.0 I7.0 J0.0
G1 X156.667
G2 X163.667 Y132.0 I0.0 J-7.0
G1 Y120.0
G2 X157.952 Y113.119 I-7.0 J0.0
G1 F300.0 Z3.0
G2 F1000.0 X156.667 Y113.0 I-1.285 J6.881
G1 X144.667
G2 X137.667 Y120.0 I0.0 J7.0
G1 Y132.0
G2 X144.667 Y139.0 I7.0 J0.0
G1 X156.667
G2 X163.667 Y132.0 I0.0 J-7.0
G1 Y120.0
G2 X157.952 Y113.119 I-7.0 J0.0
G1 F300.0 Z0.0
G2 F1000.0 X156.667 Y113.0 I-1.285 J6.881
G1 X150.978
G1 X149.478 Z2.0
G1 X147.478
G1 X145.978 Z0.0
G1 X144.667
G2 X137.667 Y120.0 I0.0 J7.0
G1 Y132.0
G2 X137.782 Y133.267 I7.0 J0.0
G2 X138.23 Y134.751 Z2.0 I6.884 J-1.267
G2 X139.27 Y136.459 I6.437 J-2.751
G2 X140.384 Y137.537 Z0.0 I5.396 J-4.459
G2 X144.667 Y139.0 I4.283 J-5.537
G1 X156.667
G2 X163.205 Y134.5 I0.0 J-7.0
G2 X163.595 Y133.0 Z2.0 I-6.538 J-2.5
G2 X163.667 Y132.0 I-6.928 J-1.0
G1 Y131.0
G1 Y129.5 Z0.0
G1 Y120.0
G2 X157.952 Y113.119 I-7.0 J0.0
G0 Z20.0
G0 X171.379 Y117.728
G0 Z10.0
G1 F300.0 Z6.0
G2 F1000.0 X171.0 Y120.0 I6.621 J2.272
G1 Y132.0
G2 X178.0 Y139.0 I7.0 J0.0
G1 X190.0
G2 X197.0 Y132.0 I0.0 J-7.0
G1 Y120.0
G2 X190.0 Y113.0 I-7.0 J0.0
G1 X178.0
G2 X171.379 Y117.728 I0.0 J7.0
G1 F300.0 Z3.0
G2 F1000.0 X171.0 Y120.0 I6.621 J2.272
G1 Y132.0
G2 X178.0 Y139.0 I7.0 J0.0
G1 X190.0
G2 X197.0 Y132.0 I0.0 J-7.0
G1 Y120.0
G2 X190.0 Y113.0 I-7.0 J0.0
G1 X178.0
G2 X171.379 Y117.728 I0.0 J7.0
G1 F300.0 Z0.0
G2 F1000.0 X171.0 Y120.0 I6.621 J2.272
G1 Y132.0
G2 X171.116 Y133.267 I7.0 J0.0
G2 X171.563 Y134.751 Z2.0 I6.884 J-1.267
G2 X172.604 Y136.459 I6.437 J-2.751
G2 X173.717 Y137.537 Z0.0 I5.396 J-4.459
G2 X178.0 Y139.0 I4.283 J-5.537
G1 X190.0
G2 X196.538 Y134.5 I0.0 J-7.0
G2 X196.928 Y133.0 Z2.0 I-6.538 J-2.5
G2 X197.0 Y132.0 I-6.928 J-1.0
G1 Y131.0
G1 Y129.5 Z0.0
G1 Y120.0
G2 X190.0 Y113.0 I-7.0 J0.0
G1 X184.311
G1 X182.811 Z2.0
G1 X180.811
G1 X179.311 Z0.0
G1 X178.0
G2 X171.379 Y117.728 I0.0 J7.0
G0 Z20.0
G0 X176.72 Y146.451
G0 Z10.0
G1 F300.0 Z6.0
G2 F1000.0 X171.0 Y153.333 I1.28 J6.882
G1 Y165.333
G2 X178.0 Y172.333 I7.0 J0.0
G1 X190.0
G2 X197.0 Y165.333 I0.0 J-7.0
G1 Y153.333
G2 X190.0 Y146.333 I-7.0 J0.0
G1 X178.0
G2 X176.72 Y146.451 I0.0 J7.0
G1 F300.0 Z3.0
G2 F1000.0 X171.0 Y153.333 I1.28 J6.882
G1 Y165.333
G2 X178.0 Y172.333 I7.0 J0.0
G1 X190.0
G2 X197.0 Y165.333 I0.0 J-7.0
G1 Y153.333
G2 X190.0 Y146.333 I-7.0 J0.0
G1 X178.0
G2 X176.72 Y146.451 I0.0 J7.0
G1 F300.0 Z0.0
G2 F1000.0 X171.0 Y153.333 I1.28 J6.882
G1 Y165.333
G2 X171.116 Y166.6 I7.0 J0.0
G2 X171.563 Y168.084 Z2.0 I6.884 J-1.267
G2 X172.604 Y169.792 I6.437 J-2.751
G2 X173.717 Y170.87 Z0.0 I5.396 J-4.459
G2 X178.0 Y172.333 I4.283 J-5.537
G1 X190.0
G2 X196.538 Y167.833 I0.0 J-7.0
G2 X196.928 Y166.333 Z2.0 I-6.538 J-2.5
G2 X197.0 Y165.333 I-6.928 J-1.0
G1 Y164.333
G1 Y162.833 Z0.0
G1 Y153.333
G2 X190.0 Y146.333 I-7.0 J0.0
G1 X184.311
G1 X182.811 Z2.0
G1 X180.811
G1 X179.311 Z0.0
G1 X178.0
G2 X176.72 Y146.451 I0.0 J7.0
G0 Z20.0
G0 X163.288 Y151.061
G0 Z10.0
G1 F300.0 Z6.0
G2 F1000.0 X156.667 Y146.333 I-6.621 J2.272
G1 X144.667
G2 X137.667 Y153.333 I0.0 J7.0
G1 Y165.333
G2 X144.667 Y172.333 I7.0 J0.0
G1 X156.667
G2 X163.667 Y165.333 I0.0 J-7.0
G1 Y153.333
G2 X163.288 Y151.061 I-7.0 J0.0
G1 F300.0 Z3.0
G2 F1000.0 X156.667 Y146.333 I-6.621 J2.272
G1 X144.667
G2 X137.667 Y153.333 I0.0 J7.0
G1 Y165.333
G2 X144.667 Y172.333 I7.0 J0.0
G1 X156.667
G2 X163.667 Y165.333 I0.0 J-7.0
G1 Y153.333
G2 X163.288 Y151.061 I-7.0 J0.0
G1 F300.0 Z0.0
G2 F1000.0 X156.667 Y146.333 I-6.621 J2.272
G1 X150.978
G1 X149.478 Z2.0
G1 X147.478
G1 X145.978 Z0.0
G1 X144.667
G2 X137.667 Y153.333 I0.0 J7.0
G1 Y165.333
G2 X137.782 Y166.6 I7.0 J0.0
G2 X138.23 Y168.084 Z2.0 I6.884 J-1.267
G2 X139.27 Y169.792 I6.437 J-2.751
G2 X140.384 Y170.87 Z0.0 I5.396 J-4.459
G2 X144.667 Y172.333 I4.283 J-5.537
G1 X156.667
G2 X163.205 Y167.833 I0.0 J-7.0
G2 X163.595 Y166.333 Z2.0 I-6.538 J-2.5
G2 X163.667 Y165.333 I-6.928 J-1.0
G1 Y164.333
G1 Y162.833 Z0.0
G1 Y153.333
G2 X163.288 Y151.061 I-7.0 J0.0
G0 Z20.0
G0 X157.946 Y179.785
G0 Z10.0
G1 F300.0 Z6.0
G2 F1000.0 X156.667 Y179.667 I-1.28 J6.882
G1 X144.667
G2 X137.667 Y186.667 I0.0 J7.0
G1 Y198.667
G2 X144.667 Y205.667 I7.0 J0.0
G1 X156.667
G2 X163.667 Y198.667 I0.0 J-7.0
G1 Y186.667
G2 X157.946 Y179.785 I-7.0 J0.0
G1 F300.0 Z3.0
G2 F1000.0 X156.667 Y179.667 I-1.28 J6.882
G1 X144.667
G2 X137.667 Y186.667 I0.0 J7.0
G1 Y198.667
G2 X144.667 Y205.667 I7.0 J0.0
G1 X156.667
G2 X163.667 Y198.667 I0.0 J-7.0
G1 Y186.667
G2 X157.946 Y179.785 I-7.0 J0.0
G1 F300.0 Z0.0
G2 F1000.0 X156.667 Y179.667 I-1.28 J6.882
G1 X150.978
G1 X149.478 Z2.0
G1 X147.478
G1 X145.978 Z0.0
G1 X144.667
G2 X137.667 Y186.667 I0.0 J7.0
G1 Y198.667
G2 X137.782 Y199.934 I7.0 J0.0
G2 X138.23 Y201.417 Z2.0 I6.884 J-1.267
G2 X139.27 Y203.125 I6.437 J-2.751
G2 X140.384 Y204.204 Z0.0 I5.396 J-4.459
G2 X144.667 Y205.667 I4.283 J-5.537
G1 X156.667
G2 X163.205 Y201.167 I0.0 J-7.0
G2 X163.595 Y199.667 Z2.0 I-6.538 J-2.5
G2 X163.667 Y198.667 I-6.928 J-1.0
G1 Y197.667
G1 Y196.167 Z0.0
G1 Y186.667
G2 X157.946 Y179.785 I-7.0 J0.0
G0 Z20.0
G0 X171.379 Y184.394
G0 Z10.0
G1 F300.0 Z6.0
G2 F1000.0 X171.0 Y186.667 I6.621 J2.272
G1 Y198.667
G2 X178.0 Y205.667 I7.0 J0.0
G1 X190.0
G2 X197.0 Y198.667 I0.0 J-7.0
G1 Y186.667
G2 X190.0 Y179.667 I-7.0 J0.0
G1 X178.0
G2 X171.379 Y184.394 I0.0 J7.0
G1 F300.0 Z3.0
G2 F1000.0 X171.0 Y186.667 I6.621 J2.272
G1 Y198.667
G2 X178.0 Y205.667 I7.0 J0.0
G1 X190.0
G2 X197.0 Y198.667 I0.0 J-7.0
G1 Y186.667
G2 X190.0 Y179.667 I-7.0 J0.0
G1 X178.0
G2 X171.379 Y184.394 I0.0 J7.0
G1 F300.0 Z0.0
G2 F1000.0 X171.0 Y186.667 I6.621 J2.272
G1 Y198.667
G2 X171.116 Y199.934 I7.0 J0.0
G2 X171.563 Y201.417 Z2.0 I6.884 J-1.267
G2 X172.604 Y203.125 I6.437 J-2.751
G2 X173.717 Y204.204 Z0.0 I5.396 J-4.459
G2 X178.0 Y205.667 I4.283 J-5.537
G1 X190.0
G2 X196.538 Y201.167 I0.0 J-7.0
G2 X196.928 Y199.667 Z2.0 I-6.538 J-2.5
G2 X197.0 Y198.667 I-6.928 J-1.0
G1 Y197.667
G1 Y196.167 Z0.0
G1 Y186.667
G2 X190.0 Y179.667 I-7.0 J0.0
G1 X184.311
G1 X182.811 Z2.0
G1 X180.811
G1 X179.311 Z0.0
G1 X178.0
G2 X171.379 Y184.394 I0.0 J7.0
G0 Z20.0
G0 X176.72 Y213.118
G0 Z10.0
G1 F300.0 Z6.0
G2 F1000.0 X171.0 Y220.0 I1.28 J6.882
G1 Y232.0
G2 X178.0 Y239.0 I7.0 J0.0
G1 X190.0
G2 X197.0 Y232.0 I0.0 J-7.0
G1 Y220.0
G2 X190.0 Y213.0 I-7.0 J0.0
G1 X178.0
G2 X176.72 Y213.118 I0.0 J7.0
G1 F300.0 Z3.0
G2 F1000.0 X171.0 Y220.0 I1.28 J6.882
G1 Y232.0
G2 X178.0 Y239.0 I7.0 J0.0
G1 X190.0
G2 X197.0 Y232.0 I0.0 J-7.0
G1 Y220.0
G2 X190.0 Y213.0 I-7.0 J0.0
G1 X178.0
G2 X176.72 Y213.118 I0.0 J7.0
G1 F300.0 Z0.0
G2 F1000.0 X171.0 Y220.0 I1.28 J6.882
G1 Y232.0
G2 X171.116 Y233.267 I7.0 J0.0
G2 X171.563 Y234.751 Z2.0 I6.884 J-1.267
G2 X172.604 Y236.459 I6.437 J-2.751
G2 X173.717 Y237.537 Z0.0 I5.396 J-4.459
G2 X178.0 Y239.0 I4.283 J-5.537
G1 X190.0
G2 X196.538 Y234.5 I0.0 J-7.0
G2 X196.928 Y233.0 Z2.0 I-6.538 J-2.5
G2 X197.0 Y232.0 I-6.928 J-1.0
G1 Y231.0
G1 Y229.5 Z0.0
G1 Y220.0
G2 X190.0 Y213.0 I-7.0 J0.0
G1 X184.311
G1 X182.811 Z2.0
G1 X180.811
G1 X179.311 Z0.0
G1 X178.0
G2 X176.72 Y213.118 I0.0 J7.0
G0 Z20.0
G0 X163.288 Y217.728
G0 Z10.0
G1 F300.0 Z6.0
G2 F1000.0 X156.667 Y213.0 I-6.621 J2.272
G1 X144.667
G2 X137.667 Y220.0 I0.0 J7.0
G1 Y232.0
G2 X144.667 Y239.0 I7.0 J0.0
G1 X156.667
G2 X163.667 Y232.0 I0.0 J-7.0
G1 Y220.0
G2 X163.288 Y217.728 I-7.0 J0.0
G1 F300.0 Z3.0
G2 F1000.0 X156.667 Y213.0 I-6.621 J2.272
G1 X144.667
G2 X137.667 Y220.0 I0.0 J7.0
G1 Y232.0
G2 X144.667 Y239.0 I7.0 J0.0
G1 X156.667
G2 X163.667 Y232.0 I0.0 J-7.0
G1 Y220.0
G2 X163.288 Y217.728 I-7.0 J0.0
G1 F300.0 Z0.0
G2 F1000.0 X156.667 Y213.0 I-6.621 J2.272
G1 X150.978
G1 X149.478 Z2.0
G1 X147.478
G1 X145.978 Z0.0
G1 X144.667
G2 X137.667 Y220.0 I0.0 J7.0
G1 Y232.0
G2 X137.782 Y233.267 I7.0 J0.0
G2 X138.23 Y234.751 Z2.0 I6.884 J-1.267
G2 X139.27 Y236.459 I6.437 J-2.751
G2 X140.384 Y237.537 Z0.0 I5.396 J-4.459
G2 X144.667 Y239.0 I4.283 J-5.537
G1 X156.667
G2 X163.205 Y234.5 I0.0 J-7.0
G2 X163.595 Y233.0 Z2.0 I-6.538 J-2.5
G2 X163.667 Y232.0 I-6.928 J-1.0
G1 Y231.0
G1 Y229.5 Z0.0
G1 Y220.0
G2 X163.288 Y217.728 I-7.0 J0.0
G0 Z20.0
G0 X157.946 Y246.451
G0 Z10.0
G1 F300.0 Z6.0
G2 F1000.0 X156.667 Y246.333 I-1.28 J6.882
G1 X144.667
G2 X137.667 Y253.333 I0.0 J7.0
G1 Y265.333
G2 X144.667 Y272.333 I7.0 J0.0
G1 X156.667
G2 X163.667 Y265.333 I0.0 J-7.0
G1 Y253.333
G2 X157.946 Y246.451 I-7.0 J0.0
G1 F300.0 Z3.0
G2 F1000.0 X156.667 Y246.333 I-1.28 J6.882
G1 X144.667
G2 X137.667 Y253.333 I0.0 J7.0
G1 Y265.333
G2 X144.667 Y272.333 I7.0 J0.0
G1 X156.667
G2 X163.667 Y265.333 I0.0 J-7.0
G1 Y253.333
G2 X157.946 Y246.451 I-7.0 J0.0
G1 F300.0 Z0.0
G2 F1000.0 X156.667 Y246.333 I-1.28 J6.882
G1 X150.978
G1 X149.478 Z2.0
G1 X147.478
G1 X145.978 Z0.0
G1 X144.667
G2 X137.667 Y253.333 I0.0 J7.0
G1 Y265.333
G2 X137.782 Y266.6 I7.0 J0.0
G2 X138.23 Y268.084 Z2.0 I6.884 J-1.267
G2 X139.27 Y269.792 I6.437 J-2.751
G2 X140.384 Y270.87 Z0.0 I5.396 J-4.459
G2 X144.667 Y272.333 I4.283 J-5.537
G1 X156.667
G2 X163.205 Y267.833 I0.0 J-7.0
G2 X163.595 Y266.333 Z2.0 I-6.538 J-2.5
G2 X163.667 Y265.333 I-6.928 J-1.0
G1 Y264.333
G1 Y262.833 Z0.0
G1 Y253.333
G2 X157.946 Y246.451 I-7.0 J0.0
G0 Z20.0
G0 X171.379 Y251.061
G0 Z10.0
G1 F300.0 Z6.0
G2 F1000.0 X171.0 Y253.333 I6.621 J2.272
G1 Y265.333
G2 X178.0 Y272.333 I7.0 J0.0
G1 X190.0
G2 X197.0 Y265.333 I0.0 J-7.0
G1 Y253.333
G2 X190.0 Y246.333 I-7.0 J0.0
G1 X178.0
G2 X171.379 Y251.061 I0.0 J7.0
G1 F300.0 Z3.0
G2 F1000.0 X171.0 Y253.333 I6.621 J2.272
G1 Y265.333
G2 X178.0 Y272.333 I7.0 J0.0
G1 X190.0
G2 X197.0 Y265.333 I0.0 J-7.0
G1 Y253.333
G2 X190.0 Y246.333 I-7.0 J0.0
G1 X178.0
G2 X171.379 Y251.061 I0.0 J7.0
G1 F300.0 Z0.0
G2 F1000.0 X171.0 Y253.333 I6.621 J2.272
G1 Y265.333
G2 X171.116 Y266.6 I7.0 J0.0
G2 X171.563 Y268.084 Z2.0 I6.884 J-1.267
G2 X172.604 Y269.792 I6.437 J-2.751
G2 X173.717 Y270.87 Z0.0 I5.396 J-4.459
G2 X178.0 Y272.333 I4.283 J-5.537
G1 X190.0
G2 X196.538 Y267.833 I0.0 J-7.0
G2 X196.928 Y266.333 Z2.0 I-6.538 J-2.5
G2 X197.0 Y265.333 I-6.928 J-1.0
G1 Y264.333
G1 Y262.833 Z0.0
G1 Y253.333
G2 X190.0 Y246.333 I-7.0 J0.0
G1 X184.311
G1 X182.811 Z2.0
G1 X180.811
G1 X179.311 Z0.0
G1 X178.0
G2 X171.379 Y251.061 I0.0 J7.0
G0 Z20.0
G0 X176.72 Y279.785
G0 Z10.0
G1 F300.0 Z6.0
G2 F1000.0 X171.0 Y286.667 I1.28 J6.882
G1 Y298.667
G2 X178.0 Y305.667 I7.0 J0.0
G1 X190.0
G2 X197.0 Y298.667 I0.0 J-7.0
G1 Y286.667
G2 X190.0 Y279.667 I-7.0 J0.0
G1 X178.0
G2 X176.72 Y279.785 I0.0 J7.0
G1 F300.0 Z3.0
G2 F1000.0 X171.0 Y286.667 I1.28 J6.882
G1 Y298.667
G2 X178.0 Y305.667 I7.0 J0.0
G1 X190.0
G2 X197.0 Y298.667 I0.0 J-7.0
G1 Y286.667
G2 X190.0 Y279.667 I-7.0 J0.0
G1 X178.0
G2 X176.72 Y279.785 I0.0 J7.0
G1 F300.0 Z0.0
G2 F1000.0 X171.0 Y286.667 I1.28 J6.882
G1 Y298.667
G2 X171.116 Y299.934 I7.0 J0.0
G2 X171.563 Y301.417 Z2.0 I6.884 J-1.267
G2 X172.604 Y303.125 I6.437 J-2.751
G2 X173.717 Y304.204 Z0.0 I5.396 J-4.459
G2 X178.0 Y305.667 I4.283 J-5.537
G1 X190.0
G2 X196.538 Y301.167 I0.0 J-7.0
G2 X196.928 Y299.667 Z2.0 I-6.538 J-2.5
G2 X197.0 Y298.667 I-6.928 J-1.0
G1 Y297.667
G1 Y296.167 Z0.0
G1 Y286.667
G2 X190.0 Y279.667 I-7.0 J0.0
G1 X184.311
G1 X182.811 Z2.0
G1 X180.811
G1 X179.311 Z0.0
G1 X178.0
G2 X176.72 Y279.785 I0.0 J7.0
G0 Z20.0
G0 X163.288 Y284.394
G0 Z10.0
G1 F300.0 Z6.0
G2 F1000.0 X156.667 Y279.667 I-6.621 J2.272
G1 X144.667
G2 X137.667 Y286.667 I0.0 J7.0
G1 Y298.667
G2 X144.667 Y305.667 I7.0 J0.0
G1 X156.667
G2 X163.667 Y298.667 I0.0 J-7.0
G1 Y286.667
G2 X163.288 Y284.394 I-7.0 J0.0
G1 F300.0 Z3.0
G2 F1000.0 X156.667 Y279.667 I-6.621 J2.272
G1 X144.667
G2 X137.667 Y286.667 I0.0 J7.0
G1 Y298.667
G2 X144.667 Y305.667 I7.0 J0.0
G1 X156.667
G2 X163.667 Y298.667 I0.0 J-7.0
G1 Y286.667
G2 X163.288 Y284.394 I-7.0 J0.0
G1 F300.0 Z0.0
G2 F1000.0 X156.667 Y279.667 I-6.621 J2.272
G1 X150.978
G1 X149.478 Z2.0
G1 X147.478
G1 X145.978 Z0.0
G1 X144.667
G2 X137.667 Y286.667 I0.0 J7.0
G1 Y298.667
G2 X137.782 Y299.934 I7.0 J0.0
G2 X138.23 Y301.417 Z2.0 I6.884 J-1.267
G2 X139.27 Y303.125 I6.437 J-2.751
G2 X140.384 Y304.204 Z0.0 I5.396 J-4.459
G2 X144.667 Y305.667 I4.283 J-5.537
G1 X156.667
G2 X163.205 Y301.167 I0.0 J-7.0
G2 X163.595 Y299.667 Z2.0 I-6.538 J-2.5
G2 X163.667 Y298.667 I-6.928 J-1.0
G1 Y297.667
G1 Y296.167 Z0.0
G1 Y286.667
G2 X163.288 Y284.394 I-7.0 J0.0
G0 Z20.0
G0 X157.946 Y313.118
G0 Z10.0
G1 F300.0 Z6.0
G2 F1000.0 X156.667 Y313.0 I-1.28 J6.882
G1 X144.667
G2 X137.667 Y320.0 I0.0 J7.0
G1 Y332.0
G2 X144.667 Y339.0 I7.0 J0.0
G1 X156.667
G2 X163.667 Y332.0 I0.0 J-7.0
G1 Y320.0
G2 X157.946 Y313.118 I-7.0 J0.0
G1 F300.0 Z3.0
G2 F1000.0 X156.667 Y313.0 I-1.28 J6.882
G1 X144.667
G2 X137.667 Y320.0 I0.0 J7.0
G1 Y332.0
G2 X144.667 Y339.0 I7.0 J0.0
G1 X156.667
G2 X163.667 Y332.0 I0.0 J-7.0
G1 Y320.0
G2 X157.946 Y313.118 I-7.0 J0.0
G1 F300.0 Z0.0
G2 F1000.0 X156.667 Y313.0 I-1.28 J6.882
G1 X150.978
G1 X149.478 Z2.0
G1 X147.478
G1 X145.978 Z0.0
G1 X144.667
G2 X137.667 Y320.0 I0.0 J7.0
G1 Y332.0
G2 X137.782 Y333.267 I7.0 J0.0
G2 X138.23 Y334.751 Z2.0 I6.884 J-1.267
G2 X139.27 Y336.459 I6.437 J-2.751
G2 X140.384 Y337.537 Z0.0 I5.396 J-4.459
G2 X144.667 Y339.0 I4.283 J-5.537
G1 X156.667
G2 X163.205 Y334.5 I0.0 J-7.0
G2 X163.595 Y333.0 Z2.0 I-6.538 J-2.5
G2 X163.667 Y332.0 I-6.928 J-1.0
G1 Y331.0
G1 Y329.5 Z0.0
G1 Y320.0
G2 X157.946 Y313.118 I-7.0 J0.0
G0 Z20.0
G0 X171.379 Y317.728
G0 Z10.0
G1 F300.0 Z6.0
G2 F1000.0 X171.0 Y320.0 I6.621 J2.272
G1 Y332.0
G2 X178.0 Y339.0 I7.0 J0.0
G1 X190.0
G2 X197.0 Y332.0 I0.0 J-7.0
G1 Y320.0
G2 X190.0 Y313.0 I-7.0 J0.0
G1 X178.0
G2 X171.379 Y317.728 I0.0 J7.0
G1 F300.0 Z3.0
G2 F1000.0 X171.0 Y320.0 I6.621 J2.272
G1 Y332.0
G2 X178.0 Y339.0 I7.0 J0.0
G1 X190.0
G2 X197.0 Y332.0 I0.0 J-7.0
G1 Y320.0
G2 X190.0 Y313.0 I-7.0 J0.0
G1 X178.0
G2 X171.379 Y317.728 I0.0 J7.0
G1 F300.0 Z0.0
G2 F1000.0 X171.0 Y320.0 I6.621 J2.272
G1 Y332.0
G2 X171.116 Y333.267 I7.0 J0.0
G2 X171.563 Y334.751 Z2.0 I6.884 J-1.267
G2 X172.604 Y336.459 I6.437 J-2.751
G2 X173.717 Y337.537 Z0.0 I5.396 J-4.459
G2 X178.0 Y339.0 I4.283 J-5.537
G1 X190.0
G2 X196.538 Y334.5 I0.0 J-7.0
G2 X196.928 Y333.0 Z2.0 I-6.538 J-2.5
G2 X197.0 Y332.0 I-6.928 J-1.0
G1 Y331.0
G1 Y329.5 Z0.0
G1 Y320.0
G2 X190.0 Y313.0 I-7.0 J0.0
G1 X184.311
G1 X182.811 Z2.0
G1 X180.811
G1 X179.311 Z0.0
G1 X178.0
G2 X171.379 Y317.728 I0.0 J7.0
G0 Z20.0
G0 X176.72 Y346.451
G0 Z10.0
G1 F300.0 Z6.0
G2 F1000.0 X171.0 Y353.333 I1.28 J6.882
G1 Y365.333
G2 X178.0 Y372.333 I7.0 J0.0
G1 X190.0
G2 X197.0 Y365.333 I0.0 J-7.0
G1 Y353.333
G2 X190.0 Y346.333 I-7.0 J0.0
G1 X178.0
G2 X176.72 Y346.451 I0.0 J7.0
G1 F300.0 Z3.0
G2 F1000.0 X171.0 Y353.333 I1.28 J6.882
G1 Y365.333
G2 X178.0 Y372.333 I7.0 J0.0
G1 X190.0
G2 X197.0 Y365.333 I0.0 J-7.0
G1 Y353.333
G2 X190.0 Y346.333 I-7.0 J0.0
G1 X178.0
G2 X176.72 Y346.451 I0.0 J7.0
G1 F300.0 Z0.0
G2 F1000.0 X171.0 Y353.333 I1.28 J6.882
G1 Y365.333
G2 X171.116 Y366.6 I7.0 J0.0
G2 X171.563 Y368.084 Z2.0 I6.884 J-1.267
G2 X172.604 Y369.792 I6.437 J-2.751
G2 X173.717 Y370.87 Z0.0 I5.396 J-4.459
G2 X178.0 Y372.333 I4.283 J-5.537
G1 X190.0
G2 X196.538 Y367.833 I0.0 J-7.0
G2 X196.928 Y366.333 Z2.0 I-6.538 J-2.5
G2 X197.0 Y365.333 I-6.928 J-1.0
G1 Y364.333
G1 Y362.833 Z0.0
G1 Y353.333
G2 X190.0 Y346.333 I-7.0 J0.0
G1 X184.311
G1 X182.811 Z2.0
G1 X180.811
G1 X179.311 Z0.0
G1 X178.0
G2 X176.72 Y346.451 I0.0 J7.0
G0 Z20.0
G0 X163.288 Y351.061
G0 Z10.0
G1 F300.0 Z6.0
G2 F1000.0 X156.667 Y346.333 I-6.621 J2.272
G1 X144.667
G2 X137.667 Y353.333 I0.0 J7.0
G1 Y365.333
G2 X144.667 Y372.333 I7.0 J0.0
G1 X156.667
G2 X163.667 Y365.333 I0.0 J-7.0
G1 Y353.333
G2 X163.288 Y351.061 I-7.0 J0.0
G1 F300.0 Z3.0
G2 F1000.0 X156.667 Y346.333 I-6.621 J2.272
G1 X144.667
G2 X137.667 Y353.333 I0.0 J7.0
G1 Y365.333
G2 X144.667 Y372.333 I7.0 J0.0
G1 X156.667
G2 X163.667 Y365.333 I0.0 J-7.0
G1 Y353.333
G2 X163.288 Y351.061 I-7.0 J0.0
G1 F300.0 Z0.0
G2 F1000.0 X156.667 Y346.333 I-6.621 J2.272
G1 X150.978
G1 X149.478 Z2.0
G1 X147.478
G1 X145.978 Z0.0
G1 X144.667
G2 X137.667 Y353.333 I0.0 J7.0
G1 Y365.333
G2 X137.782 Y366.6 I7.0 J0.0
G2 X138.23 Y368.084 Z2.0 I6.884 J-1.267
G2 X139.27 Y369.792 I6.437 J-2.751
G2 X140.384 Y370.87 Z0.0 I5.396 J-4.459
G2 X144.667 Y372.333 I4.283 J-5.537
G1 X156.667
G2 X163.205 Y367.833 I0.0 J-7.0
G2 X163.595 Y366.333 Z2.0 I-6.538 J-2.5
G2 X163.667 Y365.333 I-6.928 J-1.0
G1 Y364.333
G1 Y362.833 Z0.0
G1 Y353.333
G2 X163.288 Y351.061 I-7.0 J0.0
G0 Z20.0
G0 X130.322 Y352.936
G0 Z10.0
G1 F300.0 Z6.0
G2 F1000.0 X123.333 Y346.333 I-6.989 J0.397
G1 X111.333
G2 X104.333 Y353.333 I0.0 J7.0
G1 Y365.333
G2 X111.333 Y372.333 I7.0 J0.0
G1 X123.333
G2 X130.333 Y365.333 I0.0 J-7.0
G1 Y353.333
G2 X130.322 Y352.936 I-7.0 J0.0
G1 F300.0 Z3.0
G2 F1000.0 X123.333 Y346.333 I-6.989 J0.397
G1 X111.333
G2 X104.333 Y353.333 I0.0 J7.0
G1 Y365.333
G2 X111.333 Y372.333 I7.0 J0.0
G1 X123.333
G2 X130.333 Y365.333 I0.0 J-7.0
G1 Y353.333
G2 X130.322 Y352.936 I-7.0 J0.0
G1 F300.0 Z0.0
G2 F1000.0 X123.333 Y346.333 I-6.989 J0.397
G1 X117.645
G1 X116.145 Z2.0
G1 X114.145
G1 X112.645 Z0.0
G1 X111.333
G2 X104.333 Y353.333 I0.0 J7.0
G1 Y365.333
G2 X104.449 Y366.6 I7.0 J0.0
G2 X104.896 Y368.084 Z2.0 I6.884 J-1.267
G2 X105.937 Y369.792 I6.437 J-2.751
G2 X107.05 Y370.87 Z0.0 I5.396 J-4.459
G2 X111.333 Y372.333 I4.283 J-5.537
G1 X123.333
G2 X129.872 Y367.833 I0.0 J-7.0
G2 X130.262 Y366.333 Z2.0 I-6.538 J-2.5
G2 X130.333 Y365.333 I-6.928 J-1.0
G1 Y364.333
G1 Y362.833 Z0.0
G1 Y353.333
G2 X130.322 Y352.936 I-7.0 J0.0
G0 Z20.0
G0 X125.55 Y338.64
G0 Z10.0
G1 F300.0 Z6.0
G2 F1000.0 X130.333 Y332.0 I-2.216 J-6.64
G1 Y320.0
G2 X123.333 Y313.0 I-7.0 J0.0
G1 X111.333
G2 X104.333 Y320.0 I0.0 J7.0
G1 Y332.0
G2 X111.333 Y339.0 I7.0 J0.0
G1 X123.333
G2 X125.55 Y338.64 I0.0 J-7.0
G1 F300.0 Z3.0
G2 F1000.0 X130.333 Y332.0 I-2.216 J-6.64
G1 Y320.0
G2 X123.333 Y313.0 I-7.0 J0.0
G1 X111.333
G2 X104.333 Y320.0 I0.0 J7.0
G1 Y332.0
G2 X111.333 Y339.0 I7.0 J0.0
G1 X123.333
G2 X125.55 Y338.64 I0.0 J-7.0
G1 F300.0 Z0.0
G2 F1000.0 X129.872 Y334.5 I-2.216 J-6.64
G2 X130.262 Y333.0 Z2.0 I-6.538 J-2.5
G2 X130.333 Y332.0 I-6.928 J-1.0
G1 Y331.0
G1 Y329.5 Z0.0
G1 Y320.0
G2 X123.333 Y313.0 I-7.0 J0.0
G1 X117.645
G1 X116.145 Z2.0
G1 X114.145
G1 X112.645 Z0.0
G1 X111.333
G2 X104.333 Y320.0 I0.0 J7.0
G1 Y332.0
G2 X104.449 Y333.267 I7.0 J0.0
G2 X104.896 Y334.751 Z2.0 I6.884 J-1.267
G2 X105.937 Y336.459 I6.437 J-2.751
G2 X107.05 Y337.537 Z0.0 I5.396 J-4.459
G2 X111.333 Y339.0 I4.283 J-5.537
G1 X123.333
G2 X125.55 Y338.64 I0.0 J-7.0
G0 Z20.0
G0 X96.881 Y333.285
G0 Z10.0
G1 F300.0 Z6.0
G2 F1000.0 X97.0 Y332.0 I-6.881 J-1.285
G1 Y320.0
G2 X90.0 Y313.0 I-7.0 J0.0
G1 X78.0
G2 X71.0 Y320.0 I0.0 J7.0
G1 Y332.0
G2 X78.0 Y339.0 I7.0 J0.0
G1 X90.0
G2 X96.881 Y333.285 I0.0 J-7.0
G1 F300.0 Z3.0
G2 F1000.0 X97.0 Y332.0 I-6.881 J-1.285
G1 Y320.0
G2 X90.0 Y313.0 I-7.0 J0.0
G1 X78.0
G2 X71.0 Y320.0 I0.0 J7.0
G1 Y332.0
G2 X78.0 Y339.0 I7.0 J0.0
G1 X90.0
G2 X96.881 Y333.285 I0.0 J-7.0
G1 F300.0 Z1.683
G2 F1000.0 X96.928 Y333.0 Z2.0 I-6.881 J-1.285
G2 X97.0 Y332.0 I-6.928 J-1.0
G1 Y331.0
G1 Y329.5 Z0.0
G1 Y320.0
G2 X90.0 Y313.0 I-7.0 J0.0
G1 X84.311
G1 X82.811 Z2.0
G1 X80.811
G1 X79.311 Z0.0
G1 X78.0
G2 X71.0 Y320.0 I0.0 J7.0
G1 Y332.0
G2 X71.116 Y333.267 I7.0 J0.0
G2 X71.563 Y334.751 Z2.0 I6.884 J-1.267
G2 X72.604 Y336.459 I6.437 J-2.751
G2 X73.717 Y337.537 Z0.0 I5.396 J-4.459
G2 X78.0 Y339.0 I4.283 J-5.537
G1 X90.0
G2 X96.538 Y334.5 I0.0 J-7.0
G2 X96.881 Y333.285 Z1.683 I-6.538 J-2.5
G0 Z20.0
G0 X92.272 Y346.712
G0 Z10.0
G1 F300.0 Z6.0
G2 F1000.0 X90.0 Y346.333 I-2.272 J6.621
G1 X78.0
G2 X71.0 Y353.333 I0.0 J7.0
G1 Y365.333
G2 X78.0 Y372.333 I7.0 J0.0
G1 X90.0
G2 X97.0 Y365.333 I0.0 J-7.0
G1 Y353.333
G2 X92.272 Y346.712 I-7.0 J0.0
G1 F300.0 Z3.0
G2 F1000.0 X90.0 Y346.333 I-2.272 J6.621
G1 X78.0
G2 X71.0 Y353.333 I0.0 J7.0
G1 Y365.333
G2 X78.0 Y372.333 I7.0 J0.0
G1 X90.0
G2 X97.0 Y365.333 I0.0 J-7.0
G1 Y353.333
G2 X92.272 Y346.712 I-7.0 J0.0
G1 F300.0 Z0.0
G2 F1000.0 X90.0 Y346.333 I-2.272 J6.621
G1 X84.311
G1 X82.811 Z2.0
G1 X80.811
G1 X79.311 Z0.0
G1 X78.0
G2 X71.0 Y353.333 I0.0 J7.0
G1 Y365.333
G2 X71.116 Y366.6 I7.0 J0.0
G2 X71.563 Y368.084 Z2.0 I6.884 J-1.267
G2 X72.604 Y369.792 I6.437 J-2.751
G2 X73.717 Y370.87 Z0.0 I5.396 J-4.459
G2 X78.0 Y372.333 I4.283 J-5.537
G1 X90.0
G2 X96.538 Y367.833 I0.0 J-7.0
G2 X96.928 Y366.333 Z2.0 I-6.538 J-2.5
G2 X97.0 Y365.333 I-6.928 J-1.0
G1 Y364.333
G1 Y362.833 Z0.0
G1 Y353.333
G2 X92.272 Y346.712 I-7.0 J0.0
G0 Z20.0
G0 X63.549 Y352.054
G0 Z10.0
G1 F300.0 Z6.0
G2 F1000.0 X56.667 Y346.333 I-6.882 J1.28
G1 X44.667
G2 X37.667 Y353.333 I0.0 J7.0
G1 Y365.333
G2 X44.667 Y372.333 I7.0 J0.0
G1 X56.667
G2 X63.667 Y365.333 I0.0 J-7.0
G1 Y353.333
G2 X63.549 Y352.054 I-7.0 J0.0
G1 F300.0 Z3.0
G2 F1000.0 X56.667 Y346.333 I-6.882 J1.28
G1 X44.667
G2 X37.667 Y353.333 I0.0 J7.0
G1 Y365.333
G2 X44.667 Y372.333 I7.0 J0.0
G1 X56.667
G2 X63.667 Y365.333 I0.0 J-7.0
G1 Y353.333
G2 X63.549 Y352.054 I-7.0 J0.0
G1 F300.0 Z0.0
G2 F1000.0 X56.667 Y346.333 I-6.882 J1.28
G1 X50.978
G1 X49.478 Z2.0
G1 X47.478
G1 X45.978 Z0.0
G1 X44.667
G2 X37.667 Y353.333 I0.0 J7.0
G1 Y365.333
G2 X37.782 Y366.6 I7.0 J0.0
G2 X38.23 Y368.084 Z2.0 I6.884 J-1.267
G2 X39.27 Y369.792 I6.437 J-2.751
G2 X40.384 Y370.87 Z0.0 I5.396 J-4.459
G2 X44.667 Y372.333 I4.283 J-5.537
G1 X56.667
G2 X63.205 Y367.833 I0.0 J-7.0
G2 X63.595 Y366.333 Z2.0 I-6.538 J-2.5
G2 X63.667 Y365.333 I-6.928 J-1.0
G1 Y364.333
G1 Y362.833 Z0.0
G1 Y353.333
G2 X63.549 Y352.054 I-7.0 J0.0
G0 Z20.0
G0 X58.939 Y338.621
G0 Z10.0
G1 F300.0 Z6.0
G2 F1000.0 X63.667 Y332.0 I-2.272 J-6.621
G1 Y320.0
G2 X56.667 Y313.0 I-7.0 J0.0
G1 X44.667
G2 X37.667 Y320.0 I0.0 J7.0
G1 Y332.0
G2 X44.667 Y339.0 I7.0 J0.0
G1 X56.667
G2 X58.939 Y338.621 I0.0 J-7.0
G1 F300.0 Z3.0
G2 F1000.0 X63.667 Y332.0 I-2.272 J-6.621
G1 Y320.0
G2 X56.667 Y313.0 I-7.0 J0.0
G1 X44.667
G2 X37.667 Y320.0 I0.0 J7.0
G1 Y332.0
G2 X44.667 Y339.0 I7.0 J0.0
G1 X56.667
G2 X58.939 Y338.621 I0.0 J-7.0
G1 F300.0 Z0.0
G2 F1000.0 X63.205 Y334.5 I-2.272 J-6.621
G2 X63.595 Y333.0 Z2.0 I-6.538 J-2.5
G2 X63.667 Y332.0 I-6.928 J-1.0
G1 Y331.0
G1 Y329.5 Z0.0
G1 Y320.0
G2 X56.667 Y313.0 I-7.0 J0.0
G1 X50.978
G1 X49.478 Z2.0
G1 X47.478
G1 X45.978 Z0.0
G1 X44.667
G2 X37.667 Y320.0 I0.0 J7.0
G1 Y332.0
G2 X37.782 Y333.267 I7.0 J0.0
G2 X38.23 Y334.751 Z2.0 I6.884 J-1.267
G2 X39.27 Y336.459 I6.437 J-2.751
G2 X40.384 Y337.537 Z0.0 I5.396 J-4.459
G2 X44.667 Y339.0 I4.283 J-5.537
G1 X56.667
G2 X58.939 Y338.621 I0.0 J-7.0
G0 Z20.0
G0 X30.215 Y333.28
G0 Z10.0
G1 F300.0 Z6.0
G2 F1000.0 X30.333 Y332.0 I-6.882 J-1.28
G1 Y320.0
G2 X23.333 Y313.0 I-7.0 J0.0
G1 X11.333
G2 X4.333 Y320.0 I0.0 J7.0
G1 Y332.0
G2 X11.333 Y339.0 I7.0 J0.0
G1 X23.333
G2 X30.215 Y333.28 I0.0 J-7.0
G1 F300.0 Z3.0
G2 F1000.0 X30.333 Y332.0 I-6.882 J-1.28
G1 Y320.0
G2 X23.333 Y313.0 I-7.0 J0.0
G1 X11.333
G2 X4.333 Y320.0 I0.0 J7.0
G1 Y332.0
G2 X11.333 Y339.0 I7.0 J0.0
G1 X23.333
G2 X30.215 Y333.28 I0.0 J-7.0
G1 F300.0 Z1.69
G2 F1000.0 X30.262 Y333.0 Z2.0 I-6.882 J-1.28
G2 X30.333 Y332.0 I-6.928 J-1.0
G1 Y331.0
G1 Y329.5 Z0.0
G1 Y320.0
G2 X23.333 Y313.0 I-7.0 J0.0
G1 X17.645
G1 X16.145 Z2.0
G1 X14.145
G1 X12.645 Z0.0
G1 X11.333
G2 X4.333 Y320.0 I0.0 J7.0
G1 Y332.0
G2 X4.449 Y333.267 I7.0 J0.0
G2 X4.896 Y334.751 Z2.0 I6.884 J-1.267
G2 X5.937 Y336.459 I6.437 J-2.751
G2 X7.05 Y337.537 Z0.0 I5.396 J-4.459
G2 X11.333 Y339.0 I4.283 J-5.537
G1 X23.333
G2 X29.872 Y334.5 I0.0 J-7.0
G2 X30.215 Y333.28 Z1.69 I-6.538 J-2.5
G0 Z20.0
G0 X25.606 Y346.712
G0 Z10.0
G1 F300.0 Z6.0
G2 F1000.0 X23.333 Y346.333 I-2.272 J6.621
G1 X11.333
G2 X4.333 Y353.333 I0.0 J7.0
G1 Y365.333
G2 X11.333 Y372.333 I7.0 J0.0
G1 X23.333
G2 X30.333 Y365.333 I0.0 J-7.0
G1 Y353.333
G2 X25.606 Y346.712 I-7.0 J0.0
G1 F300.0 Z3.0
G2 F1000.0 X23.333 Y346.333 I-2.272 J6.621
G1 X11.333
G2 X4.333 Y353.333 I0.0 J7.0
G1 Y365.333
G2 X11.333 Y372.333 I7.0 J0.0
G1 X23.333
G2 X30.333 Y365.333 I0.0 J-7.0
G1 Y353.333
G2 X25.606 Y346.712 I-7.0 J0.0
G1 F300.0 Z0.0
G2 F1000.0 X23.333 Y346.333 I-2.272 J6.621
G1 X17.645
G1 X16.145 Z2.0
G1 X14.145
G1 X12.645 Z0.0
G1 X11.333
G2 X4.333 Y353.333 I0.0 J7.0
G1 Y365.333
G2 X4.449 Y366.6 I7.0 J0.0
G2 X4.896 Y368.084 Z2.0 I6.884 J-1.267
G2 X5.937 Y369.792 I6.437 J-2.751
G2 X7.05 Y370.87 Z0.0 I5.396 J-4.459
G2 X11.333 Y372.333 I4.283 J-5.537
G1 X23.333
G2 X29.872 Y367.833 I0.0 J-7.0
G2 X30.262 Y366.333 Z2.0 I-6.538 J-2.5
G2 X30.333 Y365.333 I-6.928 J-1.0
G1 Y364.333
G1 Y362.833 Z0.0
G1 Y353.333
G2 X25.606 Y346.712 I-7.0 J0.0
G0 Z20.0
G0 X-3.118 Y352.054
G0 Z10.0
G1 F300.0 Z6.0
G2 F1000.0 X-10.0 Y346.333 I-6.882 J1.28
G1 X-22.0
G2 X-29.0 Y353.333 I0.0 J7.0
G1 Y365.333
G2 X-22.0 Y372.333 I7.0 J0.0
G1 X-10.0
G2 X-3.0 Y365.333 I0.0 J-7.0
G1 Y353.333
G2 X-3.118 Y352.054 I-7.0 J0.0
G1 F300.0 Z3.0
G2 F1000.0 X-10.0 Y346.333 I-6.882 J1.28
G1 X-22.0
G2 X-29.0 Y353.333 I0.0 J7.0
G1 Y365.333
G2 X-22.0 Y372.333 I7.0 J0.0
G1 X-10.0
G2 X-3.0 Y365.333 I0.0 J-7.0
G1 Y353.333
G2 X-3.118 Y352.054 I-7.0 J0.0
G1 F300.0 Z0.0
G2 F1000.0 X-6.675 Y347.174 I-6.882 J1.28
G2 X-8.112 Y346.593 Z2.0 I-3.325 J6.16
G2 X-10.0 Y346.333 I-1.888 J6.741
G1 X-10.095
G1 X-11.608 Z0.0
G1 X-22.0
G2 X-29.0 Y353.333 I0.0 J7.0
G1 Y364.234
G1 Y365.333 Z1.466
G2 X-28.987 Y365.763 Z2.0 I7.0 J0.0
G2 X-28.58 Y367.721 I6.987 J-0.43
G2 X-27.893 Y369.111 Z0.0 I6.58 J-2.388
G2 X-22.0 Y372.333 I5.893 J-3.777
G1 X-10.0
G2 X-3.462 Y367.833 I0.0 J-7.0
G2 X-3.072 Y366.333 Z2.0 I-6.538 J-2.5
G2 X-3.0 Y365.333 I-6.928 J-1.0
G1 Y364.333
G1 Y362.833 Z0.0
G1 Y353.333
G2 X-3.118 Y352.054 I-7.0 J0.0
G0 Z20.0
G0 X-7.728 Y338.621
G0 Z10.0
G1 F300.0 Z6.0
G2 F1000.0 X-3.0 Y332.0 I-2.272 J-6.621
G1 Y320.0
G2 X-10.0 Y313.0 I-7.0 J0.0
G1 X-22.0
G2 X-29.0 Y320.0 I0.0 J7.0
G1 Y332.0
G2 X-22.0 Y339.0 I7.0 J0.0
G1 X-10.0
G2 X-7.728 Y338.621 I0.0 J-7.0
G1 F300.0 Z3.0
G2 F1000.0 X-3.0 Y332.0 I-2.272 J-6.621
G1 Y320.0
G2 X-10.0 Y313.0 I-7.0 J0.0
G1 X-22.0
G2 X-29.0 Y320.0 I0.0 J7.0
G1 Y332.0
G2 X-22.0 Y339.0 I7.0 J0.0
G1 X-10.0
G2 X-7.728 Y338.621 I0.0 J-7.0
G1 F300.0 Z0.0
G2 F1000.0 X-3.462 Y334.5 I-2.272 J-6.621
G2 X-3.072 Y333.0 Z2.0 I-6.538 J-2.5
G2 X-3.0 Y332.0 I-6.928 J-1.0
G1 Y331.0
G1 Y329.5 Z0.0
G1 Y320.0
G2 X-7.5 Y313.462 I-7.0 J0.0
G2 X-9.0 Y313.072 Z2.0 I-2.5 J6.538
G2 X-10.0 Y313.0 I-1.0 J6.928
G1 X-11.0
G1 X-12.5 Z0.0
G1 X-22.0
G2 X-29.0 Y320.0 I0.0 J7.0
G1 Y329.279
G1 Y330.779 Z2.0
G1 Y332.0
G2 X-28.957 Y332.779 I7.0 J0.0
G2 X-28.619 Y334.279 Z0.0 I6.957 J-0.779
G2 X-22.0 Y339.0 I6.619 J-2.279
G1 X-10.0
G2 X-7.728 Y338.621 I0.0 J-7.0
G0 Z20.0
G0 X39.1 Y302.911
G0 Z10.0
G1 F300.0 Z6.0
G2 F1000.0 X44.667 Y305.667 I5.566 J-4.245
G1 X56.667
G2 X63.667 Y298.667 I0.0 J-7.0
G1 Y286.667
G2 X56.667 Y279.667 I-7.0 J0.0
G1 X44.667
G2 X37.667 Y286.667 I0.0 J7.0
G1 Y298.667
G2 X39.1 Y302.911 I7.0 J0.0
G1 F300.0 Z3.0
G2 F1000.0 X44.667 Y305.667 I5.566 J-4.245
G1 X56.667
G2 X63.667 Y298.667 I0.0 J-7.0
G1 Y286.667
G2 X56.667 Y279.667 I-7.0 J0.0
G1 X44.667
G2 X37.667 Y286.667 I0.0 J7.0
G1 Y298.667
G2 X39.1 Y302.911 I7.0 J0.0
G1 F300.0 Z2.0
G2 F1000.0 X39.27 Y303.125 I5.566 J-4.245
G2 X40.384 Y304.204 Z0.0 I5.396 J-4.459
G2 X44.667 Y305.667 I4.283 J-5.537
G1 X56.667
G2 X63.205 Y301.167 I0.0 J-7.0
G2 X63.595 Y299.667 Z2.0 I-6.538 J-2.5
G2 X63.667 Y298.667 I-6.928 J-1.0
G1 Y297.667
G1 Y296.167 Z0.0
G1 Y286.667
G2 X56.667 Y279.667 I-7.0 J0.0
G1 X50.978
G1 X49.478 Z2.0
G1 X47.478
G1 X45.978 Z0.0
G1 X44.667
G2 X37.667 Y286.667 I0.0 J7.0
G1 Y298.667
G2 X37.782 Y299.934 I7.0 J0.0
G2 X38.23 Y301.417 Z2.0 I6.884 J-1.267
G2 X39.1 Y302.911 I6.437 J-2.751
G0 Z20.0
G0 X43.641 Y272.258
G0 Z10.0
G1 F300.0 Z6.0
G2 F1000.0 X44.667 Y272.333 I1.026 J-6.924
G1 X56.667
G2 X63.667 Y265.333 I0.0 J-7.0
G1 Y253.333
G2 X56.667 Y246.333 I-7.0 J0.0
G1 X44.667
G2 X37.667 Y253.333 I0.0 J7.0
G1 Y265.333
G2 X43.641 Y272.258 I7.0 J0.0
G1 F300.0 Z3.0
G2 F1000.0 X44.667 Y272.333 I1.026 J-6.924
G1 X56.667
G2 X63.667 Y265.333 I0.0 J-7.0
G1 Y253.333
G2 X56.667 Y246.333 I-7.0 J0.0
G1 X44.667
G2 X37.667 Y253.333 I0.0 J7.0
G1 Y265.333
G2 X43.641 Y272.258 I7.0 J0.0
G1 F300.0 Z0.0
G2 F1000.0 X44.667 Y272.333 I1.026 J-6.924
G1 X56.667
G2 X63.205 Y267.833 I0.0 J-7.0
G2 X63.595 Y266.333 Z2.0 I-6.538 J-2.5
G2 X63.667 Y265.333 I-6.928 J-1.0
G1 Y264.333
G1 Y262.833 Z0.0
G1 Y253.333
G2 X56.667 Y246.333 I-7.0 J0.0
G1 X50.978
G1 X49.478 Z2.0
G1 X47.478
G1 X45.978 Z0.0
G1 X44.667
G2 X37.667 Y253.333 I0.0 J7.0
G1 Y265.333
G2 X37.782 Y266.6 I7.0 J0.0
G2 X38.23 Y268.084 Z2.0 I6.884 J-1.267
G2 X39.27 Y269.792 I6.437 J-2.751
G2 X40.384 Y270.87 Z0.0 I5.396 J-4.459
G2 X43.641 Y272.258 I4.283 J-5.537
G0 Z20.0
G0 X71.138 Y266.716
G0 Z10.0
G1 F300.0 Z6.0
G2 F1000.0 X78.0 Y272.333 I6.862 J-1.383
G1 X90.0
G2 X97.0 Y265.333 I0.0 J-7.0
G1 Y253.333
G2 X90.0 Y246.333 I-7.0 J0.0
G1 X78.0
G2 X71.0 Y253.333 I0.0 J7.0
G1 Y265.333
G2 X71.138 Y266.716 I7.0 J0.0
G1 F300.0 Z3.0
G2 F1000.0 X78.0 Y272.333 I6.862 J-1.383
G1 X90.0
G2 X97.0 Y265.333 I0.0 J-7.0
G1 Y253.333
G2 X90.0 Y246.333 I-7.0 J0.0
G1 X78.0
G2 X71.0 Y253.333 I0.0 J7.0
G1 Y265.333
G2 X71.138 Y266.716 I7.0 J0.0
G1 F300.0 Z0.158
G2 F1000.0 X71.563 Y268.084 Z2.0 I6.862 J-1.383
G2 X72.604 Y269.792 I6.437 J-2.751
G2 X73.717 Y270.87 Z0.0 I5.396 J-4.459
G2 X78.0 Y272.333 I4.283 J-5.537
G1 X90.0
G2 X96.538 Y267.833 I0.0 J-7.0
G2 X96.928 Y266.333 Z2.0 I-6.538 J-2.5
G2 X97.0 Y265.333 I-6.928 J-1.0
G1 Y264.333
G1 Y262.833 Z0.0
G1 Y253.333
G2 X90.0 Y246.333 I-7.0 J0.0
G1 X84.311
G1 X82.811 Z2.0
G1 X80.811
G1 X79.311 Z0.0
G1 X78.0
G2 X71.0 Y253.333 I0.0 J7.0
G1 Y265.333
G2 X71.116 Y266.6 I7.0 J0.0
G2 X71.138 Y266.716 Z0.158 I6.884 J-1.267
G0 Z20.0
G0 X75.723 Y280.047
G0 Z10.0
G1 F300.0 Z6.0
G2 F1000.0 X71.0 Y286.667 I2.277 J6.619
G1 Y298.667
G2 X78.0 Y305.667 I7.0 J0.0
G1 X90.0
G2 X97.0 Y298.667 I0.0 J-7.0
G1 Y286.667
G2 X90.0 Y279.667 I-7.0 J0.0
G1 X78.0
G2 X75.723 Y280.047 I0.0 J7.0
G1 F300.0 Z3.0
G2 F1000.0 X71.0 Y286.667 I2.277 J6.619
G1 Y298.667
G2 X78.0 Y305.667 I7.0 J0.0
G1 X90.0
G2 X97.0 Y298.667 I0.0 J-7.0
G1 Y286.667
G2 X90.0 Y279.667 I-7.0 J0.0
G1 X78.0
G2 X75.723 Y280.047 I0.0 J7.0
G1 F300.0 Z0.0
G2 F1000.0 X71.0 Y286.667 I2.277 J6.619
G1 Y298.667
G2 X71.116 Y299.934 I7.0 J0.0
G2 X71.563 Y301.417 Z2.0 I6.884 J-1.267
G2 X72.604 Y303.125 I6.437 J-2.751
G2 X73.717 Y304.204 Z0.0 I5.396 J-4.459
G2 X78.0 Y305.667 I4.283 J-5.537
G1 X90.0
G2 X96.538 Y301.167 I0.0 J-7.0
G2 X96.928 Y299.667 Z2.0 I-6.538 J-2.5
G2 X97.0 Y298.667 I-6.928 J-1.0
G1 Y297.667
G1 Y296.167 Z0.0
G1 Y286.667
G2 X90.0 Y279.667 I-7.0 J0.0
G1 X84.311
G1 X82.811 Z2.0
G1 X80.811
G1 X79.311 Z0.0
G1 X78.0
G2 X75.723 Y280.047 I0.0 J7.0
G0 Z20.0
G0 X104.451 Y285.387
G0 Z10.0
G1 F300.0 Z6.0
G2 F1000.0 X104.333 Y286.667 I6.882 J1.279
G1 Y298.667
G2 X111.333 Y305.667 I7.0 J0.0
G1 X123.333
G2 X130.333 Y298.667 I0.0 J-7.0
G1 Y286.667
G2 X123.333 Y279.667 I-7.0 J0.0
G1 X111.333
G2 X104.451 Y285.387 I0.0 J7.0
G1 F300.0 Z3.0
G2 F1000.0 X104.333 Y286.667 I6.882 J1.279
G1 Y298.667
G2 X111.333 Y305.667 I7.0 J0.0
G1 X123.333
G2 X130.333 Y298.667 I0.0 J-7.0
G1 Y286.667
G2 X123.333 Y279.667 I-7.0 J0.0
G1 X111.333
G2 X104.451 Y285.387 I0.0 J7.0
G1 F300.0 Z0.0
G2 F1000.0 X104.333 Y286.667 I6.882 J1.279
G1 Y298.667
G2 X104.449 Y299.934 I7.0 J0.0
G2 X104.896 Y301.417 Z2.0 I6.884 J-1.267
G2 X105.937 Y303.125 I6.437 J-2.751
G2 X107.05 Y304.204 Z0.0 I5.396 J-4.459
G2 X111.333 Y305.667 I4.283 J-5.537
G1 X123.333
G2 X129.872 Y301.167 I0.0 J-7.0
G2 X130.262 Y299.667 Z2.0 I-6.538 J-2.5
G2 X130.333 Y298.667 I-6.928 J-1.0
G1 Y297.667
G1 Y296.167 Z0.0
G1 Y286.667
G2 X123.333 Y279.667 I-7.0 J0.0
G1 X117.645
G1 X116.145 Z2.0
G1 X114.145
G1 X112.645 Z0.0
G1 X111.333
G2 X104.451 Y285.387 I0.0 J7.0
G0 Z20.0
G0 X109.061 Y271.954
G0 Z10.0
G1 F300.0 Z6.0
G2 F1000.0 X111.333 Y272.333 I2.272 J-6.621
G1 X123.333
G2 X130.333 Y265.333 I0.0 J-7.0
G1 Y253.333
G2 X123.333 Y246.333 I-7.0 J0.0
G1 X111.333
G2 X104.333 Y253.333 I0.0 J7.0
G1 Y265.333
G2 X109.061 Y271.954 I7.0 J0.0
G1 F300.0 Z3.0
G2 F1000.0 X111.333 Y272.333 I2.272 J-6.621
G1 X123.333
G2 X130.333 Y265.333 I0.0 J-7.0
G1 Y253.333
G2 X123.333 Y246.333 I-7.0 J0.0
G1 X111.333
G2 X104.333 Y253.333 I0.0 J7.0
G1 Y265.333
G2 X109.061 Y271.954 I7.0 J0.0
G1 F300.0 Z0.0
G2 F1000.0 X111.333 Y272.333 I2.272 J-6.621
G1 X123.333
G2 X129.872 Y267.833 I0.0 J-7.0
G2 X130.262 Y266.333 Z2.0 I-6.538 J-2.5
G2 X130.333 Y265.333 I-6.928 J-1.0
G1 Y264.333
G1 Y262.833 Z0.0
G1 Y253.333
G2 X123.333 Y246.333 I-7.0 J0.0
G1 X117.645
G1 X116.145 Z2.0
G1 X114.145
G1 X112.645 Z0.0
G1 X111.333
G2 X104.333 Y253.333 I0.0 J7.0
G1 Y265.333
G2 X104.449 Y266.6 I7.0 J0.0
G2 X104.896 Y268.084 Z2.0 I6.884 J-1.267
G2 X105.937 Y269.792 I6.437 J-2.751
G2 X107.05 Y270.87 Z0.0 I5.396 J-4.459
G2 X109.061 Y271.954 I4.283 J-5.537
G0 Z20.0
G0 X110.936 Y238.989
G0 Z10.0
G1 F300.0 Z6.0
G2 F1000.0 X111.333 Y239.0 I0.397 J-6.989
G1 X123.333
G2 X130.333 Y232.0 I0.0 J-7.0
G1 Y220.0
G2 X123.333 Y213.0 I-7.0 J0.0
G1 X111.333
G2 X104.333 Y220.0 I0.0 J7.0
G1 Y232.0
G2 X110.936 Y238.989 I7.0 J0.0
G1 F300.0 Z3.0
G2 F1000.0 X111.333 Y239.0 I0.397 J-6.989
G1 X123.333
G2 X130.333 Y232.0 I0.0 J-7.0
G1 Y220.0
G2 X123.333 Y213.0 I-7.0 J0.0
G1 X111.333
G2 X104.333 Y220.0 I0.0 J7.0
G1 Y232.0
G2 X110.936 Y238.989 I7.0 J0.0
G1 F300.0 Z0.0
G2 F1000.0 X111.333 Y239.0 I0.397 J-6.989
G1 X123.333
G2 X129.872 Y234.5 I0.0 J-7.0
G2 X130.262 Y233.0 Z2.0 I-6.538 J-2.5
G2 X130.333 Y232.0 I-6.928 J-1.0
G1 Y231.0
G1 Y229.5 Z0.0
G1 Y220.0
G2 X123.333 Y213.0 I-7.0 J0.0
G1 X117.645
G1 X116.145 Z2.0
G1 X114.145
G1 X112.645 Z0.0
G1 X111.333
G2 X104.333 Y220.0 I0.0 J7.0
G1 Y232.0
G2 X104.449 Y233.267 I7.0 J0.0
G2 X104.896 Y234.751 Z2.0 I6.884 J-1.267
G2 X105.937 Y236.459 I6.437 J-2.751
G2 X107.05 Y237.537 Z0.0 I5.396 J-4.459
G2 X110.936 Y238.989 I4.283 J-5.537
G0 Z20.0
G0 X96.64 Y234.216
G0 Z10.0
G1 F300.0 Z6.0
G2 F1000.0 X97.0 Y232.0 I-6.64 J-2.216
G1 Y220.0
G2 X90.0 Y213.0 I-7.0 J0.0
G1 X78.0
G2 X71.0 Y220.0 I0.0 J7.0
G1 Y232.0
G2 X78.0 Y239.0 I7.0 J0.0
G1 X90.0
G2 X96.64 Y234.216 I0.0 J-7.0
G1 F300.0 Z3.0
G2 F1000.0 X97.0 Y232.0 I-6.64 J-2.216
G1 Y220.0
G2 X90.0 Y213.0 I-7.0 J0.0
G1 X78.0
G2 X71.0 Y220.0 I0.0 J7.0
G1 Y232.0
G2 X78.0 Y239.0 I7.0 J0.0
G1 X90.0
G2 X96.64 Y234.216 I0.0 J-7.0
G1 F300.0 Z0.402
G2 F1000.0 X96.928 Y233.0 Z2.0 I-6.64 J-2.216
G2 X97.0 Y232.0 I-6.928 J-1.0
G1 Y231.0
G1 Y229.5 Z0.0
G1 Y220.0
G2 X90.0 Y213.0 I-7.0 J0.0
G1 X84.311
G1 X82.811 Z2.0
G1 X80.811
G1 X79.311 Z0.0
G1 X78.0
G2 X71.0 Y220.0 I0.0 J7.0
G1 Y232.0
G2 X71.116 Y233.267 I7.0 J0.0
G2 X71.563 Y234.751 Z2.0 I6.884 J-1.267
G2 X72.604 Y236.459 I6.437 J-2.751
G2 X73.717 Y237.537 Z0.0 I5.396 J-4.459
G2 X78.0 Y239.0 I4.283 J-5.537
G1 X90.0
G2 X96.538 Y234.5 I0.0 J-7.0
G2 X96.64 Y234.216 Z0.402 I-6.538 J-2.5
G0 Z20.0
G0 X91.285 Y205.548
G0 Z10.0
G1 F300.0 Z6.0
G2 F1000.0 X97.0 Y198.667 I-1.285 J-6.881
G1 Y186.667
G2 X90.0 Y179.667 I-7.0 J0.0
G1 X78.0
G2 X71.0 Y186.667 I0.0 J7.0
G1 Y198.667
G2 X78.0 Y205.667 I7.0 J0.0
G1 X90.0
G2 X91.285 Y205.548 I0.0 J-7.0
G1 F300.0 Z3.0
G2 F1000.0 X97.0 Y198.667 I-1.285 J-6.881
G1 Y186.667
G2 X90.0 Y179.667 I-7.0 J0.0
G1 X78.0
G2 X71.0 Y186.667 I0.0 J7.0
G1 Y198.667
G2 X78.0 Y205.667 I7.0 J0.0
G1 X90.0
G2 X91.285 Y205.548 I0.0 J-7.0
G1 F300.0 Z0.0
G2 F1000.0 X96.538 Y201.167 I-1.285 J-6.881
G2 X96.928 Y199.667 Z2.0 I-6.538 J-2.5
G2 X97.0 Y198.667 I-6.928 J-1.0
G1 Y197.667
G1 Y196.167 Z0.0
G1 Y186.667
G2 X90.0 Y179.667 I-7.0 J0.0
G1 X84.311
G1 X82.811 Z2.0
G1 X80.811
G1 X79.311 Z0.0
G1 X78.0
G2 X71.0 Y186.667 I0.0 J7.0
G1 Y198.667
G2 X71.116 Y199.934 I7.0 J0.0
G2 X71.563 Y201.417 Z2.0 I6.884 J-1.267
G2 X72.604 Y203.125 I6.437 J-2.751
G2 X73.717 Y204.204 Z0.0 I5.396 J-4.459
G2 X78.0 Y205.667 I4.283 J-5.537
G1 X90.0
G2 X91.285 Y205.548 I0.0 J-7.0
G0 Z20.0
G0 X104.712 Y200.939
G0 Z10.0
G1 F300.0 Z6.0
G2 F1000.0 X111.333 Y205.667 I6.621 J-2.272
G1 X123.333
G2 X130.333 Y198.667 I0.0 J-7.0
G1 Y186.667
G2 X123.333 Y179.667 I-7.0 J0.0
G1 X111.333
G2 X104.333 Y186.667 I0.0 J7.0
G1 Y198.667
G2 X104.712 Y200.939 I7.0 J0.0
G1 F300.0 Z3.0
G2 F1000.0 X111.333 Y205.667 I6.621 J-2.272
G1 X123.333
G2 X130.333 Y198.667 I0.0 J-7.0
G1 Y186.667
G2 X123.333 Y179.667 I-7.0 J0.0
G1 X111.333
G2 X104.333 Y186.667 I0.0 J7.0
G1 Y198.667
G2 X104.712 Y200.939 I7.0 J0.0
G1 F300.0 Z1.386
G2 F1000.0 X104.896 Y201.417 Z2.0 I6.621 J-2.272
G2 X105.937 Y203.125 I6.437 J-2.751
G2 X107.05 Y204.204 Z0.0 I5.396 J-4.459
G2 X111.333 Y205.667 I4.283 J-5.537
G1 X123.333
G2 X129.872 Y201.167 I0.0 J-7.0
G2 X130.262 Y199.667 Z2.0 I-6.538 J-2.5
G2 X130.333 Y198.667 I-6.928 J-1.0
G1 Y197.667
G1 Y196.167 Z0.0
G1 Y186.667
G2 X123.333 Y179.667 I-7.0 J0.0
G1 X117.645
G1 X116.145 Z2.0
G1 X114.145
G1 X112.645 Z0.0
G1 X111.333
G2 X104.333 Y186.667 I0.0 J7.0
G1 Y198.667
G2 X104.449 Y199.934 I7.0 J0.0
G2 X104.712 Y200.939 Z1.386 I6.884 J-1.267
G0 Z20.0
G0 X110.054 Y172.215
G0 Z10.0
G1 F300.0 Z6.0
G2 F1000.0 X111.333 Y172.333 I1.28 J-6.882
G1 X123.333
G2 X130.333 Y165.333 I0.0 J-7.0
G1 Y153.333
G2 X123.333 Y146.333 I-7.0 J0.0
G1 X111.333
G2 X104.333 Y153.333 I0.0 J7.0
G1 Y165.333
G2 X110.054 Y172.215 I7.0 J0.0
G1 F300.0 Z3.0
G2 F1000.0 X111.333 Y172.333 I1.28 J-6.882
G1 X123.333
G2 X130.333 Y165.333 I0.0 J-7.0
G1 Y153.333
G2 X123.333 Y146.333 I-7.0 J0.0
G1 X111.333
G2 X104.333 Y153.333 I0.0 J7.0
G1 Y165.333
G2 X110.054 Y172.215 I7.0 J0.0
G1 F300.0 Z0.0
G2 F1000.0 X111.333 Y172.333 I1.28 J-6.882
G1 X123.333
G2 X129.872 Y167.833 I0.0 J-7.0
G2 X130.262 Y166.333 Z2.0 I-6.538 J-2.5
G2 X130.333 Y165.333 I-6.928 J-1.0
G1 Y164.333
G1 Y162.833 Z0.0
G1 Y153.333
G2 X123.333 Y146.333 I-7.0 J0.0
G1 X117.645
G1 X116.145 Z2.0
G1 X114.145
G1 X112.645 Z0.0
G1 X111.333
G2 X104.333 Y153.333 I0.0 J7.0
G1 Y165.333
G2 X104.449 Y166.6 I7.0 J0.0
G2 X104.896 Y168.084 Z2.0 I6.884 J-1.267
G2 X105.937 Y169.792 I6.437 J-2.751
G2 X107.05 Y170.87 Z0.0 I5.396 J-4.459
G2 X110.054 Y172.215 I4.283 J-5.537
G0 Z20.0
G0 X96.621 Y167.606
G0 Z10.0
G1 F300.0 Z6.0
G2 F1000.0 X97.0 Y165.333 I-6.621 J-2.272
G1 Y153.333
G2 X90.0 Y146.333 I-7.0 J0.0
G1 X78.0
G2 X71.0 Y153.333 I0.0 J7.0
G1 Y165.333
G2 X78.0 Y172.333 I7.0 J0.0
G1 X90.0
G2 X96.621 Y167.606 I0.0 J-7.0
G1 F300.0 Z3.0
G2 F1000.0 X97.0 Y165.333 I-6.621 J-2.272
G1 Y153.333
G2 X90.0 Y146.333 I-7.0 J0.0
G1 X78.0
G2 X71.0 Y153.333 I0.0 J7.0
G1 Y165.333
G2 X78.0 Y172.333 I7.0 J0.0
G1 X90.0
G2 X96.621 Y167.606 I0.0 J-7.0
G1 F300.0 Z0.323
G2 F1000.0 X96.928 Y166.333 Z2.0 I-6.621 J-2.272
G2 X97.0 Y165.333 I-6.928 J-1.0
G1 Y164.333
G1 Y162.833 Z0.0
G1 Y153.333
G2 X90.0 Y146.333 I-7.0 J0.0
G1 X84.311
G1 X82.811 Z2.0
G1 X80.811
G1 X79.311 Z0.0
G1 X78.0
G2 X71.0 Y153.333 I0.0 J7.0
G1 Y165.333
G2 X71.116 Y166.6 I7.0 J0.0
G2 X71.563 Y168.084 Z2.0 I6.884 J-1.267
G2 X72.604 Y169.792 I6.437 J-2.751
G2 X73.717 Y170.87 Z0.0 I5.396 J-4.459
G2 X78.0 Y172.333 I4.283 J-5.537
G1 X90.0
G2 X96.538 Y167.833 I0.0 J-7.0
G2 X96.621 Y167.606 Z0.323 I-6.538 J-2.5
G0 Z20.0
G0 X91.28 Y138.882
G0 Z10.0
G1 F300.0 Z6.0
G2 F1000.0 X97.0 Y132.0 I-1.28 J-6.882
G1 Y120.0
G2 X90.0 Y113.0 I-7.0 J0.0
G1 X78.0
G2 X71.0 Y120.0 I0.0 J7.0
G1 Y132.0
G2 X78.0 Y139.0 I7.0 J0.0
G1 X90.0
G2 X91.28 Y138.882 I0.0 J-7.0
G1 F300.0 Z3.0
G2 F1000.0 X97.0 Y132.0 I-1.28 J-6.882
G1 Y120.0
G2 X90.0 Y113.0 I-7.0 J0.0
G1 X78.0
G2 X71.0 Y120.0 I0.0 J7.0
G1 Y132.0
G2 X78.0 Y139.0 I7.0 J0.0
G1 X90.0
G2 X91.28 Y138.882 I0.0 J-7.0
G1 F300.0 Z0.0
G2 F1000.0 X96.538 Y134.5 I-1.28 J-6.882
G2 X96.928 Y133.0 Z2.0 I-6.538 J-2.5
G2 X97.0 Y132.0 I-6.928 J-1.0
G1 Y131.0
G1 Y129.5 Z0.0
G1 Y120.0
G2 X90.0 Y113.0 I-7.0 J0.0
G1 X84.311
G1 X82.811 Z2.0
G1 X80.811
G1 X79.311 Z0.0
G1 X78.0
G2 X71.0 Y120.0 I0.0 J7.0
G1 Y132.0
G2 X71.116 Y133.267 I7.0 J0.0
G2 X71.563 Y134.751 Z2.0 I6.884 J-1.267
G2 X72.604 Y136.459 I6.437 J-2.751
G2 X73.717 Y137.537 Z0.0 I5.396 J-4.459
G2 X78.0 Y139.0 I4.283 J-5.537
G1 X90.0
G2 X91.28 Y138.882 I0.0 J-7.0
G0 Z20.0
G0 X104.712 Y134.272
G0 Z10.0
G1 F300.0 Z6.0
G2 F1000.0 X111.333 Y139.0 I6.621 J-2.272
G1 X123.333
G2 X130.333 Y132.0 I0.0 J-7.0
G1 Y120.0
G2 X123.333 Y113.0 I-7.0 J0.0
G1 X111.333
G2 X104.333 Y120.0 I0.0 J7.0
G1 Y132.0
G2 X104.712 Y134.272 I7.0 J0.0
G1 F300.0 Z3.0
G2 F1000.0 X111.333 Y139.0 I6.621 J-2.272
G1 X123.333
G2 X130.333 Y132.0 I0.0 J-7.0
G1 Y120.0
G2 X123.333 Y113.0 I-7.0 J0.0
G1 X111.333
G2 X104.333 Y120.0 I0.0 J7.0
G1 Y132.0
G2 X104.712 Y134.272 I7.0 J0.0
G1 F300.0 Z1.386
G2 F1000.0 X104.896 Y134.751 Z2.0 I6.621 J-2.272
G2 X105.937 Y136.459 I6.437 J-2.751
G2 X107.05 Y137.537 Z0.0 I5.396 J-4.459
G2 X111.333 Y139.0 I4.283 J-5.537
G1 X123.333
G2 X129.872 Y134.5 I0.0 J-7.0
G2 X130.262 Y133.0 Z2.0 I-6.538 J-2.5
G2 X130.333 Y132.0 I-6.928 J-1.0
G1 Y131.0
G1 Y129.5 Z0.0
G1 Y120.0
G2 X123.333 Y113.0 I-7.0 J0.0
G1 X117.645
G1 X116.145 Z2.0
G1 X114.145
G1 X112.645 Z0.0
G1 X111.333
G2 X104.333 Y120.0 I0.0 J7.0
G1 Y132.0
G2 X104.449 Y133.267 I7.0 J0.0
G2 X104.712 Y134.272 Z1.386 I6.884 J-1.267
G0 Z20.0
G0 X110.054 Y105.549
G0 Z10.0
G1 F300.0 Z6.0
G2 F1000.0 X111.333 Y105.667 I1.28 J-6.882
G1 X123.333
G2 X130.333 Y98.667 I0.0 J-7.0
G1 Y86.667
G2 X123.333 Y79.667 I-7.0 J0.0
G1 X111.333
G2 X104.333 Y86.667 I0.0 J7.0
G1 Y98.667
G2 X110.054 Y105.549 I7.0 J0.0
G1 F300.0 Z3.0
G2 F1000.0 X111.333 Y105.667 I1.28 J-6.882
G1 X123.333
G2 X130.333 Y98.667 I0.0 J-7.0
G1 Y86.667
G2 X123.333 Y79.667 I-7.0 J0.0
G1 X111.333
G2 X104.333 Y86.667 I0.0 J7.0
G1 Y98.667
G2 X110.054 Y105.549 I7.0 J0.0
G1 F300.0 Z0.0
G2 F1000.0 X111.333 Y105.667 I1.28 J-6.882
G1 X123.333
G2 X129.872 Y101.167 I0.0 J-7.0
G2 X130.262 Y99.667 Z2.0 I-6.538 J-2.5
G2 X130.333 Y98.667 I-6.928 J-1.0
G1 Y97.667
G1 Y96.167 Z0.0
G1 Y86.667
G2 X123.333 Y79.667 I-7.0 J0.0
G1 X117.645
G1 X116.145 Z2.0
G1 X114.145
G1 X112.645 Z0.0
G1 X111.333
G2 X104.333 Y86.667 I0.0 J7.0
G1 Y98.667
G2 X104.449 Y99.934 I7.0 J0.0
G2 X104.896 Y101.417 Z2.0 I6.884 J-1.267
G2 X105.937 Y103.125 I6.437 J-2.751
G2 X107.05 Y104.204 Z0.0 I5.396 J-4.459
G2 X110.054 Y105.549 I4.283 J-5.537
G0 Z20.0
G0 X96.621 Y100.939
G0 Z10.0
G1 F300.0 Z6.0
G2 F1000.0 X97.0 Y98.667 I-6.621 J-2.272
G1 Y86.667
G2 X90.0 Y79.667 I-7.0 J0.0
G1 X78.0
G2 X71.0 Y86.667 I0.0 J7.0
G1 Y98.667
G2 X78.0 Y105.667 I7.0 J0.0
G1 X90.0
G2 X96.621 Y100.939 I0.0 J-7.0
G1 F300.0 Z3.0
G2 F1000.0 X97.0 Y98.667 I-6.621 J-2.272
G1 Y86.667
G2 X90.0 Y79.667 I-7.0 J0.0
G1 X78.0
G2 X71.0 Y86.667 I0.0 J7.0
G1 Y98.667
G2 X78.0 Y105.667 I7.0 J0.0
G1 X90.0
G2 X96.621 Y100.939 I0.0 J-7.0
G1 F300.0 Z0.0
G2 F1000.0 X97.0 Y98.667 I-6.621 J-2.272
G1 Y89.167
G1 Y87.667 Z2.0
G1 Y86.667
G2 X96.928 Y85.667 I-7.0 J0.0
G2 X96.538 Y84.167 Z0.0 I-6.928 J1.0
G2 X90.0 Y79.667 I-6.538 J2.5
G1 X78.0
G2 X73.717 Y81.13 I0.0 J7.0
G2 X72.604 Y82.208 Z2.0 I4.283 J5.537
G2 X71.563 Y83.916 I5.396 J4.459
G2 X71.116 Y85.4 Z0.0 I6.437 J2.751
G2 X71.0 Y86.667 I6.884 J1.267
G1 Y98.667
G2 X78.0 Y105.667 I7.0 J0.0
G1 X79.311
G1 X80.811 Z2.0
G1 X82.811
G1 X84.311 Z0.0
G1 X90.0
G2 X96.621 Y100.939 I0.0 J-7.0
G0 Z20.0
G0 X63.655 Y99.064
G0 Z10.0
G1 F300.0 Z6.0
G2 F1000.0 X63.667 Y98.667 I-6.989 J-0.397
G1 Y86.667
G2 X56.667 Y79.667 I-7.0 J0.0
G1 X44.667
G2 X37.667 Y86.667 I0.0 J7.0
G1 Y98.667
G2 X44.667 Y105.667 I7.0 J0.0
G1 X56.667
G2 X63.655 Y99.064 I0.0 J-7.0
G1 F300.0 Z3.0
G2 F1000.0 X63.667 Y98.667 I-6.989 J-0.397
G1 Y86.667
G2 X56.667 Y79.667 I-7.0 J0.0
G1 X44.667
G2 X37.667 Y86.667 I0.0 J7.0
G1 Y98.667
G2 X44.667 Y105.667 I7.0 J0.0
G1 X56.667
G2 X63.655 Y99.064 I0.0 J-7.0
G1 F300.0 Z2.0
G2 F1000.0 X63.667 Y98.667 I-6.989 J-0.397
G1 Y97.667
G1 Y96.167 Z0.0
G1 Y86.667
G2 X56.667 Y79.667 I-7.0 J0.0
G1 X50.978
G1 X49.478 Z2.0
G1 X47.478
G1 X45.978 Z0.0
G1 X44.667
G2 X37.667 Y86.667 I0.0 J7.0
G1 Y98.667
G2 X37.782 Y99.934 I7.0 J0.0
G2 X38.23 Y101.417 Z2.0 I6.884 J-1.267
G2 X39.27 Y103.125 I6.437 J-2.751
G2 X40.384 Y104.204 Z0.0 I5.396 J-4.459
G2 X44.667 Y105.667 I4.283 J-5.537
G1 X56.667
G2 X63.205 Y101.167 I0.0 J-7.0
G2 X63.595 Y99.667 Z2.0 I-6.538 J-2.5
G2 X63.655 Y99.064 I-6.928 J-1.0
G0 Z20.0
G0 X58.883 Y113.36
G0 Z10.0
G1 F300.0 Z6.0
G2 F1000.0 X56.667 Y113.0 I-2.216 J6.64
G1 X44.667
G2 X37.667 Y120.0 I0.0 J7.0
G1 Y132.0
G2 X44.667 Y139.0 I7.0 J0.0
G1 X56.667
G2 X63.667 Y132.0 I0.0 J-7.0
G1 Y120.0
G2 X58.883 Y113.36 I-7.0 J0.0
G1 F300.0 Z3.0
G2 F1000.0 X56.667 Y113.0 I-2.216 J6.64
G1 X44.667
G2 X37.667 Y120.0 I0.0 J7.0
G1 Y132.0
G2 X44.667 Y139.0 I7.0 J0.0
G1 X56.667
G2 X63.667 Y132.0 I0.0 J-7.0
G1 Y120.0
G2 X58.883 Y113.36 I-7.0 J0.0
G1 F300.0 Z0.0
G2 F1000.0 X56.667 Y113.0 I-2.216 J6.64
G1 X50.978
G1 X49.478 Z2.0
G1 X47.478
G1 X45.978 Z0.0
G1 X44.667
G2 X37.667 Y120.0 I0.0 J7.0
G1 Y132.0
G2 X37.782 Y133.267 I7.0 J0.0
G2 X38.23 Y134.751 Z2.0 I6.884 J-1.267
G2 X39.27 Y136.459 I6.437 J-2.751
G2 X40.384 Y137.537 Z0.0 I5.396 J-4.459
G2 X44.667 Y139.0 I4.283 J-5.537
G1 X56.667
G2 X63.205 Y134.5 I0.0 J-7.0
G2 X63.595 Y133.0 Z2.0 I-6.538 J-2.5
G2 X63.667 Y132.0 I-6.928 J-1.0
G1 Y131.0
G1 Y129.5 Z0.0
G1 Y120.0
G2 X58.883 Y113.36 I-7.0 J0.0
G0 Z20.0
G0 X57.054 Y146.344
G0 Z10.0
G1 F300.0 Z6.0
G2 F1000.0 X56.667 Y146.333 I-0.388 J6.989
G1 X44.667
G2 X37.667 Y153.333 I0.0 J7.0
G1 Y165.333
G2 X44.667 Y172.333 I7.0 J0.0
G1 X56.667
G2 X63.667 Y165.333 I0.0 J-7.0
G1 Y153.333
G2 X57.054 Y146.344 I-7.0 J0.0
G1 F300.0 Z3.0
G2 F1000.0 X56.667 Y146.333 I-0.388 J6.989
G1 X44.667
G2 X37.667 Y153.333 I0.0 J7.0
G1 Y165.333
G2 X44.667 Y172.333 I7.0 J0.0
G1 X56.667
G2 X63.667 Y165.333 I0.0 J-7.0
G1 Y153.333
G2 X57.054 Y146.344 I-7.0 J0.0
G1 F300.0 Z0.0
G2 F1000.0 X56.667 Y146.333 I-0.388 J6.989
G1 X50.978
G1 X49.478 Z2.0
G1 X47.478
G1 X45.978 Z0.0
G1 X44.667
G2 X37.667 Y153.333 I0.0 J7.0
G1 Y165.333
G2 X37.782 Y166.6 I7.0 J0.0
G2 X38.23 Y168.084 Z2.0 I6.884 J-1.267
G2 X39.27 Y169.792 I6.437 J-2.751
G2 X40.384 Y170.87 Z0.0 I5.396 J-4.459
G2 X44.667 Y172.333 I4.283 J-5.537
G1 X56.667
G2 X63.205 Y167.833 I0.0 J-7.0
G2 X63.595 Y166.333 Z2.0 I-6.538 J-2.5
G2 X63.667 Y165.333 I-6.928 J-1.0
G1 Y164.333
G1 Y162.833 Z0.0
G1 Y153.333
G2 X57.054 Y146.344 I-7.0 J0.0
G0 Z20.0
G0 X56.734 Y179.667
G0 Z10.0
G1 F300.0 Z6.0
G1 F1000.0 X56.667
G1 X44.667
G2 X37.667 Y186.667 I0.0 J7.0
G1 Y198.667
G2 X44.667 Y205.667 I7.0 J0.0
G1 X56.667
G2 X63.667 Y198.667 I0.0 J-7.0
G1 Y186.667
G2 X56.734 Y179.667 I-7.0 J0.0
G1 F300.0 Z3.0
G1 F1000.0 X56.667
G1 X44.667
G2 X37.667 Y186.667 I0.0 J7.0
G1 Y198.667
G2 X44.667 Y205.667 I7.0 J0.0
G1 X56.667
G2 X63.667 Y198.667 I0.0 J-7.0
G1 Y186.667
G2 X56.734 Y179.667 I-7.0 J0.0
G1 F300.0 Z0.0
G1 F1000.0 X56.667
G1 X50.978
G1 X49.478 Z2.0
G1 X47.478
G1 X45.978 Z0.0
G1 X44.667
G2 X37.667 Y186.667 I0.0 J7.0
G1 Y198.667
G2 X37.782 Y199.934 I7.0 J0.0
G2 X38.23 Y201.417 Z2.0 I6.884 J-1.267
G2 X39.27 Y203.125 I6.437 J-2.751
G2 X40.384 Y204.204 Z0.0 I5.396 J-4.459
G2 X44.667 Y205.667 I4.283 J-5.537
G1 X56.667
G2 X63.205 Y201.167 I0.0 J-7.0
G2 X63.595 Y199.667 Z2.0 I-6.538 J-2.5
G2 X63.667 Y198.667 I-6.928 J-1.0
G1 Y197.667
G1 Y196.167 Z0.0
G1 Y186.667
G2 X56.734 Y179.667 I-7.0 J0.0
G0 Z20.0
G0 X56.678 Y213.0
G0 Z10.0
G1 F300.0 Z6.0
G1 F1000.0 X56.667
G1 X44.667
G2 X37.667 Y220.0 I0.0 J7.0
G1 Y232.0
G2 X44.667 Y239.0 I7.0 J0.0
G1 X56.667
G2 X63.667 Y232.0 I0.0 J-7.0
G1 Y220.0
G2 X56.678 Y213.0 I-7.0 J0.0
G1 F300.0 Z3.0
G1 F1000.0 X56.667
G1 X44.667
G2 X37.667 Y220.0 I0.0 J7.0
G1 Y232.0
G2 X44.667 Y239.0 I7.0 J0.0
G1 X56.667
G2 X63.667 Y232.0 I0.0 J-7.0
G1 Y220.0
G2 X56.678 Y213.0 I-7.0 J0.0
G1 F300.0 Z0.0
G1 F1000.0 X56.667
G1 X50.978
G1 X49.478 Z2.0
G1 X47.478
G1 X45.978 Z0.0
G1 X44.667
G2 X37.667 Y220.0 I0.0 J7.0
G1 Y232.0
G2 X37.782 Y233.267 I7.0 J0.0
G2 X38.23 Y234.751 Z2.0 I6.884 J-1.267
G2 X39.27 Y236.459 I6.437 J-2.751
G2 X40.384 Y237.537 Z0.0 I5.396 J-4.459
G2 X44.667 Y239.0 I4.283 J-5.537
G1 X56.667
G2 X63.205 Y234.5 I0.0 J-7.0
G2 X63.595 Y233.0 Z2.0 I-6.538 J-2.5
G2 X63.667 Y232.0 I-6.928 J-1.0
G1 Y231.0
G1 Y229.5 Z0.0
G1 Y220.0
G2 X56.678 Y213.0 I-7.0 J0.0
G0 Z20.0
G0 X195.0 Y3.0
G0 Z10.0
G1 F300.0 Z6.0
G1 F1000.0 X15.0
G0 Z20.0
G0 X195.0
G0 Z7.0
G1 F300.0 Z3.0
G1 F1000.0 X15.0
G0 Z20.0
G0 X195.0
G0 Z4.0
G1 F300.0 Z2.0
G1 F1000.0 X194.0
G1 X192.5 Z0.0
G1 X157.5
G1 X156.0 Z2.0
G1 X154.0
G1 X152.5 Z0.0
G1 X117.5
G1 X116.0 Z2.0
G1 X114.0
G1 X112.5 Z0.0
G1 X77.5
G1 X76.0 Z2.0
G1 X74.0
G1 X72.5 Z0.0
G1 X37.5
G1 X36.0 Z2.0
G1 X34.0
G1 X32.5 Z0.0
G1 X15.0
G0 Z20.0
G0 X235.0 Y16.0
G0 Z10.0
G1 F300.0 Z6.0
G1 F1000.0 X211.0
G1 Y300.0
G0 Z20.0
G0 X235.0 Y16.0
G0 Z7.0
G1 F300.0 Z3.0
G1 F1000.0 X211.0
G1 Y300.0
G0 Z20.0
G0 X235.0 Y16.0
G0 Z4.0
G1 F300.0 Z0.0
G1 F1000.0 X227.296
G1 X225.796 Z2.0
G1 X223.796
G1 X222.296 Z0.0
G1 X211.0
G1 Y65.0
G1 Y66.5 Z2.0
G1 Y68.5
G1 Y70.0 Z0.0
G1 Y116.667
G1 Y118.167 Z2.0
G1 Y120.167
G1 Y121.667 Z0.0
G1 Y168.333
G1 Y169.833 Z2.0
G1 Y171.833
G1 Y173.333 Z0.0
G1 Y220.0
G1 Y221.5 Z2.0
G1 Y223.5
G1 Y225.0 Z0.0
G1 Y271.667
G1 Y273.167 Z2.0
G1 Y275.167
G1 Y276.667 Z0.0
G1 Y300.0
( gaten7x2 )
S10000
G0 Z20.0
G0 X195.0 Y3.0
G1 F300.0 Z6.0
G1 F1000.0 X15.0
G0 Z20.0
G0 Y13.0
G0 Z10.0
G1 F300.0 Z6.0
G1 F1000.0 X11.333
G2 X4.333 Y20.0 I0.0 J7.0
G1 Y32.0
G2 X11.333 Y39.0 I7.0 J0.0
G1 X23.333
G2 X30.333 Y32.0 I0.0 J-7.0
G1 Y20.0
G2 X23.333 Y13.0 I-7.0 J0.0
G1 X15.0
G1 F300.0 Z3.0
G1 F1000.0 X11.333
G2 X4.333 Y20.0 I0.0 J7.0
G1 Y32.0
G2 X11.333 Y39.0 I7.0 J0.0
G1 X23.333
G2 X30.333 Y32.0 I0.0 J-7.0
G1 Y20.0
G2 X23.333 Y13.0 I-7.0 J0.0
G1 X15.0
G1 F300.0 Z2.0
G1 F1000.0 X14.145
G1 X12.645 Z0.0
G1 X11.333
G2 X4.333 Y20.0 I0.0 J7.0
G1 Y32.0
G2 X4.449 Y33.267 I7.0 J0.0
G2 X4.896 Y34.751 Z2.0 I6.884 J-1.267
G2 X5.937 Y36.459 I6.437 J-2.751
G2 X7.05 Y37.537 Z0.0 I5.396 J-4.459
G2 X11.333 Y39.0 I4.283 J-5.537
G1 X23.333
G2 X29.872 Y34.5 I0.0 J-7.0
G2 X30.262 Y33.0 Z2.0 I-6.538 J-2.5
G2 X30.333 Y32.0 I-6.928 J-1.0
G1 Y31.0
G1 Y29.5 Z0.0
G1 Y20.0
G2 X23.333 Y13.0 I-7.0 J0.0
G1 X17.645
G1 X16.145 Z2.0
G1 X15.0
G0 Z20.0
G0 X195.0 Y3.0
G1 F300.0 Z3.0
G1 F1000.0 X15.0
G0 Z20.0
G0 X195.0
G0 Z3.0
G1 F300.0 Z2.0
G1 F1000.0 X194.0
G1 X192.5 Z0.0
G1 X157.5
G1 X156.0 Z2.0
G1 X154.0
G1 X152.5 Z0.0
G1 X117.5
G1 X116.0 Z2.0
G1 X114.0
G1 X112.5 Z0.0
G1 X77.5
G1 X76.0 Z2.0
G1 X74.0
G1 X72.5 Z0.0
G1 X37.5
G1 X36.0 Z2.0
G1 X34.0
G1 X32.5 Z0.0
G1 X15.0
G0 Z20.0
G0 X-4.212 Y16.064
G0 Z10.0
G1 F300.0 Z6.0
G2 F1000.0 X-10.0 Y13.0 I-5.788 J3.936
G1 X-22.0
G2 X-29.0 Y20.0 I0.0 J7.0
G1 Y32.0
G2 X-22.0 Y39.0 I7.0 J0.0
G1 X-10.0
G2 X-3.0 Y32.0 I0.0 J-7.0
G1 Y20.0
G2 X-4.212 Y16.064 I-7.0 J0.0
G0 Z20.0
G0 X-16.0 Y39.0
G0 Z10.0
G1 F300.0 Z6.0
G1 F1000.0 X-10.0
G2 X-3.0 Y32.0 I0.0 J-7.0
G1 Y20.0
G2 X-10.0 Y13.0 I-7.0 J0.0
G1 X-16.0
G1 F300.0 Z3.0
G1 F1000.0 X-22.0
G2 X-29.0 Y20.0 I0.0 J7.0
G1 Y32.0
G2 X-22.0 Y39.0 I7.0 J0.0
G1 X-10.0
G2 X-3.0 Y32.0 I0.0 J-7.0
G1 Y20.0
G2 X-10.0 Y13.0 I-7.0 J0.0
G1 X-16.0
G0 Z20.0
G0 Y39.0
G0 Z7.0
G1 F300.0 Z3.0
G1 F1000.0 X-10.0
G2 X-3.0 Y32.0 I0.0 J-7.0
G1 Y20.0
G2 X-10.0 Y13.0 I-7.0 J0.0
G1 X-16.0
G1 F300.0 Z0.0
G1 F1000.0 X-22.0
G2 X-29.0 Y20.0 I0.0 J7.0
G1 Y27.844
G1 Y29.344 Z2.0
G1 Y31.344
G1 Y32.0 Z1.126
G2 X-28.949 Y32.844 Z0.0 I7.0 J0.0
G2 X-22.0 Y39.0 I6.949 J-0.844
G1 X-10.0
G2 X-3.462 Y34.5 I0.0 J-7.0
G2 X-3.072 Y33.0 Z2.0 I-6.538 J-2.5
G2 X-3.0 Y32.0 I-6.928 J-1.0
G1 Y31.0
G1 Y29.5 Z0.0
G1 Y20.0
G2 X-6.837 Y13.755 I-7.0 J0.0
G2 X-8.289 Y13.212 Z2.0 I-3.163 J6.245
G2 X-10.0 Y13.0 I-1.711 J6.788
G1 X-10.277
G1 X-11.785 Z0.0
G1 X-16.0
G0 Z20.0
G0 Y39.0
G0 Z4.0
G1 F300.0 Z0.0
G1 F1000.0 X-10.0
G2 X-3.462 Y34.5 I0.0 J-7.0
G2 X-3.072 Y33.0 Z2.0 I-6.538 J-2.5
G2 X-3.0 Y32.0 I-6.928 J-1.0
G1 Y31.0
G1 Y29.5 Z0.0
G1 Y20.0
G2 X-6.837 Y13.755 I-7.0 J0.0
G2 X-8.289 Y13.212 Z2.0 I-3.163 J6.245
G2 X-10.0 Y13.0 I-1.711 J6.788
G1 X-10.277
G1 X-11.785 Z0.0
G1 X-16.0
G0 Z20.0
G0 Y46.333
G0 Z10.0
G1 F300.0 Z6.0
G1 F1000.0 X-22.0
G2 X-29.0 Y53.333 I0.0 J7.0
G1 Y65.333
G2 X-22.0 Y72.333 I7.0 J0.0
G1 X-10.0
G2 X-3.0 Y65.333 I0.0 J-7.0
G1 Y53.333
G2 X-10.0 Y46.333 I-7.0 J0.0
G1 X-16.0
G1 F300.0 Z3.0
G1 F1000.0 X-22.0
G2 X-29.0 Y53.333 I0.0 J7.0
G1 Y65.333
G2 X-22.0 Y72.333 I7.0 J0.0
G1 X-10.0
G2 X-3.0 Y65.333 I0.0 J-7.0
G1 Y53.333
G2 X-10.0 Y46.333 I-7.0 J0.0
G1 X-16.0
G1 F300.0 Z0.0
G1 F1000.0 X-22.0
G2 X-29.0 Y53.333 I0.0 J7.0
G1 Y54.645
G1 Y56.145 Z2.0
G1 Y58.145
G1 Y59.645 Z0.0
G1 Y65.333
G2 X-22.0 Y72.333 I7.0 J0.0
G1 X-12.5
G1 X-11.0 Z2.0
G1 X-10.0
G2 X-9.0 Y72.262 I0.0 J-7.0
G2 X-7.5 Y71.872 Z0.0 I-1.0 J-6.928
G2 X-3.0 Y65.333 I-2.5 J-6.538
G1 Y53.333
G2 X-4.463 Y49.05 I-7.0 J0.0
G2 X-5.541 Y47.937 Z2.0 I-5.537 J4.283
G2 X-7.249 Y46.896 I-4.459 J5.396
G2 X-8.733 Y46.449 Z0.0 I-2.751 J6.437
G2 X-10.0 Y46.333 I-1.267 J6.884
G1 X-16.0
G0 Z20.0
G0 X4.552 Y51.597
G0 Z10.0
G1 F300.0 Z6.0
G2 F1000.0 X4.333 Y53.333 I6.781 J1.737
G1 Y65.333
G2 X11.333 Y72.333 I7.0 J0.0
G1 X23.333
G2 X30.333 Y65.333 I0.0 J-7.0
G1 Y53.333
G2 X23.333 Y46.333 I-7.0 J0.0
G1 X11.333
G2 X4.552 Y51.597 I0.0 J7.0
G1 F300.0 Z3.0
G2 F1000.0 X4.333 Y53.333 I6.781 J1.737
G1 Y65.333
G2 X11.333 Y72.333 I7.0 J0.0
G1 X23.333
G2 X30.333 Y65.333 I0.0 J-7.0
G1 Y53.333
G2 X23.333 Y46.333 I-7.0 J0.0
G1 X11.333
G2 X4.552 Y51.597 I0.0 J7.0
G1 F300.0 Z0.0
G2 F1000.0 X4.333 Y53.333 I6.781 J1.737
G1 Y54.645
G1 Y56.145 Z2.0
G1 Y58.145
G1 Y59.645 Z0.0
G1 Y65.333
G2 X11.333 Y72.333 I7.0 J0.0
G1 X20.833
G1 X22.333 Z2.0
G1 X23.333
G2 X24.333 Y72.262 I0.0 J-7.0
G2 X25.833 Y71.872 Z0.0 I-1.0 J-6.928
G2 X30.333 Y65.333 I-2.5 J-6.538
G1 Y53.333
G2 X28.87 Y49.05 I-7.0 J0.0
G2 X27.792 Y47.937 Z2.0 I-5.537 J4.283
G2 X26.084 Y46.896 I-4.459 J5.396
G2 X24.6 Y46.449 Z0.0 I-2.751 J6.437
G2 X23.333 Y46.333 I-1.267 J6.884
G1 X11.333
G2 X4.552 Y51.597 I0.0 J7.0
G0 Z20.0
G0 X37.673 Y53.031
G0 Z10.0
G1 F300.0 Z6.0
G2 F1000.0 X37.667 Y53.333 I6.993 J0.303
G1 Y65.333
G2 X44.667 Y72.333 I7.0 J0.0
G1 X56.667
G2 X63.667 Y65.333 I0.0 J-7.0
G1 Y53.333
G2 X56.667 Y46.333 I-7.0 J0.0
G1 X44.667
G2 X37.673 Y53.031 I0.0 J7.0
G1 F300.0 Z3.0
G2 F1000.0 X37.667 Y53.333 I6.993 J0.303
G1 Y65.333
G2 X44.667 Y72.333 I7.0 J0.0
G1 X56.667
G2 X63.667 Y65.333 I0.0 J-7.0
G1 Y53.333
G2 X56.667 Y46.333 I-7.0 J0.0
G1 X44.667
G2 X37.673 Y53.031 I0.0 J7.0
G1 F300.0 Z0.0
G2 F1000.0 X37.667 Y53.333 I6.993 J0.303
G1 Y65.333
G2 X37.782 Y66.6 I7.0 J0.0
G2 X38.23 Y68.084 Z2.0 I6.884 J-1.267
G2 X39.27 Y69.792 I6.437 J-2.751
G2 X40.384 Y70.87 Z0.0 I5.396 J-4.459
G2 X44.667 Y72.333 I4.283 J-5.537
G1 X56.667
G2 X63.205 Y67.833 I0.0 J-7.0
G2 X63.595 Y66.333 Z2.0 I-6.538 J-2.5
G2 X63.667 Y65.333 I-6.928 J-1.0
G1 Y64.333
G1 Y62.833 Z0.0
G1 Y53.333
G2 X56.667 Y46.333 I-7.0 J0.0
G1 X50.978
G1 X49.478 Z2.0
G1 X47.478
G1 X45.978 Z0.0
G1 X44.667
G2 X37.673 Y53.031 I0.0 J7.0
G0 Z20.0
G0 X42.458 Y38.642
G0 Z10.0
G1 F300.0 Z6.0
G2 F1000.0 X44.667 Y39.0 I2.209 J-6.642
G1 X56.667
G2 X63.667 Y32.0 I0.0 J-7.0
G1 Y20.0
G2 X56.667 Y13.0 I-7.0 J0.0
G1 X44.667
G2 X37.667 Y20.0 I0.0 J7.0
G1 Y32.0
G2 X42.458 Y38.642 I7.0 J0.0
G1 F300.0 Z3.0
G2 F1000.0 X44.667 Y39.0 I2.209 J-6.642
G1 X56.667
G2 X63.667 Y32.0 I0.0 J-7.0
G1 Y20.0
G2 X56.667 Y13.0 I-7.0 J0.0
G1 X44.667
G2 X37.667 Y20.0 I0.0 J7.0
G1 Y32.0
G2 X42.458 Y38.642 I7.0 J0.0
G1 F300.0 Z0.0
G2 F1000.0 X44.667 Y39.0 I2.209 J-6.642
G1 X45.978
G1 X47.478 Z2.0
G1 X49.478
G1 X50.978 Z0.0
G1 X56.667
G2 X63.667 Y32.0 I0.0 J-7.0
G1 Y22.5
G1 Y21.0 Z2.0
G1 Y20.0
G2 X63.595 Y19.0 I-7.0 J0.0
G2 X63.205 Y17.5 Z0.0 I-6.928 J1.0
G2 X56.667 Y13.0 I-6.538 J2.5
G1 X44.667
G2 X40.384 Y14.463 I0.0 J7.0
G2 X39.27 Y15.541 Z2.0 I4.283 J5.537
G2 X38.23 Y17.249 I5.396 J4.459
G2 X37.782 Y18.733 Z0.0 I6.437 J2.751
G2 X37.667 Y20.0 I6.884 J1.267
G1 Y32.0
G2 X42.458 Y38.642 I7.0 J0.0
G0 Z20.0
G0 X71.119 Y33.286
G0 Z10.0
G1 F300.0 Z6.0
G2 F1000.0 X78.0 Y39.0 I6.881 J-1.286
G1 X90.0
G2 X97.0 Y32.0 I0.0 J-7.0
G1 Y20.0
G2 X90.0 Y13.0 I-7.0 J0.0
G1 X78.0
G2 X71.0 Y20.0 I0.0 J7.0
G1 Y32.0
G2 X71.119 Y33.286 I7.0 J0.0
G1 F300.0 Z3.0
G2 F1000.0 X78.0 Y39.0 I6.881 J-1.286
G1 X90.0
G2 X97.0 Y32.0 I0.0 J-7.0
G1 Y20.0
G2 X90.0 Y13.0 I-7.0 J0.0
G1 X78.0
G2 X71.0 Y20.0 I0.0 J7.0
G1 Y32.0
G2 X71.119 Y33.286 I7.0 J0.0
G1 F300.0 Z0.026
G2 F1000.0 X71.563 Y34.751 Z2.0 I6.881 J-1.286
G2 X72.604 Y36.459 I6.437 J-2.751
G2 X73.717 Y37.537 Z0.0 I5.396 J-4.459
G2 X78.0 Y39.0 I4.283 J-5.537
G1 X90.0
G2 X96.538 Y34.5 I0.0 J-7.0
G2 X96.928 Y33.0 Z2.0 I-6.538 J-2.5
G2 X97.0 Y32.0 I-6.928 J-1.0
G1 Y31.0
G1 Y29.5 Z0.0
G1 Y20.0
G2 X90.0 Y13.0 I-7.0 J0.0
G1 X84.311
G1 X82.811 Z2.0
G1 X80.811
G1 X79.311 Z0.0
G1 X78.0
G2 X71.0 Y20.0 I0.0 J7.0
G1 Y32.0
G2 X71.116 Y33.267 I7.0 J0.0
G1 X71.119 Y33.286 Z0.026
G0 Z20.0
G0 X75.728 Y46.712
G0 Z10.0
G1 F300.0 Z6.0
G2 F1000.0 X71.0 Y53.333 I2.272 J6.621
G1 Y65.333
G2 X78.0 Y72.333 I7.0 J0.0
G1 X90.0
G2 X97.0 Y65.333 I0.0 J-7.0
G1 Y53.333
G2 X90.0 Y46.333 I-7.0 J0.0
G1 X78.0
G2 X75.728 Y46.712 I0.0 J7.0
G1 F300.0 Z3.0
G2 F1000.0 X71.0 Y53.333 I2.272 J6.621
G1 Y65.333
G2 X78.0 Y72.333 I7.0 J0.0
G1 X90.0
G2 X97.0 Y65.333 I0.0 J-7.0
G1 Y53.333
G2 X90.0 Y46.333 I-7.0 J0.0
G1 X78.0
G2 X75.728 Y46.712 I0.0 J7.0
G1 F300.0 Z0.0
G2 F1000.0 X71.0 Y53.333 I2.272 J6.621
G1 Y65.333
G2 X71.116 Y66.6 I7.0 J0.0
G2 X71.563 Y68.084 Z2.0 I6.884 J-1.267
G2 X72.604 Y69.792 I6.437 J-2.751
G2 X73.717 Y70.87 Z0.0 I5.396 J-4.459
G2 X78.0 Y72.333 I4.283 J-5.537
G1 X90.0
G2 X96.538 Y67.833 I0.0 J-7.0
G2 X96.928 Y66.333 Z2.0 I-6.538 J-2.5
G2 X97.0 Y65.333 I-6.928 J-1.0
G1 Y64.333
G1 Y62.833 Z0.0
G1 Y53.333
G2 X90.0 Y46.333 I-7.0 J0.0
G1 X84.311
G1 X82.811 Z2.0
G1 X80.811
G1 X79.311 Z0.0
G1 X78.0
G2 X75.728 Y46.712 I0.0 J7.0
G0 Z20.0
G0 X104.451 Y52.054
G0 Z10.0
G1 F300.0 Z6.0
G2 F1000.0 X104.333 Y53.333 I6.882 J1.28
G1 Y65.333
G2 X111.333 Y72.333 I7.0 J0.0
G1 X123.333
G2 X130.333 Y65.333 I0.0 J-7.0
G1 Y53.333
G2 X123.333 Y46.333 I-7.0 J0.0
G1 X111.333
G2 X104.451 Y52.054 I0.0 J7.0
G1 F300.0 Z3.0
G2 F1000.0 X104.333 Y53.333 I6.882 J1.28
G1 Y65.333
G2 X111.333 Y72.333 I7.0 J0.0
G1 X123.333
G2 X130.333 Y65.333 I0.0 J-7.0
G1 Y53.333
G2 X123.333 Y46.333 I-7.0 J0.0
G1 X111.333
G2 X104.451 Y52.054 I0.0 J7.0
G1 F300.0 Z0.0
G2 F1000.0 X104.333 Y53.333 I6.882 J1.28
G1 Y65.333
G2 X104.449 Y66.6 I7.0 J0.0
G2 X104.896 Y68.084 Z2.0 I6.884 J-1.267
G2 X105.937 Y69.792 I6.437 J-2.751
G2 X107.05 Y70.87 Z0.0 I5.396 J-4.459
G2 X111.333 Y72.333 I4.283 J-5.537
G1 X123.333
G2 X129.872 Y67.833 I0.0 J-7.0
G2 X130.262 Y66.333 Z2.0 I-6.538 J-2.5
G2 X130.333 Y65.333 I-6.928 J-1.0
G1 Y64.333
G1 Y62.833 Z0.0
G1 Y53.333
G2 X123.333 Y46.333 I-7.0 J0.0
G1 X117.645
G1 X116.145 Z2.0
G1 X114.145
G1 X112.645 Z0.0
G1 X111.333
G2 X104.451 Y52.054 I0.0 J7.0
G0 Z20.0
G0 X109.061 Y38.621
G0 Z10.0
G1 F300.0 Z6.0
G2 F1000.0 X111.333 Y39.0 I2.272 J-6.621
G1 X123.333
G2 X130.333 Y32.0 I0.0 J-7.0
G1 Y20.0
G2 X123.333 Y13.0 I-7.0 J0.0
G1 X111.333
G2 X104.333 Y20.0 I0.0 J7.0
G1 Y32.0
G2 X109.061 Y38.621 I7.0 J0.0
G1 F300.0 Z3.0
G2 F1000.0 X111.333 Y39.0 I2.272 J-6.621
G1 X123.333
G2 X130.333 Y32.0 I0.0 J-7.0
G1 Y20.0
G2 X123.333 Y13.0 I-7.0 J0.0
G1 X111.333
G2 X104.333 Y20.0 I0.0 J7.0
G1 Y32.0
G2 X109.061 Y38.621 I7.0 J0.0
G1 F300.0 Z0.0
G2 F1000.0 X111.333 Y39.0 I2.272 J-6.621
G1 X123.333
G2 X129.872 Y34.5 I0.0 J-7.0
G2 X130.262 Y33.0 Z2.0 I-6.538 J-2.5
G2 X130.333 Y32.0 I-6.928 J-1.0
G1 Y31.0
G1 Y29.5 Z0.0
G1 Y20.0
G2 X123.333 Y13.0 I-7.0 J0.0
G1 X117.645
G1 X116.145 Z2.0
G1 X114.145
G1 X112.645 Z0.0
G1 X111.333
G2 X104.333 Y20.0 I0.0 J7.0
G1 Y32.0
G2 X104.449 Y33.267 I7.0 J0.0
G2 X104.896 Y34.751 Z2.0 I6.884 J-1.267
G2 X105.937 Y36.459 I6.437 J-2.751
G2 X107.05 Y37.537 Z0.0 I5.396 J-4.459
G2 X109.061 Y38.621 I4.283 J-5.537
G0 Z20.0
G0 X137.785 Y33.28
G0 Z10.0
G1 F300.0 Z6.0
G2 F1000.0 X144.667 Y39.0 I6.882 J-1.28
G1 X156.667
G2 X163.667 Y32.0 I0.0 J-7.0
G1 Y20.0
G2 X156.667 Y13.0 I-7.0 J0.0
G1 X144.667
G2 X137.667 Y20.0 I0.0 J7.0
G1 Y32.0
G2 X137.785 Y33.28 I7.0 J0.0
G1 F300.0 Z3.0
G2 F1000.0 X144.667 Y39.0 I6.882 J-1.28
G1 X156.667
G2 X163.667 Y32.0 I0.0 J-7.0
G1 Y20.0
G2 X156.667 Y13.0 I-7.0 J0.0
G1 X144.667
G2 X137.667 Y20.0 I0.0 J7.0
G1 Y32.0
G2 X137.785 Y33.28 I7.0 J0.0
G1 F300.0 Z0.017
G2 F1000.0 X138.23 Y34.751 Z2.0 I6.882 J-1.28
G2 X139.27 Y36.459 I6.437 J-2.751
G2 X140.384 Y37.537 Z0.0 I5.396 J-4.459
G2 X144.667 Y39.0 I4.283 J-5.537
G1 X156.667
G2 X163.205 Y34.5 I0.0 J-7.0
G2 X163.595 Y33.0 Z2.0 I-6.538 J-2.5
G2 X163.667 Y32.0 I-6.928 J-1.0
G1 Y31.0
G1 Y29.5 Z0.0
G1 Y20.0
G2 X156.667 Y13.0 I-7.0 J0.0
G1 X150.978
G1 X149.478 Z2.0
G1 X147.478
G1 X145.978 Z0.0
G1 X144.667
G2 X137.667 Y20.0 I0.0 J7.0
G1 Y32.0
G2 X137.782 Y33.267 I7.0 J0.0
G1 X137.785 Y33.28 Z0.017
G0 Z20.0
G0 X142.394 Y46.712
G0 Z10.0
G1 F300.0 Z6.0
G2 F1000.0 X137.667 Y53.333 I2.272 J6.621
G1 Y65.333
G2 X144.667 Y72.333 I7.0 J0.0
G1 X156.667
G2 X163.667 Y65.333 I0.0 J-7.0
G1 Y53.333
G2 X156.667 Y46.333 I-7.0 J0.0
G1 X144.667
G2 X142.394 Y46.712 I0.0 J7.0
G1 F300.0 Z3.0
G2 F1000.0 X137.667 Y53.333 I2.272 J6.621
G1 Y65.333
G2 X144.667 Y72.333 I7.0 J0.0
G1 X156.667
G2 X163.667 Y65.333 I0.0 J-7.0
G1 Y53.333
G2 X156.667 Y46.333 I-7.0 J0.0
G1 X144.667
G2 X142.394 Y46.712 I0.0 J7.0
G1 F300.0 Z0.0
G2 F1000.0 X137.667 Y53.333 I2.272 J6.621
G1 Y65.333
G2 X137.782 Y66.6 I7.0 J0.0
G2 X138.23 Y68.084 Z2.0 I6.884 J-1.267
G2 X139.27 Y69.792 I6.437 J-2.751
G2 X140.384 Y70.87 Z0.0 I5.396 J-4.459
G2 X144.667 Y72.333 I4.283 J-5.537
G1 X156.667
G2 X163.205 Y67.833 I0.0 J-7.0
G2 X163.595 Y66.333 Z2.0 I-6.538 J-2.5
G2 X163.667 Y65.333 I-6.928 J-1.0
G1 Y64.333
G1 Y62.833 Z0.0
G1 Y53.333
G2 X156.667 Y46.333 I-7.0 J0.0
G1 X150.978
G1 X149.478 Z2.0
G1 X147.478
G1 X145.978 Z0.0
G1 X144.667
G2 X142.394 Y46.712 I0.0 J7.0
G0 Z20.0
G0 X171.118 Y52.054
G0 Z10.0
G1 F300.0 Z6.0
G2 F1000.0 X171.0 Y53.333 I6.882 J1.28
G1 Y65.333
G2 X178.0 Y72.333 I7.0 J0.0
G1 X190.0
G2 X197.0 Y65.333 I0.0 J-7.0
G1 Y53.333
G2 X190.0 Y46.333 I-7.0 J0.0
G1 X178.0
G2 X171.118 Y52.054 I0.0 J7.0
G1 F300.0 Z3.0
G2 F1000.0 X171.0 Y53.333 I6.882 J1.28
G1 Y65.333
G2 X178.0 Y72.333 I7.0 J0.0
G1 X190.0
G2 X197.0 Y65.333 I0.0 J-7.0
G1 Y53.333
G2 X190.0 Y46.333 I-7.0 J0.0
G1 X178.0
G2 X171.118 Y52.054 I0.0 J7.0
G1 F300.0 Z0.0
G2 F1000.0 X171.0 Y53.333 I6.882 J1.28
G1 Y65.333
G2 X171.116 Y66.6 I7.0 J0.0
G2 X171.563 Y68.084 Z2.0 I6.884 J-1.267
G2 X172.604 Y69.792 I6.437 J-2.751
G2 X173.717 Y70.87 Z0.0 I5.396 J-4.459
G2 X178.0 Y72.333 I4.283 J-5.537
G1 X190.0
G2 X196.538 Y67.833 I0.0 J-7.0
G2 X196.928 Y66.333 Z2.0 I-6.538 J-2.5
G2 X197.0 Y65.333 I-6.928 J-1.0
G1 Y64.333
G1 Y62.833 Z0.0
G1 Y53.333
G2 X190.0 Y46.333 I-7.0 J0.0
G1 X184.311
G1 X182.811 Z2.0
G1 X180.811
G1 X179.311 Z0.0
G1 X178.0
G2 X171.118 Y52.054 I0.0 J7.0
G0 Z20.0
G0 X175.728 Y38.621
G0 Z10.0
G1 F300.0 Z6.0
G2 F1000.0 X178.0 Y39.0 I2.272 J-6.621
G1 X190.0
G2 X197.0 Y32.0 I0.0 J-7.0
G1 Y20.0
G2 X190.0 Y13.0 I-7.0 J0.0
G1 X178.0
G2 X171.0 Y20.0 I0.0 J7.0
G1 Y32.0
G2 X175.728 Y38.621 I7.0 J0.0
G1 F300.0 Z3.0
G2 F1000.0 X178.0 Y39.0 I2.272 J-6.621
G1 X190.0
G2 X197.0 Y32.0 I0.0 J-7.0
G1 Y20.0
G2 X190.0 Y13.0 I-7.0 J0.0
G1 X178.0
G2 X171.0 Y20.0 I0.0 J7.0
G1 Y32.0
G2 X175.728 Y38.621 I7.0 J0.0
G1 F300.0 Z0.0
G2 F1000.0 X178.0 Y39.0 I2.272 J-6.621
G1 X190.0
G2 X196.538 Y34.5 I0.0 J-7.0
G2 X196.928 Y33.0 Z2.0 I-6.538 J-2.5
G2 X197.0 Y32.0 I-6.928 J-1.0
G1 Y31.0
G1 Y29.5 Z0.0
G1 Y20.0
G2 X190.0 Y13.0 I-7.0 J0.0
G1 X184.311
G1 X182.811 Z2.0
G1 X180.811
G1 X179.311 Z0.0
G1 X178.0
G2 X171.0 Y20.0 I0.0 J7.0
G1 Y32.0
G2 X171.116 Y33.267 I7.0 J0.0
G2 X171.563 Y34.751 Z2.0 I6.884 J-1.267
G2 X172.604 Y36.459 I6.437 J-2.751
G2 X173.717 Y37.537 Z0.0 I5.396 J-4.459
G2 X175.728 Y38.621 I4.283 J-5.537
G0 Z20.0
G0 X235.0 Y16.0
G1 F300.0 Z6.0
G1 F1000.0 X211.0
G1 Y300.0
G0 Z20.0
G0 X235.0 Y16.0
G1 F300.0 Z3.0
G1 F1000.0 X211.0
G1 Y300.0
G0 Z20.0
G0 X235.0 Y16.0
G0 Z1.0
G1 F300.0 Z0.0
G1 F1000.0 X227.296
G1 X225.796 Z2.0
G1 X223.796
G1 X222.296 Z0.0
G1 X211.0
G1 Y65.0
G1 Y66.5 Z2.0
G1 Y68.5
G1 Y70.0 Z0.0
G1 Y116.667
G1 Y118.167 Z2.0
G1 Y120.167
G1 Y121.667 Z0.0
G1 Y168.333
G1 Y169.833 Z2.0
G1 Y171.833
G1 Y173.333 Z0.0
G1 Y220.0
G1 Y221.5 Z2.0
G1 Y223.5
G1 Y225.0 Z0.0
G1 Y271.667
G1 Y273.167 Z2.0
G1 Y275.167
G1 Y276.667 Z0.0
G1 Y300.0
G0 Z20.0
M5
M30
