%
(13X13_V2_LEFT_BACK_6MM)
(T2  D=6. CR=0. - ZMIN=-15. - FLAT END MILL)
N10 G90 G94 G17 G91.1
N15 G21
(WHEN USING FUSION 360 FOR PERSONAL USE, THE FEEDRATE OF)
(RAPID MOVES IS REDUCED TO MATCH THE FEEDRATE OF CUTTING)
(MOVES, WHICH CAN INCREASE MACHINING TIME. UNRESTRICTED RAPID)
(MOVES ARE AVAILABLE WITH A FUSION 360 SUBSCRIPTION.)
(2D CONTOUR3 2)
N20 M8
N25 S8000 M3
N30 G54
N35 G0 X273.8 Y220.6
N45 G1 Z5. F2700.
N50 Z1. F1800.
N55 Z-0.4
N60 G18 G3 X273.2 Z-1. I-0.6 K0. F2700.
N65 G1 X272.6
N70 G17 G3 X272. Y220. I0. J-0.6
N75 G1 Y18.
N80 X278.
N85 Y220.
N90 G3 X277.4 Y220.6 I-0.6 J0.
N95 G1 X276.8
N100 G18 G3 X276.2 Z-0.4 I0. K0.6
N105 G1 Z5.
N110 X307.133
N115 Z1. F1800.
N120 Z-0.4
N125 G3 X306.533 Z-1. I-0.6 K0. F2700.
N130 G1 X305.933
N135 G17 G3 X305.333 Y220. I0. J-0.6
N140 G1 Y18.
N145 X311.333
N150 Y220.
N155 G3 X310.733 Y220.6 I-0.6 J0.
N160 G1 X310.133
N165 G18 G3 X309.533 Z-0.4 I0. K0.6
N170 G1 Z5.
N175 X340.467
N180 Z1. F1800.
N185 Z-0.4
N190 G3 X339.867 Z-1. I-0.6 K0. F2700.
N195 G1 X339.267
N200 G17 G3 X338.667 Y220. I0. J-0.6
N205 G1 Y18.
N210 X344.667
N215 Y220.
N220 G3 X344.067 Y220.6 I-0.6 J0.
N225 G1 X343.467
N230 G18 G3 X342.867 Z-0.4 I0. K0.6
N235 G1 Z5.
N240 X373.8
N245 Z1. F1800.
N250 Z-0.4
N255 G3 X373.2 Z-1. I-0.6 K0. F2700.
N260 G1 X372.6
N265 G17 G3 X372. Y220. I0. J-0.6
N270 G1 Y18.
N275 X378.
N280 Y220.
N285 G3 X377.4 Y220.6 I-0.6 J0.
N290 G1 X376.8
N295 G18 G3 X376.2 Z-0.4 I0. K0.6
N300 G1 Z5.
N305 X407.133
N310 Z1. F1800.
N315 Z-0.4
N320 G3 X406.533 Z-1. I-0.6 K0. F2700.
N325 G1 X405.933
N330 G17 G3 X405.333 Y220. I0. J-0.6
N335 G1 Y18.
N340 X411.333
N345 Y220.
N350 G3 X410.733 Y220.6 I-0.6 J0.
N355 G1 X410.133
N360 G18 G3 X409.533 Z-0.4 I0. K0.6
N365 G1 Z5.
N370 X440.467
N375 Z1. F1800.
N380 Z-0.4
N385 G3 X439.867 Z-1. I-0.6 K0. F2700.
N390 G1 X439.267
N395 G17 G3 X438.667 Y220. I0. J-0.6
N400 G1 Y18.
N405 X444.667
N410 Y220.
N415 G3 X444.067 Y220.6 I-0.6 J0.
N420 G1 X443.467
N425 G18 G3 X442.867 Z-0.4 I0. K0.6
N430 G1 Z5.
N435 X473.8
N440 Z1. F1800.
N445 Z-0.4
N450 G3 X473.2 Z-1. I-0.6 K0. F2700.
N455 G1 X472.6
N460 G17 G3 X472. Y220. I0. J-0.6
N465 G1 Y18.
N470 X478.
N475 Y220.
N480 G3 X477.4 Y220.6 I-0.6 J0.
N485 G1 X476.8
N490 G18 G3 X476.2 Z-0.4 I0. K0.6
N495 G1 Z5.
N500 X240.467
N505 Z1. F1800.
N510 Z-0.4
N515 G3 X239.867 Z-1. I-0.6 K0. F2700.
N520 G1 X239.267
N525 G17 G3 X238.667 Y220. I0. J-0.6
N530 G1 Y18.
N535 X244.667
N540 Y220.
N545 G3 X244.067 Y220.6 I-0.6 J0.
N550 G1 X243.467
N555 G18 G3 X242.867 Z-0.4 I0. K0.6
N560 G1 Z5.
N565 X207.133
N570 Z1. F1800.
N575 Z-0.4
N580 G3 X206.533 Z-1. I-0.6 K0. F2700.
N585 G1 X205.933
N590 G17 G3 X205.333 Y220. I0. J-0.6
N595 G1 Y18.
N600 X211.333
N605 Y220.
N610 G3 X210.733 Y220.6 I-0.6 J0.
N615 G1 X210.133
N620 G18 G3 X209.533 Z-0.4 I0. K0.6
N625 G1 Z5.
N630 X173.8
N635 Z1. F1800.
N640 Z-0.4
N645 G3 X173.2 Z-1. I-0.6 K0. F2700.
N650 G1 X172.6
N655 G17 G3 X172. Y220. I0. J-0.6
N660 G1 Y18.
N665 X178.
N670 Y220.
N675 G3 X177.4 Y220.6 I-0.6 J0.
N680 G1 X176.8
N685 G18 G3 X176.2 Z-0.4 I0. K0.6
N690 G1 Z5.
N695 X140.467
N700 Z1. F1800.
N705 Z-0.4
N710 G3 X139.867 Z-1. I-0.6 K0. F2700.
N715 G1 X139.267
N720 G17 G3 X138.667 Y220. I0. J-0.6
N725 G1 Y18.
N730 X144.667
N735 Y220.
N740 G3 X144.067 Y220.6 I-0.6 J0.
N745 G1 X143.467
N750 G18 G3 X142.867 Z-0.4 I0. K0.6
N755 G1 Z5.
N760 X107.133
N765 Z1. F1800.
N770 Z-0.4
N775 G3 X106.533 Z-1. I-0.6 K0. F2700.
N780 G1 X105.933
N785 G17 G3 X105.333 Y220. I0. J-0.6
N790 G1 Y18.
N795 X111.333
N800 Y220.
N805 G3 X110.733 Y220.6 I-0.6 J0.
N810 G1 X110.133
N815 G18 G3 X109.533 Z-0.4 I0. K0.6
N820 G1 Z5.
N825 X73.8
N830 Z1. F1800.
N835 Z-0.4
N840 G3 X73.2 Z-1. I-0.6 K0. F2700.
N845 G1 X72.6
N850 G17 G3 X72. Y220. I0. J-0.6
N855 G1 Y18.
N860 X78.
N865 Y220.
N870 G3 X77.4 Y220.6 I-0.6 J0.
N875 G1 X76.8
N880 G18 G3 X76.2 Z-0.4 I0. K0.6
N885 G1 Z15.
N890 G17
(WHEN USING FUSION 360 FOR PERSONAL USE, THE FEEDRATE OF)
(RAPID MOVES IS REDUCED TO MATCH THE FEEDRATE OF CUTTING)
(MOVES, WHICH CAN INCREASE MACHINING TIME. UNRESTRICTED RAPID)
(MOVES ARE AVAILABLE WITH A FUSION 360 SUBSCRIPTION.)
(2D POCKET4 2)
N895 G0 X276.54 Y102.062
N900 G1 Z15. F2700.
N905 Z5.
N910 Z3.091 F1800.
N915 X276.563 Y102.09 Z2.886 F2700.
N920 X276.626 Y102.173 Z2.705
N925 X276.713 Y102.306 Z2.571
N930 X276.762 Y102.391 Z2.536
N935 X276.806 Y102.479 Z2.5
N940 G3 X273.194 Y104.197 Z1.392 I-1.806 J0.859
N945 X276.806 Y102.479 Z0.284 I1.806 J-0.859
N950 X273.194 Y104.197 Z-0.824 I-1.806 J0.859
N955 X276.806 Y102.479 Z-1.932 I1.806 J-0.859
N960 X273.194 Y104.197 Z-3.039 I-1.806 J0.859
N965 X275. Y101.338 Z-3.75 I1.806 J-0.859
N970 G1 X277.
N975 Y105.338
N980 X273.
N985 Y101.338
N990 X275.
N995 X277. Z-4.103
N1000 Y105.338 Z-4.808
N1005 X273. Z-5.513
N1010 Y101.338 Z-6.219
N1015 X277. Z-6.924
N1020 Y104.605 Z-7.5
N1025 Y105.338
N1030 X273.
N1035 Y101.338
N1040 X277.
N1045 Y104.605
N1050 Y105.338 Z-7.629
N1055 X273. Z-8.335
N1060 Y101.338 Z-9.04
N1065 X277. Z-9.745
N1070 Y105.338 Z-10.451
N1075 X273. Z-11.156
N1080 Y104.804 Z-11.25
N1085 Y101.338
N1090 X277.
N1095 Y104.605
N1100 Y105.338
N1105 X273.
N1110 Y104.804
N1115 Y101.338 Z-11.861
N1120 X277. Z-12.567
N1125 Y105.338 Z-13.272
N1130 X273. Z-13.977
N1135 Y101.338 Z-14.683
N1140 X274.8 Z-15.
N1145 X277.
N1150 Y105.338
N1155 X273.
N1160 Y101.338
N1165 X274.8
N1170 X274.893 Y101.345 Z-14.985
N1175 X274.983 Y101.366 Z-14.971
N1180 X275.06 Y101.397 Z-14.928
N1185 X275.133 Y101.438 Z-14.885
N1190 X275.186 Y101.478 Z-14.819
N1195 X275.234 Y101.524 Z-14.753
N1200 X275.289 Y101.589 Z-14.585
N1205 X275.305 Y101.614 Z-14.4
N1210 Z5.
N1215 X273.46 Y71.28
N1220 Z3.091 F1800.
N1225 X273.437 Y71.252 Z2.886 F2700.
N1230 X273.374 Y71.169 Z2.705
N1235 X273.287 Y71.036 Z2.571
N1240 X273.238 Y70.951 Z2.536
N1245 X273.194 Y70.864 Z2.5
N1250 G3 X276.806 Y69.145 Z1.392 I1.806 J-0.859
N1255 X273.194 Y70.864 Z0.284 I-1.806 J0.859
N1260 X276.806 Y69.145 Z-0.824 I1.806 J-0.859
N1265 X273.194 Y70.864 Z-1.932 I-1.806 J0.859
N1270 X276.806 Y69.145 Z-3.039 I1.806 J-0.859
N1275 X275. Y72.004 Z-3.75 I-1.806 J0.859
N1280 G1 X273.
N1285 Y68.004
N1290 X277.
N1295 Y72.004
N1300 X275.
N1305 X273. Z-4.103
N1310 Y68.004 Z-4.808
N1315 X277. Z-5.513
N1320 Y72.004 Z-6.219
N1325 X273. Z-6.924
N1330 Y68.737 Z-7.5
N1335 Y68.004
N1340 X277.
N1345 Y72.004
N1350 X273.
N1355 Y68.737
N1360 Y68.004 Z-7.629
N1365 X277. Z-8.335
N1370 Y72.004 Z-9.04
N1375 X273. Z-9.745
N1380 Y68.004 Z-10.45
N1385 X277. Z-11.156
N1390 Y68.539 Z-11.25
N1395 Y72.004
N1400 X273.
N1405 Y68.737
N1410 Y68.004
N1415 X277.
N1420 Y68.539
N1425 Y72.004 Z-11.861
N1430 X273. Z-12.566
N1435 Y68.004 Z-13.272
N1440 X277. Z-13.977
N1445 Y72.004 Z-14.682
N1450 X275.198 Z-15.
N1455 X273.
N1460 Y68.004
N1465 X277.
N1470 Y72.004
N1475 X275.198
N1480 X275.106 Y71.997 Z-14.985
N1485 X275.016 Y71.976 Z-14.971
N1490 X274.938 Y71.945 Z-14.928
N1495 X274.865 Y71.904 Z-14.885
N1500 X274.812 Y71.864 Z-14.819
N1505 X274.764 Y71.819 Z-14.753
N1510 X274.71 Y71.753 Z-14.585
N1515 X274.693 Y71.729 Z-14.4
N1520 Z5.
N1525 X306.793 Y71.28
N1530 Z3.091 F1800.
N1535 X306.77 Y71.252 Z2.886 F2700.
N1540 X306.707 Y71.169 Z2.705
N1545 X306.62 Y71.036 Z2.571
N1550 X306.571 Y70.951 Z2.536
N1555 X306.527 Y70.864 Z2.5
N1560 G3 X310.139 Y69.145 Z1.392 I1.806 J-0.859
N1565 X306.527 Y70.864 Z0.284 I-1.806 J0.859
N1570 X310.139 Y69.145 Z-0.824 I1.806 J-0.859
N1575 X306.527 Y70.864 Z-1.932 I-1.806 J0.859
N1580 X310.139 Y69.145 Z-3.039 I1.806 J-0.859
N1585 X308.333 Y72.004 Z-3.75 I-1.806 J0.859
N1590 G1 X306.333
N1595 Y68.004
N1600 X310.333
N1605 Y72.004
N1610 X308.333
N1615 X306.333 Z-4.103
N1620 Y68.004 Z-4.808
N1625 X310.333 Z-5.513
N1630 Y72.004 Z-6.219
N1635 X306.333 Z-6.924
N1640 Y68.737 Z-7.5
N1645 Y68.004
N1650 X310.333
N1655 Y72.004
N1660 X306.333
N1665 Y68.737
N1670 Y68.004 Z-7.629
N1675 X310.333 Z-8.335
N1680 Y72.004 Z-9.04
N1685 X306.333 Z-9.745
N1690 Y68.004 Z-10.45
N1695 X310.333 Z-11.156
N1700 Y68.539 Z-11.25
N1705 Y72.004
N1710 X306.333
N1715 Y68.737
N1720 Y68.004
N1725 X310.333
N1730 Y68.539
N1735 Y72.004 Z-11.861
N1740 X306.333 Z-12.566
N1745 Y68.004 Z-13.272
N1750 X310.333 Z-13.977
N1755 Y72.004 Z-14.682
N1760 X308.531 Z-15.
N1765 X306.333
N1770 Y68.004
N1775 X310.333
N1780 Y72.004
N1785 X308.531
N1790 X308.439 Y71.997 Z-14.985
N1795 X308.349 Y71.976 Z-14.971
N1800 X308.271 Y71.945 Z-14.928
N1805 X308.198 Y71.904 Z-14.885
N1810 X308.145 Y71.864 Z-14.819
N1815 X308.097 Y71.819 Z-14.753
N1820 X308.043 Y71.753 Z-14.585
N1825 X308.026 Y71.729 Z-14.4
N1830 Z5.
N1835 X309.873 Y102.062
N1840 Z3.091 F1800.
N1845 X309.896 Y102.09 Z2.886 F2700.
N1850 X309.959 Y102.173 Z2.705
N1855 X310.046 Y102.306 Z2.571
N1860 X310.095 Y102.391 Z2.536
N1865 X310.139 Y102.479 Z2.5
N1870 G3 X306.527 Y104.197 Z1.392 I-1.806 J0.859
N1875 X310.139 Y102.479 Z0.284 I1.806 J-0.859
N1880 X306.527 Y104.197 Z-0.824 I-1.806 J0.859
N1885 X310.139 Y102.479 Z-1.932 I1.806 J-0.859
N1890 X306.527 Y104.197 Z-3.039 I-1.806 J0.859
N1895 X308.333 Y101.338 Z-3.75 I1.806 J-0.859
N1900 G1 X310.333
N1905 Y105.338
N1910 X306.333
N1915 Y101.338
N1920 X308.333
N1925 X310.333 Z-4.103
N1930 Y105.338 Z-4.808
N1935 X306.333 Z-5.513
N1940 Y101.338 Z-6.219
N1945 X310.333 Z-6.924
N1950 Y104.605 Z-7.5
N1955 Y105.338
N1960 X306.333
N1965 Y101.338
N1970 X310.333
N1975 Y104.605
N1980 Y105.338 Z-7.629
N1985 X306.333 Z-8.335
N1990 Y101.338 Z-9.04
N1995 X310.333 Z-9.745
N2000 Y105.338 Z-10.451
N2005 X306.333 Z-11.156
N2010 Y104.804 Z-11.25
N2015 Y101.338
N2020 X310.333
N2025 Y104.605
N2030 Y105.338
N2035 X306.333
N2040 Y104.804
N2045 Y101.338 Z-11.861
N2050 X310.333 Z-12.567
N2055 Y105.338 Z-13.272
N2060 X306.333 Z-13.977
N2065 Y101.338 Z-14.683
N2070 X308.133 Z-15.
N2075 X310.333
N2080 Y105.338
N2085 X306.333
N2090 Y101.338
N2095 X308.133
N2100 X308.226 Y101.345 Z-14.985
N2105 X308.316 Y101.366 Z-14.971
N2110 X308.393 Y101.397 Z-14.928
N2115 X308.466 Y101.438 Z-14.885
N2120 X308.519 Y101.478 Z-14.819
N2125 X308.567 Y101.524 Z-14.753
N2130 X308.622 Y101.589 Z-14.585
N2135 X308.638 Y101.614 Z-14.4
N2140 Z5.
N2145 X340.127 Y104.614
N2150 Z3.091 F1800.
N2155 X340.104 Y104.586 Z2.886 F2700.
N2160 X340.041 Y104.503 Z2.705
N2165 X339.954 Y104.37 Z2.571
N2170 X339.905 Y104.284 Z2.536
N2175 X339.861 Y104.197 Z2.5
N2180 G3 X343.473 Y102.479 Z1.392 I1.806 J-0.859
N2185 X339.861 Y104.197 Z0.284 I-1.806 J0.859
N2190 X343.473 Y102.479 Z-0.824 I1.806 J-0.859
N2195 X339.861 Y104.197 Z-1.932 I-1.806 J0.859
N2200 X343.473 Y102.479 Z-3.039 I1.806 J-0.859
N2205 X341.667 Y105.338 Z-3.75 I-1.806 J0.859
N2210 G1 X339.667
N2215 Y101.338
N2220 X343.667
N2225 Y105.338
N2230 X341.667
N2235 X339.667 Z-4.103
N2240 Y101.338 Z-4.808
N2245 X343.667 Z-5.513
N2250 Y105.338 Z-6.219
N2255 X339.667 Z-6.924
N2260 Y102.071 Z-7.5
N2265 Y101.338
N2270 X343.667
N2275 Y105.338
N2280 X339.667
N2285 Y102.071
N2290 Y101.338 Z-7.629
N2295 X343.667 Z-8.335
N2300 Y105.338 Z-9.04
N2305 X339.667 Z-9.745
N2310 Y101.338 Z-10.451
N2315 X343.667 Z-11.156
N2320 Y101.871 Z-11.25
N2325 Y105.338
N2330 X339.667
N2335 Y102.071
N2340 Y101.338
N2345 X343.667
N2350 Y101.871
N2355 Y105.338 Z-11.861
N2360 X339.667 Z-12.567
N2365 Y101.338 Z-13.272
N2370 X343.667 Z-13.977
N2375 Y105.338 Z-14.683
N2380 X341.867 Z-15.
N2385 X339.667
N2390 Y101.338
N2395 X343.667
N2400 Y105.338
N2405 X341.867
N2410 X341.774 Y105.331 Z-14.985
N2415 X341.684 Y105.31 Z-14.971
N2420 X341.607 Y105.279 Z-14.928
N2425 X341.534 Y105.237 Z-14.885
N2430 X341.481 Y105.198 Z-14.819
N2435 X341.433 Y105.152 Z-14.753
N2440 X341.378 Y105.086 Z-14.585
N2445 X341.362 Y105.062 Z-14.4
N2450 Z5.
N2455 X343.207 Y135.395
N2460 Z3.091 F1800.
N2465 X343.23 Y135.423 Z2.886 F2700.
N2470 X343.293 Y135.506 Z2.705
N2475 X343.38 Y135.639 Z2.571
N2480 X343.429 Y135.725 Z2.536
N2485 X343.473 Y135.812 Z2.5
N2490 G3 X339.861 Y137.53 Z1.392 I-1.806 J0.859
N2495 X343.473 Y135.812 Z0.284 I1.806 J-0.859
N2500 X339.861 Y137.53 Z-0.824 I-1.806 J0.859
N2505 X343.473 Y135.812 Z-1.932 I1.806 J-0.859
N2510 X339.861 Y137.53 Z-3.039 I-1.806 J0.859
N2515 X341.667 Y134.671 Z-3.75 I1.806 J-0.859
N2520 G1 X343.667
N2525 Y138.671
N2530 X339.667
N2535 Y134.671
N2540 X341.667
N2545 X343.667 Z-4.103
N2550 Y138.671 Z-4.808
N2555 X339.667 Z-5.513
N2560 Y134.671 Z-6.219
N2565 X343.667 Z-6.924
N2570 Y137.938 Z-7.5
N2575 Y138.671
N2580 X339.667
N2585 Y134.671
N2590 X343.667
N2595 Y137.938
N2600 Y138.671 Z-7.629
N2605 X339.667 Z-8.335
N2610 Y134.671 Z-9.04
N2615 X343.667 Z-9.745
N2620 Y138.671 Z-10.45
N2625 X339.667 Z-11.156
N2630 Y138.136 Z-11.25
N2635 Y134.671
N2640 X343.667
N2645 Y137.938
N2650 Y138.671
N2655 X339.667
N2660 Y138.136
N2665 Y134.671 Z-11.861
N2670 X343.667 Z-12.566
N2675 Y138.671 Z-13.272
N2680 X339.667 Z-13.977
N2685 Y134.671 Z-14.682
N2690 X341.469 Z-15.
N2695 X343.667
N2700 Y138.671
N2705 X339.667
N2710 Y134.671
N2715 X341.469
N2720 X341.561 Y134.678 Z-14.985
N2725 X341.651 Y134.699 Z-14.971
N2730 X341.729 Y134.73 Z-14.928
N2735 X341.802 Y134.772 Z-14.885
N2740 X341.855 Y134.811 Z-14.819
N2745 X341.903 Y134.857 Z-14.753
N2750 X341.957 Y134.923 Z-14.585
N2755 X341.974 Y134.947 Z-14.4
N2760 Z5.
N2765 X309.609 Y138.211
N2770 Z3.091 F1800.
N2775 X309.581 Y138.234 Z2.886 F2700.
N2780 X309.498 Y138.297 Z2.705
N2785 X309.365 Y138.384 Z2.571
N2790 X309.279 Y138.433 Z2.536
N2795 X309.192 Y138.477 Z2.5
N2800 G3 X307.474 Y134.865 Z1.392 I-0.859 J-1.806
N2805 X309.192 Y138.477 Z0.284 I0.859 J1.806
N2810 X307.474 Y134.865 Z-0.824 I-0.859 J-1.806
N2815 X309.192 Y138.477 Z-1.932 I0.859 J1.806
N2820 X307.474 Y134.865 Z-3.039 I-0.859 J-1.806
N2825 X310.333 Y136.671 Z-3.75 I0.859 J1.806
N2830 G1 Y138.671
N2835 X306.333
N2840 Y134.671
N2845 X310.333
N2850 Y136.671
N2855 Y138.671 Z-4.103
N2860 X306.333 Z-4.808
N2865 Y134.671 Z-5.513
N2870 X310.333 Z-6.219
N2875 Y138.671 Z-6.924
N2880 X307.066 Z-7.5
N2885 X306.333
N2890 Y134.671
N2895 X310.333
N2900 Y138.671
N2905 X307.066
N2910 X306.333 Z-7.629
N2915 Y134.671 Z-8.335
N2920 X310.333 Z-9.04
N2925 Y138.671 Z-9.745
N2930 X306.333 Z-10.45
N2935 Y134.671 Z-11.156
N2940 X306.868 Z-11.25
N2945 X310.333
N2950 Y138.671
N2955 X307.066
N2960 X306.333
N2965 Y134.671
N2970 X306.868
N2975 X310.333 Z-11.861
N2980 Y138.671 Z-12.566
N2985 X306.333 Z-13.272
N2990 Y134.671 Z-13.977
N2995 X310.333 Z-14.682
N3000 Y136.473 Z-15.
N3005 Y138.671
N3010 X306.333
N3015 Y134.671
N3020 X310.333
N3025 Y136.473
N3030 X310.326 Y136.565 Z-14.985
N3035 X310.305 Y136.655 Z-14.971
N3040 X310.274 Y136.733 Z-14.928
N3045 X310.232 Y136.806 Z-14.885
N3050 X310.193 Y136.859 Z-14.819
N3055 X310.147 Y136.907 Z-14.753
N3060 X310.081 Y136.961 Z-14.585
N3065 X310.057 Y136.978 Z-14.4
N3070 Z5.
N3075 X276.54 Y135.395
N3080 Z3.091 F1800.
N3085 X276.563 Y135.423 Z2.886 F2700.
N3090 X276.626 Y135.506 Z2.705
N3095 X276.713 Y135.639 Z2.571
N3100 X276.762 Y135.725 Z2.536
N3105 X276.806 Y135.812 Z2.5
N3110 G3 X273.194 Y137.53 Z1.392 I-1.806 J0.859
N3115 X276.806 Y135.812 Z0.284 I1.806 J-0.859
N3120 X273.194 Y137.53 Z-0.824 I-1.806 J0.859
N3125 X276.806 Y135.812 Z-1.932 I1.806 J-0.859
N3130 X273.194 Y137.53 Z-3.039 I-1.806 J0.859
N3135 X275. Y134.671 Z-3.75 I1.806 J-0.859
N3140 G1 X277.
N3145 Y138.671
N3150 X273.
N3155 Y134.671
N3160 X275.
N3165 X277. Z-4.103
N3170 Y138.671 Z-4.808
N3175 X273. Z-5.513
N3180 Y134.671 Z-6.219
N3185 X277. Z-6.924
N3190 Y137.938 Z-7.5
N3195 Y138.671
N3200 X273.
N3205 Y134.671
N3210 X277.
N3215 Y137.938
N3220 Y138.671 Z-7.629
N3225 X273. Z-8.335
N3230 Y134.671 Z-9.04
N3235 X277. Z-9.745
N3240 Y138.671 Z-10.45
N3245 X273. Z-11.156
N3250 Y138.136 Z-11.25
N3255 Y134.671
N3260 X277.
N3265 Y137.938
N3270 Y138.671
N3275 X273.
N3280 Y138.136
N3285 Y134.671 Z-11.861
N3290 X277. Z-12.566
N3295 Y138.671 Z-13.272
N3300 X273. Z-13.977
N3305 Y134.671 Z-14.682
N3310 X274.802 Z-15.
N3315 X277.
N3320 Y138.671
N3325 X273.
N3330 Y134.671
N3335 X274.802
N3340 X274.894 Y134.678 Z-14.985
N3345 X274.984 Y134.699 Z-14.971
N3350 X275.062 Y134.73 Z-14.928
N3355 X275.135 Y134.772 Z-14.885
N3360 X275.188 Y134.811 Z-14.819
N3365 X275.236 Y134.857 Z-14.753
N3370 X275.29 Y134.923 Z-14.585
N3375 X275.307 Y134.947 Z-14.4
N3380 Z5.
N3385 X243.207 Y135.395
N3390 Z3.091 F1800.
N3395 X243.23 Y135.423 Z2.886 F2700.
N3400 X243.293 Y135.506 Z2.705
N3405 X243.38 Y135.639 Z2.571
N3410 X243.429 Y135.725 Z2.536
N3415 X243.473 Y135.812 Z2.5
N3420 G3 X239.861 Y137.53 Z1.392 I-1.806 J0.859
N3425 X243.473 Y135.812 Z0.284 I1.806 J-0.859
N3430 X239.861 Y137.53 Z-0.824 I-1.806 J0.859
N3435 X243.473 Y135.812 Z-1.932 I1.806 J-0.859
N3440 X239.861 Y137.53 Z-3.039 I-1.806 J0.859
N3445 X241.667 Y134.671 Z-3.75 I1.806 J-0.859
N3450 G1 X243.667
N3455 Y138.671
N3460 X239.667
N3465 Y134.671
N3470 X241.667
N3475 X243.667 Z-4.103
N3480 Y138.671 Z-4.808
N3485 X239.667 Z-5.513
N3490 Y134.671 Z-6.219
N3495 X243.667 Z-6.924
N3500 Y137.938 Z-7.5
N3505 Y138.671
N3510 X239.667
N3515 Y134.671
N3520 X243.667
N3525 Y137.938
N3530 Y138.671 Z-7.629
N3535 X239.667 Z-8.335
N3540 Y134.671 Z-9.04
N3545 X243.667 Z-9.745
N3550 Y138.671 Z-10.45
N3555 X239.667 Z-11.156
N3560 Y138.136 Z-11.25
N3565 Y134.671
N3570 X243.667
N3575 Y137.938
N3580 Y138.671
N3585 X239.667
N3590 Y138.136
N3595 Y134.671 Z-11.861
N3600 X243.667 Z-12.566
N3605 Y138.671 Z-13.272
N3610 X239.667 Z-13.977
N3615 Y134.671 Z-14.682
N3620 X241.469 Z-15.
N3625 X243.667
N3630 Y138.671
N3635 X239.667
N3640 Y134.671
N3645 X241.469
N3650 X241.561 Y134.678 Z-14.985
N3655 X241.651 Y134.699 Z-14.971
N3660 X241.729 Y134.73 Z-14.928
N3665 X241.802 Y134.772 Z-14.885
N3670 X241.855 Y134.811 Z-14.819
N3675 X241.903 Y134.857 Z-14.753
N3680 X241.957 Y134.923 Z-14.585
N3685 X241.974 Y134.947 Z-14.4
N3690 Z5.
N3695 X240.127 Y104.614
N3700 Z3.091 F1800.
N3705 X240.104 Y104.586 Z2.886 F2700.
N3710 X240.041 Y104.503 Z2.705
N3715 X239.954 Y104.37 Z2.571
N3720 X239.905 Y104.284 Z2.536
N3725 X239.861 Y104.197 Z2.5
N3730 G3 X243.473 Y102.479 Z1.392 I1.806 J-0.859
N3735 X239.861 Y104.197 Z0.284 I-1.806 J0.859
N3740 X243.473 Y102.479 Z-0.824 I1.806 J-0.859
N3745 X239.861 Y104.197 Z-1.932 I-1.806 J0.859
N3750 X243.473 Y102.479 Z-3.039 I1.806 J-0.859
N3755 X241.667 Y105.338 Z-3.75 I-1.806 J0.859
N3760 G1 X239.667
N3765 Y101.338
N3770 X243.667
N3775 Y105.338
N3780 X241.667
N3785 X239.667 Z-4.103
N3790 Y101.338 Z-4.808
N3795 X243.667 Z-5.513
N3800 Y105.338 Z-6.219
N3805 X239.667 Z-6.924
N3810 Y102.071 Z-7.5
N3815 Y101.338
N3820 X243.667
N3825 Y105.338
N3830 X239.667
N3835 Y102.071
N3840 Y101.338 Z-7.629
N3845 X243.667 Z-8.335
N3850 Y105.338 Z-9.04
N3855 X239.667 Z-9.745
N3860 Y101.338 Z-10.451
N3865 X243.667 Z-11.156
N3870 Y101.871 Z-11.25
N3875 Y105.338
N3880 X239.667
N3885 Y102.071
N3890 Y101.338
N3895 X243.667
N3900 Y101.871
N3905 Y105.338 Z-11.861
N3910 X239.667 Z-12.567
N3915 Y101.338 Z-13.272
N3920 X243.667 Z-13.977
N3925 Y105.338 Z-14.683
N3930 X241.867 Z-15.
N3935 X239.667
N3940 Y101.338
N3945 X243.667
N3950 Y105.338
N3955 X241.867
N3960 X241.774 Y105.331 Z-14.985
N3965 X241.684 Y105.31 Z-14.971
N3970 X241.607 Y105.279 Z-14.928
N3975 X241.534 Y105.237 Z-14.885
N3980 X241.481 Y105.198 Z-14.819
N3985 X241.433 Y105.152 Z-14.753
N3990 X241.378 Y105.086 Z-14.585
N3995 X241.362 Y105.062 Z-14.4
N4000 Z5.
N4005 X240.127 Y71.28
N4010 Z3.091 F1800.
N4015 X240.104 Y71.252 Z2.886 F2700.
N4020 X240.041 Y71.169 Z2.705
N4025 X239.954 Y71.036 Z2.571
N4030 X239.905 Y70.951 Z2.536
N4035 X239.861 Y70.864 Z2.5
N4040 G3 X243.473 Y69.145 Z1.392 I1.806 J-0.859
N4045 X239.861 Y70.864 Z0.284 I-1.806 J0.859
N4050 X243.473 Y69.145 Z-0.824 I1.806 J-0.859
N4055 X239.861 Y70.864 Z-1.932 I-1.806 J0.859
N4060 X243.473 Y69.145 Z-3.039 I1.806 J-0.859
N4065 X241.667 Y72.004 Z-3.75 I-1.806 J0.859
N4070 G1 X239.667
N4075 Y68.004
N4080 X243.667
N4085 Y72.004
N4090 X241.667
N4095 X239.667 Z-4.103
N4100 Y68.004 Z-4.808
N4105 X243.667 Z-5.513
N4110 Y72.004 Z-6.219
N4115 X239.667 Z-6.924
N4120 Y68.737 Z-7.5
N4125 Y68.004
N4130 X243.667
N4135 Y72.004
N4140 X239.667
N4145 Y68.737
N4150 Y68.004 Z-7.629
N4155 X243.667 Z-8.335
N4160 Y72.004 Z-9.04
N4165 X239.667 Z-9.745
N4170 Y68.004 Z-10.45
N4175 X243.667 Z-11.156
N4180 Y68.539 Z-11.25
N4185 Y72.004
N4190 X239.667
N4195 Y68.737
N4200 Y68.004
N4205 X243.667
N4210 Y68.539
N4215 Y72.004 Z-11.861
N4220 X239.667 Z-12.566
N4225 Y68.004 Z-13.272
N4230 X243.667 Z-13.977
N4235 Y72.004 Z-14.682
N4240 X241.865 Z-15.
N4245 X239.667
N4250 Y68.004
N4255 X243.667
N4260 Y72.004
N4265 X241.865
N4270 X241.773 Y71.997 Z-14.985
N4275 X241.683 Y71.976 Z-14.971
N4280 X241.605 Y71.945 Z-14.928
N4285 X241.532 Y71.904 Z-14.885
N4290 X241.479 Y71.864 Z-14.819
N4295 X241.431 Y71.819 Z-14.753
N4300 X241.377 Y71.753 Z-14.585
N4305 X241.36 Y71.729 Z-14.4
N4310 Z5.
N4315 X209.873 Y68.728
N4320 Z3.091 F1800.
N4325 X209.896 Y68.756 Z2.886 F2700.
N4330 X209.959 Y68.84 Z2.705
N4335 X210.046 Y68.973 Z2.571
N4340 X210.095 Y69.058 Z2.536
N4345 X210.139 Y69.145 Z2.5
N4350 G3 X206.527 Y70.864 Z1.392 I-1.806 J0.859
N4355 X210.139 Y69.145 Z0.284 I1.806 J-0.859
N4360 X206.527 Y70.864 Z-0.824 I-1.806 J0.859
N4365 X210.139 Y69.145 Z-1.932 I1.806 J-0.859
N4370 X206.527 Y70.864 Z-3.039 I-1.806 J0.859
N4375 X208.333 Y68.004 Z-3.75 I1.806 J-0.859
N4380 G1 X210.333
N4385 Y72.004
N4390 X206.333
N4395 Y68.004
N4400 X208.333
N4405 X210.333 Z-4.103
N4410 Y72.004 Z-4.808
N4415 X206.333 Z-5.513
N4420 Y68.004 Z-6.219
N4425 X210.333 Z-6.924
N4430 Y71.272 Z-7.5
N4435 Y72.004
N4440 X206.333
N4445 Y68.004
N4450 X210.333
N4455 Y71.272
N4460 Y72.004 Z-7.629
N4465 X206.333 Z-8.335
N4470 Y68.004 Z-9.04
N4475 X210.333 Z-9.745
N4480 Y72.004 Z-10.45
N4485 X206.333 Z-11.156
N4490 Y71.47 Z-11.25
N4495 Y68.004
N4500 X210.333
N4505 Y71.272
N4510 Y72.004
N4515 X206.333
N4520 Y71.47
N4525 Y68.004 Z-11.861
N4530 X210.333 Z-12.566
N4535 Y72.004 Z-13.272
N4540 X206.333 Z-13.977
N4545 Y68.004 Z-14.682
N4550 X208.135 Z-15.
N4555 X210.333
N4560 Y72.004
N4565 X206.333
N4570 Y68.004
N4575 X208.135
N4580 X208.227 Y68.012 Z-14.985
N4585 X208.317 Y68.033 Z-14.971
N4590 X208.395 Y68.064 Z-14.928
N4595 X208.468 Y68.105 Z-14.885
N4600 X208.521 Y68.145 Z-14.819
N4605 X208.569 Y68.19 Z-14.753
N4610 X208.623 Y68.256 Z-14.585
N4615 X208.64 Y68.28 Z-14.4
N4620 Z5.
N4625 X209.609 Y38.211
N4630 Z3.091 F1800.
N4635 X209.581 Y38.234 Z2.886 F2700.
N4640 X209.498 Y38.297 Z2.705
N4645 X209.365 Y38.385 Z2.571
N4650 X209.279 Y38.433 Z2.536
N4655 X209.192 Y38.477 Z2.5
N4660 G3 X207.474 Y34.865 Z1.392 I-0.859 J-1.806
N4665 X209.192 Y38.477 Z0.284 I0.859 J1.806
N4670 X207.474 Y34.865 Z-0.824 I-0.859 J-1.806
N4675 X209.192 Y38.477 Z-1.932 I0.859 J1.806
N4680 X207.474 Y34.865 Z-3.039 I-0.859 J-1.806
N4685 X210.333 Y36.671 Z-3.75 I0.859 J1.806
N4690 G1 Y38.671
N4695 X206.333
N4700 Y34.671
N4705 X210.333
N4710 Y36.671
N4715 Y38.671 Z-4.103
N4720 X206.333 Z-4.808
N4725 Y34.671 Z-5.513
N4730 X210.333 Z-6.219
N4735 Y38.671 Z-6.924
N4740 X207.066 Z-7.5
N4745 X206.333
N4750 Y34.671
N4755 X210.333
N4760 Y36.671
N4765 Y38.671
N4770 X207.066
N4775 X206.333 Z-7.629
N4780 Y34.671 Z-8.335
N4785 X210.333 Z-9.04
N4790 Y38.671 Z-9.745
N4795 X206.333 Z-10.45
N4800 Y34.671 Z-11.156
N4805 X206.868 Z-11.25
N4810 X210.333
N4815 Y38.671
N4820 X207.066
N4825 X206.333
N4830 Y34.671
N4835 X206.868
N4840 X210.333 Z-11.861
N4845 Y38.671 Z-12.566
N4850 X206.333 Z-13.272
N4855 Y34.671 Z-13.977
N4860 X210.333 Z-14.682
N4865 Y36.473 Z-15.
N4870 Y38.671
N4875 X206.333
N4880 Y34.671
N4885 X210.333
N4890 Y36.473
N4895 X210.326 Y36.565 Z-14.985
N4900 X210.305 Y36.655 Z-14.971
N4905 X210.274 Y36.733 Z-14.928
N4910 X210.232 Y36.806 Z-14.885
N4915 X210.193 Y36.859 Z-14.819
N4920 X210.147 Y36.907 Z-14.753
N4925 X210.081 Y36.961 Z-14.585
N4930 X210.057 Y36.978 Z-14.4
N4935 Z5.
N4940 X242.943 Y38.211
N4945 Z3.091 F1800.
N4950 X242.915 Y38.234 Z2.886 F2700.
N4955 X242.832 Y38.297 Z2.705
N4960 X242.699 Y38.385 Z2.571
N4965 X242.613 Y38.433 Z2.536
N4970 X242.526 Y38.477 Z2.5
N4975 G3 X240.808 Y34.865 Z1.392 I-0.859 J-1.806
N4980 X242.526 Y38.477 Z0.284 I0.859 J1.806
N4985 X240.808 Y34.865 Z-0.824 I-0.859 J-1.806
N4990 X242.526 Y38.477 Z-1.932 I0.859 J1.806
N4995 X240.808 Y34.865 Z-3.039 I-0.859 J-1.806
N5000 X243.667 Y36.671 Z-3.75 I0.859 J1.806
N5005 G1 Y38.671
N5010 X239.667
N5015 Y34.671
N5020 X243.667
N5025 Y36.671
N5030 Y38.671 Z-4.103
N5035 X239.667 Z-4.808
N5040 Y34.671 Z-5.513
N5045 X243.667 Z-6.219
N5050 Y38.671 Z-6.924
N5055 X240.4 Z-7.5
N5060 X239.667
N5065 Y34.671
N5070 X243.667
N5075 Y38.671
N5080 X240.4
N5085 X239.667 Z-7.629
N5090 Y34.671 Z-8.335
N5095 X243.667 Z-9.04
N5100 Y38.671 Z-9.745
N5105 X239.667 Z-10.45
N5110 Y34.671 Z-11.156
N5115 X240.202 Z-11.25
N5120 X243.667
N5125 Y38.671
N5130 X240.4
N5135 X239.667
N5140 Y34.671
N5145 X240.202
N5150 X243.667 Z-11.861
N5155 Y38.671 Z-12.566
N5160 X239.667 Z-13.272
N5165 Y34.671 Z-13.977
N5170 X243.667 Z-14.682
N5175 Y36.473 Z-15.
N5180 Y38.671
N5185 X239.667
N5190 Y34.671
N5195 X243.667
N5200 Y36.473
N5205 X243.66 Y36.565 Z-14.985
N5210 X243.639 Y36.655 Z-14.971
N5215 X243.608 Y36.733 Z-14.928
N5220 X243.566 Y36.806 Z-14.885
N5225 X243.527 Y36.859 Z-14.819
N5230 X243.481 Y36.907 Z-14.753
N5235 X243.415 Y36.961 Z-14.585
N5240 X243.391 Y36.978 Z-14.4
N5245 Z5.
N5250 X273.46 Y37.947
N5255 Z3.091 F1800.
N5260 X273.437 Y37.919 Z2.886 F2700.
N5265 X273.374 Y37.836 Z2.705
N5270 X273.287 Y37.703 Z2.571
N5275 X273.238 Y37.618 Z2.536
N5280 X273.194 Y37.53 Z2.5
N5285 G3 X276.806 Y35.812 Z1.392 I1.806 J-0.859
N5290 X273.194 Y37.53 Z0.284 I-1.806 J0.859
N5295 X276.806 Y35.812 Z-0.824 I1.806 J-0.859
N5300 X273.194 Y37.53 Z-1.932 I-1.806 J0.859
N5305 X276.806 Y35.812 Z-3.039 I1.806 J-0.859
N5310 X275. Y38.671 Z-3.75 I-1.806 J0.859
N5315 G1 X273.
N5320 Y34.671
N5325 X277.
N5330 Y38.671
N5335 X275.
N5340 X273. Z-4.103
N5345 Y34.671 Z-4.808
N5350 X277. Z-5.513
N5355 Y38.671 Z-6.219
N5360 X273. Z-6.924
N5365 Y35.404 Z-7.5
N5370 Y34.671
N5375 X277.
N5380 Y38.671
N5385 X273.
N5390 Y35.404
N5395 Y34.671 Z-7.629
N5400 X277. Z-8.335
N5405 Y38.671 Z-9.04
N5410 X273. Z-9.745
N5415 Y34.671 Z-10.45
N5420 X277. Z-11.156
N5425 Y35.206 Z-11.25
N5430 Y38.671
N5435 X273.
N5440 Y35.404
N5445 Y34.671
N5450 X277.
N5455 Y35.206
N5460 Y38.671 Z-11.861
N5465 X273. Z-12.566
N5470 Y34.671 Z-13.272
N5475 X277. Z-13.977
N5480 Y38.671 Z-14.682
N5485 X275.198 Z-15.
N5490 X273.
N5495 Y34.671
N5500 X277.
N5505 Y38.671
N5510 X275.198
N5515 X275.106 Y38.664 Z-14.985
N5520 X275.016 Y38.643 Z-14.971
N5525 X274.938 Y38.612 Z-14.928
N5530 X274.865 Y38.57 Z-14.885
N5535 X274.812 Y38.531 Z-14.819
N5540 X274.764 Y38.485 Z-14.753
N5545 X274.71 Y38.42 Z-14.585
N5550 X274.693 Y38.395 Z-14.4
N5555 Z5.
N5560 X309.873 Y35.395
N5565 Z3.091 F1800.
N5570 X309.896 Y35.423 Z2.886 F2700.
N5575 X309.959 Y35.506 Z2.705
N5580 X310.046 Y35.64 Z2.571
N5585 X310.095 Y35.725 Z2.536
N5590 X310.139 Y35.812 Z2.5
N5595 G3 X306.527 Y37.53 Z1.392 I-1.806 J0.859
N5600 X310.139 Y35.812 Z0.284 I1.806 J-0.859
N5605 X306.527 Y37.53 Z-0.824 I-1.806 J0.859
N5610 X310.139 Y35.812 Z-1.932 I1.806 J-0.859
N5615 X306.527 Y37.53 Z-3.039 I-1.806 J0.859
N5620 X308.333 Y34.671 Z-3.75 I1.806 J-0.859
N5625 G1 X310.333
N5630 Y38.671
N5635 X306.333
N5640 Y34.671
N5645 X308.333
N5650 X310.333 Z-4.103
N5655 Y38.671 Z-4.808
N5660 X306.333 Z-5.513
N5665 Y34.671 Z-6.219
N5670 X310.333 Z-6.924
N5675 Y37.938 Z-7.5
N5680 Y38.671
N5685 X306.333
N5690 Y34.671
N5695 X310.333
N5700 Y37.938
N5705 Y38.671 Z-7.629
N5710 X306.333 Z-8.335
N5715 Y34.671 Z-9.04
N5720 X310.333 Z-9.745
N5725 Y38.671 Z-10.45
N5730 X306.333 Z-11.156
N5735 Y38.136 Z-11.25
N5740 Y34.671
N5745 X310.333
N5750 Y37.938
N5755 Y38.671
N5760 X306.333
N5765 Y38.136
N5770 Y34.671 Z-11.861
N5775 X310.333 Z-12.566
N5780 Y38.671 Z-13.272
N5785 X306.333 Z-13.977
N5790 Y34.671 Z-14.682
N5795 X308.135 Z-15.
N5800 X310.333
N5805 Y38.671
N5810 X306.333
N5815 Y34.671
N5820 X308.135
N5825 X308.227 Y34.678 Z-14.985
N5830 X308.317 Y34.7 Z-14.971
N5835 X308.395 Y34.73 Z-14.928
N5840 X308.468 Y34.772 Z-14.885
N5845 X308.521 Y34.812 Z-14.819
N5850 X308.569 Y34.857 Z-14.753
N5855 X308.623 Y34.923 Z-14.585
N5860 X308.64 Y34.947 Z-14.4
N5865 Z5.
N5870 X342.943 Y38.211
N5875 Z3.091 F1800.
N5880 X342.915 Y38.234 Z2.886 F2700.
N5885 X342.832 Y38.297 Z2.705
N5890 X342.699 Y38.385 Z2.571
N5895 X342.613 Y38.433 Z2.536
N5900 X342.526 Y38.477 Z2.5
N5905 G3 X340.808 Y34.865 Z1.392 I-0.859 J-1.806
N5910 X342.526 Y38.477 Z0.284 I0.859 J1.806
N5915 X340.808 Y34.865 Z-0.824 I-0.859 J-1.806
N5920 X342.526 Y38.477 Z-1.932 I0.859 J1.806
N5925 X340.808 Y34.865 Z-3.039 I-0.859 J-1.806
N5930 X343.667 Y36.671 Z-3.75 I0.859 J1.806
N5935 G1 Y38.671
N5940 X339.667
N5945 Y34.671
N5950 X343.667
N5955 Y36.671
N5960 Y38.671 Z-4.103
N5965 X339.667 Z-4.808
N5970 Y34.671 Z-5.513
N5975 X343.667 Z-6.219
N5980 Y38.671 Z-6.924
N5985 X340.4 Z-7.5
N5990 X339.667
N5995 Y34.671
N6000 X343.667
N6005 Y38.671
N6010 X340.4
N6015 X339.667 Z-7.629
N6020 Y34.671 Z-8.335
N6025 X343.667 Z-9.04
N6030 Y38.671 Z-9.745
N6035 X339.667 Z-10.45
N6040 Y34.671 Z-11.156
N6045 X340.202 Z-11.25
N6050 X343.667
N6055 Y38.671
N6060 X340.4
N6065 X339.667
N6070 Y34.671
N6075 X340.202
N6080 X343.667 Z-11.861
N6085 Y38.671 Z-12.566
N6090 X339.667 Z-13.272
N6095 Y34.671 Z-13.977
N6100 X343.667 Z-14.682
N6105 Y36.473 Z-15.
N6110 Y38.671
N6115 X339.667
N6120 Y34.671
N6125 X343.667
N6130 Y36.473
N6135 X343.66 Y36.565 Z-14.985
N6140 X343.639 Y36.655 Z-14.971
N6145 X343.608 Y36.733 Z-14.928
N6150 X343.566 Y36.806 Z-14.885
N6155 X343.527 Y36.859 Z-14.819
N6160 X343.481 Y36.907 Z-14.753
N6165 X343.415 Y36.961 Z-14.585
N6170 X343.391 Y36.978 Z-14.4
N6175 Z5.
N6180 X376.54 Y35.395
N6185 Z3.091 F1800.
N6190 X376.563 Y35.423 Z2.886 F2700.
N6195 X376.626 Y35.506 Z2.705
N6200 X376.713 Y35.64 Z2.571
N6205 X376.762 Y35.725 Z2.536
N6210 X376.806 Y35.812 Z2.5
N6215 G3 X373.194 Y37.53 Z1.392 I-1.806 J0.859
N6220 X376.806 Y35.812 Z0.284 I1.806 J-0.859
N6225 X373.194 Y37.53 Z-0.824 I-1.806 J0.859
N6230 X376.806 Y35.812 Z-1.932 I1.806 J-0.859
N6235 X373.194 Y37.53 Z-3.039 I-1.806 J0.859
N6240 X375. Y34.671 Z-3.75 I1.806 J-0.859
N6245 G1 X377.
N6250 Y38.671
N6255 X373.
N6260 Y34.671
N6265 X375.
N6270 X377. Z-4.103
N6275 Y38.671 Z-4.808
N6280 X373. Z-5.513
N6285 Y34.671 Z-6.219
N6290 X377. Z-6.924
N6295 Y37.938 Z-7.5
N6300 Y38.671
N6305 X373.
N6310 Y34.671
N6315 X377.
N6320 Y37.938
N6325 Y38.671 Z-7.629
N6330 X373. Z-8.335
N6335 Y34.671 Z-9.04
N6340 X377. Z-9.745
N6345 Y38.671 Z-10.45
N6350 X373. Z-11.156
N6355 Y38.136 Z-11.25
N6360 Y34.671
N6365 X377.
N6370 Y37.938
N6375 Y38.671
N6380 X373.
N6385 Y38.136
N6390 Y34.671 Z-11.861
N6395 X377. Z-12.566
N6400 Y38.671 Z-13.272
N6405 X373. Z-13.977
N6410 Y34.671 Z-14.682
N6415 X374.802 Z-15.
N6420 X377.
N6425 Y38.671
N6430 X373.
N6435 Y34.671
N6440 X374.802
N6445 X374.894 Y34.678 Z-14.985
N6450 X374.984 Y34.7 Z-14.971
N6455 X375.062 Y34.73 Z-14.928
N6460 X375.135 Y34.772 Z-14.885
N6465 X375.188 Y34.812 Z-14.819
N6470 X375.236 Y34.857 Z-14.753
N6475 X375.29 Y34.923 Z-14.585
N6480 X375.307 Y34.947 Z-14.4
N6485 Z5.
N6490 X407.057 Y35.131
N6495 Z3.091 F1800.
N6500 X407.085 Y35.108 Z2.886 F2700.
N6505 X407.168 Y35.045 Z2.705
N6510 X407.301 Y34.958 Z2.571
N6515 X407.387 Y34.909 Z2.536
N6520 X407.474 Y34.865 Z2.5
N6525 G3 X409.533 Y35.071 Z2.116 I0.859 J1.806
N6530 X407.133 Y38.271 Z1.009 I-1.2 J1.6
N6535 X409.533 Y35.071 Z-0.099 I1.2 J-1.6
N6540 X407.133 Y38.271 Z-1.207 I-1.2 J1.6
N6545 X409.533 Y35.071 Z-2.315 I1.2 J-1.6
N6550 X407.133 Y38.271 Z-3.423 I-1.2 J1.6
N6555 X406.333 Y36.671 Z-3.75 I1.2 J-1.6
N6560 G1 Y34.671
N6565 X410.333
N6570 Y38.671
N6575 X406.333
N6580 Y36.671
N6585 Y34.671 Z-4.103
N6590 X410.333 Z-4.808
N6595 Y38.671 Z-5.513
N6600 X406.333 Z-6.219
N6605 Y34.671 Z-6.924
N6610 X409.6 Z-7.5
N6615 X410.333
N6620 Y38.671
N6625 X406.333
N6630 Y36.671
N6635 Y34.671
N6640 X409.6
N6645 X410.333 Z-7.629
N6650 Y38.671 Z-8.335
N6655 X406.333 Z-9.04
N6660 Y34.671 Z-9.745
N6665 X410.333 Z-10.45
N6670 Y38.671 Z-11.156
N6675 X409.798 Z-11.25
N6680 X406.333
N6685 Y34.671
N6690 X409.6
N6695 X410.333
N6700 Y38.671
N6705 X409.798
N6710 X406.333 Z-11.861
N6715 Y34.671 Z-12.566
N6720 X410.333 Z-13.272
N6725 Y38.671 Z-13.977
N6730 X406.333 Z-14.682
N6735 Y36.869 Z-15.
N6740 Y34.671
N6745 X410.333
N6750 Y38.671
N6755 X406.333
N6760 Y36.869
N6765 X406.34 Y36.777 Z-14.985
N6770 X406.361 Y36.687 Z-14.971
N6775 X406.392 Y36.609 Z-14.928
N6780 X406.434 Y36.536 Z-14.885
N6785 X406.473 Y36.483 Z-14.819
N6790 X406.519 Y36.435 Z-14.753
N6795 X406.585 Y36.381 Z-14.585
N6800 X406.609 Y36.364 Z-14.4
N6805 Z5.
N6810 X407.057 Y68.464
N6815 Z3.091 F1800.
N6820 X407.085 Y68.441 Z2.886 F2700.
N6825 X407.168 Y68.379 Z2.705
N6830 X407.301 Y68.291 Z2.571
N6835 X407.387 Y68.243 Z2.536
N6840 X407.474 Y68.198 Z2.5
N6845 G3 X409.192 Y71.81 Z1.392 I0.859 J1.806
N6850 X407.474 Y68.198 Z0.284 I-0.859 J-1.806
N6855 X409.192 Y71.81 Z-0.824 I0.859 J1.806
N6860 X407.474 Y68.198 Z-1.932 I-0.859 J-1.806
N6865 X409.192 Y71.81 Z-3.039 I0.859 J1.806
N6870 X406.333 Y70.004 Z-3.75 I-0.859 J-1.806
N6875 G1 Y68.004
N6880 X410.333
N6885 Y72.004
N6890 X406.333
N6895 Y70.004
N6900 Y68.004 Z-4.103
N6905 X410.333 Z-4.808
N6910 Y72.004 Z-5.513
N6915 X406.333 Z-6.219
N6920 Y68.004 Z-6.924
N6925 X409.6 Z-7.5
N6930 X410.333
N6935 Y72.004
N6940 X406.333
N6945 Y68.004
N6950 X409.6
N6955 X410.333 Z-7.629
N6960 Y72.004 Z-8.335
N6965 X406.333 Z-9.04
N6970 Y68.004 Z-9.745
N6975 X410.333 Z-10.45
N6980 Y72.004 Z-11.156
N6985 X409.798 Z-11.25
N6990 X406.333
N6995 Y68.004
N7000 X409.6
N7005 X410.333
N7010 Y72.004
N7015 X409.798
N7020 X406.333 Z-11.861
N7025 Y68.004 Z-12.566
N7030 X410.333 Z-13.272
N7035 Y72.004 Z-13.977
N7040 X406.333 Z-14.682
N7045 Y70.202 Z-15.
N7050 Y68.004
N7055 X410.333
N7060 Y72.004
N7065 X406.333
N7070 Y70.202
N7075 X406.34 Y70.11 Z-14.985
N7080 X406.361 Y70.02 Z-14.971
N7085 X406.392 Y69.942 Z-14.928
N7090 X406.434 Y69.87 Z-14.885
N7095 X406.473 Y69.817 Z-14.819
N7100 X406.519 Y69.768 Z-14.753
N7105 X406.585 Y69.714 Z-14.585
N7110 X406.609 Y69.698 Z-14.4
N7115 Z5.
N7120 X376.276 Y71.544
N7125 Z3.091 F1800.
N7130 X376.248 Y71.567 Z2.886 F2700.
N7135 X376.165 Y71.63 Z2.705
N7140 X376.032 Y71.718 Z2.571
N7145 X375.946 Y71.766 Z2.536
N7150 X375.859 Y71.81 Z2.5
N7155 G3 X374.141 Y68.198 Z1.392 I-0.859 J-1.806
N7160 X375.859 Y71.81 Z0.284 I0.859 J1.806
N7165 X374.141 Y68.198 Z-0.824 I-0.859 J-1.806
N7170 X375.859 Y71.81 Z-1.932 I0.859 J1.806
N7175 X374.141 Y68.198 Z-3.039 I-0.859 J-1.806
N7180 X377. Y70.004 Z-3.75 I0.859 J1.806
N7185 G1 Y72.004
N7190 X373.
N7195 Y68.004
N7200 X377.
N7205 Y70.004
N7210 Y72.004 Z-4.103
N7215 X373. Z-4.808
N7220 Y68.004 Z-5.513
N7225 X377. Z-6.219
N7230 Y72.004 Z-6.924
N7235 X373.733 Z-7.5
N7240 X373.
N7245 Y68.004
N7250 X377.
N7255 Y72.004
N7260 X373.733
N7265 X373. Z-7.629
N7270 Y68.004 Z-8.335
N7275 X377. Z-9.04
N7280 Y72.004 Z-9.745
N7285 X373. Z-10.45
N7290 Y68.004 Z-11.156
N7295 X373.535 Z-11.25
N7300 X377.
N7305 Y72.004
N7310 X373.733
N7315 X373.
N7320 Y68.004
N7325 X373.535
N7330 X377. Z-11.861
N7335 Y72.004 Z-12.566
N7340 X373. Z-13.272
N7345 Y68.004 Z-13.977
N7350 X377. Z-14.682
N7355 Y69.806 Z-15.
N7360 Y72.004
N7365 X373.
N7370 Y68.004
N7375 X377.
N7380 Y69.806
N7385 X376.993 Y69.899 Z-14.985
N7390 X376.972 Y69.989 Z-14.971
N7395 X376.941 Y70.066 Z-14.928
N7400 X376.899 Y70.139 Z-14.885
N7405 X376.86 Y70.192 Z-14.819
N7410 X376.814 Y70.24 Z-14.753
N7415 X376.749 Y70.295 Z-14.585
N7420 X376.724 Y70.311 Z-14.4
N7425 Z5.
N7430 X376.54 Y102.062
N7435 Z3.091 F1800.
N7440 X376.563 Y102.09 Z2.886 F2700.
N7445 X376.626 Y102.173 Z2.705
N7450 X376.713 Y102.306 Z2.571
N7455 X376.762 Y102.391 Z2.536
N7460 X376.806 Y102.479 Z2.5
N7465 G3 X373.194 Y104.197 Z1.392 I-1.806 J0.859
N7470 X376.806 Y102.479 Z0.284 I1.806 J-0.859
N7475 X373.194 Y104.197 Z-0.824 I-1.806 J0.859
N7480 X376.806 Y102.479 Z-1.932 I1.806 J-0.859
N7485 X373.194 Y104.197 Z-3.039 I-1.806 J0.859
N7490 X375. Y101.338 Z-3.75 I1.806 J-0.859
N7495 G1 X377.
N7500 Y105.338
N7505 X373.
N7510 Y101.338
N7515 X375.
N7520 X377. Z-4.103
N7525 Y105.338 Z-4.808
N7530 X373. Z-5.513
N7535 Y101.338 Z-6.219
N7540 X377. Z-6.924
N7545 Y104.605 Z-7.5
N7550 Y105.338
N7555 X373.
N7560 Y101.338
N7565 X377.
N7570 Y104.605
N7575 Y105.338 Z-7.629
N7580 X373. Z-8.335
N7585 Y101.338 Z-9.04
N7590 X377. Z-9.745
N7595 Y105.338 Z-10.451
N7600 X373. Z-11.156
N7605 Y104.804 Z-11.25
N7610 Y101.338
N7615 X377.
N7620 Y104.605
N7625 Y105.338
N7630 X373.
N7635 Y104.804
N7640 Y101.338 Z-11.861
N7645 X377. Z-12.567
N7650 Y105.338 Z-13.272
N7655 X373. Z-13.977
N7660 Y101.338 Z-14.683
N7665 X374.8 Z-15.
N7670 X377.
N7675 Y105.338
N7680 X373.
N7685 Y101.338
N7690 X374.8
N7695 X374.893 Y101.345 Z-14.985
N7700 X374.983 Y101.366 Z-14.971
N7705 X375.06 Y101.397 Z-14.928
N7710 X375.133 Y101.438 Z-14.885
N7715 X375.186 Y101.478 Z-14.819
N7720 X375.234 Y101.524 Z-14.753
N7725 X375.289 Y101.589 Z-14.585
N7730 X375.305 Y101.614 Z-14.4
N7735 Z5.
N7740 X409.873 Y102.062
N7745 Z3.091 F1800.
N7750 X409.896 Y102.09 Z2.886 F2700.
N7755 X409.959 Y102.173 Z2.705
N7760 X410.046 Y102.306 Z2.571
N7765 X410.095 Y102.391 Z2.536
N7770 X410.139 Y102.479 Z2.5
N7775 G3 X406.527 Y104.197 Z1.392 I-1.806 J0.859
N7780 X410.139 Y102.479 Z0.284 I1.806 J-0.859
N7785 X406.527 Y104.197 Z-0.824 I-1.806 J0.859
N7790 X410.139 Y102.479 Z-1.932 I1.806 J-0.859
N7795 X406.527 Y104.197 Z-3.039 I-1.806 J0.859
N7800 X408.333 Y101.338 Z-3.75 I1.806 J-0.859
N7805 G1 X410.333
N7810 Y105.338
N7815 X406.333
N7820 Y101.338
N7825 X408.333
N7830 X410.333 Z-4.103
N7835 Y105.338 Z-4.808
N7840 X406.333 Z-5.513
N7845 Y101.338 Z-6.219
N7850 X410.333 Z-6.924
N7855 Y104.605 Z-7.5
N7860 Y105.338
N7865 X406.333
N7870 Y101.338
N7875 X410.333
N7880 Y104.605
N7885 Y105.338 Z-7.629
N7890 X406.333 Z-8.335
N7895 Y101.338 Z-9.04
N7900 X410.333 Z-9.745
N7905 Y105.338 Z-10.451
N7910 X406.333 Z-11.156
N7915 Y104.804 Z-11.25
N7920 Y101.338
N7925 X410.333
N7930 Y104.605
N7935 Y105.338
N7940 X406.333
N7945 Y104.804
N7950 Y101.338 Z-11.861
N7955 X410.333 Z-12.567
N7960 Y105.338 Z-13.272
N7965 X406.333 Z-13.977
N7970 Y101.338 Z-14.683
N7975 X408.133 Z-15.
N7980 X410.333
N7985 Y105.338
N7990 X406.333
N7995 Y101.338
N8000 X408.133
N8005 X408.226 Y101.345 Z-14.985
N8010 X408.316 Y101.366 Z-14.971
N8015 X408.393 Y101.397 Z-14.928
N8020 X408.466 Y101.438 Z-14.885
N8025 X408.519 Y101.478 Z-14.819
N8030 X408.567 Y101.524 Z-14.753
N8035 X408.622 Y101.589 Z-14.585
N8040 X408.638 Y101.614 Z-14.4
N8045 Z5.
N8050 X409.873 Y135.395
N8055 Z3.091 F1800.
N8060 X409.896 Y135.423 Z2.886 F2700.
N8065 X409.959 Y135.506 Z2.705
N8070 X410.046 Y135.639 Z2.571
N8075 X410.095 Y135.725 Z2.536
N8080 X410.139 Y135.812 Z2.5
N8085 G3 X406.527 Y137.53 Z1.392 I-1.806 J0.859
N8090 X410.139 Y135.812 Z0.284 I1.806 J-0.859
N8095 X406.527 Y137.53 Z-0.824 I-1.806 J0.859
N8100 X410.139 Y135.812 Z-1.932 I1.806 J-0.859
N8105 X406.527 Y137.53 Z-3.039 I-1.806 J0.859
N8110 X408.333 Y134.671 Z-3.75 I1.806 J-0.859
N8115 G1 X410.333
N8120 Y138.671
N8125 X406.333
N8130 Y134.671
N8135 X408.333
N8140 X410.333 Z-4.103
N8145 Y138.671 Z-4.808
N8150 X406.333 Z-5.513
N8155 Y134.671 Z-6.219
N8160 X410.333 Z-6.924
N8165 Y137.938 Z-7.5
N8170 Y138.671
N8175 X406.333
N8180 Y134.671
N8185 X410.333
N8190 Y137.938
N8195 Y138.671 Z-7.629
N8200 X406.333 Z-8.335
N8205 Y134.671 Z-9.04
N8210 X410.333 Z-9.745
N8215 Y138.671 Z-10.45
N8220 X406.333 Z-11.156
N8225 Y138.136 Z-11.25
N8230 Y134.671
N8235 X410.333
N8240 Y137.938
N8245 Y138.671
N8250 X406.333
N8255 Y138.136
N8260 Y134.671 Z-11.861
N8265 X410.333 Z-12.566
N8270 Y138.671 Z-13.272
N8275 X406.333 Z-13.977
N8280 Y134.671 Z-14.682
N8285 X408.135 Z-15.
N8290 X410.333
N8295 Y138.671
N8300 X406.333
N8305 Y134.671
N8310 X408.135
N8315 X408.227 Y134.678 Z-14.985
N8320 X408.317 Y134.699 Z-14.971
N8325 X408.395 Y134.73 Z-14.928
N8330 X408.468 Y134.772 Z-14.885
N8335 X408.521 Y134.811 Z-14.819
N8340 X408.569 Y134.857 Z-14.753
N8345 X408.623 Y134.923 Z-14.585
N8350 X408.64 Y134.947 Z-14.4
N8355 Z5.
N8360 X376.276 Y138.211
N8365 Z3.091 F1800.
N8370 X376.248 Y138.234 Z2.886 F2700.
N8375 X376.165 Y138.297 Z2.705
N8380 X376.032 Y138.384 Z2.571
N8385 X375.946 Y138.433 Z2.536
N8390 X375.859 Y138.477 Z2.5
N8395 G3 X374.141 Y134.865 Z1.392 I-0.859 J-1.806
N8400 X375.859 Y138.477 Z0.284 I0.859 J1.806
N8405 X374.141 Y134.865 Z-0.824 I-0.859 J-1.806
N8410 X375.859 Y138.477 Z-1.932 I0.859 J1.806
N8415 X374.141 Y134.865 Z-3.039 I-0.859 J-1.806
N8420 X377. Y136.671 Z-3.75 I0.859 J1.806
N8425 G1 Y138.671
N8430 X373.
N8435 Y134.671
N8440 X377.
N8445 Y136.671
N8450 Y138.671 Z-4.103
N8455 X373. Z-4.808
N8460 Y134.671 Z-5.513
N8465 X377. Z-6.219
N8470 Y138.671 Z-6.924
N8475 X373.733 Z-7.5
N8480 X373.
N8485 Y134.671
N8490 X377.
N8495 Y138.671
N8500 X373.733
N8505 X373. Z-7.629
N8510 Y134.671 Z-8.335
N8515 X377. Z-9.04
N8520 Y138.671 Z-9.745
N8525 X373. Z-10.45
N8530 Y134.671 Z-11.156
N8535 X373.535 Z-11.25
N8540 X377.
N8545 Y138.671
N8550 X373.733
N8555 X373.
N8560 Y134.671
N8565 X373.535
N8570 X377. Z-11.861
N8575 Y138.671 Z-12.566
N8580 X373. Z-13.272
N8585 Y134.671 Z-13.977
N8590 X377. Z-14.682
N8595 Y136.473 Z-15.
N8600 Y138.671
N8605 X373.
N8610 Y134.671
N8615 X377.
N8620 Y136.473
N8625 X376.993 Y136.565 Z-14.985
N8630 X376.972 Y136.655 Z-14.971
N8635 X376.941 Y136.733 Z-14.928
N8640 X376.899 Y136.806 Z-14.885
N8645 X376.86 Y136.859 Z-14.819
N8650 X376.814 Y136.907 Z-14.753
N8655 X376.749 Y136.961 Z-14.585
N8660 X376.724 Y136.978 Z-14.4
N8665 Z5.
N8670 X376.54 Y168.728
N8675 Z3.091 F1800.
N8680 X376.563 Y168.756 Z2.886 F2700.
N8685 X376.626 Y168.839 Z2.705
N8690 X376.713 Y168.972 Z2.571
N8695 X376.762 Y169.058 Z2.536
N8700 X376.806 Y169.145 Z2.5
N8705 G3 X373.194 Y170.863 Z1.392 I-1.806 J0.859
N8710 X376.806 Y169.145 Z0.284 I1.806 J-0.859
N8715 X373.194 Y170.863 Z-0.824 I-1.806 J0.859
N8720 X376.806 Y169.145 Z-1.932 I1.806 J-0.859
N8725 X373.194 Y170.863 Z-3.039 I-1.806 J0.859
N8730 X375. Y168.004 Z-3.75 I1.806 J-0.859
N8735 G1 X377.
N8740 Y172.004
N8745 X373.
N8750 Y168.004
N8755 X375.
N8760 X377. Z-4.103
N8765 Y172.004 Z-4.808
N8770 X373. Z-5.513
N8775 Y168.004 Z-6.219
N8780 X377. Z-6.924
N8785 Y171.271 Z-7.5
N8790 Y172.004
N8795 X373.
N8800 Y168.004
N8805 X377.
N8810 Y171.271
N8815 Y172.004 Z-7.629
N8820 X373. Z-8.335
N8825 Y168.004 Z-9.04
N8830 X377. Z-9.745
N8835 Y172.004 Z-10.45
N8840 X373. Z-11.156
N8845 Y171.469 Z-11.25
N8850 Y168.004
N8855 X377.
N8860 Y171.271
N8865 Y172.004
N8870 X373.
N8875 Y171.469
N8880 Y168.004 Z-11.861
N8885 X377. Z-12.566
N8890 Y172.004 Z-13.272
N8895 X373. Z-13.977
N8900 Y168.004 Z-14.682
N8905 X374.802 Z-15.
N8910 X377.
N8915 Y172.004
N8920 X373.
N8925 Y168.004
N8930 X374.802
N8935 X374.894 Y168.011 Z-14.985
N8940 X374.984 Y168.032 Z-14.971
N8945 X375.062 Y168.063 Z-14.928
N8950 X375.135 Y168.105 Z-14.885
N8955 X375.188 Y168.144 Z-14.819
N8960 X375.236 Y168.19 Z-14.753
N8965 X375.29 Y168.256 Z-14.585
N8970 X375.307 Y168.28 Z-14.4
N8975 Z5.
N8980 X406.793 Y171.28
N8985 Z3.091 F1800.
N8990 X406.77 Y171.252 Z2.886 F2700.
N8995 X406.707 Y171.169 Z2.705
N9000 X406.62 Y171.036 Z2.571
N9005 X406.571 Y170.95 Z2.536
N9010 X406.527 Y170.863 Z2.5
N9015 G3 X410.139 Y169.145 Z1.392 I1.806 J-0.859
N9020 X406.527 Y170.863 Z0.284 I-1.806 J0.859
N9025 X410.139 Y169.145 Z-0.824 I1.806 J-0.859
N9030 X406.527 Y170.863 Z-1.932 I-1.806 J0.859
N9035 X410.139 Y169.145 Z-3.039 I1.806 J-0.859
N9040 X408.333 Y172.004 Z-3.75 I-1.806 J0.859
N9045 G1 X406.333
N9050 Y168.004
N9055 X410.333
N9060 Y172.004
N9065 X408.333
N9070 X406.333 Z-4.103
N9075 Y168.004 Z-4.808
N9080 X410.333 Z-5.513
N9085 Y172.004 Z-6.219
N9090 X406.333 Z-6.924
N9095 Y168.737 Z-7.5
N9100 Y168.004
N9105 X410.333
N9110 Y172.004
N9115 X406.333
N9120 Y168.737
N9125 Y168.004 Z-7.629
N9130 X410.333 Z-8.335
N9135 Y172.004 Z-9.04
N9140 X406.333 Z-9.745
N9145 Y168.004 Z-10.45
N9150 X410.333 Z-11.156
N9155 Y168.539 Z-11.25
N9160 Y172.004
N9165 X406.333
N9170 Y168.737
N9175 Y168.004
N9180 X410.333
N9185 Y168.539
N9190 Y172.004 Z-11.861
N9195 X406.333 Z-12.566
N9200 Y168.004 Z-13.272
N9205 X410.333 Z-13.977
N9210 Y172.004 Z-14.682
N9215 X408.531 Z-15.
N9220 X406.333
N9225 Y168.004
N9230 X410.333
N9235 Y172.004
N9240 X408.531
N9245 X408.439 Y171.997 Z-14.985
N9250 X408.349 Y171.976 Z-14.971
N9255 X408.271 Y171.945 Z-14.928
N9260 X408.198 Y171.903 Z-14.885
N9265 X408.145 Y171.864 Z-14.819
N9270 X408.097 Y171.818 Z-14.753
N9275 X408.043 Y171.752 Z-14.585
N9280 X408.026 Y171.728 Z-14.4
N9285 Z5.
N9290 X407.057 Y201.798
N9295 Z3.091 F1800.
N9300 X407.085 Y201.775 Z2.886 F2700.
N9305 X407.168 Y201.712 Z2.705
N9310 X407.301 Y201.625 Z2.571
N9315 X407.387 Y201.576 Z2.536
N9320 X407.474 Y201.532 Z2.5
N9325 G3 X409.192 Y205.144 Z1.392 I0.859 J1.806
N9330 X407.474 Y201.532 Z0.284 I-0.859 J-1.806
N9335 X409.192 Y205.144 Z-0.824 I0.859 J1.806
N9340 X407.474 Y201.532 Z-1.932 I-0.859 J-1.806
N9345 X409.192 Y205.144 Z-3.039 I0.859 J1.806
N9350 X406.333 Y203.338 Z-3.75 I-0.859 J-1.806
N9355 G1 Y201.338
N9360 X410.333
N9365 Y205.338
N9370 X406.333
N9375 Y203.338
N9380 Y201.338 Z-4.103
N9385 X410.333 Z-4.808
N9390 Y205.338 Z-5.513
N9395 X406.333 Z-6.219
N9400 Y201.338 Z-6.924
N9405 X409.6 Z-7.5
N9410 X410.333
N9415 Y205.338
N9420 X406.333
N9425 Y201.338
N9430 X409.6
N9435 X410.333 Z-7.629
N9440 Y205.338 Z-8.335
N9445 X406.333 Z-9.04
N9450 Y201.338 Z-9.745
N9455 X410.333 Z-10.45
N9460 Y205.338 Z-11.156
N9465 X409.798 Z-11.25
N9470 X406.333
N9475 Y201.338
N9480 X409.6
N9485 X410.333
N9490 Y205.338
N9495 X409.798
N9500 X406.333 Z-11.861
N9505 Y201.338 Z-12.566
N9510 X410.333 Z-13.272
N9515 Y205.338 Z-13.977
N9520 X406.333 Z-14.682
N9525 Y203.536 Z-15.
N9530 Y201.338
N9535 X410.333
N9540 Y205.338
N9545 X406.333
N9550 Y203.536
N9555 X406.34 Y203.444 Z-14.985
N9560 X406.361 Y203.354 Z-14.971
N9565 X406.392 Y203.276 Z-14.928
N9570 X406.434 Y203.203 Z-14.885
N9575 X406.473 Y203.15 Z-14.819
N9580 X406.519 Y203.102 Z-14.753
N9585 X406.585 Y203.048 Z-14.585
N9590 X406.609 Y203.031 Z-14.4
N9595 Z5.
N9600 X376.276 Y204.878
N9605 Z3.091 F1800.
N9610 X376.248 Y204.901 Z2.886 F2700.
N9615 X376.165 Y204.964 Z2.705
N9620 X376.032 Y205.051 Z2.571
N9625 X375.946 Y205.1 Z2.536
N9630 X375.859 Y205.144 Z2.5
N9635 G3 X374.141 Y201.532 Z1.392 I-0.859 J-1.806
N9640 X375.859 Y205.144 Z0.284 I0.859 J1.806
N9645 X374.141 Y201.532 Z-0.824 I-0.859 J-1.806
N9650 X375.859 Y205.144 Z-1.932 I0.859 J1.806
N9655 X374.141 Y201.532 Z-3.039 I-0.859 J-1.806
N9660 X377. Y203.338 Z-3.75 I0.859 J1.806
N9665 G1 Y205.338
N9670 X373.
N9675 Y201.338
N9680 X377.
N9685 Y203.338
N9690 Y205.338 Z-4.103
N9695 X373. Z-4.808
N9700 Y201.338 Z-5.513
N9705 X377. Z-6.219
N9710 Y205.338 Z-6.924
N9715 X373.733 Z-7.5
N9720 X373.
N9725 Y201.338
N9730 X377.
N9735 Y205.338
N9740 X373.733
N9745 X373. Z-7.629
N9750 Y201.338 Z-8.335
N9755 X377. Z-9.04
N9760 Y205.338 Z-9.745
N9765 X373. Z-10.45
N9770 Y201.338 Z-11.156
N9775 X373.535 Z-11.25
N9780 X377.
N9785 Y205.338
N9790 X373.733
N9795 X373.
N9800 Y201.338
N9805 X373.535
N9810 X377. Z-11.861
N9815 Y205.338 Z-12.566
N9820 X373. Z-13.272
N9825 Y201.338 Z-13.977
N9830 X377. Z-14.682
N9835 Y203.14 Z-15.
N9840 Y205.338
N9845 X373.
N9850 Y201.338
N9855 X377.
N9860 Y203.14
N9865 X376.993 Y203.232 Z-14.985
N9870 X376.972 Y203.322 Z-14.971
N9875 X376.941 Y203.4 Z-14.928
N9880 X376.899 Y203.473 Z-14.885
N9885 X376.86 Y203.526 Z-14.819
N9890 X376.814 Y203.574 Z-14.753
N9895 X376.749 Y203.628 Z-14.585
N9900 X376.724 Y203.645 Z-14.4
N9905 Z5.
N9910 X340.391 Y201.798
N9915 Z3.091 F1800.
N9920 X340.419 Y201.775 Z2.886 F2700.
N9925 X340.502 Y201.712 Z2.705
N9930 X340.635 Y201.625 Z2.571
N9935 X340.721 Y201.576 Z2.536
N9940 X340.808 Y201.532 Z2.5
N9945 G3 X342.526 Y205.144 Z1.392 I0.859 J1.806
N9950 X340.808 Y201.532 Z0.284 I-0.859 J-1.806
N9955 X342.526 Y205.144 Z-0.824 I0.859 J1.806
N9960 X340.808 Y201.532 Z-1.932 I-0.859 J-1.806
N9965 X342.526 Y205.144 Z-3.039 I0.859 J1.806
N9970 X339.667 Y203.338 Z-3.75 I-0.859 J-1.806
N9975 G1 Y201.338
N9980 X343.667
N9985 Y205.338
N9990 X339.667
N9995 Y203.338
N10000 Y201.338 Z-4.103
N10005 X343.667 Z-4.808
N10010 Y205.338 Z-5.513
N10015 X339.667 Z-6.219
N10020 Y201.338 Z-6.924
N10025 X342.934 Z-7.5
N10030 X343.667
N10035 Y205.338
N10040 X339.667
N10045 Y201.338
N10050 X342.934
N10055 X343.667 Z-7.629
N10060 Y205.338 Z-8.335
N10065 X339.667 Z-9.04
N10070 Y201.338 Z-9.745
N10075 X343.667 Z-10.45
N10080 Y205.338 Z-11.156
N10085 X343.132 Z-11.25
N10090 X339.667
N10095 Y201.338
N10100 X342.934
N10105 X343.667
N10110 Y205.338
N10115 X343.132
N10120 X339.667 Z-11.861
N10125 Y201.338 Z-12.566
N10130 X343.667 Z-13.272
N10135 Y205.338 Z-13.977
N10140 X339.667 Z-14.682
N10145 Y203.536 Z-15.
N10150 Y201.338
N10155 X343.667
N10160 Y205.338
N10165 X339.667
N10170 Y203.536
N10175 X339.674 Y203.444 Z-14.985
N10180 X339.695 Y203.354 Z-14.971
N10185 X339.726 Y203.276 Z-14.928
N10190 X339.768 Y203.203 Z-14.885
N10195 X339.807 Y203.15 Z-14.819
N10200 X339.853 Y203.102 Z-14.753
N10205 X339.919 Y203.048 Z-14.585
N10210 X339.943 Y203.031 Z-14.4
N10215 Z5.
N10220 X309.609 Y204.878
N10225 Z3.091 F1800.
N10230 X309.581 Y204.901 Z2.886 F2700.
N10235 X309.498 Y204.964 Z2.705
N10240 X309.365 Y205.051 Z2.571
N10245 X309.279 Y205.1 Z2.536
N10250 X309.192 Y205.144 Z2.5
N10255 G3 X307.474 Y201.532 Z1.392 I-0.859 J-1.806
N10260 X309.192 Y205.144 Z0.284 I0.859 J1.806
N10265 X307.474 Y201.532 Z-0.824 I-0.859 J-1.806
N10270 X309.192 Y205.144 Z-1.932 I0.859 J1.806
N10275 X307.474 Y201.532 Z-3.039 I-0.859 J-1.806
N10280 X310.333 Y203.338 Z-3.75 I0.859 J1.806
N10285 G1 Y205.338
N10290 X306.333
N10295 Y201.338
N10300 X310.333
N10305 Y203.338
N10310 Y205.338 Z-4.103
N10315 X306.333 Z-4.808
N10320 Y201.338 Z-5.513
N10325 X310.333 Z-6.219
N10330 Y205.338 Z-6.924
N10335 X307.066 Z-7.5
N10340 X306.333
N10345 Y201.338
N10350 X310.333
N10355 Y205.338
N10360 X307.066
N10365 X306.333 Z-7.629
N10370 Y201.338 Z-8.335
N10375 X310.333 Z-9.04
N10380 Y205.338 Z-9.745
N10385 X306.333 Z-10.45
N10390 Y201.338 Z-11.156
N10395 X306.868 Z-11.25
N10400 X310.333
N10405 Y205.338
N10410 X307.066
N10415 X306.333
N10420 Y201.338
N10425 X306.868
N10430 X310.333 Z-11.861
N10435 Y205.338 Z-12.566
N10440 X306.333 Z-13.272
N10445 Y201.338 Z-13.977
N10450 X310.333 Z-14.682
N10455 Y203.14 Z-15.
N10460 Y205.338
N10465 X306.333
N10470 Y201.338
N10475 X310.333
N10480 Y203.14
N10485 X310.326 Y203.232 Z-14.985
N10490 X310.305 Y203.322 Z-14.971
N10495 X310.274 Y203.4 Z-14.928
N10500 X310.232 Y203.473 Z-14.885
N10505 X310.193 Y203.526 Z-14.819
N10510 X310.147 Y203.574 Z-14.753
N10515 X310.081 Y203.628 Z-14.585
N10520 X310.057 Y203.645 Z-14.4
N10525 Z5.
N10530 X306.793 Y171.28
N10535 Z3.091 F1800.
N10540 X306.77 Y171.252 Z2.886 F2700.
N10545 X306.707 Y171.169 Z2.705
N10550 X306.62 Y171.036 Z2.571
N10555 X306.571 Y170.95 Z2.536
N10560 X306.527 Y170.863 Z2.5
N10565 G3 X310.139 Y169.145 Z1.392 I1.806 J-0.859
N10570 X306.527 Y170.863 Z0.284 I-1.806 J0.859
N10575 X310.139 Y169.145 Z-0.824 I1.806 J-0.859
N10580 X306.527 Y170.863 Z-1.932 I-1.806 J0.859
N10585 X310.139 Y169.145 Z-3.039 I1.806 J-0.859
N10590 X308.333 Y172.004 Z-3.75 I-1.806 J0.859
N10595 G1 X306.333
N10600 Y168.004
N10605 X310.333
N10610 Y172.004
N10615 X308.333
N10620 X306.333 Z-4.103
N10625 Y168.004 Z-4.808
N10630 X310.333 Z-5.513
N10635 Y172.004 Z-6.219
N10640 X306.333 Z-6.924
N10645 Y168.737 Z-7.5
N10650 Y168.004
N10655 X310.333
N10660 Y172.004
N10665 X306.333
N10670 Y168.737
N10675 Y168.004 Z-7.629
N10680 X310.333 Z-8.335
N10685 Y172.004 Z-9.04
N10690 X306.333 Z-9.745
N10695 Y168.004 Z-10.45
N10700 X310.333 Z-11.156
N10705 Y168.539 Z-11.25
N10710 Y172.004
N10715 X306.333
N10720 Y168.737
N10725 Y168.004
N10730 X310.333
N10735 Y168.539
N10740 Y172.004 Z-11.861
N10745 X306.333 Z-12.566
N10750 Y168.004 Z-13.272
N10755 X310.333 Z-13.977
N10760 Y172.004 Z-14.682
N10765 X308.531 Z-15.
N10770 X306.333
N10775 Y168.004
N10780 X310.333
N10785 Y172.004
N10790 X308.531
N10795 X308.439 Y171.997 Z-14.985
N10800 X308.349 Y171.976 Z-14.971
N10805 X308.271 Y171.945 Z-14.928
N10810 X308.198 Y171.903 Z-14.885
N10815 X308.145 Y171.864 Z-14.819
N10820 X308.097 Y171.818 Z-14.753
N10825 X308.043 Y171.752 Z-14.585
N10830 X308.026 Y171.728 Z-14.4
N10835 Z5.
N10840 X276.276 Y171.544
N10845 Z3.091 F1800.
N10850 X276.248 Y171.567 Z2.886 F2700.
N10855 X276.165 Y171.63 Z2.705
N10860 X276.032 Y171.717 Z2.571
N10865 X275.946 Y171.766 Z2.536
N10870 X275.859 Y171.81 Z2.5
N10875 G3 X274.141 Y168.198 Z1.392 I-0.859 J-1.806
N10880 X275.859 Y171.81 Z0.284 I0.859 J1.806
N10885 X274.141 Y168.198 Z-0.824 I-0.859 J-1.806
N10890 X275.859 Y171.81 Z-1.932 I0.859 J1.806
N10895 X274.141 Y168.198 Z-3.039 I-0.859 J-1.806
N10900 X277. Y170.004 Z-3.75 I0.859 J1.806
N10905 G1 Y172.004
N10910 X273.
N10915 Y168.004
N10920 X277.
N10925 Y170.004
N10930 Y172.004 Z-4.103
N10935 X273. Z-4.808
N10940 Y168.004 Z-5.513
N10945 X277. Z-6.219
N10950 Y172.004 Z-6.924
N10955 X273.733 Z-7.5
N10960 X273.
N10965 Y168.004
N10970 X277.
N10975 Y172.004
N10980 X273.733
N10985 X273. Z-7.629
N10990 Y168.004 Z-8.335
N10995 X277. Z-9.04
N11000 Y172.004 Z-9.745
N11005 X273. Z-10.45
N11010 Y168.004 Z-11.156
N11015 X273.535 Z-11.25
N11020 X277.
N11025 Y172.004
N11030 X273.733
N11035 X273.
N11040 Y168.004
N11045 X273.535
N11050 X277. Z-11.861
N11055 Y172.004 Z-12.566
N11060 X273. Z-13.272
N11065 Y168.004 Z-13.977
N11070 X277. Z-14.682
N11075 Y169.806 Z-15.
N11080 Y172.004
N11085 X273.
N11090 Y168.004
N11095 X277.
N11100 Y169.806
N11105 X276.993 Y169.898 Z-14.985
N11110 X276.972 Y169.988 Z-14.971
N11115 X276.941 Y170.066 Z-14.928
N11120 X276.899 Y170.139 Z-14.885
N11125 X276.86 Y170.192 Z-14.819
N11130 X276.814 Y170.24 Z-14.753
N11135 X276.749 Y170.294 Z-14.585
N11140 X276.724 Y170.311 Z-14.4
N11145 Z5.
N11150 X276.54 Y202.062
N11155 Z3.091 F1800.
N11160 X276.563 Y202.09 Z2.886 F2700.
N11165 X276.626 Y202.173 Z2.705
N11170 X276.713 Y202.306 Z2.571
N11175 X276.762 Y202.392 Z2.536
N11180 X276.806 Y202.479 Z2.5
N11185 G3 X273.194 Y204.197 Z1.392 I-1.806 J0.859
N11190 X276.806 Y202.479 Z0.284 I1.806 J-0.859
N11195 X273.194 Y204.197 Z-0.824 I-1.806 J0.859
N11200 X276.806 Y202.479 Z-1.932 I1.806 J-0.859
N11205 X273.194 Y204.197 Z-3.039 I-1.806 J0.859
N11210 X275. Y201.338 Z-3.75 I1.806 J-0.859
N11215 G1 X277.
N11220 Y205.338
N11225 X273.
N11230 Y201.338
N11235 X275.
N11240 X277. Z-4.103
N11245 Y205.338 Z-4.808
N11250 X273. Z-5.513
N11255 Y201.338 Z-6.219
N11260 X277. Z-6.924
N11265 Y204.605 Z-7.5
N11270 Y205.338
N11275 X273.
N11280 Y201.338
N11285 X277.
N11290 Y204.605
N11295 Y205.338 Z-7.629
N11300 X273. Z-8.335
N11305 Y201.338 Z-9.04
N11310 X277. Z-9.745
N11315 Y205.338 Z-10.45
N11320 X273. Z-11.156
N11325 Y204.803 Z-11.25
N11330 Y201.338
N11335 X277.
N11340 Y204.605
N11345 Y205.338
N11350 X273.
N11355 Y204.803
N11360 Y201.338 Z-11.861
N11365 X277. Z-12.566
N11370 Y205.338 Z-13.272
N11375 X273. Z-13.977
N11380 Y201.338 Z-14.682
N11385 X274.802 Z-15.
N11390 X277.
N11395 Y205.338
N11400 X273.
N11405 Y201.338
N11410 X274.802
N11415 X274.894 Y201.345 Z-14.985
N11420 X274.984 Y201.366 Z-14.971
N11425 X275.062 Y201.397 Z-14.928
N11430 X275.135 Y201.439 Z-14.885
N11435 X275.188 Y201.478 Z-14.819
N11440 X275.236 Y201.524 Z-14.753
N11445 X275.29 Y201.59 Z-14.585
N11450 X275.307 Y201.614 Z-14.4
N11455 Z5.
N11460 X240.391 Y201.798
N11465 Z3.091 F1800.
N11470 X240.419 Y201.775 Z2.886 F2700.
N11475 X240.502 Y201.712 Z2.705
N11480 X240.635 Y201.625 Z2.571
N11485 X240.721 Y201.576 Z2.536
N11490 X240.808 Y201.532 Z2.5
N11495 G3 X242.526 Y205.144 Z1.392 I0.859 J1.806
N11500 X240.808 Y201.532 Z0.284 I-0.859 J-1.806
N11505 X242.526 Y205.144 Z-0.824 I0.859 J1.806
N11510 X240.808 Y201.532 Z-1.932 I-0.859 J-1.806
N11515 X242.526 Y205.144 Z-3.039 I0.859 J1.806
N11520 X239.667 Y203.338 Z-3.75 I-0.859 J-1.806
N11525 G1 Y201.338
N11530 X243.667
N11535 Y205.338
N11540 X239.667
N11545 Y203.338
N11550 Y201.338 Z-4.103
N11555 X243.667 Z-4.808
N11560 Y205.338 Z-5.513
N11565 X239.667 Z-6.219
N11570 Y201.338 Z-6.924
N11575 X242.934 Z-7.5
N11580 X243.667
N11585 Y205.338
N11590 X239.667
N11595 Y201.338
N11600 X242.934
N11605 X243.667 Z-7.629
N11610 Y205.338 Z-8.335
N11615 X239.667 Z-9.04
N11620 Y201.338 Z-9.745
N11625 X243.667 Z-10.45
N11630 Y205.338 Z-11.156
N11635 X243.132 Z-11.25
N11640 X239.667
N11645 Y201.338
N11650 X242.934
N11655 X243.667
N11660 Y205.338
N11665 X243.132
N11670 X239.667 Z-11.861
N11675 Y201.338 Z-12.566
N11680 X243.667 Z-13.272
N11685 Y205.338 Z-13.977
N11690 X239.667 Z-14.682
N11695 Y203.536 Z-15.
N11700 Y201.338
N11705 X243.667
N11710 Y205.338
N11715 X239.667
N11720 Y203.536
N11725 X239.674 Y203.444 Z-14.985
N11730 X239.695 Y203.354 Z-14.971
N11735 X239.726 Y203.276 Z-14.928
N11740 X239.768 Y203.203 Z-14.885
N11745 X239.807 Y203.15 Z-14.819
N11750 X239.853 Y203.102 Z-14.753
N11755 X239.919 Y203.048 Z-14.585
N11760 X239.943 Y203.031 Z-14.4
N11765 Z5.
N11770 X209.609 Y204.878
N11775 Z3.091 F1800.
N11780 X209.581 Y204.901 Z2.886 F2700.
N11785 X209.498 Y204.964 Z2.705
N11790 X209.365 Y205.051 Z2.571
N11795 X209.279 Y205.1 Z2.536
N11800 X209.192 Y205.144 Z2.5
N11805 G3 X207.474 Y201.532 Z1.392 I-0.859 J-1.806
N11810 X209.192 Y205.144 Z0.284 I0.859 J1.806
N11815 X207.474 Y201.532 Z-0.824 I-0.859 J-1.806
N11820 X209.192 Y205.144 Z-1.932 I0.859 J1.806
N11825 X207.474 Y201.532 Z-3.039 I-0.859 J-1.806
N11830 X210.333 Y203.338 Z-3.75 I0.859 J1.806
N11835 G1 Y205.338
N11840 X206.333
N11845 Y201.338
N11850 X210.333
N11855 Y203.338
N11860 Y205.338 Z-4.103
N11865 X206.333 Z-4.808
N11870 Y201.338 Z-5.513
N11875 X210.333 Z-6.219
N11880 Y205.338 Z-6.924
N11885 X207.066 Z-7.5
N11890 X206.333
N11895 Y201.338
N11900 X210.333
N11905 Y205.338
N11910 X207.066
N11915 X206.333 Z-7.629
N11920 Y201.338 Z-8.335
N11925 X210.333 Z-9.04
N11930 Y205.338 Z-9.745
N11935 X206.333 Z-10.45
N11940 Y201.338 Z-11.156
N11945 X206.868 Z-11.25
N11950 X210.333
N11955 Y205.338
N11960 X207.066
N11965 X206.333
N11970 Y201.338
N11975 X206.868
N11980 X210.333 Z-11.861
N11985 Y205.338 Z-12.566
N11990 X206.333 Z-13.272
N11995 Y201.338 Z-13.977
N12000 X210.333 Z-14.682
N12005 Y203.14 Z-15.
N12010 Y205.338
N12015 X206.333
N12020 Y201.338
N12025 X210.333
N12030 Y203.14
N12035 X210.326 Y203.232 Z-14.985
N12040 X210.305 Y203.322 Z-14.971
N12045 X210.274 Y203.4 Z-14.928
N12050 X210.232 Y203.473 Z-14.885
N12055 X210.193 Y203.526 Z-14.819
N12060 X210.147 Y203.574 Z-14.753
N12065 X210.081 Y203.628 Z-14.585
N12070 X210.057 Y203.645 Z-14.4
N12075 Z5.
N12080 X207.057 Y168.464
N12085 Z3.091 F1800.
N12090 X207.085 Y168.441 Z2.886 F2700.
N12095 X207.168 Y168.378 Z2.705
N12100 X207.301 Y168.291 Z2.571
N12105 X207.387 Y168.242 Z2.536
N12110 X207.474 Y168.198 Z2.5
N12115 G3 X209.192 Y171.81 Z1.392 I0.859 J1.806
N12120 X207.474 Y168.198 Z0.284 I-0.859 J-1.806
N12125 X209.192 Y171.81 Z-0.824 I0.859 J1.806
N12130 X207.474 Y168.198 Z-1.932 I-0.859 J-1.806
N12135 X209.192 Y171.81 Z-3.039 I0.859 J1.806
N12140 X206.333 Y170.004 Z-3.75 I-0.859 J-1.806
N12145 G1 Y168.004
N12150 X210.333
N12155 Y172.004
N12160 X206.333
N12165 Y170.004
N12170 Y168.004 Z-4.103
N12175 X210.333 Z-4.808
N12180 Y172.004 Z-5.513
N12185 X206.333 Z-6.219
N12190 Y168.004 Z-6.924
N12195 X209.6 Z-7.5
N12200 X210.333
N12205 Y172.004
N12210 X206.333
N12215 Y168.004
N12220 X209.6
N12225 X210.333 Z-7.629
N12230 Y172.004 Z-8.335
N12235 X206.333 Z-9.04
N12240 Y168.004 Z-9.745
N12245 X210.333 Z-10.45
N12250 Y172.004 Z-11.156
N12255 X209.798 Z-11.25
N12260 X206.333
N12265 Y168.004
N12270 X209.6
N12275 X210.333
N12280 Y172.004
N12285 X209.798
N12290 X206.333 Z-11.861
N12295 Y168.004 Z-12.566
N12300 X210.333 Z-13.272
N12305 Y172.004 Z-13.977
N12310 X206.333 Z-14.682
N12315 Y170.202 Z-15.
N12320 Y168.004
N12325 X210.333
N12330 Y172.004
N12335 X206.333
N12340 Y170.202
N12345 X206.34 Y170.11 Z-14.985
N12350 X206.361 Y170.02 Z-14.971
N12355 X206.392 Y169.942 Z-14.928
N12360 X206.434 Y169.869 Z-14.885
N12365 X206.473 Y169.816 Z-14.819
N12370 X206.519 Y169.768 Z-14.753
N12375 X206.585 Y169.714 Z-14.585
N12380 X206.609 Y169.697 Z-14.4
N12385 Z5.
N12390 X173.724 Y168.464
N12395 Z3.091 F1800.
N12400 X173.752 Y168.441 Z2.886 F2700.
N12405 X173.835 Y168.378 Z2.705
N12410 X173.968 Y168.291 Z2.571
N12415 X174.054 Y168.242 Z2.536
N12420 X174.141 Y168.198 Z2.5
N12425 G3 X175.859 Y171.81 Z1.392 I0.859 J1.806
N12430 X174.141 Y168.198 Z0.284 I-0.859 J-1.806
N12435 X175.859 Y171.81 Z-0.824 I0.859 J1.806
N12440 X174.141 Y168.198 Z-1.932 I-0.859 J-1.806
N12445 X175.859 Y171.81 Z-3.039 I0.859 J1.806
N12450 X173. Y170.004 Z-3.75 I-0.859 J-1.806
N12455 G1 Y168.004
N12460 X177.
N12465 Y172.004
N12470 X173.
N12475 Y170.004
N12480 Y168.004 Z-4.103
N12485 X177. Z-4.808
N12490 Y172.004 Z-5.513
N12495 X173. Z-6.219
N12500 Y168.004 Z-6.924
N12505 X176.267 Z-7.5
N12510 X177.
N12515 Y172.004
N12520 X173.
N12525 Y168.004
N12530 X176.267
N12535 X177. Z-7.629
N12540 Y172.004 Z-8.335
N12545 X173. Z-9.04
N12550 Y168.004 Z-9.745
N12555 X177. Z-10.45
N12560 Y172.004 Z-11.156
N12565 X176.465 Z-11.25
N12570 X173.
N12575 Y168.004
N12580 X176.267
N12585 X177.
N12590 Y172.004
N12595 X176.465
N12600 X173. Z-11.861
N12605 Y168.004 Z-12.566
N12610 X177. Z-13.272
N12615 Y172.004 Z-13.977
N12620 X173. Z-14.682
N12625 Y170.202 Z-15.
N12630 Y168.004
N12635 X177.
N12640 Y172.004
N12645 X173.
N12650 Y170.202
N12655 X173.007 Y170.11 Z-14.985
N12660 X173.028 Y170.02 Z-14.971
N12665 X173.059 Y169.942 Z-14.928
N12670 X173.101 Y169.869 Z-14.885
N12675 X173.14 Y169.816 Z-14.819
N12680 X173.186 Y169.768 Z-14.753
N12685 X173.252 Y169.714 Z-14.585
N12690 X173.276 Y169.697 Z-14.4
N12695 Z5.
N12700 X142.943 Y171.544
N12705 Z3.091 F1800.
N12710 X142.915 Y171.567 Z2.886 F2700.
N12715 X142.832 Y171.63 Z2.705
N12720 X142.699 Y171.717 Z2.571
N12725 X142.613 Y171.766 Z2.536
N12730 X142.526 Y171.81 Z2.5
N12735 G3 X140.808 Y168.198 Z1.392 I-0.859 J-1.806
N12740 X142.526 Y171.81 Z0.284 I0.859 J1.806
N12745 X140.808 Y168.198 Z-0.824 I-0.859 J-1.806
N12750 X142.526 Y171.81 Z-1.932 I0.859 J1.806
N12755 X140.808 Y168.198 Z-3.039 I-0.859 J-1.806
N12760 X143.667 Y170.004 Z-3.75 I0.859 J1.806
N12765 G1 Y172.004
N12770 X139.667
N12775 Y168.004
N12780 X143.667
N12785 Y170.004
N12790 Y172.004 Z-4.103
N12795 X139.667 Z-4.808
N12800 Y168.004 Z-5.513
N12805 X143.667 Z-6.219
N12810 Y172.004 Z-6.924
N12815 X140.4 Z-7.5
N12820 X139.667
N12825 Y168.004
N12830 X143.667
N12835 Y172.004
N12840 X140.4
N12845 X139.667 Z-7.629
N12850 Y168.004 Z-8.335
N12855 X143.667 Z-9.04
N12860 Y172.004 Z-9.745
N12865 X139.667 Z-10.45
N12870 Y168.004 Z-11.156
N12875 X140.202 Z-11.25
N12880 X143.667
N12885 Y172.004
N12890 X140.4
N12895 X139.667
N12900 Y168.004
N12905 X140.202
N12910 X143.667 Z-11.861
N12915 Y172.004 Z-12.566
N12920 X139.667 Z-13.272
N12925 Y168.004 Z-13.977
N12930 X143.667 Z-14.682
N12935 Y169.806 Z-15.
N12940 Y172.004
N12945 X139.667
N12950 Y168.004
N12955 X143.667
N12960 Y169.806
N12965 X143.66 Y169.898 Z-14.985
N12970 X143.639 Y169.988 Z-14.971
N12975 X143.608 Y170.066 Z-14.928
N12980 X143.566 Y170.139 Z-14.885
N12985 X143.527 Y170.192 Z-14.819
N12990 X143.481 Y170.24 Z-14.753
N12995 X143.415 Y170.294 Z-14.585
N13000 X143.391 Y170.311 Z-14.4
N13005 Z5.
N13010 X142.943 Y138.211
N13015 Z3.091 F1800.
N13020 X142.915 Y138.234 Z2.886 F2700.
N13025 X142.832 Y138.297 Z2.705
N13030 X142.699 Y138.384 Z2.571
N13035 X142.613 Y138.433 Z2.536
N13040 X142.526 Y138.477 Z2.5
N13045 G3 X140.808 Y134.865 Z1.392 I-0.859 J-1.806
N13050 X142.526 Y138.477 Z0.284 I0.859 J1.806
N13055 X140.808 Y134.865 Z-0.824 I-0.859 J-1.806
N13060 X142.526 Y138.477 Z-1.932 I0.859 J1.806
N13065 X140.808 Y134.865 Z-3.039 I-0.859 J-1.806
N13070 X143.667 Y136.671 Z-3.75 I0.859 J1.806
N13075 G1 Y138.671
N13080 X139.667
N13085 Y134.671
N13090 X143.667
N13095 Y136.671
N13100 Y138.671 Z-4.103
N13105 X139.667 Z-4.808
N13110 Y134.671 Z-5.513
N13115 X143.667 Z-6.219
N13120 Y138.671 Z-6.924
N13125 X140.4 Z-7.5
N13130 X139.667
N13135 Y134.671
N13140 X143.667
N13145 Y138.671
N13150 X140.4
N13155 X139.667 Z-7.629
N13160 Y134.671 Z-8.335
N13165 X143.667 Z-9.04
N13170 Y138.671 Z-9.745
N13175 X139.667 Z-10.45
N13180 Y134.671 Z-11.156
N13185 X140.202 Z-11.25
N13190 X143.667
N13195 Y138.671
N13200 X140.4
N13205 X139.667
N13210 Y134.671
N13215 X140.202
N13220 X143.667 Z-11.861
N13225 Y138.671 Z-12.566
N13230 X139.667 Z-13.272
N13235 Y134.671 Z-13.977
N13240 X143.667 Z-14.682
N13245 Y136.473 Z-15.
N13250 Y138.671
N13255 X139.667
N13260 Y134.671
N13265 X143.667
N13270 Y136.473
N13275 X143.66 Y136.565 Z-14.985
N13280 X143.639 Y136.655 Z-14.971
N13285 X143.608 Y136.733 Z-14.928
N13290 X143.566 Y136.806 Z-14.885
N13295 X143.527 Y136.859 Z-14.819
N13300 X143.481 Y136.907 Z-14.753
N13305 X143.415 Y136.961 Z-14.585
N13310 X143.391 Y136.978 Z-14.4
N13315 Z5.
N13320 X173.724 Y135.131
N13325 Z3.091 F1800.
N13330 X173.752 Y135.108 Z2.886 F2700.
N13335 X173.835 Y135.045 Z2.705
N13340 X173.968 Y134.958 Z2.571
N13345 X174.054 Y134.909 Z2.536
N13350 X174.141 Y134.865 Z2.5
N13355 G3 X175.859 Y138.477 Z1.392 I0.859 J1.806
N13360 X174.141 Y134.865 Z0.284 I-0.859 J-1.806
N13365 X175.859 Y138.477 Z-0.824 I0.859 J1.806
N13370 X174.141 Y134.865 Z-1.932 I-0.859 J-1.806
N13375 X175.859 Y138.477 Z-3.039 I0.859 J1.806
N13380 X173. Y136.671 Z-3.75 I-0.859 J-1.806
N13385 G1 Y134.671
N13390 X177.
N13395 Y138.671
N13400 X173.
N13405 Y136.671
N13410 Y134.671 Z-4.103
N13415 X177. Z-4.808
N13420 Y138.671 Z-5.513
N13425 X173. Z-6.219
N13430 Y134.671 Z-6.924
N13435 X176.267 Z-7.5
N13440 X177.
N13445 Y138.671
N13450 X173.
N13455 Y134.671
N13460 X176.267
N13465 X177. Z-7.629
N13470 Y138.671 Z-8.335
N13475 X173. Z-9.04
N13480 Y134.671 Z-9.745
N13485 X177. Z-10.45
N13490 Y138.671 Z-11.156
N13495 X176.465 Z-11.25
N13500 X173.
N13505 Y134.671
N13510 X176.267
N13515 X177.
N13520 Y138.671
N13525 X176.465
N13530 X173. Z-11.861
N13535 Y134.671 Z-12.566
N13540 X177. Z-13.272
N13545 Y138.671 Z-13.977
N13550 X173. Z-14.682
N13555 Y136.869 Z-15.
N13560 Y134.671
N13565 X177.
N13570 Y138.671
N13575 X173.
N13580 Y136.869
N13585 X173.007 Y136.777 Z-14.985
N13590 X173.028 Y136.687 Z-14.971
N13595 X173.059 Y136.609 Z-14.928
N13600 X173.101 Y136.536 Z-14.885
N13605 X173.14 Y136.483 Z-14.819
N13610 X173.186 Y136.435 Z-14.753
N13615 X173.252 Y136.381 Z-14.585
N13620 X173.276 Y136.364 Z-14.4
N13625 Z5.
N13630 X207.057 Y135.131
N13635 Z3.091 F1800.
N13640 X207.085 Y135.108 Z2.886 F2700.
N13645 X207.168 Y135.045 Z2.705
N13650 X207.301 Y134.958 Z2.571
N13655 X207.387 Y134.909 Z2.536
N13660 X207.474 Y134.865 Z2.5
N13665 G3 X209.192 Y138.477 Z1.392 I0.859 J1.806
N13670 X207.474 Y134.865 Z0.284 I-0.859 J-1.806
N13675 X209.192 Y138.477 Z-0.824 I0.859 J1.806
N13680 X207.474 Y134.865 Z-1.932 I-0.859 J-1.806
N13685 X209.192 Y138.477 Z-3.039 I0.859 J1.806
N13690 X206.333 Y136.671 Z-3.75 I-0.859 J-1.806
N13695 G1 Y134.671
N13700 X210.333
N13705 Y138.671
N13710 X206.333
N13715 Y136.671
N13720 Y134.671 Z-4.103
N13725 X210.333 Z-4.808
N13730 Y138.671 Z-5.513
N13735 X206.333 Z-6.219
N13740 Y134.671 Z-6.924
N13745 X209.6 Z-7.5
N13750 X210.333
N13755 Y138.671
N13760 X206.333
N13765 Y134.671
N13770 X209.6
N13775 X210.333 Z-7.629
N13780 Y138.671 Z-8.335
N13785 X206.333 Z-9.04
N13790 Y134.671 Z-9.745
N13795 X210.333 Z-10.45
N13800 Y138.671 Z-11.156
N13805 X209.798 Z-11.25
N13810 X206.333
N13815 Y134.671
N13820 X209.6
N13825 X210.333
N13830 Y138.671
N13835 X209.798
N13840 X206.333 Z-11.861
N13845 Y134.671 Z-12.566
N13850 X210.333 Z-13.272
N13855 Y138.671 Z-13.977
N13860 X206.333 Z-14.682
N13865 Y136.869 Z-15.
N13870 Y134.671
N13875 X210.333
N13880 Y138.671
N13885 X206.333
N13890 Y136.869
N13895 X206.34 Y136.777 Z-14.985
N13900 X206.361 Y136.687 Z-14.971
N13905 X206.392 Y136.609 Z-14.928
N13910 X206.434 Y136.536 Z-14.885
N13915 X206.473 Y136.483 Z-14.819
N13920 X206.519 Y136.435 Z-14.753
N13925 X206.585 Y136.381 Z-14.585
N13930 X206.609 Y136.364 Z-14.4
N13935 Z5.
N13940 X206.793 Y104.614
N13945 Z3.091 F1800.
N13950 X206.77 Y104.586 Z2.886 F2700.
N13955 X206.707 Y104.503 Z2.705
N13960 X206.62 Y104.37 Z2.571
N13965 X206.571 Y104.284 Z2.536
N13970 X206.527 Y104.197 Z2.5
N13975 G3 X210.139 Y102.479 Z1.392 I1.806 J-0.859
N13980 X206.527 Y104.197 Z0.284 I-1.806 J0.859
N13985 X210.139 Y102.479 Z-0.824 I1.806 J-0.859
N13990 X206.527 Y104.197 Z-1.932 I-1.806 J0.859
N13995 X210.139 Y102.479 Z-3.039 I1.806 J-0.859
N14000 X208.333 Y105.338 Z-3.75 I-1.806 J0.859
N14005 G1 X206.333
N14010 Y101.338
N14015 X210.333
N14020 Y105.338
N14025 X208.333
N14030 X206.333 Z-4.103
N14035 Y101.338 Z-4.808
N14040 X210.333 Z-5.513
N14045 Y105.338 Z-6.219
N14050 X206.333 Z-6.924
N14055 Y102.071 Z-7.5
N14060 Y101.338
N14065 X210.333
N14070 Y105.338
N14075 X206.333
N14080 Y102.071
N14085 Y101.338 Z-7.629
N14090 X210.333 Z-8.335
N14095 Y105.338 Z-9.04
N14100 X206.333 Z-9.745
N14105 Y101.338 Z-10.451
N14110 X210.333 Z-11.156
N14115 Y101.871 Z-11.25
N14120 Y105.338
N14125 X206.333
N14130 Y102.071
N14135 Y101.338
N14140 X210.333
N14145 Y101.871
N14150 Y105.338 Z-11.861
N14155 X206.333 Z-12.567
N14160 Y101.338 Z-13.272
N14165 X210.333 Z-13.977
N14170 Y105.338 Z-14.683
N14175 X208.533 Z-15.
N14180 X206.333
N14185 Y101.338
N14190 X210.333
N14195 Y105.338
N14200 X208.533
N14205 X208.44 Y105.331 Z-14.985
N14210 X208.35 Y105.31 Z-14.971
N14215 X208.273 Y105.279 Z-14.928
N14220 X208.2 Y105.237 Z-14.885
N14225 X208.147 Y105.198 Z-14.819
N14230 X208.099 Y105.152 Z-14.753
N14235 X208.044 Y105.086 Z-14.585
N14240 X208.028 Y105.062 Z-14.4
N14245 Z5.
N14250 X173.724 Y101.798
N14255 Z3.091 F1800.
N14260 X173.752 Y101.775 Z2.886 F2700.
N14265 X173.835 Y101.712 Z2.705
N14270 X173.968 Y101.625 Z2.571
N14275 X174.054 Y101.576 Z2.536
N14280 X174.141 Y101.532 Z2.5
N14285 G3 X175.859 Y105.144 Z1.392 I0.859 J1.806
N14290 X174.141 Y101.532 Z0.284 I-0.859 J-1.806
N14295 X175.859 Y105.144 Z-0.824 I0.859 J1.806
N14300 X174.141 Y101.532 Z-1.932 I-0.859 J-1.806
N14305 X175.859 Y105.144 Z-3.039 I0.859 J1.806
N14310 X173. Y103.338 Z-3.75 I-0.859 J-1.806
N14315 G1 Y101.338
N14320 X177.
N14325 Y105.338
N14330 X173.
N14335 Y103.338
N14340 Y101.338 Z-4.103
N14345 X177. Z-4.808
N14350 Y105.338 Z-5.513
N14355 X173. Z-6.219
N14360 Y101.338 Z-6.924
N14365 X176.267 Z-7.5
N14370 X177.
N14375 Y105.338
N14380 X173.
N14385 Y101.338
N14390 X176.267
N14395 X177. Z-7.629
N14400 Y105.338 Z-8.335
N14405 X173. Z-9.04
N14410 Y101.338 Z-9.745
N14415 X177. Z-10.451
N14420 Y105.338 Z-11.156
N14425 X176.467 Z-11.25
N14430 X173.
N14435 Y101.338
N14440 X176.267
N14445 X177.
N14450 Y105.338
N14455 X176.467
N14460 X173. Z-11.861
N14465 Y101.338 Z-12.567
N14470 X177. Z-13.272
N14475 Y105.338 Z-13.977
N14480 X173. Z-14.683
N14485 Y103.538 Z-15.
N14490 Y101.338
N14495 X177.
N14500 Y105.338
N14505 X173.
N14510 Y103.538
N14515 X173.007 Y103.445 Z-14.985
N14520 X173.028 Y103.355 Z-14.971
N14525 X173.059 Y103.278 Z-14.928
N14530 X173.101 Y103.205 Z-14.885
N14535 X173.14 Y103.152 Z-14.819
N14540 X173.186 Y103.104 Z-14.753
N14545 X173.252 Y103.049 Z-14.585
N14550 X173.276 Y103.033 Z-14.4
N14555 Z5.
N14560 X176.276 Y71.544
N14565 Z3.091 F1800.
N14570 X176.248 Y71.567 Z2.886 F2700.
N14575 X176.165 Y71.63 Z2.705
N14580 X176.032 Y71.718 Z2.571
N14585 X175.946 Y71.766 Z2.536
N14590 X175.859 Y71.81 Z2.5
N14595 G3 X174.141 Y68.198 Z1.392 I-0.859 J-1.806
N14600 X175.859 Y71.81 Z0.284 I0.859 J1.806
N14605 X174.141 Y68.198 Z-0.824 I-0.859 J-1.806
N14610 X175.859 Y71.81 Z-1.932 I0.859 J1.806
N14615 X174.141 Y68.198 Z-3.039 I-0.859 J-1.806
N14620 X177. Y70.004 Z-3.75 I0.859 J1.806
N14625 G1 Y72.004
N14630 X173.
N14635 Y68.004
N14640 X177.
N14645 Y70.004
N14650 Y72.004 Z-4.103
N14655 X173. Z-4.808
N14660 Y68.004 Z-5.513
N14665 X177. Z-6.219
N14670 Y72.004 Z-6.924
N14675 X173.733 Z-7.5
N14680 X173.
N14685 Y68.004
N14690 X177.
N14695 Y72.004
N14700 X173.733
N14705 X173. Z-7.629
N14710 Y68.004 Z-8.335
N14715 X177. Z-9.04
N14720 Y72.004 Z-9.745
N14725 X173. Z-10.45
N14730 Y68.004 Z-11.156
N14735 X173.535 Z-11.25
N14740 X177.
N14745 Y72.004
N14750 X173.733
N14755 X173.
N14760 Y68.004
N14765 X173.535
N14770 X177. Z-11.861
N14775 Y72.004 Z-12.566
N14780 X173. Z-13.272
N14785 Y68.004 Z-13.977
N14790 X177. Z-14.682
N14795 Y69.806 Z-15.
N14800 Y72.004
N14805 X173.
N14810 Y68.004
N14815 X177.
N14820 Y69.806
N14825 X176.993 Y69.899 Z-14.985
N14830 X176.972 Y69.989 Z-14.971
N14835 X176.941 Y70.066 Z-14.928
N14840 X176.899 Y70.139 Z-14.885
N14845 X176.86 Y70.192 Z-14.819
N14850 X176.814 Y70.24 Z-14.753
N14855 X176.748 Y70.295 Z-14.585
N14860 X176.724 Y70.311 Z-14.4
N14865 Z5.
N14870 X176.276 Y38.211
N14875 Z3.091 F1800.
N14880 X176.248 Y38.234 Z2.886 F2700.
N14885 X176.165 Y38.297 Z2.705
N14890 X176.032 Y38.385 Z2.571
N14895 X175.946 Y38.433 Z2.536
N14900 X175.859 Y38.477 Z2.5
N14905 G3 X174.141 Y34.865 Z1.392 I-0.859 J-1.806
N14910 X175.859 Y38.477 Z0.284 I0.859 J1.806
N14915 X174.141 Y34.865 Z-0.824 I-0.859 J-1.806
N14920 X175.859 Y38.477 Z-1.932 I0.859 J1.806
N14925 X174.141 Y34.865 Z-3.039 I-0.859 J-1.806
N14930 X177. Y36.671 Z-3.75 I0.859 J1.806
N14935 G1 Y38.671
N14940 X173.
N14945 Y34.671
N14950 X177.
N14955 Y36.671
N14960 Y38.671 Z-4.103
N14965 X173. Z-4.808
N14970 Y34.671 Z-5.513
N14975 X177. Z-6.219
N14980 Y38.671 Z-6.924
N14985 X173.733 Z-7.5
N14990 X173.
N14995 Y34.671
N15000 X177.
N15005 Y38.671
N15010 X173.733
N15015 X173. Z-7.629
N15020 Y34.671 Z-8.335
N15025 X177. Z-9.04
N15030 Y38.671 Z-9.745
N15035 X173. Z-10.45
N15040 Y34.671 Z-11.156
N15045 X173.535 Z-11.25
N15050 X177.
N15055 Y38.671
N15060 X173.733
N15065 X173.
N15070 Y34.671
N15075 X173.535
N15080 X177. Z-11.861
N15085 Y38.671 Z-12.566
N15090 X173. Z-13.272
N15095 Y34.671 Z-13.977
N15100 X177. Z-14.682
N15105 Y36.473 Z-15.
N15110 Y38.671
N15115 X173.
N15120 Y34.671
N15125 X177.
N15130 Y36.473
N15135 X176.993 Y36.565 Z-14.985
N15140 X176.972 Y36.655 Z-14.971
N15145 X176.941 Y36.733 Z-14.928
N15150 X176.899 Y36.806 Z-14.885
N15155 X176.86 Y36.859 Z-14.819
N15160 X176.814 Y36.907 Z-14.753
N15165 X176.748 Y36.961 Z-14.585
N15170 X176.724 Y36.978 Z-14.4
N15175 Z5.
N15180 X140.391 Y35.131
N15185 Z3.091 F1800.
N15190 X140.419 Y35.108 Z2.886 F2700.
N15195 X140.502 Y35.045 Z2.705
N15200 X140.635 Y34.958 Z2.571
N15205 X140.721 Y34.909 Z2.536
N15210 X140.808 Y34.865 Z2.5
N15215 G3 X142.526 Y38.477 Z1.392 I0.859 J1.806
N15220 X140.808 Y34.865 Z0.284 I-0.859 J-1.806
N15225 X142.526 Y38.477 Z-0.824 I0.859 J1.806
N15230 X140.808 Y34.865 Z-1.932 I-0.859 J-1.806
N15235 X142.526 Y38.477 Z-3.039 I0.859 J1.806
N15240 X139.667 Y36.671 Z-3.75 I-0.859 J-1.806
N15245 G1 Y34.671
N15250 X143.667
N15255 Y38.671
N15260 X139.667
N15265 Y36.671
N15270 Y34.671 Z-4.103
N15275 X143.667 Z-4.808
N15280 Y38.671 Z-5.513
N15285 X139.667 Z-6.219
N15290 Y34.671 Z-6.924
N15295 X142.934 Z-7.5
N15300 X143.667
N15305 Y38.671
N15310 X139.667
N15315 Y34.671
N15320 X142.934
N15325 X143.667 Z-7.629
N15330 Y38.671 Z-8.335
N15335 X139.667 Z-9.04
N15340 Y34.671 Z-9.745
N15345 X143.667 Z-10.45
N15350 Y38.671 Z-11.156
N15355 X143.132 Z-11.25
N15360 X139.667
N15365 Y34.671
N15370 X142.934
N15375 X143.667
N15380 Y38.671
N15385 X143.132
N15390 X139.667 Z-11.861
N15395 Y34.671 Z-12.566
N15400 X143.667 Z-13.272
N15405 Y38.671 Z-13.977
N15410 X139.667 Z-14.682
N15415 Y36.869 Z-15.
N15420 Y34.671
N15425 X143.667
N15430 Y38.671
N15435 X139.667
N15440 Y36.869
N15445 X139.674 Y36.777 Z-14.985
N15450 X139.695 Y36.687 Z-14.971
N15455 X139.726 Y36.609 Z-14.928
N15460 X139.768 Y36.536 Z-14.885
N15465 X139.807 Y36.483 Z-14.819
N15470 X139.853 Y36.435 Z-14.753
N15475 X139.919 Y36.381 Z-14.585
N15480 X139.943 Y36.364 Z-14.4
N15485 Z5.
N15490 X106.793 Y37.947
N15495 Z3.091 F1800.
N15500 X106.77 Y37.919 Z2.886 F2700.
N15505 X106.707 Y37.836 Z2.705
N15510 X106.62 Y37.703 Z2.571
N15515 X106.571 Y37.618 Z2.536
N15520 X106.527 Y37.53 Z2.5
N15525 G3 X110.139 Y35.812 Z1.392 I1.806 J-0.859
N15530 X106.527 Y37.53 Z0.284 I-1.806 J0.859
N15535 X110.139 Y35.812 Z-0.824 I1.806 J-0.859
N15540 X106.527 Y37.53 Z-1.932 I-1.806 J0.859
N15545 X110.139 Y35.812 Z-3.039 I1.806 J-0.859
N15550 X108.333 Y38.671 Z-3.75 I-1.806 J0.859
N15555 G1 X106.333
N15560 Y34.671
N15565 X110.333
N15570 Y38.671
N15575 X108.333
N15580 X106.333 Z-4.103
N15585 Y34.671 Z-4.808
N15590 X110.333 Z-5.513
N15595 Y38.671 Z-6.219
N15600 X106.333 Z-6.924
N15605 Y35.404 Z-7.5
N15610 Y34.671
N15615 X110.333
N15620 Y38.671
N15625 X106.333
N15630 Y35.404
N15635 Y34.671 Z-7.629
N15640 X110.333 Z-8.335
N15645 Y38.671 Z-9.04
N15650 X106.333 Z-9.745
N15655 Y34.671 Z-10.45
N15660 X110.333 Z-11.156
N15665 Y35.206 Z-11.25
N15670 Y38.671
N15675 X106.333
N15680 Y35.404
N15685 Y34.671
N15690 X110.333
N15695 Y35.206
N15700 Y38.671 Z-11.861
N15705 X106.333 Z-12.566
N15710 Y34.671 Z-13.272
N15715 X110.333 Z-13.977
N15720 Y38.671 Z-14.682
N15725 X108.531 Z-15.
N15730 X106.333
N15735 Y34.671
N15740 X110.333
N15745 Y38.671
N15750 X108.531
N15755 X108.439 Y38.664 Z-14.985
N15760 X108.349 Y38.643 Z-14.971
N15765 X108.271 Y38.612 Z-14.928
N15770 X108.198 Y38.57 Z-14.885
N15775 X108.145 Y38.531 Z-14.819
N15780 X108.097 Y38.485 Z-14.753
N15785 X108.043 Y38.42 Z-14.585
N15790 X108.026 Y38.395 Z-14.4
N15795 Z5.
N15800 X107.057 Y68.464
N15805 Z3.091 F1800.
N15810 X107.085 Y68.441 Z2.886 F2700.
N15815 X107.168 Y68.379 Z2.705
N15820 X107.301 Y68.291 Z2.571
N15825 X107.387 Y68.243 Z2.536
N15830 X107.474 Y68.198 Z2.5
N15835 G3 X109.192 Y71.81 Z1.392 I0.859 J1.806
N15840 X107.474 Y68.198 Z0.284 I-0.859 J-1.806
N15845 X109.192 Y71.81 Z-0.824 I0.859 J1.806
N15850 X107.474 Y68.198 Z-1.932 I-0.859 J-1.806
N15855 X109.192 Y71.81 Z-3.039 I0.859 J1.806
N15860 X106.333 Y70.004 Z-3.75 I-0.859 J-1.806
N15865 G1 Y68.004
N15870 X110.333
N15875 Y72.004
N15880 X106.333
N15885 Y70.004
N15890 Y68.004 Z-4.103
N15895 X110.333 Z-4.808
N15900 Y72.004 Z-5.513
N15905 X106.333 Z-6.219
N15910 Y68.004 Z-6.924
N15915 X109.6 Z-7.5
N15920 X110.333
N15925 Y72.004
N15930 X106.333
N15935 Y68.004
N15940 X109.6
N15945 X110.333 Z-7.629
N15950 Y72.004 Z-8.335
N15955 X106.333 Z-9.04
N15960 Y68.004 Z-9.745
N15965 X110.333 Z-10.45
N15970 Y72.004 Z-11.156
N15975 X109.798 Z-11.25
N15980 X106.333
N15985 Y68.004
N15990 X109.6
N15995 X110.333
N16000 Y72.004
N16005 X109.798
N16010 X106.333 Z-11.861
N16015 Y68.004 Z-12.566
N16020 X110.333 Z-13.272
N16025 Y72.004 Z-13.977
N16030 X106.333 Z-14.682
N16035 Y70.202 Z-15.
N16040 Y68.004
N16045 X110.333
N16050 Y72.004
N16055 X106.333
N16060 Y70.202
N16065 X106.34 Y70.11 Z-14.985
N16070 X106.361 Y70.02 Z-14.971
N16075 X106.392 Y69.942 Z-14.928
N16080 X106.434 Y69.87 Z-14.885
N16085 X106.473 Y69.817 Z-14.819
N16090 X106.519 Y69.768 Z-14.753
N16095 X106.585 Y69.714 Z-14.585
N16100 X106.609 Y69.698 Z-14.4
N16105 Z5.
N16110 X76.54 Y68.728
N16115 Z3.091 F1800.
N16120 X76.563 Y68.756 Z2.886 F2700.
N16125 X76.626 Y68.84 Z2.705
N16130 X76.713 Y68.973 Z2.571
N16135 X76.762 Y69.058 Z2.536
N16140 X76.806 Y69.145 Z2.5
N16145 G3 X73.194 Y70.864 Z1.392 I-1.806 J0.859
N16150 X76.806 Y69.145 Z0.284 I1.806 J-0.859
N16155 X73.194 Y70.864 Z-0.824 I-1.806 J0.859
N16160 X76.806 Y69.145 Z-1.932 I1.806 J-0.859
N16165 X73.194 Y70.864 Z-3.039 I-1.806 J0.859
N16170 X75. Y68.004 Z-3.75 I1.806 J-0.859
N16175 G1 X77.
N16180 Y72.004
N16185 X73.
N16190 Y68.004
N16195 X75.
N16200 X77. Z-4.103
N16205 Y72.004 Z-4.808
N16210 X73. Z-5.513
N16215 Y68.004 Z-6.219
N16220 X77. Z-6.924
N16225 Y71.272 Z-7.5
N16230 Y72.004
N16235 X73.
N16240 Y68.004
N16245 X77.
N16250 Y71.272
N16255 Y72.004 Z-7.629
N16260 X73. Z-8.335
N16265 Y68.004 Z-9.04
N16270 X77. Z-9.745
N16275 Y72.004 Z-10.45
N16280 X73. Z-11.156
N16285 Y71.47 Z-11.25
N16290 Y68.004
N16295 X77.
N16300 Y71.272
N16305 Y72.004
N16310 X73.
N16315 Y71.47
N16320 Y68.004 Z-11.861
N16325 X77. Z-12.566
N16330 Y72.004 Z-13.272
N16335 X73. Z-13.977
N16340 Y68.004 Z-14.682
N16345 X74.802 Z-15.
N16350 X77.
N16355 Y72.004
N16360 X73.
N16365 Y68.004
N16370 X74.802
N16375 X74.894 Y68.012 Z-14.985
N16380 X74.984 Y68.033 Z-14.971
N16385 X75.062 Y68.064 Z-14.928
N16390 X75.135 Y68.105 Z-14.885
N16395 X75.188 Y68.145 Z-14.819
N16400 X75.236 Y68.19 Z-14.753
N16405 X75.29 Y68.256 Z-14.585
N16410 X75.307 Y68.28 Z-14.4
N16415 Z5.
N16420 X76.54 Y35.395
N16425 Z3.091 F1800.
N16430 X76.563 Y35.423 Z2.886 F2700.
N16435 X76.626 Y35.506 Z2.705
N16440 X76.713 Y35.64 Z2.571
N16445 X76.762 Y35.725 Z2.536
N16450 X76.806 Y35.812 Z2.5
N16455 G3 X73.194 Y37.53 Z1.392 I-1.806 J0.859
N16460 X76.806 Y35.812 Z0.284 I1.806 J-0.859
N16465 X73.194 Y37.53 Z-0.824 I-1.806 J0.859
N16470 X76.806 Y35.812 Z-1.932 I1.806 J-0.859
N16475 X73.194 Y37.53 Z-3.039 I-1.806 J0.859
N16480 X75. Y34.671 Z-3.75 I1.806 J-0.859
N16485 G1 X77.
N16490 Y38.671
N16495 X73.
N16500 Y34.671
N16505 X75.
N16510 X77. Z-4.103
N16515 Y38.671 Z-4.808
N16520 X73. Z-5.513
N16525 Y34.671 Z-6.219
N16530 X77. Z-6.924
N16535 Y37.938 Z-7.5
N16540 Y38.671
N16545 X73.
N16550 Y34.671
N16555 X77.
N16560 Y37.938
N16565 Y38.671 Z-7.629
N16570 X73. Z-8.335
N16575 Y34.671 Z-9.04
N16580 X77. Z-9.745
N16585 Y38.671 Z-10.45
N16590 X73. Z-11.156
N16595 Y38.136 Z-11.25
N16600 Y34.671
N16605 X77.
N16610 Y37.938
N16615 Y38.671
N16620 X73.
N16625 Y38.136
N16630 Y34.671 Z-11.861
N16635 X77. Z-12.566
N16640 Y38.671 Z-13.272
N16645 X73. Z-13.977
N16650 Y34.671 Z-14.682
N16655 X74.802 Z-15.
N16660 X77.
N16665 Y38.671
N16670 X73.
N16675 Y34.671
N16680 X74.802
N16685 X74.894 Y34.678 Z-14.985
N16690 X74.984 Y34.7 Z-14.971
N16695 X75.062 Y34.73 Z-14.928
N16700 X75.135 Y34.772 Z-14.885
N16705 X75.188 Y34.812 Z-14.819
N16710 X75.236 Y34.857 Z-14.753
N16715 X75.29 Y34.923 Z-14.585
N16720 X75.307 Y34.947 Z-14.4
N16725 Z5.
N16730 X76.54 Y102.062
N16735 Z3.091 F1800.
N16740 X76.563 Y102.09 Z2.886 F2700.
N16745 X76.626 Y102.173 Z2.705
N16750 X76.713 Y102.306 Z2.571
N16755 X76.762 Y102.391 Z2.536
N16760 X76.806 Y102.479 Z2.5
N16765 G3 X73.194 Y104.197 Z1.392 I-1.806 J0.859
N16770 X76.806 Y102.479 Z0.284 I1.806 J-0.859
N16775 X73.194 Y104.197 Z-0.824 I-1.806 J0.859
N16780 X76.806 Y102.479 Z-1.932 I1.806 J-0.859
N16785 X73.194 Y104.197 Z-3.039 I-1.806 J0.859
N16790 X75. Y101.338 Z-3.75 I1.806 J-0.859
N16795 G1 X77.
N16800 Y105.338
N16805 X73.
N16810 Y101.338
N16815 X75.
N16820 X77. Z-4.103
N16825 Y105.338 Z-4.808
N16830 X73. Z-5.513
N16835 Y101.338 Z-6.219
N16840 X77. Z-6.924
N16845 Y104.605 Z-7.5
N16850 Y105.338
N16855 X73.
N16860 Y101.338
N16865 X77.
N16870 Y104.605
N16875 Y105.338 Z-7.629
N16880 X73. Z-8.335
N16885 Y101.338 Z-9.04
N16890 X77. Z-9.745
N16895 Y105.338 Z-10.451
N16900 X73. Z-11.156
N16905 Y104.804 Z-11.25
N16910 Y101.338
N16915 X77.
N16920 Y104.605
N16925 Y105.338
N16930 X73.
N16935 Y104.804
N16940 Y101.338 Z-11.861
N16945 X77. Z-12.567
N16950 Y105.338 Z-13.272
N16955 X73. Z-13.977
N16960 Y101.338 Z-14.683
N16965 X74.8 Z-15.
N16970 X77.
N16975 Y105.338
N16980 X73.
N16985 Y101.338
N16990 X74.8
N16995 X74.893 Y101.345 Z-14.985
N17000 X74.983 Y101.366 Z-14.971
N17005 X75.06 Y101.397 Z-14.928
N17010 X75.133 Y101.438 Z-14.885
N17015 X75.186 Y101.478 Z-14.819
N17020 X75.234 Y101.524 Z-14.753
N17025 X75.289 Y101.589 Z-14.585
N17030 X75.305 Y101.614 Z-14.4
N17035 Z5.
N17040 X76.54 Y135.395
N17045 Z3.091 F1800.
N17050 X76.563 Y135.423 Z2.886 F2700.
N17055 X76.626 Y135.506 Z2.705
N17060 X76.713 Y135.639 Z2.571
N17065 X76.762 Y135.725 Z2.536
N17070 X76.806 Y135.812 Z2.5
N17075 G3 X73.194 Y137.53 Z1.392 I-1.806 J0.859
N17080 X76.806 Y135.812 Z0.284 I1.806 J-0.859
N17085 X73.194 Y137.53 Z-0.824 I-1.806 J0.859
N17090 X76.806 Y135.812 Z-1.932 I1.806 J-0.859
N17095 X73.194 Y137.53 Z-3.039 I-1.806 J0.859
N17100 X75. Y134.671 Z-3.75 I1.806 J-0.859
N17105 G1 X77.
N17110 Y138.671
N17115 X73.
N17120 Y134.671
N17125 X75.
N17130 X77. Z-4.103
N17135 Y138.671 Z-4.808
N17140 X73. Z-5.513
N17145 Y134.671 Z-6.219
N17150 X77. Z-6.924
N17155 Y137.938 Z-7.5
N17160 Y138.671
N17165 X73.
N17170 Y134.671
N17175 X77.
N17180 Y137.938
N17185 Y138.671 Z-7.629
N17190 X73. Z-8.335
N17195 Y134.671 Z-9.04
N17200 X77. Z-9.745
N17205 Y138.671 Z-10.45
N17210 X73. Z-11.156
N17215 Y138.136 Z-11.25
N17220 Y134.671
N17225 X77.
N17230 Y137.938
N17235 Y138.671
N17240 X73.
N17245 Y138.136
N17250 Y134.671 Z-11.861
N17255 X77. Z-12.566
N17260 Y138.671 Z-13.272
N17265 X73. Z-13.977
N17270 Y134.671 Z-14.682
N17275 X74.802 Z-15.
N17280 X77.
N17285 Y138.671
N17290 X73.
N17295 Y134.671
N17300 X74.802
N17305 X74.894 Y134.678 Z-14.985
N17310 X74.984 Y134.699 Z-14.971
N17315 X75.062 Y134.73 Z-14.928
N17320 X75.135 Y134.772 Z-14.885
N17325 X75.188 Y134.811 Z-14.819
N17330 X75.236 Y134.857 Z-14.753
N17335 X75.29 Y134.923 Z-14.585
N17340 X75.307 Y134.947 Z-14.4
N17345 Z5.
N17350 X73.724 Y168.464
N17355 Z3.091 F1800.
N17360 X73.752 Y168.441 Z2.886 F2700.
N17365 X73.835 Y168.378 Z2.705
N17370 X73.968 Y168.291 Z2.571
N17375 X74.054 Y168.242 Z2.536
N17380 X74.141 Y168.198 Z2.5
N17385 G3 X75.859 Y171.81 Z1.392 I0.859 J1.806
N17390 X74.141 Y168.198 Z0.284 I-0.859 J-1.806
N17395 X75.859 Y171.81 Z-0.824 I0.859 J1.806
N17400 X74.141 Y168.198 Z-1.932 I-0.859 J-1.806
N17405 X75.859 Y171.81 Z-3.039 I0.859 J1.806
N17410 X73. Y170.004 Z-3.75 I-0.859 J-1.806
N17415 G1 Y168.004
N17420 X77.
N17425 Y172.004
N17430 X73.
N17435 Y170.004
N17440 Y168.004 Z-4.103
N17445 X77. Z-4.808
N17450 Y172.004 Z-5.513
N17455 X73. Z-6.219
N17460 Y168.004 Z-6.924
N17465 X76.267 Z-7.5
N17470 X77.
N17475 Y172.004
N17480 X73.
N17485 Y168.004
N17490 X76.267
N17495 X77. Z-7.629
N17500 Y172.004 Z-8.335
N17505 X73. Z-9.04
N17510 Y168.004 Z-9.745
N17515 X77. Z-10.45
N17520 Y172.004 Z-11.156
N17525 X76.465 Z-11.25
N17530 X73.
N17535 Y168.004
N17540 X76.267
N17545 X77.
N17550 Y172.004
N17555 X76.465
N17560 X73. Z-11.861
N17565 Y168.004 Z-12.566
N17570 X77. Z-13.272
N17575 Y172.004 Z-13.977
N17580 X73. Z-14.682
N17585 Y170.202 Z-15.
N17590 Y168.004
N17595 X77.
N17600 Y172.004
N17605 X73.
N17610 Y170.202
N17615 X73.007 Y170.11 Z-14.985
N17620 X73.028 Y170.02 Z-14.971
N17625 X73.059 Y169.942 Z-14.928
N17630 X73.101 Y169.869 Z-14.885
N17635 X73.14 Y169.816 Z-14.819
N17640 X73.186 Y169.768 Z-14.753
N17645 X73.252 Y169.714 Z-14.585
N17650 X73.276 Y169.697 Z-14.4
N17655 Z5.
N17660 X73.46 Y204.614
N17665 Z3.091 F1800.
N17670 X73.437 Y204.586 Z2.886 F2700.
N17675 X73.374 Y204.503 Z2.705
N17680 X73.287 Y204.37 Z2.571
N17685 X73.238 Y204.284 Z2.536
N17690 X73.194 Y204.197 Z2.5
N17695 G3 X76.806 Y202.479 Z1.392 I1.806 J-0.859
N17700 X73.194 Y204.197 Z0.284 I-1.806 J0.859
N17705 X76.806 Y202.479 Z-0.824 I1.806 J-0.859
N17710 X73.194 Y204.197 Z-1.932 I-1.806 J0.859
N17715 X76.806 Y202.479 Z-3.039 I1.806 J-0.859
N17720 X75. Y205.338 Z-3.75 I-1.806 J0.859
N17725 G1 X73.
N17730 Y201.338
N17735 X77.
N17740 Y205.338
N17745 X75.
N17750 X73. Z-4.103
N17755 Y201.338 Z-4.808
N17760 X77. Z-5.513
N17765 Y205.338 Z-6.219
N17770 X73. Z-6.924
N17775 Y202.071 Z-7.5
N17780 Y201.338
N17785 X77.
N17790 Y205.338
N17795 X73.
N17800 Y202.071
N17805 Y201.338 Z-7.629
N17810 X77. Z-8.335
N17815 Y205.338 Z-9.04
N17820 X73. Z-9.745
N17825 Y201.338 Z-10.45
N17830 X77. Z-11.156
N17835 Y201.873 Z-11.25
N17840 Y205.338
N17845 X73.
N17850 Y202.071
N17855 Y201.338
N17860 X77.
N17865 Y201.873
N17870 Y205.338 Z-11.861
N17875 X73. Z-12.566
N17880 Y201.338 Z-13.272
N17885 X77. Z-13.977
N17890 Y205.338 Z-14.682
N17895 X75.198 Z-15.
N17900 X73.
N17905 Y201.338
N17910 X77.
N17915 Y205.338
N17920 X75.198
N17925 X75.106 Y205.331 Z-14.985
N17930 X75.016 Y205.31 Z-14.971
N17935 X74.938 Y205.279 Z-14.928
N17940 X74.865 Y205.237 Z-14.885
N17945 X74.812 Y205.198 Z-14.819
N17950 X74.764 Y205.152 Z-14.753
N17955 X74.71 Y205.086 Z-14.585
N17960 X74.693 Y205.062 Z-14.4
N17965 Z5.
N17970 X107.057 Y201.798
N17975 Z3.091 F1800.
N17980 X107.085 Y201.775 Z2.886 F2700.
N17985 X107.168 Y201.712 Z2.705
N17990 X107.301 Y201.625 Z2.571
N17995 X107.387 Y201.576 Z2.536
N18000 X107.474 Y201.532 Z2.5
N18005 G3 X109.192 Y205.144 Z1.392 I0.859 J1.806
N18010 X107.474 Y201.532 Z0.284 I-0.859 J-1.806
N18015 X109.192 Y205.144 Z-0.824 I0.859 J1.806
N18020 X107.474 Y201.532 Z-1.932 I-0.859 J-1.806
N18025 X109.192 Y205.144 Z-3.039 I0.859 J1.806
N18030 X106.333 Y203.338 Z-3.75 I-0.859 J-1.806
N18035 G1 Y201.338
N18040 X110.333
N18045 Y205.338
N18050 X106.333
N18055 Y203.338
N18060 Y201.338 Z-4.103
N18065 X110.333 Z-4.808
N18070 Y205.338 Z-5.513
N18075 X106.333 Z-6.219
N18080 Y201.338 Z-6.924
N18085 X109.6 Z-7.5
N18090 X110.333
N18095 Y205.338
N18100 X106.333
N18105 Y201.338
N18110 X109.6
N18115 X110.333 Z-7.629
N18120 Y205.338 Z-8.335
N18125 X106.333 Z-9.04
N18130 Y201.338 Z-9.745
N18135 X110.333 Z-10.45
N18140 Y205.338 Z-11.156
N18145 X109.798 Z-11.25
N18150 X106.333
N18155 Y201.338
N18160 X109.6
N18165 X110.333
N18170 Y205.338
N18175 X109.798
N18180 X106.333 Z-11.861
N18185 Y201.338 Z-12.566
N18190 X110.333 Z-13.272
N18195 Y205.338 Z-13.977
N18200 X106.333 Z-14.682
N18205 Y203.536 Z-15.
N18210 Y201.338
N18215 X110.333
N18220 Y205.338
N18225 X106.333
N18230 Y203.536
N18235 X106.34 Y203.444 Z-14.985
N18240 X106.361 Y203.354 Z-14.971
N18245 X106.392 Y203.276 Z-14.928
N18250 X106.434 Y203.203 Z-14.885
N18255 X106.473 Y203.15 Z-14.819
N18260 X106.519 Y203.102 Z-14.753
N18265 X106.585 Y203.048 Z-14.585
N18270 X106.609 Y203.031 Z-14.4
N18275 Z5.
N18280 X109.873 Y168.728
N18285 Z3.091 F1800.
N18290 X109.896 Y168.756 Z2.886 F2700.
N18295 X109.959 Y168.839 Z2.705
N18300 X110.046 Y168.972 Z2.571
N18305 X110.095 Y169.058 Z2.536
N18310 X110.139 Y169.145 Z2.5
N18315 G3 X106.527 Y170.863 Z1.392 I-1.806 J0.859
N18320 X110.139 Y169.145 Z0.284 I1.806 J-0.859
N18325 X106.527 Y170.863 Z-0.824 I-1.806 J0.859
N18330 X110.139 Y169.145 Z-1.932 I1.806 J-0.859
N18335 X106.527 Y170.863 Z-3.039 I-1.806 J0.859
N18340 X108.333 Y168.004 Z-3.75 I1.806 J-0.859
N18345 G1 X110.333
N18350 Y172.004
N18355 X106.333
N18360 Y168.004
N18365 X108.333
N18370 X110.333 Z-4.103
N18375 Y172.004 Z-4.808
N18380 X106.333 Z-5.513
N18385 Y168.004 Z-6.219
N18390 X110.333 Z-6.924
N18395 Y171.271 Z-7.5
N18400 Y172.004
N18405 X106.333
N18410 Y168.004
N18415 X110.333
N18420 Y171.271
N18425 Y172.004 Z-7.629
N18430 X106.333 Z-8.335
N18435 Y168.004 Z-9.04
N18440 X110.333 Z-9.745
N18445 Y172.004 Z-10.45
N18450 X106.333 Z-11.156
N18455 Y171.469 Z-11.25
N18460 Y168.004
N18465 X110.333
N18470 Y171.271
N18475 Y172.004
N18480 X106.333
N18485 Y171.469
N18490 Y168.004 Z-11.861
N18495 X110.333 Z-12.566
N18500 Y172.004 Z-13.272
N18505 X106.333 Z-13.977
N18510 Y168.004 Z-14.682
N18515 X108.135 Z-15.
N18520 X110.333
N18525 Y172.004
N18530 X106.333
N18535 Y168.004
N18540 X108.135
N18545 X108.227 Y168.011 Z-14.985
N18550 X108.317 Y168.032 Z-14.971
N18555 X108.395 Y168.063 Z-14.928
N18560 X108.468 Y168.105 Z-14.885
N18565 X108.521 Y168.144 Z-14.819
N18570 X108.569 Y168.19 Z-14.753
N18575 X108.623 Y168.256 Z-14.585
N18580 X108.64 Y168.28 Z-14.4
N18585 Z5.
N18590 X109.873 Y135.395
N18595 Z3.091 F1800.
N18600 X109.896 Y135.423 Z2.886 F2700.
N18605 X109.959 Y135.506 Z2.705
N18610 X110.046 Y135.639 Z2.571
N18615 X110.095 Y135.725 Z2.536
N18620 X110.139 Y135.812 Z2.5
N18625 G3 X106.527 Y137.53 Z1.392 I-1.806 J0.859
N18630 X110.139 Y135.812 Z0.284 I1.806 J-0.859
N18635 X106.527 Y137.53 Z-0.824 I-1.806 J0.859
N18640 X110.139 Y135.812 Z-1.932 I1.806 J-0.859
N18645 X106.527 Y137.53 Z-3.039 I-1.806 J0.859
N18650 X108.333 Y134.671 Z-3.75 I1.806 J-0.859
N18655 G1 X110.333
N18660 Y138.671
N18665 X106.333
N18670 Y134.671
N18675 X108.333
N18680 X110.333 Z-4.103
N18685 Y138.671 Z-4.808
N18690 X106.333 Z-5.513
N18695 Y134.671 Z-6.219
N18700 X110.333 Z-6.924
N18705 Y137.938 Z-7.5
N18710 Y138.671
N18715 X106.333
N18720 Y134.671
N18725 X110.333
N18730 Y137.938
N18735 Y138.671 Z-7.629
N18740 X106.333 Z-8.335
N18745 Y134.671 Z-9.04
N18750 X110.333 Z-9.745
N18755 Y138.671 Z-10.45
N18760 X106.333 Z-11.156
N18765 Y138.136 Z-11.25
N18770 Y134.671
N18775 X110.333
N18780 Y137.938
N18785 Y138.671
N18790 X106.333
N18795 Y138.136
N18800 Y134.671 Z-11.861
N18805 X110.333 Z-12.566
N18810 Y138.671 Z-13.272
N18815 X106.333 Z-13.977
N18820 Y134.671 Z-14.682
N18825 X108.135 Z-15.
N18830 X110.333
N18835 Y138.671
N18840 X106.333
N18845 Y134.671
N18850 X108.135
N18855 X108.227 Y134.678 Z-14.985
N18860 X108.317 Y134.699 Z-14.971
N18865 X108.395 Y134.73 Z-14.928
N18870 X108.468 Y134.772 Z-14.885
N18875 X108.521 Y134.811 Z-14.819
N18880 X108.569 Y134.857 Z-14.753
N18885 X108.623 Y134.923 Z-14.585
N18890 X108.64 Y134.947 Z-14.4
N18895 Z5.
N18900 X109.609 Y104.878
N18905 Z3.091 F1800.
N18910 X109.581 Y104.901 Z2.886 F2700.
N18915 X109.498 Y104.964 Z2.705
N18920 X109.365 Y105.051 Z2.571
N18925 X109.279 Y105.1 Z2.536
N18930 X109.192 Y105.144 Z2.5
N18935 G3 X107.474 Y101.532 Z1.392 I-0.859 J-1.806
N18940 X109.192 Y105.144 Z0.284 I0.859 J1.806
N18945 X107.474 Y101.532 Z-0.824 I-0.859 J-1.806
N18950 X109.192 Y105.144 Z-1.932 I0.859 J1.806
N18955 X107.474 Y101.532 Z-3.039 I-0.859 J-1.806
N18960 X110.333 Y103.338 Z-3.75 I0.859 J1.806
N18965 G1 Y105.338
N18970 X106.333
N18975 Y101.338
N18980 X110.333
N18985 Y103.338
N18990 Y105.338 Z-4.103
N18995 X106.333 Z-4.808
N19000 Y101.338 Z-5.513
N19005 X110.333 Z-6.219
N19010 Y105.338 Z-6.924
N19015 X107.066 Z-7.5
N19020 X106.333
N19025 Y101.338
N19030 X110.333
N19035 Y105.338
N19040 X107.066
N19045 X106.333 Z-7.629
N19050 Y101.338 Z-8.335
N19055 X110.333 Z-9.04
N19060 Y105.338 Z-9.745
N19065 X106.333 Z-10.451
N19070 Y101.338 Z-11.156
N19075 X106.866 Z-11.25
N19080 X110.333
N19085 Y105.338
N19090 X107.066
N19095 X106.333
N19100 Y101.338
N19105 X106.866
N19110 X110.333 Z-11.861
N19115 Y105.338 Z-12.567
N19120 X106.333 Z-13.272
N19125 Y101.338 Z-13.977
N19130 X110.333 Z-14.683
N19135 Y103.138 Z-15.
N19140 Y105.338
N19145 X106.333
N19150 Y101.338
N19155 X110.333
N19160 Y103.138
N19165 X110.326 Y103.23 Z-14.985
N19170 X110.305 Y103.321 Z-14.971
N19175 X110.274 Y103.398 Z-14.928
N19180 X110.232 Y103.471 Z-14.885
N19185 X110.193 Y103.524 Z-14.819
N19190 X110.147 Y103.572 Z-14.753
N19195 X110.081 Y103.627 Z-14.585
N19200 X110.057 Y103.643 Z-14.4
N19205 Z5.
N19210 X140.391 Y101.798
N19215 Z3.091 F1800.
N19220 X140.419 Y101.775 Z2.886 F2700.
N19225 X140.502 Y101.712 Z2.705
N19230 X140.635 Y101.625 Z2.571
N19235 X140.721 Y101.576 Z2.536
N19240 X140.808 Y101.532 Z2.5
N19245 G3 X142.526 Y105.144 Z1.392 I0.859 J1.806
N19250 X140.808 Y101.532 Z0.284 I-0.859 J-1.806
N19255 X142.526 Y105.144 Z-0.824 I0.859 J1.806
N19260 X140.808 Y101.532 Z-1.932 I-0.859 J-1.806
N19265 X142.526 Y105.144 Z-3.039 I0.859 J1.806
N19270 X139.667 Y103.338 Z-3.75 I-0.859 J-1.806
N19275 G1 Y101.338
N19280 X143.667
N19285 Y105.338
N19290 X139.667
N19295 Y103.338
N19300 Y101.338 Z-4.103
N19305 X143.667 Z-4.808
N19310 Y105.338 Z-5.513
N19315 X139.667 Z-6.219
N19320 Y101.338 Z-6.924
N19325 X142.934 Z-7.5
N19330 X143.667
N19335 Y105.338
N19340 X139.667
N19345 Y101.338
N19350 X142.934
N19355 X143.667 Z-7.629
N19360 Y105.338 Z-8.335
N19365 X139.667 Z-9.04
N19370 Y101.338 Z-9.745
N19375 X143.667 Z-10.451
N19380 Y105.338 Z-11.156
N19385 X143.134 Z-11.25
N19390 X139.667
N19395 Y101.338
N19400 X142.934
N19405 X143.667
N19410 Y105.338
N19415 X143.134
N19420 X139.667 Z-11.861
N19425 Y101.338 Z-12.567
N19430 X143.667 Z-13.272
N19435 Y105.338 Z-13.977
N19440 X139.667 Z-14.683
N19445 Y103.538 Z-15.
N19450 Y101.338
N19455 X143.667
N19460 Y105.338
N19465 X139.667
N19470 Y103.538
N19475 X139.674 Y103.445 Z-14.985
N19480 X139.695 Y103.355 Z-14.971
N19485 X139.726 Y103.278 Z-14.928
N19490 X139.768 Y103.205 Z-14.885
N19495 X139.807 Y103.152 Z-14.819
N19500 X139.853 Y103.104 Z-14.753
N19505 X139.919 Y103.049 Z-14.585
N19510 X139.943 Y103.033 Z-14.4
N19515 Z5.
N19520 X140.127 Y71.28
N19525 Z3.091 F1800.
N19530 X140.104 Y71.252 Z2.886 F2700.
N19535 X140.041 Y71.169 Z2.705
N19540 X139.954 Y71.036 Z2.571
N19545 X139.905 Y70.951 Z2.536
N19550 X139.861 Y70.864 Z2.5
N19555 G3 X143.473 Y69.145 Z1.392 I1.806 J-0.859
N19560 X139.861 Y70.864 Z0.284 I-1.806 J0.859
N19565 X143.473 Y69.145 Z-0.824 I1.806 J-0.859
N19570 X139.861 Y70.864 Z-1.932 I-1.806 J0.859
N19575 X143.473 Y69.145 Z-3.039 I1.806 J-0.859
N19580 X141.667 Y72.004 Z-3.75 I-1.806 J0.859
N19585 G1 X139.667
N19590 Y68.004
N19595 X143.667
N19600 Y72.004
N19605 X141.667
N19610 X139.667 Z-4.103
N19615 Y68.004 Z-4.808
N19620 X143.667 Z-5.513
N19625 Y72.004 Z-6.219
N19630 X139.667 Z-6.924
N19635 Y68.737 Z-7.5
N19640 Y68.004
N19645 X143.667
N19650 Y72.004
N19655 X139.667
N19660 Y68.737
N19665 Y68.004 Z-7.629
N19670 X143.667 Z-8.335
N19675 Y72.004 Z-9.04
N19680 X139.667 Z-9.745
N19685 Y68.004 Z-10.45
N19690 X143.667 Z-11.156
N19695 Y68.539 Z-11.25
N19700 Y72.004
N19705 X139.667
N19710 Y68.737
N19715 Y68.004
N19720 X143.667
N19725 Y68.539
N19730 Y72.004 Z-11.861
N19735 X139.667 Z-12.566
N19740 Y68.004 Z-13.272
N19745 X143.667 Z-13.977
N19750 Y72.004 Z-14.682
N19755 X141.865 Z-15.
N19760 X139.667
N19765 Y68.004
N19770 X143.667
N19775 Y72.004
N19780 X141.865
N19785 X141.773 Y71.997 Z-14.985
N19790 X141.683 Y71.976 Z-14.971
N19795 X141.605 Y71.945 Z-14.928
N19800 X141.532 Y71.904 Z-14.885
N19805 X141.479 Y71.864 Z-14.819
N19810 X141.431 Y71.819 Z-14.753
N19815 X141.377 Y71.753 Z-14.585
N19820 X141.36 Y71.729 Z-14.4
N19825 Z5.
N19830 X142.943 Y204.878
N19835 Z3.091 F1800.
N19840 X142.915 Y204.901 Z2.886 F2700.
N19845 X142.832 Y204.964 Z2.705
N19850 X142.699 Y205.051 Z2.571
N19855 X142.613 Y205.1 Z2.536
N19860 X142.526 Y205.144 Z2.5
N19865 G3 X140.808 Y201.532 Z1.392 I-0.859 J-1.806
N19870 X142.526 Y205.144 Z0.284 I0.859 J1.806
N19875 X140.808 Y201.532 Z-0.824 I-0.859 J-1.806
N19880 X142.526 Y205.144 Z-1.932 I0.859 J1.806
N19885 X140.808 Y201.532 Z-3.039 I-0.859 J-1.806
N19890 X143.667 Y203.338 Z-3.75 I0.859 J1.806
N19895 G1 Y205.338
N19900 X139.667
N19905 Y201.338
N19910 X143.667
N19915 Y203.338
N19920 Y205.338 Z-4.103
N19925 X139.667 Z-4.808
N19930 Y201.338 Z-5.513
N19935 X143.667 Z-6.219
N19940 Y205.338 Z-6.924
N19945 X140.4 Z-7.5
N19950 X139.667
N19955 Y201.338
N19960 X143.667
N19965 Y205.338
N19970 X140.4
N19975 X139.667 Z-7.629
N19980 Y201.338 Z-8.335
N19985 X143.667 Z-9.04
N19990 Y205.338 Z-9.745
N19995 X139.667 Z-10.45
N20000 Y201.338 Z-11.156
N20005 X140.202 Z-11.25
N20010 X143.667
N20015 Y205.338
N20020 X140.4
N20025 X139.667
N20030 Y201.338
N20035 X140.202
N20040 X143.667 Z-11.861
N20045 Y205.338 Z-12.566
N20050 X139.667 Z-13.272
N20055 Y201.338 Z-13.977
N20060 X143.667 Z-14.682
N20065 Y203.14 Z-15.
N20070 Y205.338
N20075 X139.667
N20080 Y201.338
N20085 X143.667
N20090 Y203.14
N20095 X143.66 Y203.232 Z-14.985
N20100 X143.639 Y203.322 Z-14.971
N20105 X143.608 Y203.4 Z-14.928
N20110 X143.566 Y203.473 Z-14.885
N20115 X143.527 Y203.526 Z-14.819
N20120 X143.481 Y203.574 Z-14.753
N20125 X143.415 Y203.628 Z-14.585
N20130 X143.391 Y203.645 Z-14.4
N20135 Z5.
N20140 X173.724 Y201.798
N20145 Z3.091 F1800.
N20150 X173.752 Y201.775 Z2.886 F2700.
N20155 X173.835 Y201.712 Z2.705
N20160 X173.968 Y201.625 Z2.571
N20165 X174.054 Y201.576 Z2.536
N20170 X174.141 Y201.532 Z2.5
N20175 G3 X175.859 Y205.144 Z1.392 I0.859 J1.806
N20180 X174.141 Y201.532 Z0.284 I-0.859 J-1.806
N20185 X175.859 Y205.144 Z-0.824 I0.859 J1.806
N20190 X174.141 Y201.532 Z-1.932 I-0.859 J-1.806
N20195 X175.859 Y205.144 Z-3.039 I0.859 J1.806
N20200 X173. Y203.338 Z-3.75 I-0.859 J-1.806
N20205 G1 Y201.338
N20210 X177.
N20215 Y205.338
N20220 X173.
N20225 Y203.338
N20230 Y201.338 Z-4.103
N20235 X177. Z-4.808
N20240 Y205.338 Z-5.513
N20245 X173. Z-6.219
N20250 Y201.338 Z-6.924
N20255 X176.267 Z-7.5
N20260 X177.
N20265 Y205.338
N20270 X173.
N20275 Y201.338
N20280 X176.267
N20285 X177. Z-7.629
N20290 Y205.338 Z-8.335
N20295 X173. Z-9.04
N20300 Y201.338 Z-9.745
N20305 X177. Z-10.45
N20310 Y205.338 Z-11.156
N20315 X176.465 Z-11.25
N20320 X173.
N20325 Y201.338
N20330 X176.267
N20335 X177.
N20340 Y205.338
N20345 X176.465
N20350 X173. Z-11.861
N20355 Y201.338 Z-12.566
N20360 X177. Z-13.272
N20365 Y205.338 Z-13.977
N20370 X173. Z-14.682
N20375 Y203.536 Z-15.
N20380 Y201.338
N20385 X177.
N20390 Y205.338
N20395 X173.
N20400 Y203.536
N20405 X173.007 Y203.444 Z-14.985
N20410 X173.028 Y203.354 Z-14.971
N20415 X173.059 Y203.276 Z-14.928
N20420 X173.101 Y203.203 Z-14.885
N20425 X173.14 Y203.15 Z-14.819
N20430 X173.186 Y203.102 Z-14.753
N20435 X173.252 Y203.048 Z-14.585
N20440 X173.276 Y203.031 Z-14.4
N20445 Z5.
N20450 X240.391 Y168.464
N20455 Z3.091 F1800.
N20460 X240.419 Y168.441 Z2.886 F2700.
N20465 X240.502 Y168.378 Z2.705
N20470 X240.635 Y168.291 Z2.571
N20475 X240.721 Y168.242 Z2.536
N20480 X240.808 Y168.198 Z2.5
N20485 G3 X242.526 Y171.81 Z1.392 I0.859 J1.806
N20490 X240.808 Y168.198 Z0.284 I-0.859 J-1.806
N20495 X242.526 Y171.81 Z-0.824 I0.859 J1.806
N20500 X240.808 Y168.198 Z-1.932 I-0.859 J-1.806
N20505 X242.526 Y171.81 Z-3.039 I0.859 J1.806
N20510 X239.667 Y170.004 Z-3.75 I-0.859 J-1.806
N20515 G1 Y168.004
N20520 X243.667
N20525 Y172.004
N20530 X239.667
N20535 Y170.004
N20540 Y168.004 Z-4.103
N20545 X243.667 Z-4.808
N20550 Y172.004 Z-5.513
N20555 X239.667 Z-6.219
N20560 Y168.004 Z-6.924
N20565 X242.934 Z-7.5
N20570 X243.667
N20575 Y172.004
N20580 X239.667
N20585 Y168.004
N20590 X242.934
N20595 X243.667 Z-7.629
N20600 Y172.004 Z-8.335
N20605 X239.667 Z-9.04
N20610 Y168.004 Z-9.745
N20615 X243.667 Z-10.45
N20620 Y172.004 Z-11.156
N20625 X243.132 Z-11.25
N20630 X239.667
N20635 Y168.004
N20640 X242.934
N20645 X243.667
