%
(13X13_V2_LEFT_BACK_2MM)
(T2  D=2. CR=0. - ZMIN=-15. - FLAT END MILL)
N10 G90 G94 G17 G91.1
N15 G21
(DRILL1 2)
N20 M8
N25 S12000 M3
N30 G54
N35 G0 X491.667 Y186.667
N45 G0 Z5.
N50 G98 G83 X491.667 Y186.667 Z-15. R5. Q3. F500.
N55 X425.
N60 X325. Y186.668
N65 Y120.
N70 X225.
N75 Y186.668
N80 X125. Y186.667
N85 X58.333
N90 X125. Y86.67
N95 X58.333 Y86.667
N100 Y20.005
N105 X125. Y20.
N110 X225.
N115 X325.
N120 X425.
N125 X491.667 Y20.005
N130 Y86.667
N135 X425. Y86.67
N140 G80
N145 G0 Z15.
N150 M30
%
