%
(FLIP_PINS_CLOCK_2MM)
(T2  D=2. CR=0. - ZMIN=-15. - FLAT END MILL)
N10 G90 G94 G17 G91.1
N15 G21
(WHEN USING FUSION 360 FOR PERSONAL USE, THE FEEDRATE OF)
(RAPID MOVES IS REDUCED TO MATCH THE FEEDRATE OF CUTTING)
(MOVES, WHICH CAN INCREASE MACHINING TIME. UNRESTRICTED RAPID)
(MOVES ARE AVAILABLE WITH A FUSION 360 SUBSCRIPTION.)
(2D POCKET2 2)
N20 M8
N25 S12000 M3
N30 G54
N35 G0 X-1.036 Y2.505
N40 G43 Z15. H2
N45 G1 Z5. F1200.
N50 Z-2.15 F1000.
N55 X-1.041 Y2.511 Z-2.202
N60 X-1.053 Y2.527 Z-2.25
N65 X-1.072 Y2.552 Z-2.291
N70 X-1.096 Y2.585 Z-2.323
N75 X-1.125 Y2.624 Z-2.343
N80 X-1.156 Y2.665 Z-2.35
N85 G3 X-2.1 Y2.8 I-0.539 J-0.404
N90 X2.1 Y-2.8 I2.1 J-2.8 F1200.
N95 X-2.1 Y2.8 I-2.1 J2.8
N100 G2 X-3.003 Y2.718 I-0.517 J0.69
N105 G3 X-3.876 Y2.477 I-0.303 J-0.606
N110 X3.876 Y-2.477 I3.876 J-2.477
N115 X-3.876 Y2.477 I-3.876 J2.477
N120 G2 X-4.711 Y2.082 I-0.732 J0.468
N125 G3 X-5.479 Y1.57 I-0.084 J-0.708
N130 X5.479 Y-1.57 I5.479 J-1.57
N135 X-5.479 Y1.57 I-5.479 J1.57
N140 G2 X-6.207 Y0.922 I-0.877 J0.251
N145 G3 X-6.847 Y0.187 I0.125 J-0.756
N150 X6.847 Y-0.187 I6.847 J-0.187
N155 X-6.847 Y0.187 I-6.847 J0.187
N160 G1 X-6.842 Y0.151
N165 X-6.823 Y0.119
N170 X-6.795 Y0.096
N175 X-6.76 Y0.085
N180 X-3.817 Y-0.29
N185 X-3.788 Y-0.294
N190 X-3.76 Y-0.29
N195 X-3.734 Y-0.277
N200 X-2.351 Y0.637
N205 X-2.325 Y0.663
N210 X-2.309 Y0.697
N215 X-2.307 Y0.734
N220 X-2.319 Y0.769
N225 X-2.342 Y0.797
N230 X-2.375 Y0.815
N235 X-2.412 Y0.82
N240 X-2.463 Y0.818 Z-2.357 F1000.
N245 X-2.511 Y0.815 Z-2.377
N250 X-2.553 Y0.813 Z-2.409
N255 X-2.585 Y0.811 Z-2.45
N260 X-2.604 Y0.81 Z-2.498
N265 X-2.611 Z-2.55
N270 Z-4.5
N275 X-2.618 Z-4.552
N280 X-2.638 Y0.809 Z-4.6
N285 X-2.67 Y0.807 Z-4.641
N290 X-2.711 Y0.805 Z-4.673
N295 X-2.759 Y0.803 Z-4.693
N300 X-2.811 Y0.8 Z-4.7
N305 G3 X-3.499 Y0.096 I0.037 J-0.724
N310 X3.499 Y-0.096 I3.499 J-0.096 F1200.
N315 X-3.499 Y0.096 I-3.499 J0.096
N320 G2 X-3.996 Y-0.662 I-0.862 J0.024
N325 G3 X-4.35 Y-1.497 I0.287 J-0.614
N330 X4.35 Y1.497 I4.35 J1.497
N335 X-4.35 Y-1.497 I-4.35 J-1.497
N340 G2 X-4.559 Y-2.396 I-0.822 J-0.283
N345 G3 X-4.636 Y-3.316 I0.502 J-0.505
N350 X4.636 Y3.316 I4.636 J3.316
N355 X-4.636 Y-3.316 I-4.636 J-3.316
N360 G2 X-4.58 Y-4.289 I-0.742 J-0.531
N365 G3 X-4.403 Y-5.248 I0.67 J-0.372
N370 X4.403 Y5.248 I4.403 J5.248
N375 X-4.403 Y-5.248 I-4.403 J-5.248
N380 G1 X-4.361 Y-5.275 Z-4.687 F1000.
N385 X-4.314 Y-5.29 Z-4.673
N390 X-4.277 Y-5.294 Z-4.637
N395 X-4.241 Y-5.292 Z-4.6
N400 X-4.215 Y-5.285 Z-4.5
N405 Z15. F1200.
N410 X-1.036 Y242.505
N415 Z5.
N420 Z-2.15 F1000.
N425 X-1.041 Y242.511 Z-2.202
N430 X-1.053 Y242.527 Z-2.25
N435 X-1.072 Y242.552 Z-2.291
N440 X-1.096 Y242.585 Z-2.323
N445 X-1.125 Y242.624 Z-2.343
N450 X-1.156 Y242.665 Z-2.35
N455 G3 X-2.1 Y242.8 I-0.539 J-0.404
N460 X2.1 Y237.2 I2.1 J-2.8 F1200.
N465 X-2.1 Y242.8 I-2.1 J2.8
N470 G2 X-3.003 Y242.718 I-0.517 J0.69
N475 G3 X-3.876 Y242.477 I-0.303 J-0.606
N480 X3.876 Y237.523 I3.876 J-2.477
N485 X-3.876 Y242.477 I-3.876 J2.477
N490 G2 X-4.711 Y242.082 I-0.732 J0.468
N495 G3 X-5.479 Y241.57 I-0.084 J-0.708
N500 X5.479 Y238.43 I5.479 J-1.57
N505 X-5.479 Y241.57 I-5.479 J1.57
N510 G2 X-6.207 Y240.922 I-0.877 J0.251
N515 G3 X-6.847 Y240.187 I0.125 J-0.756
N520 X6.847 Y239.813 I6.847 J-0.187
N525 X-6.847 Y240.187 I-6.847 J0.187
N530 G1 X-6.842 Y240.151
N535 X-6.823 Y240.119
N540 X-6.795 Y240.096
N545 X-6.76 Y240.085
N550 X-3.817 Y239.71
N555 X-3.788 Y239.706
N560 X-3.76 Y239.71
N565 X-3.734 Y239.723
N570 X-2.351 Y240.637
N575 X-2.325 Y240.663
N580 X-2.309 Y240.697
N585 X-2.307 Y240.734
N590 X-2.319 Y240.769
N595 X-2.342 Y240.797
N600 X-2.375 Y240.815
N605 X-2.412 Y240.82
N610 X-2.463 Y240.818 Z-2.357 F1000.
N615 X-2.511 Y240.815 Z-2.377
N620 X-2.553 Y240.813 Z-2.409
N625 X-2.585 Y240.811 Z-2.45
N630 X-2.604 Y240.81 Z-2.498
N635 X-2.611 Z-2.55
N640 Z-4.5
N645 X-2.618 Z-4.552
N650 X-2.638 Y240.809 Z-4.6
N655 X-2.67 Y240.807 Z-4.641
N660 X-2.711 Y240.805 Z-4.673
N665 X-2.759 Y240.803 Z-4.693
N670 X-2.811 Y240.8 Z-4.7
N675 G3 X-3.499 Y240.096 I0.037 J-0.724
N680 X3.499 Y239.904 I3.499 J-0.096 F1200.
N685 X-3.499 Y240.096 I-3.499 J0.096
N690 G2 X-3.996 Y239.338 I-0.862 J0.024
N695 G3 X-4.35 Y238.503 I0.287 J-0.614
N700 X4.35 Y241.497 I4.35 J1.497
N705 X-4.35 Y238.503 I-4.35 J-1.497
N710 G2 X-4.559 Y237.604 I-0.822 J-0.283
N715 G3 X-4.636 Y236.684 I0.502 J-0.505
N720 X4.636 Y243.316 I4.636 J3.316
N725 X-4.636 Y236.684 I-4.636 J-3.316
N730 G2 X-4.58 Y235.711 I-0.742 J-0.531
N735 G3 X-4.403 Y234.752 I0.67 J-0.372
N740 X4.403 Y245.248 I4.403 J5.248
N745 X-4.403 Y234.752 I-4.403 J-5.248
N750 G1 X-4.361 Y234.725 Z-4.687 F1000.
N755 X-4.314 Y234.71 Z-4.673
N760 X-4.277 Y234.706 Z-4.637
N765 X-4.241 Y234.708 Z-4.6
N770 X-4.215 Y234.715 Z-4.5
N775 Z15. F1200.
N780 X552.622 Y239.25
N785 Z5.
N790 Z-2.15 F1000.
N795 X552.629 Y239.251 Z-2.202
N800 X552.649 Y239.252 Z-2.25
N805 X552.68 Y239.255 Z-2.291
N810 X552.722 Y239.258 Z-2.323
N815 X552.77 Y239.262 Z-2.343
N820 X552.821 Y239.266 Z-2.35
N825 G3 X553.5 Y240. I-0.058 J0.734
N830 X546.5 I-3.5 J0. F1200.
N835 X553.5 I3.5 J0.
N840 G2 X553.976 Y240.771 I0.862 J0.
N845 G3 X554.307 Y241.615 I-0.303 J0.606
N850 X545.693 Y238.385 I-4.307 J-1.615
N855 X554.307 Y241.615 I4.307 J1.615
N860 G2 X554.492 Y242.519 I0.814 J0.305
N865 G3 X554.544 Y243.441 I-0.516 J0.492
N870 X545.456 Y236.559 I-4.544 J-3.441
N875 X554.544 Y243.441 I4.544 J3.441
N880 G2 X554.462 Y244.413 I0.727 J0.551
N885 G3 X554.258 Y245.366 I-0.68 J0.353
N890 X545.742 Y234.634 I-4.258 J-5.366
N895 X554.258 Y245.366 I4.258 J5.366
N900 G1 X554.226 Y245.383
N905 X554.189 Y245.387
N910 X554.154 Y245.378
N915 X554.124 Y245.357
N920 X552.059 Y243.231
N925 X552.038 Y243.211
N930 X552.025 Y243.185
N935 X552.019 Y243.157
N940 X551.919 Y241.507
N945 X551.924 Y241.47
N950 X551.942 Y241.437
N955 X551.97 Y241.413
N960 X552.005 Y241.402
N965 X552.042 Y241.403
N970 X552.076 Y241.418
N975 X552.102 Y241.445
N980 X552.131 Y241.488 Z-2.357 F1000.
N985 X552.158 Y241.528 Z-2.377
N990 X552.181 Y241.562 Z-2.409
N995 X552.199 Y241.588 Z-2.45
N1000 X552.21 Y241.605 Z-2.498
N1005 X552.214 Y241.611 Z-2.55
N1010 Z-4.5
N1015 X552.217 Y241.616 Z-4.552
N1020 X552.229 Y241.633 Z-4.6
N1025 X552.246 Y241.659 Z-4.641
N1030 X552.269 Y241.694 Z-4.673
N1035 X552.296 Y241.734 Z-4.693
N1040 X552.325 Y241.777 Z-4.7
N1045 G3 X552.176 Y242.742 I-0.597 J0.402
N1050 X547.824 Y237.258 I-2.176 J-2.742 F1200.
N1055 X552.176 Y242.742 I2.176 J2.742
N1060 G2 X551.868 Y243.594 I0.536 J0.676
N1065 G3 X551.412 Y244.378 I-0.663 J0.139
N1070 X548.588 Y235.622 I-1.412 J-4.378
N1075 X551.412 Y244.378 I1.412 J4.378
N1080 G2 X550.819 Y245.085 I0.267 J0.827
N1085 G3 X550.129 Y245.699 I-0.706 J-0.099
N1090 X549.871 Y234.301 I-0.129 J-5.699
N1095 X550.129 Y245.699 I0.129 J5.699
N1100 G2 X549.317 Y246.238 I0.021 J0.912
N1105 G3 X548.444 Y246.671 I-0.699 J-0.313
N1110 X551.556 Y233.329 I1.556 J-6.671
N1115 X548.444 Y246.671 I-1.556 J6.671
N1120 G1 X548.397 Y246.654 Z-4.687 F1000.
N1125 X548.356 Y246.625 Z-4.673
N1130 X548.331 Y246.599 Z-4.637
N1135 X548.311 Y246.568 Z-4.6
N1140 X548.301 Y246.543 Z-4.5
N1145 Z15. F1200.
N1150 X552.622 Y-0.75
N1155 Z5.
N1160 Z-2.15 F1000.
N1165 X552.629 Y-0.749 Z-2.202
N1170 X552.649 Y-0.748 Z-2.25
N1175 X552.68 Y-0.745 Z-2.291
N1180 X552.722 Y-0.742 Z-2.323
N1185 X552.77 Y-0.738 Z-2.343
N1190 X552.821 Y-0.734 Z-2.35
N1195 G3 X553.5 Y0. I-0.058 J0.734
N1200 X546.5 I-3.5 J0. F1200.
N1205 X553.5 I3.5 J0.
N1210 G2 X553.976 Y0.771 I0.862 J0.
N1215 G3 X554.307 Y1.615 I-0.303 J0.606
N1220 X545.693 Y-1.615 I-4.307 J-1.615
N1225 X554.307 Y1.615 I4.307 J1.615
N1230 G2 X554.492 Y2.519 I0.814 J0.305
N1235 G3 X554.544 Y3.441 I-0.516 J0.492
N1240 X545.456 Y-3.441 I-4.544 J-3.441
N1245 X554.544 Y3.441 I4.544 J3.441
N1250 G2 X554.462 Y4.413 I0.727 J0.551
N1255 G3 X554.258 Y5.366 I-0.68 J0.353
N1260 X545.742 Y-5.366 I-4.258 J-5.366
N1265 X554.258 Y5.366 I4.258 J5.366
N1270 G1 X554.226 Y5.383
N1275 X554.189 Y5.387
N1280 X554.154 Y5.378
N1285 X554.124 Y5.357
N1290 X552.059 Y3.231
N1295 X552.038 Y3.211
N1300 X552.024 Y3.185
N1305 X552.019 Y3.157
N1310 X551.919 Y1.507
N1315 X551.924 Y1.47
N1320 X551.942 Y1.437
N1325 X551.97 Y1.413
N1330 X552.005 Y1.402
N1335 X552.042 Y1.403
N1340 X552.076 Y1.418
N1345 X552.102 Y1.445
N1350 X552.131 Y1.488 Z-2.357 F1000.
N1355 X552.158 Y1.528 Z-2.377
N1360 X552.181 Y1.562 Z-2.409
N1365 X552.199 Y1.588 Z-2.45
N1370 X552.21 Y1.605 Z-2.498
N1375 X552.214 Y1.611 Z-2.55
N1380 Z-4.5
N1385 X552.217 Y1.616 Z-4.552
N1390 X552.229 Y1.633 Z-4.6
N1395 X552.246 Y1.659 Z-4.641
N1400 X552.269 Y1.694 Z-4.673
N1405 X552.296 Y1.734 Z-4.693
N1410 X552.325 Y1.777 Z-4.7
N1415 G3 X552.176 Y2.742 I-0.597 J0.402
N1420 X547.824 Y-2.742 I-2.176 J-2.742 F1200.
N1425 X552.176 Y2.742 I2.176 J2.742
N1430 G2 X551.868 Y3.594 I0.536 J0.676
N1435 G3 X551.412 Y4.378 I-0.663 J0.139
N1440 X548.588 Y-4.378 I-1.412 J-4.378
N1445 X551.412 Y4.378 I1.412 J4.378
N1450 G2 X550.819 Y5.085 I0.267 J0.827
N1455 G3 X550.129 Y5.699 I-0.706 J-0.099
N1460 X549.871 Y-5.699 I-0.129 J-5.699
N1465 X550.129 Y5.699 I0.129 J5.699
N1470 G2 X549.317 Y6.238 I0.021 J0.912
N1475 G3 X548.444 Y6.671 I-0.699 J-0.313
N1480 X551.556 Y-6.671 I1.556 J-6.671
N1485 X548.444 Y6.671 I-1.556 J6.671
N1490 G1 X548.397 Y6.654 Z-4.687 F1000.
N1495 X548.356 Y6.625 Z-4.673
N1500 X548.331 Y6.599 Z-4.637
N1505 X548.311 Y6.568 Z-4.6
N1510 X548.301 Y6.543 Z-4.5
N1515 Z15. F1200.
N1520 X0.239 Y-0.614
N1525 Z5.
N1530 Z2.698 F800.
N1535 X0.253 Y-0.596 Z2.606
N1540 X0.288 Y-0.545 Z2.535
N1545 X0.333 Y-0.47 Z2.5
N1550 G3 X-1.433 Y0.47 Z2.058 I-0.883 J0.47
N1555 X0.333 Y-0.47 Z1.617 I0.883 J-0.47
N1560 X-1.433 Y0.47 Z1.175 I-0.883 J0.47
N1565 X0.333 Y-0.47 Z0.734 I0.883 J-0.47
N1570 X-1.433 Y0.47 Z0.292 I-0.883 J0.47
N1575 X0.333 Y-0.47 Z-0.149 I0.883 J-0.47
N1580 X-1.433 Y0.47 Z-0.591 I-0.883 J0.47
N1585 X0.333 Y-0.47 Z-1.032 I0.883 J-0.47
N1590 X-1.433 Y0.47 Z-1.474 I-0.883 J0.47
N1595 X0.333 Y-0.47 Z-1.915 I0.883 J-0.47
N1600 X-1.433 Y0.47 Z-2.357 I-0.883 J0.47
N1605 X0.333 Y-0.47 Z-2.798 I0.883 J-0.47
N1610 X-1.433 Y0.47 Z-3.24 I-0.883 J0.47
N1615 X0.333 Y-0.47 Z-3.681 I0.883 J-0.47
N1620 X0.45 Y0. Z-3.75 I-0.883 J0.47
N1625 X-0.45 I-0.45 J0. F1200.
N1630 X1.65 I1.05 J0.
N1635 X-1.65 I-1.65 J0.
N1640 X2.85 I2.25 J0.
N1645 X-2.85 I-2.85 J0.
N1650 X2.85 I2.85 J0.
N1655 G1 X2.848 Y0.019 Z-3.745 F1000.
N1660 X2.841 Y0.036 Z-3.74
N1665 X2.824 Y0.057 Z-3.713
N1670 X2.816 Y0.063 Z-3.675
N1675 Z-1.052
N1680 X0.239 Y-0.614 F1200.
N1685 X0.253 Y-0.596 Z-1.144 F800.
N1690 X0.288 Y-0.545 Z-1.215
N1695 X0.333 Y-0.47 Z-1.25
N1700 G3 X-1.433 Y0.47 Z-1.692 I-0.883 J0.47
N1705 X0.333 Y-0.47 Z-2.133 I0.883 J-0.47
N1710 X-1.433 Y0.47 Z-2.575 I-0.883 J0.47
N1715 X0.333 Y-0.47 Z-3.016 I0.883 J-0.47
N1720 X-1.433 Y0.47 Z-3.458 I-0.883 J0.47
N1725 X0.333 Y-0.47 Z-3.899 I0.883 J-0.47
N1730 X-1.433 Y0.47 Z-4.341 I-0.883 J0.47
N1735 X0.333 Y-0.47 Z-4.782 I0.883 J-0.47
N1740 X-1.433 Y0.47 Z-5.224 I-0.883 J0.47
N1745 X0.333 Y-0.47 Z-5.665 I0.883 J-0.47
N1750 X-1.433 Y0.47 Z-6.107 I-0.883 J0.47
N1755 X0.333 Y-0.47 Z-6.548 I0.883 J-0.47
N1760 X-1.433 Y0.47 Z-6.99 I-0.883 J0.47
N1765 X0.333 Y-0.47 Z-7.431 I0.883 J-0.47
N1770 X0.45 Y0. Z-7.5 I-0.883 J0.47
N1775 X-0.45 I-0.45 J0. F1200.
N1780 X1.65 I1.05 J0.
N1785 X-1.65 I-1.65 J0.
N1790 X2.85 I2.25 J0.
N1795 X-2.85 I-2.85 J0.
N1800 X2.85 I2.85 J0.
N1805 G1 X2.848 Y0.019 Z-7.495 F1000.
N1810 X2.841 Y0.036 Z-7.49
N1815 X2.824 Y0.057 Z-7.463
N1820 X2.816 Y0.063 Z-7.425
N1825 Z-4.802
N1830 X0.239 Y-0.614 F1200.
N1835 X0.253 Y-0.596 Z-4.894 F800.
N1840 X0.288 Y-0.545 Z-4.965
N1845 X0.333 Y-0.47 Z-5.
N1850 G3 X-1.433 Y0.47 Z-5.442 I-0.883 J0.47
N1855 X0.333 Y-0.47 Z-5.883 I0.883 J-0.47
N1860 X-1.433 Y0.47 Z-6.325 I-0.883 J0.47
N1865 X0.333 Y-0.47 Z-6.766 I0.883 J-0.47
N1870 X-1.433 Y0.47 Z-7.208 I-0.883 J0.47
N1875 X0.333 Y-0.47 Z-7.649 I0.883 J-0.47
N1880 X-1.433 Y0.47 Z-8.091 I-0.883 J0.47
N1885 X0.333 Y-0.47 Z-8.532 I0.883 J-0.47
N1890 X-1.433 Y0.47 Z-8.974 I-0.883 J0.47
N1895 X0.333 Y-0.47 Z-9.415 I0.883 J-0.47
N1900 X-1.433 Y0.47 Z-9.857 I-0.883 J0.47
N1905 X0.333 Y-0.47 Z-10.298 I0.883 J-0.47
N1910 X-1.433 Y0.47 Z-10.74 I-0.883 J0.47
N1915 X0.333 Y-0.47 Z-11.181 I0.883 J-0.47
N1920 X0.45 Y0. Z-11.25 I-0.883 J0.47
N1925 X-0.45 I-0.45 J0. F1200.
N1930 X1.65 I1.05 J0.
N1935 X-1.65 I-1.65 J0.
N1940 X2.85 I2.25 J0.
N1945 X-2.85 I-2.85 J0.
N1950 X2.85 I2.85 J0.
N1955 G1 X2.848 Y0.019 Z-11.245 F1000.
N1960 X2.841 Y0.036 Z-11.24
N1965 X2.824 Y0.057 Z-11.212
N1970 X2.816 Y0.063 Z-11.175
N1975 Z-8.552
N1980 X0.239 Y-0.614 F1200.
N1985 X0.253 Y-0.596 Z-8.644 F800.
N1990 X0.288 Y-0.545 Z-8.715
N1995 X0.333 Y-0.47 Z-8.75
N2000 G3 X-1.433 Y0.47 Z-9.192 I-0.883 J0.47
N2005 X0.333 Y-0.47 Z-9.633 I0.883 J-0.47
N2010 X-1.433 Y0.47 Z-10.075 I-0.883 J0.47
N2015 X0.333 Y-0.47 Z-10.516 I0.883 J-0.47
N2020 X-1.433 Y0.47 Z-10.958 I-0.883 J0.47
N2025 X0.333 Y-0.47 Z-11.399 I0.883 J-0.47
N2030 X-1.433 Y0.47 Z-11.841 I-0.883 J0.47
N2035 X0.333 Y-0.47 Z-12.282 I0.883 J-0.47
N2040 X-1.433 Y0.47 Z-12.724 I-0.883 J0.47
N2045 X0.333 Y-0.47 Z-13.165 I0.883 J-0.47
N2050 X-1.433 Y0.47 Z-13.607 I-0.883 J0.47
N2055 X0.333 Y-0.47 Z-14.048 I0.883 J-0.47
N2060 X-1.433 Y0.47 Z-14.49 I-0.883 J0.47
N2065 X0.333 Y-0.47 Z-14.931 I0.883 J-0.47
N2070 X0.45 Y0. Z-15. I-0.883 J0.47
N2075 X-0.45 I-0.45 J0. F1200.
N2080 X1.65 I1.05 J0.
N2085 X-1.65 I-1.65 J0.
N2090 X2.85 I2.25 J0.
N2095 X-2.85 I-2.85 J0.
N2100 X2.85 I2.85 J0.
N2105 G1 X2.848 Y0.019 Z-14.995 F1000.
N2110 X2.841 Y0.036 Z-14.99
N2115 X2.824 Y0.057 Z-14.962
N2120 X2.816 Y0.063 Z-14.925
N2125 Z5. F1200.
N2130 X0.239 Y239.386
N2135 Z2.698 F800.
N2140 X0.253 Y239.404 Z2.606
N2145 X0.288 Y239.455 Z2.535
N2150 X0.333 Y239.53 Z2.5
N2155 G3 X-1.433 Y240.47 Z2.058 I-0.883 J0.47
N2160 X0.333 Y239.53 Z1.617 I0.883 J-0.47
N2165 X-1.433 Y240.47 Z1.175 I-0.883 J0.47
N2170 X0.333 Y239.53 Z0.734 I0.883 J-0.47
N2175 X-1.433 Y240.47 Z0.292 I-0.883 J0.47
N2180 X0.333 Y239.53 Z-0.149 I0.883 J-0.47
N2185 X-1.433 Y240.47 Z-0.591 I-0.883 J0.47
N2190 X0.333 Y239.53 Z-1.032 I0.883 J-0.47
N2195 X-1.433 Y240.47 Z-1.474 I-0.883 J0.47
N2200 X0.333 Y239.53 Z-1.915 I0.883 J-0.47
N2205 X-1.433 Y240.47 Z-2.357 I-0.883 J0.47
N2210 X0.333 Y239.53 Z-2.798 I0.883 J-0.47
N2215 X-1.433 Y240.47 Z-3.24 I-0.883 J0.47
N2220 X0.333 Y239.53 Z-3.681 I0.883 J-0.47
N2225 X0.45 Y240. Z-3.75 I-0.883 J0.47
N2230 X-0.45 I-0.45 J0. F1200.
N2235 X1.65 I1.05 J0.
N2240 X-1.65 I-1.65 J0.
N2245 X2.85 I2.25 J0.
N2250 X-2.85 I-2.85 J0.
N2255 X2.85 I2.85 J0.
N2260 G1 X2.848 Y240.019 Z-3.745 F1000.
N2265 X2.841 Y240.036 Z-3.74
N2270 X2.824 Y240.057 Z-3.713
N2275 X2.816 Y240.063 Z-3.675
N2280 Z-1.052
N2285 X0.239 Y239.386 F1200.
N2290 X0.253 Y239.404 Z-1.144 F800.
N2295 X0.288 Y239.455 Z-1.215
N2300 X0.333 Y239.53 Z-1.25
N2305 G3 X-1.433 Y240.47 Z-1.692 I-0.883 J0.47
N2310 X0.333 Y239.53 Z-2.133 I0.883 J-0.47
N2315 X-1.433 Y240.47 Z-2.575 I-0.883 J0.47
N2320 X0.333 Y239.53 Z-3.016 I0.883 J-0.47
N2325 X-1.433 Y240.47 Z-3.458 I-0.883 J0.47
N2330 X0.333 Y239.53 Z-3.899 I0.883 J-0.47
N2335 X-1.433 Y240.47 Z-4.341 I-0.883 J0.47
N2340 X0.333 Y239.53 Z-4.782 I0.883 J-0.47
N2345 X-1.433 Y240.47 Z-5.224 I-0.883 J0.47
N2350 X0.333 Y239.53 Z-5.665 I0.883 J-0.47
N2355 X-1.433 Y240.47 Z-6.107 I-0.883 J0.47
N2360 X0.333 Y239.53 Z-6.548 I0.883 J-0.47
N2365 X-1.433 Y240.47 Z-6.99 I-0.883 J0.47
N2370 X0.333 Y239.53 Z-7.431 I0.883 J-0.47
N2375 X0.45 Y240. Z-7.5 I-0.883 J0.47
N2380 X-0.45 I-0.45 J0. F1200.
N2385 X1.65 I1.05 J0.
N2390 X-1.65 I-1.65 J0.
N2395 X2.85 I2.25 J0.
N2400 X-2.85 I-2.85 J0.
N2405 X2.85 I2.85 J0.
N2410 G1 X2.848 Y240.019 Z-7.495 F1000.
N2415 X2.841 Y240.036 Z-7.49
N2420 X2.824 Y240.057 Z-7.463
N2425 X2.816 Y240.063 Z-7.425
N2430 Z-4.802
N2435 X0.239 Y239.386 F1200.
N2440 X0.253 Y239.404 Z-4.894 F800.
N2445 X0.288 Y239.455 Z-4.965
N2450 X0.333 Y239.53 Z-5.
N2455 G3 X-1.433 Y240.47 Z-5.442 I-0.883 J0.47
N2460 X0.333 Y239.53 Z-5.883 I0.883 J-0.47
N2465 X-1.433 Y240.47 Z-6.325 I-0.883 J0.47
N2470 X0.333 Y239.53 Z-6.766 I0.883 J-0.47
N2475 X-1.433 Y240.47 Z-7.208 I-0.883 J0.47
N2480 X0.333 Y239.53 Z-7.649 I0.883 J-0.47
N2485 X-1.433 Y240.47 Z-8.091 I-0.883 J0.47
N2490 X0.333 Y239.53 Z-8.532 I0.883 J-0.47
N2495 X-1.433 Y240.47 Z-8.974 I-0.883 J0.47
N2500 X0.333 Y239.53 Z-9.415 I0.883 J-0.47
N2505 X-1.433 Y240.47 Z-9.857 I-0.883 J0.47
N2510 X0.333 Y239.53 Z-10.298 I0.883 J-0.47
N2515 X-1.433 Y240.47 Z-10.74 I-0.883 J0.47
N2520 X0.333 Y239.53 Z-11.181 I0.883 J-0.47
N2525 X0.45 Y240. Z-11.25 I-0.883 J0.47
N2530 X-0.45 I-0.45 J0. F1200.
N2535 X1.65 I1.05 J0.
N2540 X-1.65 I-1.65 J0.
N2545 X2.85 I2.25 J0.
N2550 X-2.85 I-2.85 J0.
N2555 X2.85 I2.85 J0.
N2560 G1 X2.848 Y240.019 Z-11.245 F1000.
N2565 X2.841 Y240.036 Z-11.24
N2570 X2.824 Y240.057 Z-11.212
N2575 X2.816 Y240.063 Z-11.175
N2580 Z-8.552
N2585 X0.239 Y239.386 F1200.
N2590 X0.253 Y239.404 Z-8.644 F800.
N2595 X0.288 Y239.455 Z-8.715
N2600 X0.333 Y239.53 Z-8.75
N2605 G3 X-1.433 Y240.47 Z-9.192 I-0.883 J0.47
N2610 X0.333 Y239.53 Z-9.633 I0.883 J-0.47
N2615 X-1.433 Y240.47 Z-10.075 I-0.883 J0.47
N2620 X0.333 Y239.53 Z-10.516 I0.883 J-0.47
N2625 X-1.433 Y240.47 Z-10.958 I-0.883 J0.47
N2630 X0.333 Y239.53 Z-11.399 I0.883 J-0.47
N2635 X-1.433 Y240.47 Z-11.841 I-0.883 J0.47
N2640 X0.333 Y239.53 Z-12.282 I0.883 J-0.47
N2645 X-1.433 Y240.47 Z-12.724 I-0.883 J0.47
N2650 X0.333 Y239.53 Z-13.165 I0.883 J-0.47
N2655 X-1.433 Y240.47 Z-13.607 I-0.883 J0.47
N2660 X0.333 Y239.53 Z-14.048 I0.883 J-0.47
N2665 X-1.433 Y240.47 Z-14.49 I-0.883 J0.47
N2670 X0.333 Y239.53 Z-14.931 I0.883 J-0.47
N2675 X0.45 Y240. Z-15. I-0.883 J0.47
N2680 X-0.45 I-0.45 J0. F1200.
N2685 X1.65 I1.05 J0.
N2690 X-1.65 I-1.65 J0.
N2695 X2.85 I2.25 J0.
N2700 X-2.85 I-2.85 J0.
N2705 X2.85 I2.85 J0.
N2710 G1 X2.848 Y240.019 Z-14.995 F1000.
N2715 X2.841 Y240.036 Z-14.99
N2720 X2.824 Y240.057 Z-14.962
N2725 X2.816 Y240.063 Z-14.925
N2730 Z5. F1200.
N2735 X550.239 Y239.386
N2740 Z2.698 F800.
N2745 X550.253 Y239.404 Z2.606
N2750 X550.288 Y239.455 Z2.535
N2755 X550.333 Y239.53 Z2.5
N2760 G3 X548.85 Y240.8 Z2.12 I-0.883 J0.47
N2765 Y239.2 Z1.859 I0.6 J-0.8
N2770 X550.05 Y240.8 Z1.418 I0.6 J0.8
N2775 X548.85 Z1.237 I-0.6 J-0.8
N2780 Y239.2 Z0.976 I0.6 J-0.8
N2785 X550.05 Y240.8 Z0.535 I0.6 J0.8
N2790 X548.85 Z0.354 I-0.6 J-0.8
N2795 Y239.2 Z0.093 I0.6 J-0.8
N2800 X550.05 Y240.8 Z-0.348 I0.6 J0.8
N2805 X548.85 Z-0.529 I-0.6 J-0.8
N2810 Y239.2 Z-0.79 I0.6 J-0.8
N2815 X550.05 Y240.8 Z-1.231 I0.6 J0.8
N2820 X548.85 Z-1.412 I-0.6 J-0.8
N2825 Y239.2 Z-1.673 I0.6 J-0.8
N2830 X550.05 Y240.8 Z-2.114 I0.6 J0.8
N2835 X548.85 Z-2.295 I-0.6 J-0.8
N2840 Y239.2 Z-2.556 I0.6 J-0.8
N2845 X550.05 Y240.8 Z-2.997 I0.6 J0.8
N2850 X548.85 Z-3.178 I-0.6 J-0.8
N2855 Y239.2 Z-3.439 I0.6 J-0.8
N2860 X550.45 Y240. Z-3.75 I0.6 J0.8
N2865 X549.55 I-0.45 J0. F1200.
N2870 X551.65 I1.05 J0.
N2875 X548.35 I-1.65 J0.
N2880 X552.85 I2.25 J0.
N2885 X547.15 I-2.85 J0.
N2890 X552.85 I2.85 J0.
N2895 G1 X552.848 Y240.019 Z-3.745 F1000.
N2900 X552.841 Y240.036 Z-3.74
N2905 X552.824 Y240.057 Z-3.713
N2910 X552.816 Y240.063 Z-3.675
N2915 Z-1.052
N2920 X550.239 Y239.386 F1200.
N2925 X550.253 Y239.404 Z-1.144 F800.
N2930 X550.288 Y239.455 Z-1.215
N2935 X550.333 Y239.53 Z-1.25
N2940 G3 X548.85 Y240.8 Z-1.63 I-0.883 J0.47
N2945 Y239.2 Z-1.891 I0.6 J-0.8
N2950 X550.05 Y240.8 Z-2.332 I0.6 J0.8
N2955 X548.85 Z-2.513 I-0.6 J-0.8
N2960 Y239.2 Z-2.774 I0.6 J-0.8
N2965 X550.05 Y240.8 Z-3.215 I0.6 J0.8
N2970 X548.85 Z-3.396 I-0.6 J-0.8
N2975 Y239.2 Z-3.657 I0.6 J-0.8
N2980 X550.05 Y240.8 Z-4.098 I0.6 J0.8
N2985 X548.85 Z-4.279 I-0.6 J-0.8
N2990 Y239.2 Z-4.54 I0.6 J-0.8
N2995 X550.05 Y240.8 Z-4.981 I0.6 J0.8
N3000 X548.85 Z-5.162 I-0.6 J-0.8
N3005 Y239.2 Z-5.423 I0.6 J-0.8
N3010 X550.05 Y240.8 Z-5.864 I0.6 J0.8
N3015 X548.85 Z-6.045 I-0.6 J-0.8
N3020 Y239.2 Z-6.306 I0.6 J-0.8
N3025 X550.05 Y240.8 Z-6.747 I0.6 J0.8
N3030 X548.85 Z-6.928 I-0.6 J-0.8
N3035 Y239.2 Z-7.189 I0.6 J-0.8
N3040 X550.45 Y240. Z-7.5 I0.6 J0.8
N3045 X549.55 I-0.45 J0. F1200.
N3050 X551.65 I1.05 J0.
N3055 X548.35 I-1.65 J0.
N3060 X552.85 I2.25 J0.
N3065 X547.15 I-2.85 J0.
N3070 X552.85 I2.85 J0.
N3075 G1 X552.848 Y240.019 Z-7.495 F1000.
N3080 X552.841 Y240.036 Z-7.49
N3085 X552.824 Y240.057 Z-7.463
N3090 X552.816 Y240.063 Z-7.425
N3095 Z-4.802
N3100 X550.239 Y239.386 F1200.
N3105 X550.253 Y239.404 Z-4.894 F800.
N3110 X550.288 Y239.455 Z-4.965
N3115 X550.333 Y239.53 Z-5.
N3120 G3 X548.85 Y240.8 Z-5.38 I-0.883 J0.47
N3125 Y239.2 Z-5.641 I0.6 J-0.8
N3130 X550.05 Y240.8 Z-6.082 I0.6 J0.8
N3135 X548.85 Z-6.263 I-0.6 J-0.8
N3140 Y239.2 Z-6.524 I0.6 J-0.8
N3145 X550.05 Y240.8 Z-6.965 I0.6 J0.8
N3150 X548.85 Z-7.146 I-0.6 J-0.8
N3155 Y239.2 Z-7.407 I0.6 J-0.8
N3160 X550.05 Y240.8 Z-7.848 I0.6 J0.8
N3165 X548.85 Y239.2 Z-8.29 I-0.6 J-0.8
N3170 X550.05 Y240.8 Z-8.731 I0.6 J0.8
N3175 X548.85 Y239.2 Z-9.173 I-0.6 J-0.8
N3180 X550.05 Y240.8 Z-9.614 I0.6 J0.8
N3185 X548.85 Y239.2 Z-10.056 I-0.6 J-0.8
N3190 X550.05 Y240.8 Z-10.497 I0.6 J0.8
N3195 X548.85 Y239.2 Z-10.939 I-0.6 J-0.8
N3200 X550.45 Y240. Z-11.25 I0.6 J0.8
N3205 X549.55 I-0.45 J0. F1200.
N3210 X551.65 I1.05 J0.
N3215 X548.35 I-1.65 J0.
N3220 X552.85 I2.25 J0.
N3225 X547.15 I-2.85 J0.
N3230 X552.85 I2.85 J0.
N3235 G1 X552.848 Y240.019 Z-11.245 F1000.
N3240 X552.841 Y240.036 Z-11.24
N3245 X552.824 Y240.057 Z-11.212
N3250 X552.816 Y240.063 Z-11.175
N3255 Z-8.552
N3260 X550.239 Y239.386 F1200.
N3265 X550.253 Y239.404 Z-8.644 F800.
N3270 X550.288 Y239.455 Z-8.715
N3275 X550.333 Y239.53 Z-8.75
N3280 G3 X548.85 Y240.8 Z-9.13 I-0.883 J0.47
N3285 Y239.2 Z-9.391 I0.6 J-0.8
N3290 X550.05 Y240.8 Z-9.832 I0.6 J0.8
N3295 X548.85 Z-10.013 I-0.6 J-0.8
N3300 Y239.2 Z-10.274 I0.6 J-0.8
N3305 X550.05 Y240.8 Z-10.715 I0.6 J0.8
N3310 X548.85 Z-10.896 I-0.6 J-0.8
N3315 Y239.2 Z-11.157 I0.6 J-0.8
N3320 X550.05 Y240.8 Z-11.598 I0.6 J0.8
N3325 X548.85 Z-11.779 I-0.6 J-0.8
N3330 Y239.2 Z-12.04 I0.6 J-0.8
N3335 X550.05 Y240.8 Z-12.481 I0.6 J0.8
N3340 X548.85 Z-12.662 I-0.6 J-0.8
N3345 Y239.2 Z-12.923 I0.6 J-0.8
N3350 X550.05 Y240.8 Z-13.364 I0.6 J0.8
N3355 X548.85 Z-13.545 I-0.6 J-0.8
N3360 Y239.2 Z-13.806 I0.6 J-0.8
N3365 X550.05 Y240.8 Z-14.247 I0.6 J0.8
N3370 X548.85 Z-14.428 I-0.6 J-0.8
N3375 Y239.2 Z-14.689 I0.6 J-0.8
N3380 X550.45 Y240. Z-15. I0.6 J0.8
N3385 X549.55 I-0.45 J0. F1200.
N3390 X551.65 I1.05 J0.
N3395 X548.35 I-1.65 J0.
N3400 X552.85 I2.25 J0.
N3405 X547.15 I-2.85 J0.
N3410 X552.85 I2.85 J0.
N3415 G1 X552.848 Y240.019 Z-14.995 F1000.
N3420 X552.841 Y240.036 Z-14.99
N3425 X552.824 Y240.057 Z-14.962
N3430 X552.816 Y240.063 Z-14.925
N3435 Z5. F1200.
N3440 X550.239 Y-0.614
N3445 Z2.698 F800.
N3450 X550.253 Y-0.596 Z2.606
N3455 X550.288 Y-0.545 Z2.535
N3460 X550.333 Y-0.47 Z2.5
N3465 G3 X548.85 Y0.8 Z2.12 I-0.883 J0.47
N3470 Y-0.8 Z1.859 I0.6 J-0.8
N3475 X550.05 Y0.8 Z1.418 I0.6 J0.8
N3480 X548.85 Z1.237 I-0.6 J-0.8
N3485 Y-0.8 Z0.976 I0.6 J-0.8
N3490 X550.05 Y0.8 Z0.535 I0.6 J0.8
N3495 X548.85 Z0.354 I-0.6 J-0.8
N3500 Y-0.8 Z0.093 I0.6 J-0.8
N3505 X550.05 Y0.8 Z-0.348 I0.6 J0.8
N3510 X548.85 Z-0.529 I-0.6 J-0.8
N3515 Y-0.8 Z-0.79 I0.6 J-0.8
N3520 X550.05 Y0.8 Z-1.231 I0.6 J0.8
N3525 X548.85 Z-1.412 I-0.6 J-0.8
N3530 Y-0.8 Z-1.673 I0.6 J-0.8
N3535 X550.05 Y0.8 Z-2.114 I0.6 J0.8
N3540 X548.85 Z-2.295 I-0.6 J-0.8
N3545 Y-0.8 Z-2.556 I0.6 J-0.8
N3550 X550.05 Y0.8 Z-2.997 I0.6 J0.8
N3555 X548.85 Z-3.178 I-0.6 J-0.8
N3560 Y-0.8 Z-3.439 I0.6 J-0.8
N3565 X550.45 Y0. Z-3.75 I0.6 J0.8
N3570 X549.55 I-0.45 J0. F1200.
N3575 X551.65 I1.05 J0.
N3580 X548.35 I-1.65 J0.
N3585 X552.85 I2.25 J0.
N3590 X547.15 I-2.85 J0.
N3595 X552.85 I2.85 J0.
N3600 G1 X552.848 Y0.019 Z-3.745 F1000.
N3605 X552.841 Y0.036 Z-3.74
N3610 X552.824 Y0.057 Z-3.713
N3615 X552.816 Y0.063 Z-3.675
N3620 Z-1.052
N3625 X550.239 Y-0.614 F1200.
N3630 X550.253 Y-0.596 Z-1.144 F800.
N3635 X550.288 Y-0.545 Z-1.215
N3640 X550.333 Y-0.47 Z-1.25
N3645 G3 X548.85 Y0.8 Z-1.63 I-0.883 J0.47
N3650 Y-0.8 Z-1.891 I0.6 J-0.8
N3655 X550.05 Y0.8 Z-2.332 I0.6 J0.8
N3660 X548.85 Z-2.513 I-0.6 J-0.8
N3665 Y-0.8 Z-2.774 I0.6 J-0.8
N3670 X550.05 Y0.8 Z-3.215 I0.6 J0.8
N3675 X548.85 Z-3.396 I-0.6 J-0.8
N3680 Y-0.8 Z-3.657 I0.6 J-0.8
N3685 X550.05 Y0.8 Z-4.098 I0.6 J0.8
N3690 X548.85 Z-4.279 I-0.6 J-0.8
N3695 Y-0.8 Z-4.54 I0.6 J-0.8
N3700 X550.05 Y0.8 Z-4.981 I0.6 J0.8
N3705 X548.85 Z-5.162 I-0.6 J-0.8
N3710 Y-0.8 Z-5.423 I0.6 J-0.8
N3715 X550.05 Y0.8 Z-5.864 I0.6 J0.8
N3720 X548.85 Z-6.045 I-0.6 J-0.8
N3725 Y-0.8 Z-6.306 I0.6 J-0.8
N3730 X550.05 Y0.8 Z-6.747 I0.6 J0.8
N3735 X548.85 Z-6.928 I-0.6 J-0.8
N3740 Y-0.8 Z-7.189 I0.6 J-0.8
N3745 X550.45 Y0. Z-7.5 I0.6 J0.8
N3750 X549.55 I-0.45 J0. F1200.
N3755 X551.65 I1.05 J0.
N3760 X548.35 I-1.65 J0.
N3765 X552.85 I2.25 J0.
N3770 X547.15 I-2.85 J0.
N3775 X552.85 I2.85 J0.
N3780 G1 X552.848 Y0.019 Z-7.495 F1000.
N3785 X552.841 Y0.036 Z-7.49
N3790 X552.824 Y0.057 Z-7.463
N3795 X552.816 Y0.063 Z-7.425
N3800 Z-4.802
N3805 X550.239 Y-0.614 F1200.
N3810 X550.253 Y-0.596 Z-4.894 F800.
N3815 X550.288 Y-0.545 Z-4.965
N3820 X550.333 Y-0.47 Z-5.
N3825 G3 X548.85 Y0.8 Z-5.38 I-0.883 J0.47
N3830 Y-0.8 Z-5.641 I0.6 J-0.8
N3835 X550.05 Y0.8 Z-6.082 I0.6 J0.8
N3840 X548.85 Z-6.263 I-0.6 J-0.8
N3845 Y-0.8 Z-6.524 I0.6 J-0.8
N3850 X550.05 Y0.8 Z-6.965 I0.6 J0.8
N3855 X548.85 Z-7.146 I-0.6 J-0.8
N3860 Y-0.8 Z-7.407 I0.6 J-0.8
N3865 X550.05 Y0.8 Z-7.848 I0.6 J0.8
N3870 X548.85 Z-8.029 I-0.6 J-0.8
N3875 Y-0.8 Z-8.29 I0.6 J-0.8
N3880 X550.05 Y0.8 Z-8.731 I0.6 J0.8
N3885 X548.85 Z-8.912 I-0.6 J-0.8
N3890 Y-0.8 Z-9.173 I0.6 J-0.8
N3895 X550.05 Y0.8 Z-9.614 I0.6 J0.8
N3900 X548.85 Z-9.795 I-0.6 J-0.8
N3905 Y-0.8 Z-10.056 I0.6 J-0.8
N3910 X550.05 Y0.8 Z-10.497 I0.6 J0.8
N3915 X548.85 Z-10.678 I-0.6 J-0.8
N3920 Y-0.8 Z-10.939 I0.6 J-0.8
N3925 X550.45 Y0. Z-11.25 I0.6 J0.8
N3930 X549.55 I-0.45 J0. F1200.
N3935 X551.65 I1.05 J0.
N3940 X548.35 I-1.65 J0.
N3945 X552.85 I2.25 J0.
N3950 X547.15 I-2.85 J0.
N3955 X552.85 I2.85 J0.
N3960 G1 X552.848 Y0.019 Z-11.245 F1000.
N3965 X552.841 Y0.036 Z-11.24
N3970 X552.824 Y0.057 Z-11.212
N3975 X552.816 Y0.063 Z-11.175
N3980 Z-8.552
N3985 X550.239 Y-0.614 F1200.
N3990 X550.253 Y-0.596 Z-8.644 F800.
N3995 X550.288 Y-0.545 Z-8.715
N4000 X550.333 Y-0.47 Z-8.75
N4005 G3 X548.85 Y0.8 Z-9.13 I-0.883 J0.47
N4010 Y-0.8 Z-9.391 I0.6 J-0.8
N4015 X550.05 Y0.8 Z-9.832 I0.6 J0.8
N4020 X548.85 Z-10.013 I-0.6 J-0.8
N4025 Y-0.8 Z-10.274 I0.6 J-0.8
N4030 X550.05 Y0.8 Z-10.715 I0.6 J0.8
N4035 X548.85 Z-10.896 I-0.6 J-0.8
N4040 Y-0.8 Z-11.157 I0.6 J-0.8
N4045 X550.05 Y0.8 Z-11.598 I0.6 J0.8
N4050 X548.85 Z-11.779 I-0.6 J-0.8
N4055 Y-0.8 Z-12.04 I0.6 J-0.8
N4060 X550.05 Y0.8 Z-12.481 I0.6 J0.8
N4065 X548.85 Z-12.662 I-0.6 J-0.8
N4070 Y-0.8 Z-12.923 I0.6 J-0.8
N4075 X550.05 Y0.8 Z-13.364 I0.6 J0.8
N4080 X548.85 Z-13.545 I-0.6 J-0.8
N4085 Y-0.8 Z-13.806 I0.6 J-0.8
N4090 X550.05 Y0.8 Z-14.247 I0.6 J0.8
N4095 X548.85 Z-14.428 I-0.6 J-0.8
N4100 Y-0.8 Z-14.689 I0.6 J-0.8
N4105 X550.45 Y0. Z-15. I0.6 J0.8
N4110 X549.55 I-0.45 J0. F1200.
N4115 X551.65 I1.05 J0.
N4120 X548.35 I-1.65 J0.
N4125 X552.85 I2.25 J0.
N4130 X547.15 I-2.85 J0.
N4135 X552.85 I2.85 J0.
N4140 G1 X552.848 Y0.019 Z-14.995 F1000.
N4145 X552.841 Y0.036 Z-14.99
N4150 X552.824 Y0.057 Z-14.962
N4155 X552.816 Y0.063 Z-14.925
N4160 Z15. F1200.
N4165 M30
%
