%
(FLIP_PINS_FIXTURE)
(T2  D=2. CR=0. - ZMIN=-18. - FLAT END MILL)
N10 G90 G94 G17 G91.1
N15 G21
(WHEN USING FUSION 360 FOR PERSONAL USE, THE FEEDRATE OF)
(RAPID MOVES IS REDUCED TO MATCH THE FEEDRATE OF CUTTING)
(MOVES, WHICH CAN INCREASE MACHINING TIME. UNRESTRICTED RAPID)
(MOVES ARE AVAILABLE WITH A FUSION 360 SUBSCRIPTION.)
(2D POCKET2)
N20 M8
N25 S12000 M3
N30 G54
N35 G0 X274.826 Y239.15
N40 G43 Z16. H2
N45 G1 Z6. F1200.
N50 Z3.698 F800.
N55 X274.845 Y239.162 Z3.606
N60 X274.896 Y239.197 Z3.535
N65 X274.964 Y239.252 Z3.5
N70 G3 X273.636 Y240.748 Z3.058 I-0.664 J0.748
N75 X274.964 Y239.252 Z2.617 I0.664 J-0.748
N80 X273.636 Y240.748 Z2.175 I-0.664 J0.748
N85 X274.964 Y239.252 Z1.734 I0.664 J-0.748
N90 X273.636 Y240.748 Z1.292 I-0.664 J0.748
N95 X274.964 Y239.252 Z0.851 I0.664 J-0.748
N100 X273.636 Y240.748 Z0.409 I-0.664 J0.748
N105 X274.964 Y239.252 Z-0.032 I0.664 J-0.748
N110 X273.636 Y240.748 Z-0.474 I-0.664 J0.748
N115 X274.964 Y239.252 Z-0.915 I0.664 J-0.748
N120 X273.636 Y240.748 Z-1.357 I-0.664 J0.748
N125 X274.964 Y239.252 Z-1.798 I0.664 J-0.748
N130 X273.636 Y240.748 Z-2.24 I-0.664 J0.748
N135 X274.964 Y239.252 Z-2.681 I0.664 J-0.748
N140 X275.3 Y240. Z-2.8 I-0.664 J0.748
N145 X274.7 I-0.3 J0. F1200.
N150 X276.5 I0.9 J0.
N155 X273.5 I-1.5 J0.
N160 X277.7 I2.1 J0.
N165 X272.3 I-2.7 J0.
N170 X278.9 I3.3 J0.
N175 X271.1 I-3.9 J0.
N180 X278.9 I3.9 J0.
N185 G1 X278.898 Y240.019 Z-2.795 F1000.
N190 X278.891 Y240.036 Z-2.79
N195 X278.874 Y240.057 Z-2.763
N200 X278.866 Y240.063 Z-2.725
N205 Z-0.102
N210 X274.826 Y239.15 F1200.
N215 X274.845 Y239.162 Z-0.194 F800.
N220 X274.896 Y239.197 Z-0.265
N225 X274.964 Y239.252 Z-0.3
N230 G3 X273.636 Y240.748 Z-0.742 I-0.664 J0.748
N235 X274.964 Y239.252 Z-1.183 I0.664 J-0.748
N240 X273.636 Y240.748 Z-1.625 I-0.664 J0.748
N245 X274.964 Y239.252 Z-2.066 I0.664 J-0.748
N250 X273.636 Y240.748 Z-2.508 I-0.664 J0.748
N255 X274.964 Y239.252 Z-2.949 I0.664 J-0.748
N260 X273.636 Y240.748 Z-3.391 I-0.664 J0.748
N265 X274.964 Y239.252 Z-3.832 I0.664 J-0.748
N270 X273.636 Y240.748 Z-4.274 I-0.664 J0.748
N275 X274.964 Y239.252 Z-4.715 I0.664 J-0.748
N280 X273.636 Y240.748 Z-5.157 I-0.664 J0.748
N285 X274.964 Y239.252 Z-5.598 I0.664 J-0.748
N290 X273.636 Y240.748 Z-6.04 I-0.664 J0.748
N295 X274.964 Y239.252 Z-6.481 I0.664 J-0.748
N300 X275.3 Y240. Z-6.6 I-0.664 J0.748
N305 X274.7 I-0.3 J0. F1200.
N310 X276.5 I0.9 J0.
N315 X273.5 I-1.5 J0.
N320 X277.7 I2.1 J0.
N325 X272.3 I-2.7 J0.
N330 X278.9 I3.3 J0.
N335 X271.1 I-3.9 J0.
N340 X278.9 I3.9 J0.
N345 G1 X278.898 Y240.019 Z-6.595 F1000.
N350 X278.891 Y240.036 Z-6.59
N355 X278.874 Y240.057 Z-6.563
N360 X278.866 Y240.063 Z-6.525
N365 Z-3.902
N370 X274.826 Y239.15 F1200.
N375 X274.845 Y239.162 Z-3.994 F800.
N380 X274.896 Y239.197 Z-4.065
N385 X274.964 Y239.252 Z-4.1
N390 G3 X273.636 Y240.748 Z-4.542 I-0.664 J0.748
N395 X274.964 Y239.252 Z-4.983 I0.664 J-0.748
N400 X273.636 Y240.748 Z-5.425 I-0.664 J0.748
N405 X274.964 Y239.252 Z-5.866 I0.664 J-0.748
N410 X273.636 Y240.748 Z-6.308 I-0.664 J0.748
N415 X274.964 Y239.252 Z-6.749 I0.664 J-0.748
N420 X273.636 Y240.748 Z-7.191 I-0.664 J0.748
N425 X274.964 Y239.252 Z-7.632 I0.664 J-0.748
N430 X273.636 Y240.748 Z-8.074 I-0.664 J0.748
N435 X274.964 Y239.252 Z-8.515 I0.664 J-0.748
N440 X273.636 Y240.748 Z-8.957 I-0.664 J0.748
N445 X274.964 Y239.252 Z-9.398 I0.664 J-0.748
N450 X273.636 Y240.748 Z-9.84 I-0.664 J0.748
N455 X274.964 Y239.252 Z-10.281 I0.664 J-0.748
N460 X275.3 Y240. Z-10.4 I-0.664 J0.748
N465 X274.7 I-0.3 J0. F1200.
N470 X276.5 I0.9 J0.
N475 X273.5 I-1.5 J0.
N480 X277.7 I2.1 J0.
N485 X272.3 I-2.7 J0.
N490 X278.9 I3.3 J0.
N495 X271.1 I-3.9 J0.
N500 X278.9 I3.9 J0.
N505 G1 X278.898 Y240.019 Z-10.395 F1000.
N510 X278.891 Y240.036 Z-10.39
N515 X278.874 Y240.057 Z-10.363
N520 X278.866 Y240.063 Z-10.325
N525 Z-7.702
N530 X274.826 Y239.15 F1200.
N535 X274.845 Y239.162 Z-7.794 F800.
N540 X274.896 Y239.197 Z-7.865
N545 X274.964 Y239.252 Z-7.9
N550 G3 X273.636 Y240.748 Z-8.342 I-0.664 J0.748
N555 X274.964 Y239.252 Z-8.783 I0.664 J-0.748
N560 X273.636 Y240.748 Z-9.225 I-0.664 J0.748
N565 X274.964 Y239.252 Z-9.666 I0.664 J-0.748
N570 X273.636 Y240.748 Z-10.108 I-0.664 J0.748
N575 X274.964 Y239.252 Z-10.549 I0.664 J-0.748
N580 X273.636 Y240.748 Z-10.991 I-0.664 J0.748
N585 X274.964 Y239.252 Z-11.432 I0.664 J-0.748
N590 X273.636 Y240.748 Z-11.874 I-0.664 J0.748
N595 X274.964 Y239.252 Z-12.315 I0.664 J-0.748
N600 X273.636 Y240.748 Z-12.757 I-0.664 J0.748
N605 X274.964 Y239.252 Z-13.198 I0.664 J-0.748
N610 X273.636 Y240.748 Z-13.64 I-0.664 J0.748
N615 X274.964 Y239.252 Z-14.081 I0.664 J-0.748
N620 X275.3 Y240. Z-14.2 I-0.664 J0.748
N625 X274.7 I-0.3 J0. F1200.
N630 X276.5 I0.9 J0.
N635 X273.5 I-1.5 J0.
N640 X277.7 I2.1 J0.
N645 X272.3 I-2.7 J0.
N650 X278.9 I3.3 J0.
N655 X271.1 I-3.9 J0.
N660 X278.9 I3.9 J0.
N665 G1 X278.898 Y240.019 Z-14.195 F1000.
N670 X278.891 Y240.036 Z-14.19
N675 X278.874 Y240.057 Z-14.163
N680 X278.866 Y240.063 Z-14.125
N685 Z-11.502
N690 X274.826 Y239.15 F1200.
N695 X274.845 Y239.162 Z-11.594 F800.
N700 X274.896 Y239.197 Z-11.665
N705 X274.964 Y239.252 Z-11.7
N710 G3 X273.636 Y240.748 Z-12.142 I-0.664 J0.748
N715 X274.964 Y239.252 Z-12.583 I0.664 J-0.748
N720 X273.636 Y240.748 Z-13.025 I-0.664 J0.748
N725 X274.964 Y239.252 Z-13.466 I0.664 J-0.748
N730 X273.636 Y240.748 Z-13.908 I-0.664 J0.748
N735 X274.964 Y239.252 Z-14.349 I0.664 J-0.748
N740 X273.636 Y240.748 Z-14.791 I-0.664 J0.748
N745 X274.964 Y239.252 Z-15.232 I0.664 J-0.748
N750 X273.636 Y240.748 Z-15.674 I-0.664 J0.748
N755 X274.964 Y239.252 Z-16.115 I0.664 J-0.748
N760 X273.636 Y240.748 Z-16.557 I-0.664 J0.748
N765 X274.964 Y239.252 Z-16.998 I0.664 J-0.748
N770 X273.636 Y240.748 Z-17.44 I-0.664 J0.748
N775 X274.964 Y239.252 Z-17.881 I0.664 J-0.748
N780 X275.3 Y240. Z-18. I-0.664 J0.748
N785 X274.7 I-0.3 J0. F1200.
N790 X276.5 I0.9 J0.
N795 X273.5 I-1.5 J0.
N800 X277.7 I2.1 J0.
N805 X272.3 I-2.7 J0.
N810 X278.9 I3.3 J0.
N815 X271.1 I-3.9 J0.
N820 X278.9 I3.9 J0.
N825 G1 X278.898 Y240.019 Z-17.995 F1000.
N830 X278.891 Y240.036 Z-17.99
N835 X278.874 Y240.057 Z-17.962
N840 X278.866 Y240.063 Z-17.925
N845 Z6. F1200.
N850 X274.826 Y-0.85
N855 Z3.698 F800.
N860 X274.845 Y-0.838 Z3.606
N865 X274.896 Y-0.803 Z3.535
N870 X274.964 Y-0.748 Z3.5
N875 G3 X273.636 Y0.748 Z3.058 I-0.664 J0.748
N880 X274.964 Y-0.748 Z2.617 I0.664 J-0.748
N885 X273.636 Y0.748 Z2.175 I-0.664 J0.748
N890 X274.964 Y-0.748 Z1.734 I0.664 J-0.748
N895 X273.636 Y0.748 Z1.292 I-0.664 J0.748
N900 X274.964 Y-0.748 Z0.851 I0.664 J-0.748
N905 X273.636 Y0.748 Z0.409 I-0.664 J0.748
N910 X274.964 Y-0.748 Z-0.032 I0.664 J-0.748
N915 X273.636 Y0.748 Z-0.474 I-0.664 J0.748
N920 X274.964 Y-0.748 Z-0.915 I0.664 J-0.748
N925 X273.636 Y0.748 Z-1.357 I-0.664 J0.748
N930 X274.964 Y-0.748 Z-1.798 I0.664 J-0.748
N935 X273.636 Y0.748 Z-2.24 I-0.664 J0.748
N940 X274.964 Y-0.748 Z-2.681 I0.664 J-0.748
N945 X275.3 Y0. Z-2.8 I-0.664 J0.748
N950 X274.7 I-0.3 J0. F1200.
N955 X276.5 I0.9 J0.
N960 X273.5 I-1.5 J0.
N965 X277.7 I2.1 J0.
N970 X272.3 I-2.7 J0.
N975 X278.9 I3.3 J0.
N980 X271.1 I-3.9 J0.
N985 X278.9 I3.9 J0.
N990 G1 X278.898 Y0.019 Z-2.795 F1000.
N995 X278.891 Y0.036 Z-2.79
N1000 X278.874 Y0.057 Z-2.763
N1005 X278.866 Y0.063 Z-2.725
N1010 Z-0.102
N1015 X274.826 Y-0.85 F1200.
N1020 X274.845 Y-0.838 Z-0.194 F800.
N1025 X274.896 Y-0.803 Z-0.265
N1030 X274.964 Y-0.748 Z-0.3
N1035 G3 X273.636 Y0.748 Z-0.742 I-0.664 J0.748
N1040 X274.964 Y-0.748 Z-1.183 I0.664 J-0.748
N1045 X273.636 Y0.748 Z-1.625 I-0.664 J0.748
N1050 X274.964 Y-0.748 Z-2.066 I0.664 J-0.748
N1055 X273.636 Y0.748 Z-2.508 I-0.664 J0.748
N1060 X274.964 Y-0.748 Z-2.949 I0.664 J-0.748
N1065 X273.636 Y0.748 Z-3.391 I-0.664 J0.748
N1070 X274.964 Y-0.748 Z-3.832 I0.664 J-0.748
N1075 X273.636 Y0.748 Z-4.274 I-0.664 J0.748
N1080 X274.964 Y-0.748 Z-4.715 I0.664 J-0.748
N1085 X273.636 Y0.748 Z-5.157 I-0.664 J0.748
N1090 X274.964 Y-0.748 Z-5.598 I0.664 J-0.748
N1095 X273.636 Y0.748 Z-6.04 I-0.664 J0.748
N1100 X274.964 Y-0.748 Z-6.481 I0.664 J-0.748
N1105 X275.3 Y0. Z-6.6 I-0.664 J0.748
N1110 X274.7 I-0.3 J0. F1200.
N1115 X276.5 I0.9 J0.
N1120 X273.5 I-1.5 J0.
N1125 X277.7 I2.1 J0.
N1130 X272.3 I-2.7 J0.
N1135 X278.9 I3.3 J0.
N1140 X271.1 I-3.9 J0.
N1145 X278.9 I3.9 J0.
N1150 G1 X278.898 Y0.019 Z-6.595 F1000.
N1155 X278.891 Y0.036 Z-6.59
N1160 X278.874 Y0.057 Z-6.563
N1165 X278.866 Y0.063 Z-6.525
N1170 Z-3.902
N1175 X274.826 Y-0.85 F1200.
N1180 X274.845 Y-0.838 Z-3.994 F800.
N1185 X274.896 Y-0.803 Z-4.065
N1190 X274.964 Y-0.748 Z-4.1
N1195 G3 X273.636 Y0.748 Z-4.542 I-0.664 J0.748
N1200 X274.964 Y-0.748 Z-4.983 I0.664 J-0.748
N1205 X273.636 Y0.748 Z-5.425 I-0.664 J0.748
N1210 X274.964 Y-0.748 Z-5.866 I0.664 J-0.748
N1215 X273.636 Y0.748 Z-6.308 I-0.664 J0.748
N1220 X274.964 Y-0.748 Z-6.749 I0.664 J-0.748
N1225 X273.636 Y0.748 Z-7.191 I-0.664 J0.748
N1230 X274.964 Y-0.748 Z-7.632 I0.664 J-0.748
N1235 X273.636 Y0.748 Z-8.074 I-0.664 J0.748
N1240 X274.964 Y-0.748 Z-8.515 I0.664 J-0.748
N1245 X273.636 Y0.748 Z-8.957 I-0.664 J0.748
N1250 X274.964 Y-0.748 Z-9.398 I0.664 J-0.748
N1255 X273.636 Y0.748 Z-9.84 I-0.664 J0.748
N1260 X274.964 Y-0.748 Z-10.281 I0.664 J-0.748
N1265 X275.3 Y0. Z-10.4 I-0.664 J0.748
N1270 X274.7 I-0.3 J0. F1200.
N1275 X276.5 I0.9 J0.
N1280 X273.5 I-1.5 J0.
N1285 X277.7 I2.1 J0.
N1290 X272.3 I-2.7 J0.
N1295 X278.9 I3.3 J0.
N1300 X271.1 I-3.9 J0.
N1305 X278.9 I3.9 J0.
N1310 G1 X278.898 Y0.019 Z-10.395 F1000.
N1315 X278.891 Y0.036 Z-10.39
N1320 X278.874 Y0.057 Z-10.363
N1325 X278.866 Y0.063 Z-10.325
N1330 Z-7.702
N1335 X274.826 Y-0.85 F1200.
N1340 X274.845 Y-0.838 Z-7.794 F800.
N1345 X274.896 Y-0.803 Z-7.865
N1350 X274.964 Y-0.748 Z-7.9
N1355 G3 X273.636 Y0.748 Z-8.342 I-0.664 J0.748
N1360 X274.964 Y-0.748 Z-8.783 I0.664 J-0.748
N1365 X273.636 Y0.748 Z-9.225 I-0.664 J0.748
N1370 X274.964 Y-0.748 Z-9.666 I0.664 J-0.748
N1375 X273.636 Y0.748 Z-10.108 I-0.664 J0.748
N1380 X274.964 Y-0.748 Z-10.549 I0.664 J-0.748
N1385 X273.636 Y0.748 Z-10.991 I-0.664 J0.748
N1390 X274.964 Y-0.748 Z-11.432 I0.664 J-0.748
N1395 X273.636 Y0.748 Z-11.874 I-0.664 J0.748
N1400 X274.964 Y-0.748 Z-12.315 I0.664 J-0.748
N1405 X273.636 Y0.748 Z-12.757 I-0.664 J0.748
N1410 X274.964 Y-0.748 Z-13.198 I0.664 J-0.748
N1415 X273.636 Y0.748 Z-13.64 I-0.664 J0.748
N1420 X274.964 Y-0.748 Z-14.081 I0.664 J-0.748
N1425 X275.3 Y0. Z-14.2 I-0.664 J0.748
N1430 X274.7 I-0.3 J0. F1200.
N1435 X276.5 I0.9 J0.
N1440 X273.5 I-1.5 J0.
N1445 X277.7 I2.1 J0.
N1450 X272.3 I-2.7 J0.
N1455 X278.9 I3.3 J0.
N1460 X271.1 I-3.9 J0.
N1465 X278.9 I3.9 J0.
N1470 G1 X278.898 Y0.019 Z-14.195 F1000.
N1475 X278.891 Y0.036 Z-14.19
N1480 X278.874 Y0.057 Z-14.163
N1485 X278.866 Y0.063 Z-14.125
N1490 Z-11.502
N1495 X274.826 Y-0.85 F1200.
N1500 X274.845 Y-0.838 Z-11.594 F800.
N1505 X274.896 Y-0.803 Z-11.665
N1510 X274.964 Y-0.748 Z-11.7
N1515 G3 X273.636 Y0.748 Z-12.142 I-0.664 J0.748
N1520 X274.964 Y-0.748 Z-12.583 I0.664 J-0.748
N1525 X273.636 Y0.748 Z-13.025 I-0.664 J0.748
N1530 X274.964 Y-0.748 Z-13.466 I0.664 J-0.748
N1535 X273.636 Y0.748 Z-13.908 I-0.664 J0.748
N1540 X274.964 Y-0.748 Z-14.349 I0.664 J-0.748
N1545 X273.636 Y0.748 Z-14.791 I-0.664 J0.748
N1550 X274.964 Y-0.748 Z-15.232 I0.664 J-0.748
N1555 X273.636 Y0.748 Z-15.674 I-0.664 J0.748
N1560 X274.964 Y-0.748 Z-16.115 I0.664 J-0.748
N1565 X273.636 Y0.748 Z-16.557 I-0.664 J0.748
N1570 X274.964 Y-0.748 Z-16.998 I0.664 J-0.748
N1575 X273.636 Y0.748 Z-17.44 I-0.664 J0.748
N1580 X274.964 Y-0.748 Z-17.881 I0.664 J-0.748
N1585 X275.3 Y0. Z-18. I-0.664 J0.748
N1590 X274.7 I-0.3 J0. F1200.
N1595 X276.5 I0.9 J0.
N1600 X273.5 I-1.5 J0.
N1605 X277.7 I2.1 J0.
N1610 X272.3 I-2.7 J0.
N1615 X278.9 I3.3 J0.
N1620 X271.1 I-3.9 J0.
N1625 X278.9 I3.9 J0.
N1630 G1 X278.898 Y0.019 Z-17.995 F1000.
N1635 X278.891 Y0.036 Z-17.99
N1640 X278.874 Y0.057 Z-17.962
N1645 X278.866 Y0.063 Z-17.925
N1650 Z6. F1200.
N1655 X549.826 Y-0.85
N1660 Z3.698 F800.
N1665 X549.845 Y-0.838 Z3.606
N1670 X549.896 Y-0.803 Z3.535
N1675 X549.964 Y-0.748 Z3.5
N1680 G3 X548.636 Y0.748 Z3.058 I-0.664 J0.748
N1685 X549.964 Y-0.748 Z2.617 I0.664 J-0.748
N1690 X548.636 Y0.748 Z2.175 I-0.664 J0.748
N1695 X549.964 Y-0.748 Z1.734 I0.664 J-0.748
N1700 X548.636 Y0.748 Z1.292 I-0.664 J0.748
N1705 X549.964 Y-0.748 Z0.851 I0.664 J-0.748
N1710 X548.636 Y0.748 Z0.409 I-0.664 J0.748
N1715 X549.964 Y-0.748 Z-0.032 I0.664 J-0.748
N1720 X548.636 Y0.748 Z-0.474 I-0.664 J0.748
N1725 X549.964 Y-0.748 Z-0.915 I0.664 J-0.748
N1730 X548.636 Y0.748 Z-1.357 I-0.664 J0.748
N1735 X549.964 Y-0.748 Z-1.798 I0.664 J-0.748
N1740 X548.636 Y0.748 Z-2.24 I-0.664 J0.748
N1745 X549.964 Y-0.748 Z-2.681 I0.664 J-0.748
N1750 X550.3 Y0. Z-2.8 I-0.664 J0.748
N1755 X549.7 I-0.3 J0. F1200.
N1760 X551.5 I0.9 J0.
N1765 X548.5 I-1.5 J0.
N1770 X552.7 I2.1 J0.
N1775 X547.3 I-2.7 J0.
N1780 X553.9 I3.3 J0.
N1785 X546.1 I-3.9 J0.
N1790 X553.9 I3.9 J0.
N1795 G1 X553.898 Y0.019 Z-2.795 F1000.
N1800 X553.891 Y0.036 Z-2.79
N1805 X553.874 Y0.057 Z-2.763
N1810 X553.866 Y0.063 Z-2.725
N1815 Z-0.102
N1820 X549.826 Y-0.85 F1200.
N1825 X549.845 Y-0.838 Z-0.194 F800.
N1830 X549.896 Y-0.803 Z-0.265
N1835 X549.964 Y-0.748 Z-0.3
N1840 G3 X548.636 Y0.748 Z-0.742 I-0.664 J0.748
N1845 X549.964 Y-0.748 Z-1.183 I0.664 J-0.748
N1850 X548.636 Y0.748 Z-1.625 I-0.664 J0.748
N1855 X549.964 Y-0.748 Z-2.066 I0.664 J-0.748
N1860 X548.636 Y0.748 Z-2.508 I-0.664 J0.748
N1865 X549.964 Y-0.748 Z-2.949 I0.664 J-0.748
N1870 X548.636 Y0.748 Z-3.391 I-0.664 J0.748
N1875 X549.964 Y-0.748 Z-3.832 I0.664 J-0.748
N1880 X548.636 Y0.748 Z-4.274 I-0.664 J0.748
N1885 X549.964 Y-0.748 Z-4.715 I0.664 J-0.748
N1890 X548.636 Y0.748 Z-5.157 I-0.664 J0.748
N1895 X549.964 Y-0.748 Z-5.598 I0.664 J-0.748
N1900 X548.636 Y0.748 Z-6.04 I-0.664 J0.748
N1905 X549.964 Y-0.748 Z-6.481 I0.664 J-0.748
N1910 X550.3 Y0. Z-6.6 I-0.664 J0.748
N1915 X549.7 I-0.3 J0. F1200.
N1920 X551.5 I0.9 J0.
N1925 X548.5 I-1.5 J0.
N1930 X552.7 I2.1 J0.
N1935 X547.3 I-2.7 J0.
N1940 X553.9 I3.3 J0.
N1945 X546.1 I-3.9 J0.
N1950 X553.9 I3.9 J0.
N1955 G1 X553.898 Y0.019 Z-6.595 F1000.
N1960 X553.891 Y0.036 Z-6.59
N1965 X553.874 Y0.057 Z-6.563
N1970 X553.866 Y0.063 Z-6.525
N1975 Z-3.902
N1980 X549.826 Y-0.85 F1200.
N1985 X549.845 Y-0.838 Z-3.994 F800.
N1990 X549.896 Y-0.803 Z-4.065
N1995 X549.964 Y-0.748 Z-4.1
N2000 G3 X548.7 Y0.8 Z-4.53 I-0.664 J0.748
N2005 Y-0.8 Z-4.791 I0.6 J-0.8
N2010 X549.9 Y0.8 Z-5.232 I0.6 J0.8
N2015 X548.7 Y-0.8 Z-5.674 I-0.6 J-0.8
N2020 X549.9 Y0.8 Z-6.115 I0.6 J0.8
N2025 X548.7 Y-0.8 Z-6.557 I-0.6 J-0.8
N2030 X549.9 Y0.8 Z-6.998 I0.6 J0.8
N2035 X548.7 Y-0.8 Z-7.44 I-0.6 J-0.8
N2040 X549.9 Y0.8 Z-7.881 I0.6 J0.8
N2045 X548.7 Y-0.8 Z-8.323 I-0.6 J-0.8
N2050 X549.9 Y0.8 Z-8.764 I0.6 J0.8
N2055 X548.7 Y-0.8 Z-9.206 I-0.6 J-0.8
N2060 X549.9 Y0.8 Z-9.647 I0.6 J0.8
N2065 X548.7 Y-0.8 Z-10.089 I-0.6 J-0.8
N2070 X550.3 Y0. Z-10.4 I0.6 J0.8
N2075 X549.7 I-0.3 J0. F1200.
N2080 X551.5 I0.9 J0.
N2085 X548.5 I-1.5 J0.
N2090 X552.7 I2.1 J0.
N2095 X547.3 I-2.7 J0.
N2100 X553.9 I3.3 J0.
N2105 X546.1 I-3.9 J0.
N2110 X553.9 I3.9 J0.
N2115 G1 X553.898 Y0.019 Z-10.395 F1000.
N2120 X553.891 Y0.036 Z-10.39
N2125 X553.874 Y0.057 Z-10.363
N2130 X553.866 Y0.063 Z-10.325
N2135 Z-7.702
N2140 X549.826 Y-0.85 F1200.
N2145 X549.845 Y-0.838 Z-7.794 F800.
N2150 X549.896 Y-0.803 Z-7.865
N2155 X549.964 Y-0.748 Z-7.9
N2160 G3 X548.636 Y0.748 Z-8.342 I-0.664 J0.748
N2165 X549.964 Y-0.748 Z-8.783 I0.664 J-0.748
N2170 X548.636 Y0.748 Z-9.225 I-0.664 J0.748
N2175 X549.964 Y-0.748 Z-9.666 I0.664 J-0.748
N2180 X548.636 Y0.748 Z-10.108 I-0.664 J0.748
N2185 X549.964 Y-0.748 Z-10.549 I0.664 J-0.748
N2190 X548.636 Y0.748 Z-10.991 I-0.664 J0.748
N2195 X549.964 Y-0.748 Z-11.432 I0.664 J-0.748
N2200 X548.636 Y0.748 Z-11.874 I-0.664 J0.748
N2205 X549.964 Y-0.748 Z-12.315 I0.664 J-0.748
N2210 X548.636 Y0.748 Z-12.757 I-0.664 J0.748
N2215 X549.964 Y-0.748 Z-13.198 I0.664 J-0.748
N2220 X548.636 Y0.748 Z-13.64 I-0.664 J0.748
N2225 X549.964 Y-0.748 Z-14.081 I0.664 J-0.748
N2230 X550.3 Y0. Z-14.2 I-0.664 J0.748
N2235 X549.7 I-0.3 J0. F1200.
N2240 X551.5 I0.9 J0.
N2245 X548.5 I-1.5 J0.
N2250 X552.7 I2.1 J0.
N2255 X547.3 I-2.7 J0.
N2260 X553.9 I3.3 J0.
N2265 X546.1 I-3.9 J0.
N2270 X553.9 I3.9 J0.
N2275 G1 X553.898 Y0.019 Z-14.195 F1000.
N2280 X553.891 Y0.036 Z-14.19
N2285 X553.874 Y0.057 Z-14.163
N2290 X553.866 Y0.063 Z-14.125
N2295 Z-11.502
N2300 X549.826 Y-0.85 F1200.
N2305 X549.845 Y-0.838 Z-11.594 F800.
N2310 X549.896 Y-0.803 Z-11.665
N2315 X549.964 Y-0.748 Z-11.7
N2320 G3 X548.636 Y0.748 Z-12.142 I-0.664 J0.748
N2325 X549.964 Y-0.748 Z-12.583 I0.664 J-0.748
N2330 X548.636 Y0.748 Z-13.025 I-0.664 J0.748
N2335 X549.964 Y-0.748 Z-13.466 I0.664 J-0.748
N2340 X548.636 Y0.748 Z-13.908 I-0.664 J0.748
N2345 X549.964 Y-0.748 Z-14.349 I0.664 J-0.748
N2350 X548.636 Y0.748 Z-14.791 I-0.664 J0.748
N2355 X549.964 Y-0.748 Z-15.232 I0.664 J-0.748
N2360 X548.636 Y0.748 Z-15.674 I-0.664 J0.748
N2365 X549.964 Y-0.748 Z-16.115 I0.664 J-0.748
N2370 X548.636 Y0.748 Z-16.557 I-0.664 J0.748
N2375 X549.964 Y-0.748 Z-16.998 I0.664 J-0.748
N2380 X548.636 Y0.748 Z-17.44 I-0.664 J0.748
N2385 X549.964 Y-0.748 Z-17.881 I0.664 J-0.748
N2390 X550.3 Y0. Z-18. I-0.664 J0.748
N2395 X549.7 I-0.3 J0. F1200.
N2400 X551.5 I0.9 J0.
N2405 X548.5 I-1.5 J0.
N2410 X552.7 I2.1 J0.
N2415 X547.3 I-2.7 J0.
N2420 X553.9 I3.3 J0.
N2425 X546.1 I-3.9 J0.
N2430 X553.9 I3.9 J0.
N2435 G1 X553.898 Y0.019 Z-17.995 F1000.
N2440 X553.891 Y0.036 Z-17.99
N2445 X553.874 Y0.057 Z-17.962
N2450 X553.866 Y0.063 Z-17.925
N2455 Z6. F1200.
N2460 X549.826 Y239.15
N2465 Z3.698 F800.
N2470 X549.845 Y239.162 Z3.606
N2475 X549.896 Y239.197 Z3.535
N2480 X549.964 Y239.252 Z3.5
N2485 G3 X548.7 Y240.8 Z3.07 I-0.664 J0.748
N2490 X549.9 Y239.2 Z2.629 I0.6 J-0.8
N2495 X548.7 Y240.8 Z2.187 I-0.6 J0.8
N2500 X549.9 Y239.2 Z1.746 I0.6 J-0.8
N2505 X548.7 Y240.8 Z1.304 I-0.6 J0.8
N2510 X549.9 Y239.2 Z0.863 I0.6 J-0.8
N2515 X548.7 Y240.8 Z0.421 I-0.6 J0.8
N2520 X549.9 Y239.2 Z-0.021 I0.6 J-0.8
N2525 X548.7 Y240.8 Z-0.462 I-0.6 J0.8
N2530 X549.9 Y239.2 Z-0.904 I0.6 J-0.8
N2535 X548.7 Y240.8 Z-1.345 I-0.6 J0.8
N2540 X549.9 Y239.2 Z-1.787 I0.6 J-0.8
N2545 X548.7 Y240.8 Z-2.228 I-0.6 J0.8
N2550 X549.9 Y239.2 Z-2.67 I0.6 J-0.8
N2555 X550.3 Y240. Z-2.8 I-0.6 J0.8
N2560 X549.7 I-0.3 J0. F1200.
N2565 X551.5 I0.9 J0.
N2570 X548.5 I-1.5 J0.
N2575 X552.7 I2.1 J0.
N2580 X547.3 I-2.7 J0.
N2585 X553.9 I3.3 J0.
N2590 X546.1 I-3.9 J0.
N2595 X553.9 I3.9 J0.
N2600 G1 X553.898 Y240.019 Z-2.795 F1000.
N2605 X553.891 Y240.036 Z-2.79
N2610 X553.874 Y240.057 Z-2.763
N2615 X553.866 Y240.063 Z-2.725
N2620 Z-0.102
N2625 X549.826 Y239.15 F1200.
N2630 X549.845 Y239.162 Z-0.194 F800.
N2635 X549.896 Y239.197 Z-0.265
N2640 X549.964 Y239.252 Z-0.3
N2645 G3 X548.7 Y240.8 Z-0.73 I-0.664 J0.748
N2650 Y239.2 Z-0.991 I0.6 J-0.8
N2655 X549.9 Y240.8 Z-1.432 I0.6 J0.8
N2660 X548.7 Y239.2 Z-1.874 I-0.6 J-0.8
N2665 X549.9 Y240.8 Z-2.315 I0.6 J0.8
N2670 X548.7 Y239.2 Z-2.757 I-0.6 J-0.8
N2675 X549.9 Y240.8 Z-3.198 I0.6 J0.8
N2680 X548.7 Y239.2 Z-3.64 I-0.6 J-0.8
N2685 X549.9 Y240.8 Z-4.081 I0.6 J0.8
N2690 X548.7 Y239.2 Z-4.523 I-0.6 J-0.8
N2695 X549.9 Y240.8 Z-4.964 I0.6 J0.8
N2700 X548.7 Y239.2 Z-5.406 I-0.6 J-0.8
N2705 X549.9 Y240.8 Z-5.847 I0.6 J0.8
N2710 X548.7 Y239.2 Z-6.289 I-0.6 J-0.8
N2715 X550.3 Y240. Z-6.6 I0.6 J0.8
N2720 X549.7 I-0.3 J0. F1200.
N2725 X551.5 I0.9 J0.
N2730 X548.5 I-1.5 J0.
N2735 X552.7 I2.1 J0.
N2740 X547.3 I-2.7 J0.
N2745 X553.9 I3.3 J0.
N2750 X546.1 I-3.9 J0.
N2755 X553.9 I3.9 J0.
N2760 G1 X553.898 Y240.019 Z-6.595 F1000.
N2765 X553.891 Y240.036 Z-6.59
N2770 X553.874 Y240.057 Z-6.563
N2775 X553.866 Y240.063 Z-6.525
N2780 Z-3.902
N2785 X549.826 Y239.15 F1200.
N2790 X549.845 Y239.162 Z-3.994 F800.
N2795 X549.896 Y239.197 Z-4.065
N2800 X549.964 Y239.252 Z-4.1
N2805 G3 X548.7 Y240.8 Z-4.53 I-0.664 J0.748
N2810 Y239.2 Z-4.791 I0.6 J-0.8
N2815 X549.9 Y240.8 Z-5.232 I0.6 J0.8
N2820 X548.7 Y239.2 Z-5.674 I-0.6 J-0.8
N2825 X549.9 Y240.8 Z-6.115 I0.6 J0.8
N2830 X548.7 Y239.2 Z-6.557 I-0.6 J-0.8
N2835 X549.9 Y240.8 Z-6.998 I0.6 J0.8
N2840 X548.7 Y239.2 Z-7.44 I-0.6 J-0.8
N2845 X549.9 Y240.8 Z-7.881 I0.6 J0.8
N2850 X548.7 Y239.2 Z-8.323 I-0.6 J-0.8
N2855 X549.9 Y240.8 Z-8.764 I0.6 J0.8
N2860 X548.7 Y239.2 Z-9.206 I-0.6 J-0.8
N2865 X549.9 Y240.8 Z-9.647 I0.6 J0.8
N2870 X548.7 Y239.2 Z-10.089 I-0.6 J-0.8
N2875 X550.3 Y240. Z-10.4 I0.6 J0.8
N2880 X549.7 I-0.3 J0. F1200.
N2885 X551.5 I0.9 J0.
N2890 X548.5 I-1.5 J0.
N2895 X552.7 I2.1 J0.
N2900 X547.3 I-2.7 J0.
N2905 X553.9 I3.3 J0.
N2910 X546.1 I-3.9 J0.
N2915 X553.9 I3.9 J0.
N2920 G1 X553.898 Y240.019 Z-10.395 F1000.
N2925 X553.891 Y240.036 Z-10.39
N2930 X553.874 Y240.057 Z-10.363
N2935 X553.866 Y240.063 Z-10.325
N2940 Z-7.702
N2945 X549.826 Y239.15 F1200.
N2950 X549.845 Y239.162 Z-7.794 F800.
N2955 X549.896 Y239.197 Z-7.865
N2960 X549.964 Y239.252 Z-7.9
N2965 G3 X548.636 Y240.748 Z-8.342 I-0.664 J0.748
N2970 X549.964 Y239.252 Z-8.783 I0.664 J-0.748
N2975 X548.636 Y240.748 Z-9.225 I-0.664 J0.748
N2980 X549.964 Y239.252 Z-9.666 I0.664 J-0.748
N2985 X548.636 Y240.748 Z-10.108 I-0.664 J0.748
N2990 X549.964 Y239.252 Z-10.549 I0.664 J-0.748
N2995 X548.636 Y240.748 Z-10.991 I-0.664 J0.748
N3000 X549.964 Y239.252 Z-11.432 I0.664 J-0.748
N3005 X548.636 Y240.748 Z-11.874 I-0.664 J0.748
N3010 X549.964 Y239.252 Z-12.315 I0.664 J-0.748
N3015 X548.636 Y240.748 Z-12.757 I-0.664 J0.748
N3020 X549.964 Y239.252 Z-13.198 I0.664 J-0.748
N3025 X548.636 Y240.748 Z-13.64 I-0.664 J0.748
N3030 X549.964 Y239.252 Z-14.081 I0.664 J-0.748
N3035 X550.3 Y240. Z-14.2 I-0.664 J0.748
N3040 X549.7 I-0.3 J0. F1200.
N3045 X551.5 I0.9 J0.
N3050 X548.5 I-1.5 J0.
N3055 X552.7 I2.1 J0.
N3060 X547.3 I-2.7 J0.
N3065 X553.9 I3.3 J0.
N3070 X546.1 I-3.9 J0.
N3075 X553.9 I3.9 J0.
N3080 G1 X553.898 Y240.019 Z-14.195 F1000.
N3085 X553.891 Y240.036 Z-14.19
N3090 X553.874 Y240.057 Z-14.163
N3095 X553.866 Y240.063 Z-14.125
N3100 Z-11.502
N3105 X549.826 Y239.15 F1200.
N3110 X549.845 Y239.162 Z-11.594 F800.
N3115 X549.896 Y239.197 Z-11.665
N3120 X549.964 Y239.252 Z-11.7
N3125 G3 X548.7 Y240.8 Z-12.13 I-0.664 J0.748
N3130 X549.9 Y239.2 Z-12.571 I0.6 J-0.8
N3135 X548.7 Y240.8 Z-13.013 I-0.6 J0.8
N3140 X549.9 Y239.2 Z-13.454 I0.6 J-0.8
N3145 X548.7 Y240.8 Z-13.896 I-0.6 J0.8
N3150 X549.9 Y239.2 Z-14.337 I0.6 J-0.8
N3155 X548.7 Y240.8 Z-14.779 I-0.6 J0.8
N3160 X549.9 Y239.2 Z-15.221 I0.6 J-0.8
N3165 X548.7 Y240.8 Z-15.662 I-0.6 J0.8
N3170 X549.9 Y239.2 Z-16.104 I0.6 J-0.8
N3175 X548.7 Y240.8 Z-16.545 I-0.6 J0.8
N3180 X549.9 Y239.2 Z-16.987 I0.6 J-0.8
N3185 X548.7 Y240.8 Z-17.428 I-0.6 J0.8
N3190 X549.9 Y239.2 Z-17.87 I0.6 J-0.8
N3195 X550.3 Y240. Z-18. I-0.6 J0.8
N3200 X549.7 I-0.3 J0. F1200.
N3205 X551.5 I0.9 J0.
N3210 X548.5 I-1.5 J0.
N3215 X552.7 I2.1 J0.
N3220 X547.3 I-2.7 J0.
N3225 X553.9 I3.3 J0.
N3230 X546.1 I-3.9 J0.
N3235 X553.9 I3.9 J0.
N3240 G1 X553.898 Y240.019 Z-17.995 F1000.
N3245 X553.891 Y240.036 Z-17.99
N3250 X553.874 Y240.057 Z-17.962
N3255 X553.866 Y240.063 Z-17.925
N3260 Z6. F1200.
N3265 X-0.174 Y239.15
N3270 Z3.698 F800.
N3275 X-0.155 Y239.162 Z3.606
N3280 X-0.104 Y239.197 Z3.535
N3285 X-0.036 Y239.252 Z3.5
N3290 G3 X-1.364 Y240.748 Z3.058 I-0.664 J0.748
N3295 X-0.036 Y239.252 Z2.617 I0.664 J-0.748
N3300 X-1.364 Y240.748 Z2.175 I-0.664 J0.748
N3305 X-0.036 Y239.252 Z1.734 I0.664 J-0.748
N3310 X-1.364 Y240.748 Z1.292 I-0.664 J0.748
N3315 X-0.036 Y239.252 Z0.851 I0.664 J-0.748
N3320 X-1.364 Y240.748 Z0.409 I-0.664 J0.748
N3325 X-0.036 Y239.252 Z-0.032 I0.664 J-0.748
N3330 X-1.364 Y240.748 Z-0.474 I-0.664 J0.748
N3335 X-0.036 Y239.252 Z-0.915 I0.664 J-0.748
N3340 X-1.364 Y240.748 Z-1.357 I-0.664 J0.748
N3345 X-0.036 Y239.252 Z-1.798 I0.664 J-0.748
N3350 X-1.364 Y240.748 Z-2.24 I-0.664 J0.748
N3355 X-0.036 Y239.252 Z-2.681 I0.664 J-0.748
N3360 X0.3 Y240. Z-2.8 I-0.664 J0.748
N3365 X-0.3 I-0.3 J0. F1200.
N3370 X1.5 I0.9 J0.
N3375 X-1.5 I-1.5 J0.
N3380 X2.7 I2.1 J0.
N3385 X-2.7 I-2.7 J0.
N3390 X3.9 I3.3 J0.
N3395 X-3.9 I-3.9 J0.
N3400 X3.9 I3.9 J0.
N3405 G1 X3.898 Y240.019 Z-2.795 F1000.
N3410 X3.891 Y240.036 Z-2.79
N3415 X3.874 Y240.057 Z-2.763
N3420 X3.866 Y240.063 Z-2.725
N3425 Z-0.102
N3430 X-0.174 Y239.15 F1200.
N3435 X-0.155 Y239.162 Z-0.194 F800.
N3440 X-0.104 Y239.197 Z-0.265
N3445 X-0.036 Y239.252 Z-0.3
N3450 G3 X-1.364 Y240.748 Z-0.742 I-0.664 J0.748
N3455 X-0.036 Y239.252 Z-1.183 I0.664 J-0.748
N3460 X-1.364 Y240.748 Z-1.625 I-0.664 J0.748
N3465 X-0.036 Y239.252 Z-2.066 I0.664 J-0.748
N3470 X-1.364 Y240.748 Z-2.508 I-0.664 J0.748
N3475 X-0.036 Y239.252 Z-2.949 I0.664 J-0.748
N3480 X-1.364 Y240.748 Z-3.391 I-0.664 J0.748
N3485 X-0.036 Y239.252 Z-3.832 I0.664 J-0.748
N3490 X-1.364 Y240.748 Z-4.274 I-0.664 J0.748
N3495 X-0.036 Y239.252 Z-4.715 I0.664 J-0.748
N3500 X-1.364 Y240.748 Z-5.157 I-0.664 J0.748
N3505 X-0.036 Y239.252 Z-5.598 I0.664 J-0.748
N3510 X-1.364 Y240.748 Z-6.04 I-0.664 J0.748
N3515 X-0.036 Y239.252 Z-6.481 I0.664 J-0.748
N3520 X0.3 Y240. Z-6.6 I-0.664 J0.748
N3525 X-0.3 I-0.3 J0. F1200.
N3530 X1.5 I0.9 J0.
N3535 X-1.5 I-1.5 J0.
N3540 X2.7 I2.1 J0.
N3545 X-2.7 I-2.7 J0.
N3550 X3.9 I3.3 J0.
N3555 X-3.9 I-3.9 J0.
N3560 X3.9 I3.9 J0.
N3565 G1 X3.898 Y240.019 Z-6.595 F1000.
N3570 X3.891 Y240.036 Z-6.59
N3575 X3.874 Y240.057 Z-6.563
N3580 X3.866 Y240.063 Z-6.525
N3585 Z-3.902
N3590 X-0.174 Y239.15 F1200.
N3595 X-0.155 Y239.162 Z-3.994 F800.
N3600 X-0.104 Y239.197 Z-4.065
N3605 X-0.036 Y239.252 Z-4.1
N3610 G3 X-1.364 Y240.748 Z-4.542 I-0.664 J0.748
N3615 X-0.036 Y239.252 Z-4.983 I0.664 J-0.748
N3620 X-1.364 Y240.748 Z-5.425 I-0.664 J0.748
N3625 X-0.036 Y239.252 Z-5.866 I0.664 J-0.748
N3630 X-1.364 Y240.748 Z-6.308 I-0.664 J0.748
N3635 X-0.036 Y239.252 Z-6.749 I0.664 J-0.748
N3640 X-1.364 Y240.748 Z-7.191 I-0.664 J0.748
N3645 X-0.036 Y239.252 Z-7.632 I0.664 J-0.748
N3650 X-1.364 Y240.748 Z-8.074 I-0.664 J0.748
N3655 X-0.036 Y239.252 Z-8.515 I0.664 J-0.748
N3660 X-1.364 Y240.748 Z-8.957 I-0.664 J0.748
N3665 X-0.036 Y239.252 Z-9.398 I0.664 J-0.748
N3670 X-1.364 Y240.748 Z-9.84 I-0.664 J0.748
N3675 X-0.036 Y239.252 Z-10.281 I0.664 J-0.748
N3680 X0.3 Y240. Z-10.4 I-0.664 J0.748
N3685 X-0.3 I-0.3 J0. F1200.
N3690 X1.5 I0.9 J0.
N3695 X-1.5 I-1.5 J0.
N3700 X2.7 I2.1 J0.
N3705 X-2.7 I-2.7 J0.
N3710 X3.9 I3.3 J0.
N3715 X-3.9 I-3.9 J0.
N3720 X3.9 I3.9 J0.
N3725 G1 X3.898 Y240.019 Z-10.395 F1000.
N3730 X3.891 Y240.036 Z-10.39
N3735 X3.874 Y240.057 Z-10.363
N3740 X3.866 Y240.063 Z-10.325
N3745 Z-7.702
N3750 X-0.174 Y239.15 F1200.
N3755 X-0.155 Y239.162 Z-7.794 F800.
N3760 X-0.104 Y239.197 Z-7.865
N3765 X-0.036 Y239.252 Z-7.9
N3770 G3 X-1.364 Y240.748 Z-8.342 I-0.664 J0.748
N3775 X-0.036 Y239.252 Z-8.783 I0.664 J-0.748
N3780 X-1.364 Y240.748 Z-9.225 I-0.664 J0.748
N3785 X-0.036 Y239.252 Z-9.666 I0.664 J-0.748
N3790 X-1.364 Y240.748 Z-10.108 I-0.664 J0.748
N3795 X-0.036 Y239.252 Z-10.549 I0.664 J-0.748
N3800 X-1.364 Y240.748 Z-10.991 I-0.664 J0.748
N3805 X-0.036 Y239.252 Z-11.432 I0.664 J-0.748
N3810 X-1.364 Y240.748 Z-11.874 I-0.664 J0.748
N3815 X-0.036 Y239.252 Z-12.315 I0.664 J-0.748
N3820 X-1.364 Y240.748 Z-12.757 I-0.664 J0.748
N3825 X-0.036 Y239.252 Z-13.198 I0.664 J-0.748
N3830 X-1.364 Y240.748 Z-13.64 I-0.664 J0.748
N3835 X-0.036 Y239.252 Z-14.081 I0.664 J-0.748
N3840 X0.3 Y240. Z-14.2 I-0.664 J0.748
N3845 X-0.3 I-0.3 J0. F1200.
N3850 X1.5 I0.9 J0.
N3855 X-1.5 I-1.5 J0.
N3860 X2.7 I2.1 J0.
N3865 X-2.7 I-2.7 J0.
N3870 X3.9 I3.3 J0.
N3875 X-3.9 I-3.9 J0.
N3880 X3.9 I3.9 J0.
N3885 G1 X3.898 Y240.019 Z-14.195 F1000.
N3890 X3.891 Y240.036 Z-14.19
N3895 X3.874 Y240.057 Z-14.163
N3900 X3.866 Y240.063 Z-14.125
N3905 Z-11.502
N3910 X-0.174 Y239.15 F1200.
N3915 X-0.155 Y239.162 Z-11.594 F800.
N3920 X-0.104 Y239.197 Z-11.665
N3925 X-0.036 Y239.252 Z-11.7
N3930 G3 X-1.364 Y240.748 Z-12.142 I-0.664 J0.748
N3935 X-0.036 Y239.252 Z-12.583 I0.664 J-0.748
N3940 X-1.364 Y240.748 Z-13.025 I-0.664 J0.748
N3945 X-0.036 Y239.252 Z-13.466 I0.664 J-0.748
N3950 X-1.364 Y240.748 Z-13.908 I-0.664 J0.748
N3955 X-0.036 Y239.252 Z-14.349 I0.664 J-0.748
N3960 X-1.364 Y240.748 Z-14.791 I-0.664 J0.748
N3965 X-0.036 Y239.252 Z-15.232 I0.664 J-0.748
N3970 X-1.364 Y240.748 Z-15.674 I-0.664 J0.748
N3975 X-0.036 Y239.252 Z-16.115 I0.664 J-0.748
N3980 X-1.364 Y240.748 Z-16.557 I-0.664 J0.748
N3985 X-0.036 Y239.252 Z-16.998 I0.664 J-0.748
N3990 X-1.364 Y240.748 Z-17.44 I-0.664 J0.748
N3995 X-0.036 Y239.252 Z-17.881 I0.664 J-0.748
N4000 X0.3 Y240. Z-18. I-0.664 J0.748
N4005 X-0.3 I-0.3 J0. F1200.
N4010 X1.5 I0.9 J0.
N4015 X-1.5 I-1.5 J0.
N4020 X2.7 I2.1 J0.
N4025 X-2.7 I-2.7 J0.
N4030 X3.9 I3.3 J0.
N4035 X-3.9 I-3.9 J0.
N4040 X3.9 I3.9 J0.
N4045 G1 X3.898 Y240.019 Z-17.995 F1000.
N4050 X3.891 Y240.036 Z-17.99
N4055 X3.874 Y240.057 Z-17.962
N4060 X3.866 Y240.063 Z-17.925
N4065 Z6. F1200.
N4070 X-0.174 Y-0.85
N4075 Z3.698 F800.
N4080 X-0.155 Y-0.838 Z3.606
N4085 X-0.104 Y-0.803 Z3.535
N4090 X-0.036 Y-0.748 Z3.5
N4095 G3 X-1.364 Y0.748 Z3.058 I-0.664 J0.748
N4100 X-0.036 Y-0.748 Z2.617 I0.664 J-0.748
N4105 X-1.364 Y0.748 Z2.175 I-0.664 J0.748
N4110 X-0.036 Y-0.748 Z1.734 I0.664 J-0.748
N4115 X-1.364 Y0.748 Z1.292 I-0.664 J0.748
N4120 X-0.036 Y-0.748 Z0.851 I0.664 J-0.748
N4125 X-1.364 Y0.748 Z0.409 I-0.664 J0.748
N4130 X-0.036 Y-0.748 Z-0.032 I0.664 J-0.748
N4135 X-1.364 Y0.748 Z-0.474 I-0.664 J0.748
N4140 X-0.036 Y-0.748 Z-0.915 I0.664 J-0.748
N4145 X-1.364 Y0.748 Z-1.357 I-0.664 J0.748
N4150 X-0.036 Y-0.748 Z-1.798 I0.664 J-0.748
N4155 X-1.364 Y0.748 Z-2.24 I-0.664 J0.748
N4160 X-0.036 Y-0.748 Z-2.681 I0.664 J-0.748
N4165 X0.3 Y0. Z-2.8 I-0.664 J0.748
N4170 X-0.3 I-0.3 J0. F1200.
N4175 X1.5 I0.9 J0.
N4180 X-1.5 I-1.5 J0.
N4185 X2.7 I2.1 J0.
N4190 X-2.7 I-2.7 J0.
N4195 X3.9 I3.3 J0.
N4200 X-3.9 I-3.9 J0.
N4205 X3.9 I3.9 J0.
N4210 G1 X3.898 Y0.019 Z-2.795 F1000.
N4215 X3.891 Y0.036 Z-2.79
N4220 X3.874 Y0.057 Z-2.763
N4225 X3.866 Y0.063 Z-2.725
N4230 Z-0.102
N4235 X-0.174 Y-0.85 F1200.
N4240 X-0.155 Y-0.838 Z-0.194 F800.
N4245 X-0.104 Y-0.803 Z-0.265
N4250 X-0.036 Y-0.748 Z-0.3
N4255 G3 X-1.364 Y0.748 Z-0.742 I-0.664 J0.748
N4260 X-0.036 Y-0.748 Z-1.183 I0.664 J-0.748
N4265 X-1.364 Y0.748 Z-1.625 I-0.664 J0.748
N4270 X-0.036 Y-0.748 Z-2.066 I0.664 J-0.748
N4275 X-1.364 Y0.748 Z-2.508 I-0.664 J0.748
N4280 X-0.036 Y-0.748 Z-2.949 I0.664 J-0.748
N4285 X-1.364 Y0.748 Z-3.391 I-0.664 J0.748
N4290 X-0.036 Y-0.748 Z-3.832 I0.664 J-0.748
N4295 X-1.364 Y0.748 Z-4.274 I-0.664 J0.748
N4300 X-0.036 Y-0.748 Z-4.715 I0.664 J-0.748
N4305 X-1.364 Y0.748 Z-5.157 I-0.664 J0.748
N4310 X-0.036 Y-0.748 Z-5.598 I0.664 J-0.748
N4315 X-1.364 Y0.748 Z-6.04 I-0.664 J0.748
N4320 X-0.036 Y-0.748 Z-6.481 I0.664 J-0.748
N4325 X0.3 Y0. Z-6.6 I-0.664 J0.748
N4330 X-0.3 I-0.3 J0. F1200.
N4335 X1.5 I0.9 J0.
N4340 X-1.5 I-1.5 J0.
N4345 X2.7 I2.1 J0.
N4350 X-2.7 I-2.7 J0.
N4355 X3.9 I3.3 J0.
N4360 X-3.9 I-3.9 J0.
N4365 X3.9 I3.9 J0.
N4370 G1 X3.898 Y0.019 Z-6.595 F1000.
N4375 X3.891 Y0.036 Z-6.59
N4380 X3.874 Y0.057 Z-6.563
N4385 X3.866 Y0.063 Z-6.525
N4390 Z-3.902
N4395 X-0.174 Y-0.85 F1200.
N4400 X-0.155 Y-0.838 Z-3.994 F800.
N4405 X-0.104 Y-0.803 Z-4.065
N4410 X-0.036 Y-0.748 Z-4.1
N4415 G3 X-1.364 Y0.748 Z-4.542 I-0.664 J0.748
N4420 X-0.036 Y-0.748 Z-4.983 I0.664 J-0.748
N4425 X-1.364 Y0.748 Z-5.425 I-0.664 J0.748
N4430 X-0.036 Y-0.748 Z-5.866 I0.664 J-0.748
N4435 X-1.364 Y0.748 Z-6.308 I-0.664 J0.748
N4440 X-0.036 Y-0.748 Z-6.749 I0.664 J-0.748
N4445 X-1.364 Y0.748 Z-7.191 I-0.664 J0.748
N4450 X-0.036 Y-0.748 Z-7.632 I0.664 J-0.748
N4455 X-1.364 Y0.748 Z-8.074 I-0.664 J0.748
N4460 X-0.036 Y-0.748 Z-8.515 I0.664 J-0.748
N4465 X-1.364 Y0.748 Z-8.957 I-0.664 J0.748
N4470 X-0.036 Y-0.748 Z-9.398 I0.664 J-0.748
N4475 X-1.364 Y0.748 Z-9.84 I-0.664 J0.748
N4480 X-0.036 Y-0.748 Z-10.281 I0.664 J-0.748
N4485 X0.3 Y0. Z-10.4 I-0.664 J0.748
N4490 X-0.3 I-0.3 J0. F1200.
N4495 X1.5 I0.9 J0.
N4500 X-1.5 I-1.5 J0.
N4505 X2.7 I2.1 J0.
N4510 X-2.7 I-2.7 J0.
N4515 X3.9 I3.3 J0.
N4520 X-3.9 I-3.9 J0.
N4525 X3.9 I3.9 J0.
N4530 G1 X3.898 Y0.019 Z-10.395 F1000.
N4535 X3.891 Y0.036 Z-10.39
N4540 X3.874 Y0.057 Z-10.363
N4545 X3.866 Y0.063 Z-10.325
N4550 Z-7.702
N4555 X-0.174 Y-0.85 F1200.
N4560 X-0.155 Y-0.838 Z-7.794 F800.
N4565 X-0.104 Y-0.803 Z-7.865
N4570 X-0.036 Y-0.748 Z-7.9
N4575 G3 X-1.364 Y0.748 Z-8.342 I-0.664 J0.748
N4580 X-0.036 Y-0.748 Z-8.783 I0.664 J-0.748
N4585 X-1.364 Y0.748 Z-9.225 I-0.664 J0.748
N4590 X-0.036 Y-0.748 Z-9.666 I0.664 J-0.748
N4595 X-1.364 Y0.748 Z-10.108 I-0.664 J0.748
N4600 X-0.036 Y-0.748 Z-10.549 I0.664 J-0.748
N4605 X-1.364 Y0.748 Z-10.991 I-0.664 J0.748
N4610 X-0.036 Y-0.748 Z-11.432 I0.664 J-0.748
N4615 X-1.364 Y0.748 Z-11.874 I-0.664 J0.748
N4620 X-0.036 Y-0.748 Z-12.315 I0.664 J-0.748
N4625 X-1.364 Y0.748 Z-12.757 I-0.664 J0.748
N4630 X-0.036 Y-0.748 Z-13.198 I0.664 J-0.748
N4635 X-1.364 Y0.748 Z-13.64 I-0.664 J0.748
N4640 X-0.036 Y-0.748 Z-14.081 I0.664 J-0.748
N4645 X0.3 Y0. Z-14.2 I-0.664 J0.748
N4650 X-0.3 I-0.3 J0. F1200.
N4655 X1.5 I0.9 J0.
N4660 X-1.5 I-1.5 J0.
N4665 X2.7 I2.1 J0.
N4670 X-2.7 I-2.7 J0.
N4675 X3.9 I3.3 J0.
N4680 X-3.9 I-3.9 J0.
N4685 X3.9 I3.9 J0.
N4690 G1 X3.898 Y0.019 Z-14.195 F1000.
N4695 X3.891 Y0.036 Z-14.19
N4700 X3.874 Y0.057 Z-14.163
N4705 X3.866 Y0.063 Z-14.125
N4710 Z-11.502
N4715 X-0.174 Y-0.85 F1200.
N4720 X-0.155 Y-0.838 Z-11.594 F800.
N4725 X-0.104 Y-0.803 Z-11.665
N4730 X-0.036 Y-0.748 Z-11.7
N4735 G3 X-1.364 Y0.748 Z-12.142 I-0.664 J0.748
N4740 X-0.036 Y-0.748 Z-12.583 I0.664 J-0.748
N4745 X-1.364 Y0.748 Z-13.025 I-0.664 J0.748
N4750 X-0.036 Y-0.748 Z-13.466 I0.664 J-0.748
N4755 X-1.364 Y0.748 Z-13.908 I-0.664 J0.748
N4760 X-0.036 Y-0.748 Z-14.349 I0.664 J-0.748
N4765 X-1.364 Y0.748 Z-14.791 I-0.664 J0.748
N4770 X-0.036 Y-0.748 Z-15.232 I0.664 J-0.748
N4775 X-1.364 Y0.748 Z-15.674 I-0.664 J0.748
N4780 X-0.036 Y-0.748 Z-16.115 I0.664 J-0.748
N4785 X-1.364 Y0.748 Z-16.557 I-0.664 J0.748
N4790 X-0.036 Y-0.748 Z-16.998 I0.664 J-0.748
N4795 X-1.364 Y0.748 Z-17.44 I-0.664 J0.748
N4800 X-0.036 Y-0.748 Z-17.881 I0.664 J-0.748
N4805 X0.3 Y0. Z-18. I-0.664 J0.748
N4810 X-0.3 I-0.3 J0. F1200.
N4815 X1.5 I0.9 J0.
N4820 X-1.5 I-1.5 J0.
N4825 X2.7 I2.1 J0.
N4830 X-2.7 I-2.7 J0.
N4835 X3.9 I3.3 J0.
N4840 X-3.9 I-3.9 J0.
N4845 X3.9 I3.9 J0.
N4850 G1 X3.898 Y0.019 Z-17.995 F1000.
N4855 X3.891 Y0.036 Z-17.99
N4860 X3.874 Y0.057 Z-17.962
N4865 X3.866 Y0.063 Z-17.925
N4870 Z16. F1200.
N4875 M30
%
