%
(12MM_11X11_LEDSCHOTTEN_1.5MM)
(T3  D=1.5 CR=0. - ZMIN=-12. - FLAT END MILL)
N10 G90 G94 G17 G91.1
N15 G21
(WHEN USING FUSION 360 FOR PERSONAL USE, THE FEEDRATE OF)
(RAPID MOVES IS REDUCED TO MATCH THE FEEDRATE OF CUTTING)
(MOVES, WHICH CAN INCREASE MACHINING TIME. UNRESTRICTED RAPID)
(MOVES ARE AVAILABLE WITH A FUSION 360 SUBSCRIPTION.)
(BORE5)
N20 (T3 M6)
(FLAT END MILL D=1.5)
N25 S15000 M3
N30 M8
N35 G0 X131.567 Y207.208
N40 Z15.
N45 G1 Z2. F1500.
N50 Z0.15
N55 X131.574 Z0.104
N60 X131.595 Z0.062
N65 X131.628 Z0.029
N70 X131.67 Z0.007
N75 X131.717 Z0.
N80 X131.792
N85 X131.83 Y207.214
N90 X131.865 Y207.232
N95 X131.893 Y207.26
N100 X131.911 Y207.295
N105 X131.917 Y207.333
N110 G3 X131.417 Z-0.5 I-0.25 J0.
N115 X131.917 Z-1. I0.25 J0.
N120 X131.417 Z-1.5 I-0.25 J0.
N125 X131.917 Z-2. I0.25 J0.
N130 X131.417 Z-2.5 I-0.25 J0.
N135 X131.917 Z-3. I0.25 J0.
N140 X131.644 Y207.582 Z-3.265 I-0.25 J0.
N145 X131.421 Y207.287 Z-3.529 I0.023 J-0.249
N150 X131.912 Y207.379 Z-4.029 I0.246 J0.046
N155 X131.69 Y207.582 Z-4.235 I-0.246 J-0.046
N160 X131.644 Y207.084 Z-4.735 I-0.023 J-0.249
N165 X131.69 Y207.582 Z-5.235 I0.023 J0.249
N170 X131.516 Y207.134 Z-5.647 I-0.023 J-0.249
N175 X131.817 Y207.533 Z-6.147 I0.151 J0.199
N180 X131.516 Y207.134 Z-6.647 I-0.151 J-0.199
N185 X131.9 Y207.424 Z-7.059 I0.151 J0.199
N190 X131.434 Y207.243 Z-7.559 I-0.233 J-0.09
N195 X131.69 Y207.084 Z-7.765 I0.233 J0.09
N200 X131.644 Y207.582 Z-8.265 I-0.023 J0.249
N205 X131.69 Y207.084 Z-8.765 I0.023 J-0.249
N210 X131.644 Y207.582 Z-9.265 I-0.023 J0.249
N215 X131.69 Y207.084 Z-9.765 I0.023 J-0.249
N220 X131.851 Y207.165 Z-9.882 I-0.023 J0.249
N225 X131.482 Y207.502 Z-10.382 I-0.185 J0.168
N230 X131.851 Y207.165 Z-10.882 I0.185 J-0.168
N235 X131.482 Y207.502 Z-11.382 I-0.185 J0.168
N240 X131.851 Y207.165 Z-11.882 I0.185 J-0.168
N245 X131.917 Y207.333 Z-12. I-0.185 J0.168
N250 X131.417 I-0.25 J0.
N255 X131.917 I0.25 J0.
N260 G1 X131.911 Y207.372
N265 X131.893 Y207.407
N270 X131.865 Y207.434
N275 X131.83 Y207.452
N280 X131.792 Y207.458
N285 X131.717
N290 X131.67 Z-11.993
N295 X131.628 Z-11.971
N300 X131.595 Z-11.938
N305 X131.574 Z-11.896
N310 X131.567 Z-11.85
N315 Z5.
N320 X98.233 Y207.208
N325 Z2.
N330 Z0.15
N335 X98.241 Z0.104
N340 X98.262 Z0.062
N345 X98.295 Z0.029
N350 X98.337 Z0.007
N355 X98.383 Z0.
N360 X98.458
N365 X98.497 Y207.214
N370 X98.532 Y207.232
N375 X98.559 Y207.26
N380 X98.577 Y207.295
N385 X98.583 Y207.333
N390 G3 X98.083 Z-0.5 I-0.25 J0.
N395 X98.583 Z-1. I0.25 J0.
N400 X98.083 Z-1.5 I-0.25 J0.
N405 X98.583 Z-2. I0.25 J0.
N410 X98.083 Z-2.5 I-0.25 J0.
N415 X98.583 Z-3. I0.25 J0.
N420 X98.083 Z-3.5 I-0.25 J0.
N425 X98.583 Z-4. I0.25 J0.
N430 X98.083 Z-4.5 I-0.25 J0.
N435 X98.583 Z-5. I0.25 J0.
N440 X98.083 Z-5.5 I-0.25 J0.
N445 X98.583 Z-6. I0.25 J0.
N450 X98.083 Z-6.5 I-0.25 J0.
N455 X98.583 Z-7. I0.25 J0.
N460 X98.083 Z-7.5 I-0.25 J0.
N465 X98.583 Z-8. I0.25 J0.
N470 X98.083 Z-8.5 I-0.25 J0.
N475 X98.583 Z-9. I0.25 J0.
N480 X98.083 Z-9.5 I-0.25 J0.
N485 X98.583 Z-10. I0.25 J0.
N490 X98.083 Z-10.5 I-0.25 J0.
N495 X98.583 Z-11. I0.25 J0.
N500 X98.083 Z-11.5 I-0.25 J0.
N505 X98.583 Z-12. I0.25 J0.
N510 X98.083 I-0.25 J0.
N515 X98.583 I0.25 J0.
N520 G1 X98.577 Y207.372
N525 X98.559 Y207.407
N530 X98.532 Y207.434
N535 X98.497 Y207.452
N540 X98.458 Y207.458
N545 X98.383
N550 X98.337 Z-11.993
N555 X98.295 Z-11.971
N560 X98.262 Z-11.938
N565 X98.241 Z-11.896
N570 X98.233 Z-11.85
N575 Z5.
N580 Y173.875
N585 Z2.
N590 Z0.15
N595 X98.241 Z0.104
N600 X98.262 Z0.062
N605 X98.295 Z0.029
N610 X98.337 Z0.007
N615 X98.383 Z0.
N620 X98.458
N625 X98.497 Y173.881
N630 X98.532 Y173.899
N635 X98.559 Y173.927
N640 X98.577 Y173.961
N645 X98.583 Y174.
N650 G3 X98.083 Z-0.5 I-0.25 J0.
N655 X98.583 Z-1. I0.25 J0.
N660 X98.083 Z-1.5 I-0.25 J0.
N665 X98.583 Z-2. I0.25 J0.
N670 X98.083 Z-2.5 I-0.25 J0.
N675 X98.583 Z-3. I0.25 J0.
N680 X98.083 Z-3.5 I-0.25 J0.
N685 X98.583 Z-4. I0.25 J0.
N690 X98.083 Z-4.5 I-0.25 J0.
N695 X98.583 Z-5. I0.25 J0.
N700 X98.083 Z-5.5 I-0.25 J0.
N705 X98.583 Z-6. I0.25 J0.
N710 X98.083 Z-6.5 I-0.25 J0.
N715 X98.583 Z-7. I0.25 J0.
N720 X98.083 Z-7.5 I-0.25 J0.
N725 X98.583 Z-8. I0.25 J0.
N730 X98.083 Z-8.5 I-0.25 J0.
N735 X98.583 Z-9. I0.25 J0.
N740 X98.083 Z-9.5 I-0.25 J0.
N745 X98.583 Z-10. I0.25 J0.
N750 X98.083 Z-10.5 I-0.25 J0.
N755 X98.583 Z-11. I0.25 J0.
N760 X98.083 Z-11.5 I-0.25 J0.
N765 X98.583 Z-12. I0.25 J0.
N770 X98.083 I-0.25 J0.
N775 X98.583 I0.25 J0.
N780 G1 X98.577 Y174.039
N785 X98.559 Y174.073
N790 X98.532 Y174.101
N795 X98.497 Y174.119
N800 X98.458 Y174.125
N805 X98.383
N810 X98.337 Z-11.993
N815 X98.295 Z-11.971
N820 X98.262 Z-11.938
N825 X98.241 Z-11.896
N830 X98.233 Z-11.85
N835 Z5.
N840 X148.233 Y157.208
N845 Z2.
N850 Z0.15
N855 X148.241 Z0.104
N860 X148.262 Z0.062
N865 X148.295 Z0.029
N870 X148.337 Z0.007
N875 X148.383 Z0.
N880 X148.458
N885 X148.497 Y157.214
N890 X148.532 Y157.232
N895 X148.559 Y157.26
N900 X148.577 Y157.295
N905 X148.583 Y157.333
N910 G3 X148.083 Z-0.5 I-0.25 J0.
N915 X148.583 Z-1. I0.25 J0.
N920 X148.083 Z-1.5 I-0.25 J0.
N925 X148.583 Z-2. I0.25 J0.
N930 X148.083 Z-2.5 I-0.25 J0.
N935 X148.583 Z-3. I0.25 J0.
N940 X148.083 Z-3.5 I-0.25 J0.
N945 X148.583 Z-4. I0.25 J0.
N950 X148.356 Y157.582 Z-4.235 I-0.25 J0.
N955 X148.31 Y157.084 Z-4.735 I-0.023 J-0.249
N960 X148.566 Y157.243 Z-4.941 I0.023 J0.249
N965 X148.1 Y157.424 Z-5.441 I-0.233 J0.09
N970 X148.566 Y157.243 Z-5.941 I0.233 J-0.09
N975 X148.183 Y157.533 Z-6.353 I-0.233 J0.09
N980 X148.484 Y157.134 Z-6.853 I0.151 J-0.2
N985 X148.183 Y157.533 Z-7.353 I-0.151 J0.2
N990 X148.356 Y157.084 Z-7.765 I0.151 J-0.2
N995 X148.31 Y157.582 Z-8.265 I-0.023 J0.249
N1000 X148.088 Y157.379 Z-8.471 I0.023 J-0.249
N1005 X148.579 Y157.287 Z-8.971 I0.246 J-0.046
N1010 X148.088 Y157.379 Z-9.471 I-0.246 J0.046
N1015 X148.518 Y157.165 Z-9.882 I0.246 J-0.046
N1020 X148.149 Y157.502 Z-10.382 I-0.185 J0.168
N1025 X148.518 Y157.165 Z-10.882 I0.185 J-0.168
N1030 X148.265 Y157.574 Z-11.294 I-0.185 J0.168
N1035 X148.402 Y157.093 Z-11.794 I0.068 J-0.24
N1040 X148.583 Y157.333 Z-12. I-0.068 J0.24
N1045 X148.083 I-0.25 J0.
N1050 X148.583 I0.25 J0.
N1055 G1 X148.577 Y157.372
N1060 X148.559 Y157.407
N1065 X148.532 Y157.434
N1070 X148.497 Y157.452
N1075 X148.458 Y157.458
N1080 X148.383
N1085 X148.337 Z-11.993
N1090 X148.295 Z-11.971
N1095 X148.262 Z-11.938
N1100 X148.241 Z-11.896
N1105 X148.233 Z-11.85
N1110 Z5.
N1115 X198.233 Y157.208
N1120 Z2.
N1125 Z0.15
N1130 X198.241 Z0.104
N1135 X198.262 Z0.062
N1140 X198.295 Z0.029
N1145 X198.337 Z0.007
N1150 X198.383 Z0.
N1155 X198.458
N1160 X198.497 Y157.214
N1165 X198.532 Y157.232
N1170 X198.559 Y157.26
N1175 X198.577 Y157.295
N1180 X198.583 Y157.333
N1185 G3 X198.083 Z-0.5 I-0.25 J0.
N1190 X198.583 Z-1. I0.25 J0.
N1195 X198.083 Z-1.5 I-0.25 J0.
N1200 X198.583 Z-2. I0.25 J0.
N1205 X198.083 Z-2.5 I-0.25 J0.
N1210 X198.583 Z-3. I0.25 J0.
N1215 X198.083 Z-3.5 I-0.25 J0.
N1220 X198.583 Z-4. I0.25 J0.
N1225 X198.356 Y157.582 Z-4.235 I-0.25 J0.
N1230 X198.31 Y157.084 Z-4.735 I-0.023 J-0.249
N1235 X198.566 Y157.243 Z-4.941 I0.023 J0.249
N1240 X198.1 Y157.424 Z-5.441 I-0.233 J0.09
N1245 X198.566 Y157.243 Z-5.941 I0.233 J-0.09
N1250 X198.183 Y157.533 Z-6.353 I-0.233 J0.09
N1255 X198.484 Y157.134 Z-6.853 I0.151 J-0.2
N1260 X198.183 Y157.533 Z-7.353 I-0.151 J0.2
N1265 X198.356 Y157.084 Z-7.765 I0.151 J-0.2
N1270 X198.31 Y157.582 Z-8.265 I-0.023 J0.249
N1275 X198.088 Y157.379 Z-8.471 I0.023 J-0.249
N1280 X198.579 Y157.287 Z-8.971 I0.246 J-0.046
N1285 X198.088 Y157.379 Z-9.471 I-0.246 J0.046
N1290 X198.518 Y157.165 Z-9.882 I0.246 J-0.046
N1295 X198.149 Y157.502 Z-10.382 I-0.185 J0.168
N1300 X198.518 Y157.165 Z-10.882 I0.185 J-0.168
N1305 X198.265 Y157.574 Z-11.294 I-0.185 J0.168
N1310 X198.402 Y157.093 Z-11.794 I0.068 J-0.24
N1315 X198.583 Y157.333 Z-12. I-0.068 J0.24
N1320 X198.083 I-0.25 J0.
N1325 X198.583 I0.25 J0.
N1330 G1 X198.577 Y157.372
N1335 X198.559 Y157.407
N1340 X198.532 Y157.434
N1345 X198.497 Y157.452
N1350 X198.458 Y157.458
N1355 X198.383
N1360 X198.337 Z-11.993
N1365 X198.295 Z-11.971
N1370 X198.262 Z-11.938
N1375 X198.241 Z-11.896
N1380 X198.233 Z-11.85
N1385 Z5.
N1390 X248.233 Y173.875
N1395 Z2.
N1400 Z0.15
N1405 X248.241 Z0.104
N1410 X248.262 Z0.062
N1415 X248.295 Z0.029
N1420 X248.337 Z0.007
N1425 X248.383 Z0.
N1430 X248.458
N1435 X248.497 Y173.881
N1440 X248.532 Y173.899
N1445 X248.559 Y173.927
N1450 X248.577 Y173.961
N1455 X248.583 Y174.
N1460 G3 X248.083 Z-0.5 I-0.25 J0.
N1465 X248.265 Y173.76 Z-0.706 I0.25 J0.
N1470 X248.402 Y174.24 Z-1.206 I0.068 J0.24
N1475 X248.265 Y173.76 Z-1.706 I-0.068 J-0.24
N1480 X248.402 Y174.24 Z-2.206 I0.068 J0.24
N1485 X248.265 Y173.76 Z-2.706 I-0.068 J-0.24
N1490 X248.402 Y174.24 Z-3.206 I0.068 J0.24
N1495 X248.265 Y173.76 Z-3.706 I-0.068 J-0.24
N1500 X248.402 Y174.24 Z-4.206 I0.068 J0.24
N1505 X248.265 Y173.76 Z-4.706 I-0.068 J-0.24
N1510 X248.402 Y174.24 Z-5.206 I0.068 J0.24
N1515 X248.183 Y173.8 Z-5.647 I-0.068 J-0.24
N1520 X248.484 Y174.2 Z-6.147 I0.151 J0.2
N1525 X248.183 Z-6.353 I-0.151 J-0.2
N1530 X248.484 Y173.8 Z-6.853 I0.151 J-0.2
N1535 X248.183 Y174.2 Z-7.353 I-0.151 J0.2
N1540 X248.356 Y173.751 Z-7.765 I0.151 J-0.2
N1545 X248.31 Y174.249 Z-8.265 I-0.023 J0.249
N1550 X248.088 Y174.046 Z-8.471 I0.023 J-0.249
N1555 X248.579 Y173.954 Z-8.971 I0.246 J-0.046
N1560 X248.088 Y174.046 Z-9.471 I-0.246 J0.046
N1565 X248.579 Y173.954 Z-9.971 I0.246 J-0.046
N1570 X248.088 Y174.046 Z-10.471 I-0.246 J0.046
N1575 X248.579 Y173.954 Z-10.971 I0.246 J-0.046
N1580 X248.088 Y174.046 Z-11.471 I-0.246 J0.046
N1585 X248.31 Y173.751 Z-11.735 I0.246 J-0.046
N1590 X248.583 Y174. Z-12. I0.023 J0.249
N1595 X248.083 I-0.25 J0.
N1600 X248.583 I0.25 J0.
N1605 G1 X248.577 Y174.039
N1610 X248.559 Y174.073
N1615 X248.532 Y174.101
N1620 X248.497 Y174.119
N1625 X248.458 Y174.125
N1630 X248.383
N1635 X248.337 Z-11.993
N1640 X248.295 Z-11.971
N1645 X248.262 Z-11.938
N1650 X248.241 Z-11.896
N1655 X248.233 Z-11.85
N1660 Z5.
N1665 Y207.208
N1670 Z2.
N1675 Z0.15
N1680 X248.241 Z0.104
N1685 X248.262 Z0.062
N1690 X248.295 Z0.029
N1695 X248.337 Z0.007
N1700 X248.383 Z0.
N1705 X248.458
N1710 X248.497 Y207.214
N1715 X248.532 Y207.232
N1720 X248.559 Y207.26
N1725 X248.577 Y207.295
N1730 X248.583 Y207.333
N1735 G3 X248.083 Z-0.5 I-0.25 J0.
N1740 X248.583 Z-1. I0.25 J0.
N1745 X248.083 Z-1.5 I-0.25 J0.
N1750 X248.583 Z-2. I0.25 J0.
N1755 X248.083 Z-2.5 I-0.25 J0.
N1760 X248.583 Z-3. I0.25 J0.
N1765 X248.083 Z-3.5 I-0.25 J0.
N1770 X248.583 Z-4. I0.25 J0.
N1775 X248.356 Y207.582 Z-4.235 I-0.25 J0.
N1780 X248.31 Y207.084 Z-4.735 I-0.023 J-0.249
N1785 X248.566 Y207.243 Z-4.941 I0.023 J0.249
N1790 X248.1 Y207.424 Z-5.441 I-0.233 J0.09
N1795 X248.566 Y207.243 Z-5.941 I0.233 J-0.09
N1800 X248.183 Y207.533 Z-6.353 I-0.233 J0.09
N1805 X248.484 Y207.134 Z-6.853 I0.151 J-0.2
N1810 X248.183 Y207.533 Z-7.353 I-0.151 J0.2
N1815 X248.356 Y207.084 Z-7.765 I0.151 J-0.2
N1820 X248.31 Y207.582 Z-8.265 I-0.023 J0.249
N1825 X248.088 Y207.379 Z-8.471 I0.023 J-0.249
N1830 X248.579 Y207.287 Z-8.971 I0.246 J-0.046
N1835 X248.088 Y207.379 Z-9.471 I-0.246 J0.046
N1840 X248.518 Y207.165 Z-9.882 I0.246 J-0.046
N1845 X248.149 Y207.502 Z-10.382 I-0.185 J0.168
N1850 X248.518 Y207.165 Z-10.882 I0.185 J-0.168
N1855 X248.265 Y207.574 Z-11.294 I-0.185 J0.168
N1860 X248.402 Y207.093 Z-11.794 I0.068 J-0.24
N1865 X248.583 Y207.333 Z-12. I-0.068 J0.24
N1870 X248.083 I-0.25 J0.
N1875 X248.583 I0.25 J0.
N1880 G1 X248.577 Y207.372
N1885 X248.559 Y207.407
N1890 X248.532 Y207.434
N1895 X248.497 Y207.452
N1900 X248.458 Y207.458
N1905 X248.383
N1910 X248.337 Z-11.993
N1915 X248.295 Z-11.971
N1920 X248.262 Z-11.938
N1925 X248.241 Z-11.896
N1930 X248.233 Z-11.85
N1935 Z5.
N1940 X214.9 Y207.208
N1945 Z2.
N1950 Z0.15
N1955 X214.907 Z0.104
N1960 X214.929 Z0.062
N1965 X214.962 Z0.029
N1970 X215.004 Z0.007
N1975 X215.05 Z0.
N1980 X215.125
N1985 X215.164 Y207.214
N1990 X215.198 Y207.232
N1995 X215.226 Y207.26
N2000 X215.244 Y207.295
N2005 X215.25 Y207.333
N2010 G3 X214.75 Z-0.5 I-0.25 J0.
N2015 X215.25 Z-1. I0.25 J0.
N2020 X214.75 Z-1.5 I-0.25 J0.
N2025 X215.25 Z-2. I0.25 J0.
N2030 X214.75 Z-2.5 I-0.25 J0.
N2035 X215.25 Z-3. I0.25 J0.
N2040 X214.75 Z-3.5 I-0.25 J0.
N2045 X215.25 Z-4. I0.25 J0.
N2050 X215.023 Y207.582 Z-4.235 I-0.25 J0.
N2055 X214.977 Y207.084 Z-4.735 I-0.023 J-0.249
N2060 X215.233 Y207.243 Z-4.941 I0.023 J0.249
N2065 X214.767 Y207.424 Z-5.441 I-0.233 J0.09
N2070 X214.849 Y207.134 Z-5.647 I0.233 J-0.09
N2075 X215.151 Y207.533 Z-6.147 I0.151 J0.199
N2080 X214.849 Y207.134 Z-6.647 I-0.151 J-0.199
N2085 X215.151 Y207.533 Z-7.147 I0.151 J0.199
N2090 X214.849 Y207.134 Z-7.647 I-0.151 J-0.199
N2095 X215.023 Y207.084 Z-7.765 I0.151 J0.199
N2100 X214.977 Y207.582 Z-8.265 I-0.023 J0.249
N2105 X214.754 Y207.379 Z-8.471 I0.023 J-0.249
N2110 X215.246 Y207.287 Z-8.971 I0.246 J-0.046
N2115 X214.754 Y207.379 Z-9.471 I-0.246 J0.046
N2120 X215.185 Y207.165 Z-9.882 I0.246 J-0.046
N2125 X214.815 Y207.502 Z-10.382 I-0.185 J0.168
N2130 X215.185 Y207.165 Z-10.882 I0.185 J-0.168
N2135 X214.815 Y207.502 Z-11.382 I-0.185 J0.168
N2140 X215.185 Y207.165 Z-11.882 I0.185 J-0.168
N2145 X215.25 Y207.333 Z-12. I-0.185 J0.168
N2150 X214.75 I-0.25 J0.
N2155 X215.25 I0.25 J0.
N2160 G1 X215.244 Y207.372
N2165 X215.226 Y207.407
N2170 X215.198 Y207.434
N2175 X215.164 Y207.452
N2180 X215.125 Y207.458
N2185 X215.05
N2190 X215.004 Z-11.993
N2195 X214.962 Z-11.971
N2200 X214.929 Z-11.938
N2205 X214.907 Z-11.896
N2210 X214.9 Z-11.85
N2215 Z5.
N2220 X198.233 Y107.208
N2225 Z2.
N2230 Z0.15
N2235 X198.241 Z0.104
N2240 X198.262 Z0.062
N2245 X198.295 Z0.029
N2250 X198.337 Z0.007
N2255 X198.383 Z0.
N2260 X198.458
N2265 X198.497 Y107.214
N2270 X198.532 Y107.232
N2275 X198.559 Y107.26
N2280 X198.577 Y107.295
N2285 X198.583 Y107.333
N2290 G3 X198.083 Z-0.5 I-0.25 J0.
N2295 X198.265 Y107.093 Z-0.706 I0.25 J0.
N2300 X198.402 Y107.574 Z-1.206 I0.068 J0.24
N2305 X198.265 Y107.093 Z-1.706 I-0.068 J-0.24
N2310 X198.402 Y107.574 Z-2.206 I0.068 J0.24
N2315 X198.265 Y107.093 Z-2.706 I-0.068 J-0.24
N2320 X198.402 Y107.574 Z-3.206 I0.068 J0.24
N2325 X198.265 Y107.093 Z-3.706 I-0.068 J-0.24
N2330 X198.402 Y107.574 Z-4.206 I0.068 J0.24
N2335 X198.265 Y107.093 Z-4.706 I-0.068 J-0.24
N2340 X198.402 Y107.574 Z-5.206 I0.068 J0.24
N2345 X198.265 Y107.093 Z-5.706 I-0.068 J-0.24
N2350 X198.402 Y107.574 Z-6.206 I0.068 J0.24
N2355 X198.265 Y107.093 Z-6.706 I-0.068 J-0.24
N2360 X198.402 Y107.574 Z-7.206 I0.068 J0.24
N2365 X198.265 Y107.093 Z-7.706 I-0.068 J-0.24
N2370 X198.402 Y107.574 Z-8.206 I0.068 J0.24
N2375 X198.265 Y107.093 Z-8.706 I-0.068 J-0.24
N2380 X198.402 Y107.574 Z-9.206 I0.068 J0.24
N2385 X198.265 Y107.093 Z-9.706 I-0.068 J-0.24
N2390 X198.402 Y107.574 Z-10.206 I0.068 J0.24
N2395 X198.265 Y107.093 Z-10.706 I-0.068 J-0.24
N2400 X198.402 Y107.574 Z-11.206 I0.068 J0.24
N2405 X198.265 Y107.093 Z-11.706 I-0.068 J-0.24
N2410 X198.583 Y107.333 Z-12. I0.068 J0.24
N2415 X198.083 I-0.25 J0.
N2420 X198.583 I0.25 J0.
N2425 G1 X198.577 Y107.372
N2430 X198.559 Y107.407
N2435 X198.532 Y107.434
N2440 X198.497 Y107.452
N2445 X198.458 Y107.458
N2450 X198.383
N2455 X198.337 Z-11.993
N2460 X198.295 Z-11.971
N2465 X198.262 Z-11.938
N2470 X198.241 Z-11.896
N2475 X198.233 Z-11.85
N2480 Z5.
N2485 X148.233 Y107.208
N2490 Z2.
N2495 Z0.15
N2500 X148.241 Z0.104
N2505 X148.262 Z0.062
N2510 X148.295 Z0.029
N2515 X148.337 Z0.007
N2520 X148.383 Z0.
N2525 X148.458
N2530 X148.497 Y107.214
N2535 X148.532 Y107.232
N2540 X148.559 Y107.26
N2545 X148.577 Y107.295
N2550 X148.583 Y107.333
N2555 G3 X148.083 Z-0.5 I-0.25 J0.
N2560 X148.265 Y107.093 Z-0.706 I0.25 J0.
N2565 X148.402 Y107.574 Z-1.206 I0.068 J0.24
N2570 X148.265 Y107.093 Z-1.706 I-0.068 J-0.24
N2575 X148.402 Y107.574 Z-2.206 I0.068 J0.24
N2580 X148.265 Y107.093 Z-2.706 I-0.068 J-0.24
N2585 X148.402 Y107.574 Z-3.206 I0.068 J0.24
N2590 X148.265 Y107.093 Z-3.706 I-0.068 J-0.24
N2595 X148.402 Y107.574 Z-4.206 I0.068 J0.24
N2600 X148.265 Y107.093 Z-4.706 I-0.068 J-0.24
N2605 X148.402 Y107.574 Z-5.206 I0.068 J0.24
N2610 X148.265 Y107.093 Z-5.706 I-0.068 J-0.24
N2615 X148.402 Y107.574 Z-6.206 I0.068 J0.24
N2620 X148.265 Y107.093 Z-6.706 I-0.068 J-0.24
N2625 X148.402 Y107.574 Z-7.206 I0.068 J0.24
N2630 X148.265 Y107.093 Z-7.706 I-0.068 J-0.24
N2635 X148.402 Y107.574 Z-8.206 I0.068 J0.24
N2640 X148.265 Y107.093 Z-8.706 I-0.068 J-0.24
N2645 X148.402 Y107.574 Z-9.206 I0.068 J0.24
N2650 X148.265 Y107.093 Z-9.706 I-0.068 J-0.24
N2655 X148.402 Y107.574 Z-10.206 I0.068 J0.24
N2660 X148.265 Y107.093 Z-10.706 I-0.068 J-0.24
N2665 X148.402 Y107.574 Z-11.206 I0.068 J0.24
N2670 X148.265 Y107.093 Z-11.706 I-0.068 J-0.24
N2675 X148.583 Y107.333 Z-12. I0.068 J0.24
N2680 X148.083 I-0.25 J0.
N2685 X148.583 I0.25 J0.
N2690 G1 X148.577 Y107.372
N2695 X148.559 Y107.407
N2700 X148.532 Y107.434
N2705 X148.497 Y107.452
N2710 X148.458 Y107.458
N2715 X148.383
N2720 X148.337 Z-11.993
N2725 X148.295 Z-11.971
N2730 X148.262 Z-11.938
N2735 X148.241 Z-11.896
N2740 X148.233 Z-11.85
N2745 Z5.
N2750 X98.233 Y90.542
N2755 Z2.
N2760 Z0.15
N2765 X98.241 Z0.104
N2770 X98.262 Z0.062
N2775 X98.295 Z0.029
N2780 X98.337 Z0.007
N2785 X98.383 Z0.
N2790 X98.458
N2795 X98.497 Y90.548
N2800 X98.532 Y90.566
N2805 X98.559 Y90.593
N2810 X98.577 Y90.628
N2815 X98.583 Y90.667
N2820 G3 X98.083 Z-0.5 I-0.25 J0.
N2825 X98.583 Z-1. I0.25 J0.
N2830 X98.083 Z-1.5 I-0.25 J0.
N2835 X98.583 Z-2. I0.25 J0.
N2840 X98.083 Z-2.5 I-0.25 J0.
N2845 X98.583 Z-3. I0.25 J0.
N2850 X98.083 Z-3.5 I-0.25 J0.
N2855 X98.583 Z-4. I0.25 J0.
N2860 X98.083 Z-4.5 I-0.25 J0.
N2865 X98.583 Z-5. I0.25 J0.
N2870 X98.083 Z-5.5 I-0.25 J0.
N2875 X98.583 Z-6. I0.25 J0.
N2880 X98.083 Z-6.5 I-0.25 J0.
N2885 X98.583 Z-7. I0.25 J0.
N2890 X98.083 Z-7.5 I-0.25 J0.
N2895 X98.583 Z-8. I0.25 J0.
N2900 X98.083 Z-8.5 I-0.25 J0.
N2905 X98.583 Z-9. I0.25 J0.
N2910 X98.083 Z-9.5 I-0.25 J0.
N2915 X98.583 Z-10. I0.25 J0.
N2920 X98.083 Z-10.5 I-0.25 J0.
N2925 X98.583 Z-11. I0.25 J0.
N2930 X98.083 Z-11.5 I-0.25 J0.
N2935 X98.583 Z-12. I0.25 J0.
N2940 X98.083 I-0.25 J0.
N2945 X98.583 I0.25 J0.
N2950 G1 X98.577 Y90.705
N2955 X98.559 Y90.74
N2960 X98.532 Y90.768
N2965 X98.497 Y90.786
N2970 X98.458 Y90.792
N2975 X98.383
N2980 X98.337 Z-11.993
N2985 X98.295 Z-11.971
N2990 X98.262 Z-11.938
N2995 X98.241 Z-11.896
N3000 X98.233 Z-11.85
N3005 Z5.
N3010 Y57.208
N3015 Z2.
N3020 Z0.15
N3025 X98.241 Z0.104
N3030 X98.262 Z0.062
N3035 X98.295 Z0.029
N3040 X98.337 Z0.007
N3045 X98.383 Z0.
N3050 X98.458
N3055 X98.497 Y57.214
N3060 X98.532 Y57.232
N3065 X98.559 Y57.26
N3070 X98.577 Y57.295
N3075 X98.583 Y57.333
N3080 G3 X98.083 Z-0.5 I-0.25 J0.
N3085 X98.583 Z-1. I0.25 J0.
N3090 X98.083 Z-1.5 I-0.25 J0.
N3095 X98.583 Z-2. I0.25 J0.
N3100 X98.083 Z-2.5 I-0.25 J0.
N3105 X98.583 Z-3. I0.25 J0.
N3110 X98.083 Z-3.5 I-0.25 J0.
N3115 X98.583 Z-4. I0.25 J0.
N3120 X98.083 Z-4.5 I-0.25 J0.
N3125 X98.583 Z-5. I0.25 J0.
N3130 X98.083 Z-5.5 I-0.25 J0.
N3135 X98.583 Z-6. I0.25 J0.
N3140 X98.083 Z-6.5 I-0.25 J0.
N3145 X98.583 Z-7. I0.25 J0.
N3150 X98.083 Z-7.5 I-0.25 J0.
N3155 X98.583 Z-8. I0.25 J0.
N3160 X98.083 Z-8.5 I-0.25 J0.
N3165 X98.583 Z-9. I0.25 J0.
N3170 X98.083 Z-9.5 I-0.25 J0.
N3175 X98.583 Z-10. I0.25 J0.
N3180 X98.083 Z-10.5 I-0.25 J0.
N3185 X98.583 Z-11. I0.25 J0.
N3190 X98.083 Z-11.5 I-0.25 J0.
N3195 X98.583 Z-12. I0.25 J0.
N3200 X98.083 I-0.25 J0.
N3205 X98.583 I0.25 J0.
N3210 G1 X98.577 Y57.372
N3215 X98.559 Y57.407
N3220 X98.532 Y57.434
N3225 X98.497 Y57.452
N3230 X98.458 Y57.458
N3235 X98.383
N3240 X98.337 Z-11.993
N3245 X98.295 Z-11.971
N3250 X98.262 Z-11.938
N3255 X98.241 Z-11.896
N3260 X98.233 Z-11.85
N3265 Z5.
N3270 X131.567 Y57.208
N3275 Z2.
N3280 Z0.15
N3285 X131.574 Z0.104
N3290 X131.595 Z0.062
N3295 X131.628 Z0.029
N3300 X131.67 Z0.007
N3305 X131.717 Z0.
N3310 X131.792
N3315 X131.83 Y57.214
N3320 X131.865 Y57.232
N3325 X131.893 Y57.26
N3330 X131.911 Y57.295
N3335 X131.917 Y57.333
N3340 G3 X131.417 Z-0.5 I-0.25 J0.
N3345 X131.917 Z-1. I0.25 J0.
N3350 X131.417 Z-1.5 I-0.25 J0.
N3355 X131.917 Z-2. I0.25 J0.
N3360 X131.417 Z-2.5 I-0.25 J0.
N3365 X131.917 Z-3. I0.25 J0.
N3370 X131.417 Z-3.5 I-0.25 J0.
N3375 X131.917 Z-4. I0.25 J0.
N3380 X131.417 Z-4.5 I-0.25 J0.
N3385 X131.917 Z-5. I0.25 J0.
N3390 X131.417 Z-5.5 I-0.25 J0.
N3395 X131.917 Z-6. I0.25 J0.
N3400 X131.417 Z-6.5 I-0.25 J0.
N3405 X131.917 Z-7. I0.25 J0.
N3410 X131.9 Y57.424 Z-7.059 I-0.25 J0.
N3415 X131.434 Y57.243 Z-7.559 I-0.233 J-0.09
N3420 X131.69 Y57.084 Z-7.765 I0.233 J0.09
N3425 X131.644 Y57.582 Z-8.265 I-0.023 J0.249
N3430 X131.69 Y57.084 Z-8.765 I0.023 J-0.249
N3435 X131.644 Y57.582 Z-9.265 I-0.023 J0.249
N3440 X131.69 Y57.084 Z-9.765 I0.023 J-0.249
N3445 X131.644 Y57.582 Z-10.265 I-0.023 J0.249
N3450 X131.69 Y57.084 Z-10.765 I0.023 J-0.249
N3455 X131.644 Y57.582 Z-11.265 I-0.023 J0.249
N3460 X131.69 Y57.084 Z-11.765 I0.023 J-0.249
N3465 X131.917 Y57.333 Z-12. I-0.023 J0.249
N3470 X131.417 I-0.25 J0.
N3475 X131.917 I0.25 J0.
N3480 G1 X131.911 Y57.372
N3485 X131.893 Y57.407
N3490 X131.865 Y57.434
N3495 X131.83 Y57.452
N3500 X131.792 Y57.458
N3505 X131.717
N3510 X131.67 Z-11.993
N3515 X131.628 Z-11.971
N3520 X131.595 Z-11.938
N3525 X131.574 Z-11.896
N3530 X131.567 Z-11.85
N3535 Z5.
N3540 X174.708 Y32.683
N3545 Z2.
N3550 Z0.15
N3555 X174.716 Z0.104
N3560 X174.737 Z0.062
N3565 X174.77 Z0.029
N3570 X174.812 Z0.007
N3575 X174.858 Z0.
N3580 X174.933
N3585 X174.98 Y32.691
N3590 X175.021 Y32.712
N3595 X175.055 Y32.745
N3600 X175.076 Y32.787
N3605 X175.083 Y32.833
N3610 G3 X171.583 Z-0.5 I-1.75 J0.
N3615 X175.083 Z-1. I1.75 J0.
N3620 X171.583 Z-1.5 I-1.75 J0.
N3625 X175.083 Z-2. I1.75 J0.
N3630 X171.583 Z-2.5 I-1.75 J0.
N3635 X175.083 Z-3. I1.75 J0.
N3640 X171.583 Z-3.5 I-1.75 J0.
N3645 X175.083 Z-4. I1.75 J0.
N3650 X171.583 Z-4.5 I-1.75 J0.
N3655 X175.083 Z-5. I1.75 J0.
N3660 X171.583 Z-5.5 I-1.75 J0.
N3665 X175.083 Z-6. I1.75 J0.
N3670 X171.583 Z-6.5 I-1.75 J0.
N3675 X175.083 Z-7. I1.75 J0.
N3680 X171.583 Z-7.5 I-1.75 J0.
N3685 X175.083 Z-8. I1.75 J0.
N3690 X171.583 Z-8.5 I-1.75 J0.
N3695 X175.083 Z-9. I1.75 J0.
N3700 X171.583 Z-9.5 I-1.75 J0.
N3705 X175.083 Z-10. I1.75 J0.
N3710 X171.583 Z-10.5 I-1.75 J0.
N3715 X175.083 Z-11. I1.75 J0.
N3720 X171.583 Z-11.5 I-1.75 J0.
N3725 X175.083 Z-12. I1.75 J0.
N3730 X171.583 I-1.75 J0.
N3735 X175.083 I1.75 J0.
N3740 G1 X175.076 Y32.88
N3745 X175.055 Y32.921
N3750 X175.022 Y32.955
N3755 X174.98 Y32.976
N3760 X174.933 Y32.983
N3765 X174.858
N3770 X174.812 Z-11.993
N3775 X174.77 Z-11.971
N3780 X174.737 Z-11.938
N3785 X174.716 Z-11.896
N3790 X174.708 Z-11.85
N3795 Z5.
N3800 X214.9 Y57.208
N3805 Z2.
N3810 Z0.15
N3815 X214.907 Z0.104
N3820 X214.929 Z0.062
N3825 X214.962 Z0.029
N3830 X215.004 Z0.007
N3835 X215.05 Z0.
N3840 X215.125
N3845 X215.164 Y57.214
N3850 X215.198 Y57.232
N3855 X215.226 Y57.26
N3860 X215.244 Y57.295
N3865 X215.25 Y57.333
N3870 G3 X214.75 Z-0.5 I-0.25 J0.
N3875 X215.25 Z-1. I0.25 J0.
N3880 X214.75 Z-1.5 I-0.25 J0.
N3885 X215.25 Z-2. I0.25 J0.
N3890 X214.75 Z-2.5 I-0.25 J0.
N3895 X215.25 Z-3. I0.25 J0.
N3900 X214.75 Z-3.5 I-0.25 J0.
N3905 X215.25 Z-4. I0.25 J0.
N3910 X214.75 Z-4.5 I-0.25 J0.
N3915 X215.25 Z-5. I0.25 J0.
N3920 X214.75 Z-5.5 I-0.25 J0.
N3925 X215.25 Z-6. I0.25 J0.
N3930 X214.75 Z-6.5 I-0.25 J0.
N3935 X215.25 Z-7. I0.25 J0.
N3940 X214.75 Z-7.5 I-0.25 J0.
N3945 X215.25 Z-8. I0.25 J0.
N3950 X214.75 Z-8.5 I-0.25 J0.
N3955 X215.25 Z-9. I0.25 J0.
N3960 X214.75 Z-9.5 I-0.25 J0.
N3965 X215.25 Z-10. I0.25 J0.
N3970 X214.75 Z-10.5 I-0.25 J0.
N3975 X215.25 Z-11. I0.25 J0.
N3980 X214.75 Z-11.5 I-0.25 J0.
N3985 X215.25 Z-12. I0.25 J0.
N3990 X214.75 I-0.25 J0.
N3995 X215.25 I0.25 J0.
N4000 G1 X215.244 Y57.372
N4005 X215.226 Y57.407
N4010 X215.198 Y57.434
N4015 X215.164 Y57.452
N4020 X215.125 Y57.458
N4025 X215.05
N4030 X215.004 Z-11.993
N4035 X214.962 Z-11.971
N4040 X214.929 Z-11.938
N4045 X214.907 Z-11.896
N4050 X214.9 Z-11.85
N4055 Z5.
N4060 X248.233 Y57.208
N4065 Z2.
N4070 Z0.15
N4075 X248.241 Z0.104
N4080 X248.262 Z0.062
N4085 X248.295 Z0.029
N4090 X248.337 Z0.007
N4095 X248.383 Z0.
N4100 X248.458
N4105 X248.497 Y57.214
N4110 X248.532 Y57.232
N4115 X248.559 Y57.26
N4120 X248.577 Y57.295
N4125 X248.583 Y57.333
N4130 G3 X248.083 Z-0.5 I-0.25 J0.
N4135 X248.265 Y57.093 Z-0.706 I0.25 J0.
N4140 X248.402 Y57.574 Z-1.206 I0.068 J0.24
N4145 X248.265 Y57.093 Z-1.706 I-0.068 J-0.24
N4150 X248.402 Y57.574 Z-2.206 I0.068 J0.24
N4155 X248.265 Y57.093 Z-2.706 I-0.068 J-0.24
N4160 X248.402 Y57.574 Z-3.206 I0.068 J0.24
N4165 X248.265 Y57.093 Z-3.706 I-0.068 J-0.24
N4170 X248.402 Y57.574 Z-4.206 I0.068 J0.24
N4175 X248.265 Y57.093 Z-4.706 I-0.068 J-0.24
N4180 X248.402 Y57.574 Z-5.206 I0.068 J0.24
N4185 X248.265 Y57.093 Z-5.706 I-0.068 J-0.24
N4190 X248.402 Y57.574 Z-6.206 I0.068 J0.24
N4195 X248.265 Y57.093 Z-6.706 I-0.068 J-0.24
N4200 X248.402 Y57.574 Z-7.206 I0.068 J0.24
N4205 X248.265 Y57.093 Z-7.706 I-0.068 J-0.24
N4210 X248.402 Y57.574 Z-8.206 I0.068 J0.24
N4215 X248.265 Y57.093 Z-8.706 I-0.068 J-0.24
N4220 X248.402 Y57.574 Z-9.206 I0.068 J0.24
N4225 X248.265 Y57.093 Z-9.706 I-0.068 J-0.24
N4230 X248.402 Y57.574 Z-10.206 I0.068 J0.24
N4235 X248.265 Y57.093 Z-10.706 I-0.068 J-0.24
N4240 X248.402 Y57.574 Z-11.206 I0.068 J0.24
N4245 X248.265 Y57.093 Z-11.706 I-0.068 J-0.24
N4250 X248.583 Y57.333 Z-12. I0.068 J0.24
N4255 X248.083 I-0.25 J0.
N4260 X248.583 I0.25 J0.
N4265 G1 X248.577 Y57.372
N4270 X248.559 Y57.407
N4275 X248.532 Y57.434
N4280 X248.497 Y57.452
N4285 X248.458 Y57.458
N4290 X248.383
N4295 X248.337 Z-11.993
N4300 X248.295 Z-11.971
N4305 X248.262 Z-11.938
N4310 X248.241 Z-11.896
N4315 X248.233 Z-11.85
N4320 Z5.
N4325 Y90.542
N4330 Z2.
N4335 Z0.15
N4340 X248.241 Z0.104
N4345 X248.262 Z0.062
N4350 X248.295 Z0.029
N4355 X248.337 Z0.007
N4360 X248.383 Z0.
N4365 X248.458
N4370 X248.497 Y90.548
N4375 X248.532 Y90.566
N4380 X248.559 Y90.593
N4385 X248.577 Y90.628
N4390 X248.583 Y90.667
N4395 G3 X248.083 Z-0.5 I-0.25 J0.
N4400 X248.265 Y90.426 Z-0.706 I0.25 J0.
N4405 X248.402 Y90.907 Z-1.206 I0.068 J0.24
N4410 X248.265 Y90.426 Z-1.706 I-0.068 J-0.24
N4415 X248.402 Y90.907 Z-2.206 I0.068 J0.24
N4420 X248.265 Y90.426 Z-2.706 I-0.068 J-0.24
N4425 X248.402 Y90.907 Z-3.206 I0.068 J0.24
N4430 X248.265 Y90.426 Z-3.706 I-0.068 J-0.24
N4435 X248.402 Y90.907 Z-4.206 I0.068 J0.24
N4440 X248.265 Y90.426 Z-4.706 I-0.068 J-0.24
N4445 X248.402 Y90.907 Z-5.206 I0.068 J0.24
N4450 X248.265 Y90.426 Z-5.706 I-0.068 J-0.24
N4455 X248.402 Y90.907 Z-6.206 I0.068 J0.24
N4460 X248.265 Y90.426 Z-6.706 I-0.068 J-0.24
N4465 X248.402 Y90.907 Z-7.206 I0.068 J0.24
N4470 X248.265 Y90.426 Z-7.706 I-0.068 J-0.24
N4475 X248.402 Y90.907 Z-8.206 I0.068 J0.24
N4480 X248.265 Y90.426 Z-8.706 I-0.068 J-0.24
N4485 X248.402 Y90.907 Z-9.206 I0.068 J0.24
N4490 X248.265 Y90.426 Z-9.706 I-0.068 J-0.24
N4495 X248.402 Y90.907 Z-10.206 I0.068 J0.24
N4500 X248.265 Y90.426 Z-10.706 I-0.068 J-0.24
N4505 X248.402 Y90.907 Z-11.206 I0.068 J0.24
N4510 X248.265 Y90.426 Z-11.706 I-0.068 J-0.24
N4515 X248.583 Y90.667 Z-12. I0.068 J0.24
N4520 X248.083 I-0.25 J0.
N4525 X248.583 I0.25 J0.
N4530 G1 X248.577 Y90.705
N4535 X248.559 Y90.74
N4540 X248.532 Y90.768
N4545 X248.497 Y90.786
N4550 X248.458 Y90.792
N4555 X248.383
N4560 X248.337 Z-11.993
N4565 X248.295 Z-11.971
N4570 X248.262 Z-11.938
N4575 X248.241 Z-11.896
N4580 X248.233 Z-11.85
N4585 Z5.
N4590 X335.567 Y207.208
N4595 Z2.
N4600 Z0.15
N4605 X335.574 Z0.104
N4610 X335.595 Z0.062
N4615 X335.629 Z0.029
N4620 X335.67 Z0.007
N4625 X335.717 Z0.
N4630 X335.792
N4635 X335.83 Y207.214
N4640 X335.865 Y207.232
N4645 X335.893 Y207.26
N4650 X335.911 Y207.295
N4655 X335.917 Y207.333
N4660 G3 X335.417 Z-0.5 I-0.25 J0.
N4665 X335.917 Z-1. I0.25 J0.
N4670 X335.417 Z-1.5 I-0.25 J0.
N4675 X335.917 Z-2. I0.25 J0.
N4680 X335.417 Z-2.5 I-0.25 J0.
N4685 X335.778 Y207.11 Z-2.824 I0.25 J0.
N4690 X335.555 Y207.557 Z-3.324 I-0.111 J0.224
N4695 X335.421 Y207.287 Z-3.529 I0.111 J-0.224
N4700 X335.912 Y207.379 Z-4.029 I0.246 J0.046
N4705 X335.421 Y207.287 Z-4.529 I-0.246 J-0.046
N4710 X335.912 Y207.379 Z-5.029 I0.246 J0.046
N4715 X335.421 Y207.287 Z-5.529 I-0.246 J-0.046
N4720 X335.516 Y207.134 Z-5.647 I0.246 J0.046
N4725 X335.817 Y207.533 Z-6.147 I0.151 J0.199
N4730 X335.516 Z-6.353 I-0.151 J-0.2
N4735 X335.817 Y207.134 Z-6.853 I0.151 J-0.2
N4740 X335.9 Y207.424 Z-7.059 I-0.151 J0.2
N4745 X335.434 Y207.243 Z-7.559 I-0.233 J-0.09
N4750 X335.69 Y207.084 Z-7.765 I0.233 J0.09
N4755 X335.644 Y207.582 Z-8.265 I-0.023 J0.249
N4760 X335.69 Y207.084 Z-8.765 I0.023 J-0.249
N4765 X335.778 Y207.557 Z-9.176 I-0.023 J0.249
N4770 X335.555 Y207.11 Z-9.676 I-0.111 J-0.224
N4775 X335.851 Y207.165 Z-9.882 I0.111 J0.224
N4780 X335.482 Y207.502 Z-10.382 I-0.185 J0.168
N4785 X335.851 Y207.165 Z-10.882 I0.185 J-0.168
N4790 X335.482 Y207.502 Z-11.382 I-0.185 J0.168
N4795 X335.851 Y207.165 Z-11.882 I0.185 J-0.168
N4800 X335.917 Y207.333 Z-12. I-0.185 J0.168
N4805 X335.417 I-0.25 J0.
N4810 X335.917 I0.25 J0.
N4815 G1 X335.911 Y207.372
N4820 X335.893 Y207.407
N4825 X335.865 Y207.434
N4830 X335.83 Y207.452
N4835 X335.792 Y207.458
N4840 X335.717
N4845 X335.67 Z-11.993
N4850 X335.629 Z-11.971
N4855 X335.595 Z-11.938
N4860 X335.574 Z-11.896
N4865 X335.567 Z-11.85
N4870 Z5.
N4875 X302.233 Y207.208
N4880 Z2.
N4885 Z0.15
N4890 X302.241 Z0.104
N4895 X302.262 Z0.062
N4900 X302.295 Z0.029
N4905 X302.337 Z0.007
N4910 X302.383 Z0.
N4915 X302.458
N4920 X302.497 Y207.214
N4925 X302.532 Y207.232
N4930 X302.559 Y207.26
N4935 X302.577 Y207.295
N4940 X302.583 Y207.333
N4945 G3 X302.083 Z-0.5 I-0.25 J0.
N4950 X302.583 Z-1. I0.25 J0.
N4955 X302.083 Z-1.5 I-0.25 J0.
N4960 X302.583 Z-2. I0.25 J0.
N4965 X302.083 Z-2.5 I-0.25 J0.
N4970 X302.583 Z-3. I0.25 J0.
N4975 X302.083 Z-3.5 I-0.25 J0.
N4980 X302.583 Z-4. I0.25 J0.
N4985 X302.356 Y207.582 Z-4.235 I-0.25 J0.
N4990 X302.31 Y207.084 Z-4.735 I-0.023 J-0.249
N4995 X302.566 Y207.243 Z-4.941 I0.023 J0.249
N5000 X302.1 Y207.424 Z-5.441 I-0.233 J0.09
N5005 X302.183 Y207.134 Z-5.647 I0.233 J-0.09
N5010 X302.484 Y207.533 Z-6.147 I0.151 J0.199
N5015 X302.183 Y207.134 Z-6.647 I-0.151 J-0.199
N5020 X302.484 Y207.533 Z-7.147 I0.151 J0.199
N5025 X302.183 Y207.134 Z-7.647 I-0.151 J-0.2
N5030 X302.484 Y207.533 Z-8.147 I0.151 J0.2
N5035 X302.088 Y207.379 Z-8.471 I-0.151 J-0.2
N5040 X302.579 Y207.287 Z-8.971 I0.246 J-0.046
N5045 X302.445 Y207.557 Z-9.176 I-0.246 J0.046
N5050 X302.222 Y207.11 Z-9.676 I-0.111 J-0.224
N5055 X302.445 Y207.557 Z-10.176 I0.111 J0.224
N5060 X302.222 Y207.11 Z-10.676 I-0.111 J-0.224
N5065 X302.445 Y207.557 Z-11.176 I0.111 J0.224
N5070 X302.222 Y207.11 Z-11.676 I-0.111 J-0.224
N5075 X302.583 Y207.333 Z-12. I0.111 J0.224
N5080 X302.083 I-0.25 J0.
N5085 X302.583 I0.25 J0.
N5090 G1 X302.577 Y207.372
N5095 X302.559 Y207.407
N5100 X302.532 Y207.434
N5105 X302.497 Y207.452
N5110 X302.458 Y207.458
N5115 X302.383
N5120 X302.337 Z-11.993
N5125 X302.295 Z-11.971
N5130 X302.262 Z-11.938
N5135 X302.241 Z-11.896
N5140 X302.233 Z-11.85
N5145 Z5.
N5150 Y173.875
N5155 Z2.
N5160 Z0.15
N5165 X302.241 Z0.104
N5170 X302.262 Z0.062
N5175 X302.295 Z0.029
N5180 X302.337 Z0.007
N5185 X302.383 Z0.
N5190 X302.458
N5195 X302.497 Y173.881
N5200 X302.532 Y173.899
N5205 X302.559 Y173.927
N5210 X302.577 Y173.961
N5215 X302.583 Y174.
N5220 G3 X302.083 Z-0.5 I-0.25 J0.
N5225 X302.583 Z-1. I0.25 J0.
N5230 X302.083 Z-1.5 I-0.25 J0.
N5235 X302.583 Z-2. I0.25 J0.
N5240 X302.083 Z-2.5 I-0.25 J0.
N5245 X302.445 Y173.776 Z-2.824 I0.25 J0.
N5250 X302.222 Y174.224 Z-3.324 I-0.111 J0.224
N5255 X302.088 Y173.954 Z-3.529 I0.111 J-0.224
N5260 X302.579 Y174.046 Z-4.029 I0.246 J0.046
N5265 X302.088 Y173.954 Z-4.529 I-0.246 J-0.046
N5270 X302.566 Y173.91 Z-4.941 I0.246 J0.046
N5275 X302.1 Y174.09 Z-5.441 I-0.233 J0.09
N5280 X302.566 Y173.91 Z-5.941 I0.233 J-0.09
N5285 X302.1 Y174.09 Z-6.441 I-0.233 J0.09
N5290 X302.566 Y173.91 Z-6.941 I0.233 J-0.09
N5295 Y174.09 Z-7.059 I-0.233 J0.09
N5300 X302.1 Y173.91 Z-7.559 I-0.233 J-0.09
N5305 X302.566 Y174.09 Z-8.059 I0.233 J0.09
N5310 X302.088 Y174.046 Z-8.471 I-0.233 J-0.09
N5315 X302.579 Y173.954 Z-8.971 I0.246 J-0.046
N5320 X302.445 Y174.224 Z-9.176 I-0.246 J0.046
N5325 X302.222 Y173.776 Z-9.676 I-0.111 J-0.224
N5330 X302.445 Y174.224 Z-10.176 I0.111 J0.224
N5335 X302.222 Y173.776 Z-10.676 I-0.111 J-0.224
N5340 X302.445 Y174.224 Z-11.176 I0.111 J0.224
N5345 X302.222 Y173.776 Z-11.676 I-0.111 J-0.224
N5350 X302.583 Y174. Z-12. I0.111 J0.224
N5355 X302.083 I-0.25 J0.
N5360 X302.583 I0.25 J0.
N5365 G1 X302.577 Y174.039
N5370 X302.559 Y174.073
N5375 X302.532 Y174.101
N5380 X302.497 Y174.119
N5385 X302.458 Y174.125
N5390 X302.383
N5395 X302.337 Z-11.993
N5400 X302.295 Z-11.971
N5405 X302.262 Z-11.938
N5410 X302.241 Z-11.896
N5415 X302.233 Z-11.85
N5420 Z5.
N5425 X352.233 Y157.208
N5430 Z2.
N5435 Z0.15
N5440 X352.241 Z0.104
N5445 X352.262 Z0.062
N5450 X352.295 Z0.029
N5455 X352.337 Z0.007
N5460 X352.383 Z0.
N5465 X352.458
N5470 X352.497 Y157.214
N5475 X352.532 Y157.232
N5480 X352.559 Y157.26
N5485 X352.577 Y157.295
N5490 X352.583 Y157.333
N5495 G3 X352.083 Z-0.5 I-0.25 J0.
N5500 X352.583 Z-1. I0.25 J0.
N5505 X352.083 Z-1.5 I-0.25 J0.
N5510 X352.583 Z-2. I0.25 J0.
N5515 X352.083 Z-2.5 I-0.25 J0.
N5520 X352.583 Z-3. I0.25 J0.
N5525 X352.083 Z-3.5 I-0.25 J0.
N5530 X352.583 Z-4. I0.25 J0.
N5535 X352.083 Z-4.5 I-0.25 J0.
N5540 X352.583 Z-5. I0.25 J0.
N5545 X352.083 Z-5.5 I-0.25 J0.
N5550 X352.183 Y157.134 Z-5.647 I0.25 J0.
N5555 X352.484 Y157.533 Z-6.147 I0.151 J0.199
N5560 X352.183 Y157.134 Z-6.647 I-0.151 J-0.199
N5565 X352.566 Y157.424 Z-7.059 I0.151 J0.199
N5570 X352.1 Y157.243 Z-7.559 I-0.233 J-0.09
N5575 X352.566 Y157.424 Z-8.059 I0.233 J0.09
N5580 X352.088 Y157.379 Z-8.471 I-0.233 J-0.09
N5585 X352.579 Y157.287 Z-8.971 I0.246 J-0.046
N5590 X352.445 Y157.557 Z-9.176 I-0.246 J0.046
N5595 X352.222 Y157.11 Z-9.676 I-0.111 J-0.224
N5600 X352.445 Y157.557 Z-10.176 I0.111 J0.224
N5605 X352.222 Y157.11 Z-10.676 I-0.111 J-0.224
N5610 X352.445 Y157.557 Z-11.176 I0.111 J0.224
N5615 X352.222 Y157.11 Z-11.676 I-0.111 J-0.224
N5620 X352.583 Y157.333 Z-12. I0.111 J0.224
N5625 X352.083 I-0.25 J0.
N5630 X352.583 I0.25 J0.
N5635 G1 X352.577 Y157.372
N5640 X352.559 Y157.407
N5645 X352.532 Y157.434
N5650 X352.497 Y157.452
N5655 X352.458 Y157.458
N5660 X352.383
N5665 X352.337 Z-11.993
N5670 X352.295 Z-11.971
N5675 X352.262 Z-11.938
N5680 X352.241 Z-11.896
N5685 X352.233 Z-11.85
N5690 Z5.
N5695 X402.233 Y157.208
N5700 Z2.
N5705 Z0.15
N5710 X402.241 Z0.104
N5715 X402.262 Z0.062
N5720 X402.295 Z0.029
N5725 X402.337 Z0.007
N5730 X402.383 Z0.
N5735 X402.458
N5740 X402.497 Y157.214
N5745 X402.532 Y157.232
N5750 X402.559 Y157.26
N5755 X402.577 Y157.295
N5760 X402.583 Y157.333
N5765 G3 X402.083 Z-0.5 I-0.25 J0.
N5770 X402.583 Z-1. I0.25 J0.
N5775 X402.083 Z-1.5 I-0.25 J0.
N5780 X402.583 Z-2. I0.25 J0.
N5785 X402.083 Z-2.5 I-0.25 J0.
N5790 X402.583 Z-3. I0.25 J0.
N5795 X402.083 Z-3.5 I-0.25 J0.
N5800 X402.583 Z-4. I0.25 J0.
N5805 X402.083 Z-4.5 I-0.25 J0.
N5810 X402.583 Z-5. I0.25 J0.
N5815 X402.083 Z-5.5 I-0.25 J0.
N5820 X402.183 Y157.134 Z-5.647 I0.25 J0.
N5825 X402.484 Y157.533 Z-6.147 I0.151 J0.199
N5830 X402.183 Y157.134 Z-6.647 I-0.151 J-0.199
N5835 X402.566 Y157.424 Z-7.059 I0.151 J0.199
N5840 X402.1 Y157.243 Z-7.559 I-0.233 J-0.09
N5845 X402.566 Y157.424 Z-8.059 I0.233 J0.09
N5850 X402.088 Y157.379 Z-8.471 I-0.233 J-0.09
N5855 X402.579 Y157.287 Z-8.971 I0.246 J-0.046
N5860 X402.445 Y157.557 Z-9.176 I-0.246 J0.046
N5865 X402.222 Y157.11 Z-9.676 I-0.111 J-0.224
N5870 X402.445 Y157.557 Z-10.176 I0.111 J0.224
N5875 X402.222 Y157.11 Z-10.676 I-0.111 J-0.224
N5880 X402.445 Y157.557 Z-11.176 I0.111 J0.224
N5885 X402.222 Y157.11 Z-11.676 I-0.111 J-0.224
N5890 X402.583 Y157.333 Z-12. I0.111 J0.224
N5895 X402.083 I-0.25 J0.
N5900 X402.583 I0.25 J0.
N5905 G1 X402.577 Y157.372
N5910 X402.559 Y157.407
N5915 X402.532 Y157.434
N5920 X402.497 Y157.452
N5925 X402.458 Y157.458
N5930 X402.383
N5935 X402.337 Z-11.993
N5940 X402.295 Z-11.971
N5945 X402.262 Z-11.938
N5950 X402.241 Z-11.896
N5955 X402.233 Z-11.85
N5960 Z5.
N5965 X452.233 Y173.875
N5970 Z2.
N5975 Z0.15
N5980 X452.241 Z0.104
N5985 X452.262 Z0.062
N5990 X452.295 Z0.029
N5995 X452.337 Z0.007
N6000 X452.383 Z0.
N6005 X452.458
N6010 X452.497 Y173.881
N6015 X452.532 Y173.899
N6020 X452.559 Y173.927
N6025 X452.577 Y173.961
N6030 X452.583 Y174.
N6035 G3 X452.083 Z-0.5 I-0.25 J0.
N6040 X452.583 Z-1. I0.25 J0.
N6045 X452.083 Z-1.5 I-0.25 J0.
N6050 X452.583 Z-2. I0.25 J0.
N6055 X452.083 Z-2.5 I-0.25 J0.
N6060 X452.445 Y173.776 Z-2.824 I0.25 J0.
N6065 X452.222 Y174.224 Z-3.324 I-0.111 J0.224
N6070 X452.088 Y173.954 Z-3.529 I0.111 J-0.224
N6075 X452.579 Y174.046 Z-4.029 I0.246 J0.046
N6080 X452.088 Y173.954 Z-4.529 I-0.246 J-0.046
N6085 X452.566 Y173.91 Z-4.941 I0.246 J0.046
N6090 X452.1 Y174.09 Z-5.441 I-0.233 J0.09
N6095 X452.566 Y173.91 Z-5.941 I0.233 J-0.09
N6100 X452.1 Y174.09 Z-6.441 I-0.233 J0.09
N6105 X452.566 Y173.91 Z-6.941 I0.233 J-0.09
N6110 Y174.09 Z-7.059 I-0.233 J0.09
N6115 X452.1 Y173.91 Z-7.559 I-0.233 J-0.09
N6120 X452.566 Y174.09 Z-8.059 I0.233 J0.09
N6125 X452.088 Y174.046 Z-8.471 I-0.233 J-0.09
N6130 X452.579 Y173.954 Z-8.971 I0.246 J-0.046
N6135 X452.445 Y174.224 Z-9.176 I-0.246 J0.046
N6140 X452.222 Y173.776 Z-9.676 I-0.111 J-0.224
N6145 X452.445 Y174.224 Z-10.176 I0.111 J0.224
N6150 X452.222 Y173.776 Z-10.676 I-0.111 J-0.224
N6155 X452.445 Y174.224 Z-11.176 I0.111 J0.224
N6160 X452.222 Y173.776 Z-11.676 I-0.111 J-0.224
N6165 X452.583 Y174. Z-12. I0.111 J0.224
N6170 X452.083 I-0.25 J0.
N6175 X452.583 I0.25 J0.
N6180 G1 X452.577 Y174.039
N6185 X452.559 Y174.073
N6190 X452.532 Y174.101
N6195 X452.497 Y174.119
N6200 X452.458 Y174.125
N6205 X452.383
N6210 X452.337 Z-11.993
N6215 X452.295 Z-11.971
N6220 X452.262 Z-11.938
N6225 X452.241 Z-11.896
N6230 X452.233 Z-11.85
N6235 Z5.
N6240 Y207.208
N6245 Z2.
N6250 Z0.15
N6255 X452.241 Z0.104
N6260 X452.262 Z0.062
N6265 X452.295 Z0.029
N6270 X452.337 Z0.007
N6275 X452.383 Z0.
N6280 X452.458
N6285 X452.497 Y207.214
N6290 X452.532 Y207.232
N6295 X452.559 Y207.26
N6300 X452.577 Y207.295
N6305 X452.583 Y207.333
N6310 G3 X452.083 Z-0.5 I-0.25 J0.
N6315 X452.583 Z-1. I0.25 J0.
N6320 X452.083 Z-1.5 I-0.25 J0.
N6325 X452.583 Z-2. I0.25 J0.
N6330 X452.083 Z-2.5 I-0.25 J0.
N6335 X452.583 Z-3. I0.25 J0.
N6340 X452.31 Y207.582 Z-3.265 I-0.25 J0.
N6345 X452.088 Y207.287 Z-3.529 I0.023 J-0.249
N6350 X452.579 Y207.379 Z-4.029 I0.246 J0.046
N6355 X452.356 Y207.582 Z-4.235 I-0.246 J-0.046
N6360 X452.31 Y207.084 Z-4.735 I-0.023 J-0.249
N6365 X452.356 Y207.582 Z-5.235 I0.023 J0.249
N6370 X452.183 Y207.134 Z-5.647 I-0.023 J-0.249
N6375 X452.484 Y207.533 Z-6.147 I0.151 J0.199
N6380 X452.183 Y207.134 Z-6.647 I-0.151 J-0.199
N6385 X452.566 Y207.424 Z-7.059 I0.151 J0.199
N6390 X452.1 Y207.243 Z-7.559 I-0.233 J-0.09
N6395 X452.356 Y207.084 Z-7.765 I0.233 J0.09
N6400 X452.31 Y207.582 Z-8.265 I-0.023 J0.249
N6405 X452.356 Y207.084 Z-8.765 I0.023 J-0.249
N6410 X452.445 Y207.557 Z-9.176 I-0.023 J0.249
N6415 X452.222 Y207.11 Z-9.676 I-0.111 J-0.224
N6420 X452.445 Y207.557 Z-10.176 I0.111 J0.224
N6425 X452.222 Y207.11 Z-10.676 I-0.111 J-0.224
N6430 X452.445 Y207.557 Z-11.176 I0.111 J0.224
N6435 X452.222 Y207.11 Z-11.676 I-0.111 J-0.224
N6440 X452.583 Y207.333 Z-12. I0.111 J0.224
N6445 X452.083 I-0.25 J0.
N6450 X452.583 I0.25 J0.
N6455 G1 X452.577 Y207.372
N6460 X452.559 Y207.407
N6465 X452.532 Y207.434
N6470 X452.497 Y207.452
N6475 X452.458 Y207.458
N6480 X452.383
N6485 X452.337 Z-11.993
N6490 X452.295 Z-11.971
N6495 X452.262 Z-11.938
N6500 X452.241 Z-11.896
N6505 X452.233 Z-11.85
N6510 Z5.
N6515 X418.9 Y207.208
N6520 Z2.
N6525 Z0.15
N6530 X418.907 Z0.104
N6535 X418.929 Z0.062
N6540 X418.962 Z0.029
N6545 X419.004 Z0.007
N6550 X419.05 Z0.
N6555 X419.125
N6560 X419.164 Y207.214
N6565 X419.198 Y207.232
N6570 X419.226 Y207.26
N6575 X419.244 Y207.295
N6580 X419.25 Y207.333
N6585 G3 X418.75 Z-0.5 I-0.25 J0.
N6590 X419.25 Z-1. I0.25 J0.
N6595 X418.75 Z-1.5 I-0.25 J0.
N6600 X419.25 Z-2. I0.25 J0.
N6605 X418.75 Z-2.5 I-0.25 J0.
N6610 X419.25 Z-3. I0.25 J0.
N6615 X418.75 Z-3.5 I-0.25 J0.
N6620 X419.25 Z-4. I0.25 J0.
N6625 X419.023 Y207.582 Z-4.235 I-0.25 J0.
N6630 X418.977 Y207.084 Z-4.735 I-0.023 J-0.249
N6635 X419.233 Y207.243 Z-4.941 I0.023 J0.249
N6640 X418.767 Y207.424 Z-5.441 I-0.233 J0.09
N6645 X418.849 Y207.134 Z-5.647 I0.233 J-0.09
N6650 X419.151 Y207.533 Z-6.147 I0.151 J0.199
N6655 X418.849 Y207.134 Z-6.647 I-0.151 J-0.199
N6660 X419.151 Y207.533 Z-7.147 I0.151 J0.199
N6665 X418.849 Y207.134 Z-7.647 I-0.151 J-0.2
N6670 X419.151 Y207.533 Z-8.147 I0.151 J0.2
N6675 X418.754 Y207.379 Z-8.471 I-0.151 J-0.2
N6680 X419.246 Y207.287 Z-8.971 I0.246 J-0.046
N6685 X419.111 Y207.557 Z-9.176 I-0.246 J0.046
N6690 X418.889 Y207.11 Z-9.676 I-0.111 J-0.224
N6695 X419.111 Y207.557 Z-10.176 I0.111 J0.224
N6700 X418.889 Y207.11 Z-10.676 I-0.111 J-0.224
N6705 X419.111 Y207.557 Z-11.176 I0.111 J0.224
N6710 X418.889 Y207.11 Z-11.676 I-0.111 J-0.224
N6715 X419.25 Y207.333 Z-12. I0.111 J0.224
N6720 X418.75 I-0.25 J0.
N6725 X419.25 I0.25 J0.
N6730 G1 X419.244 Y207.372
N6735 X419.226 Y207.407
N6740 X419.198 Y207.434
N6745 X419.164 Y207.452
N6750 X419.125 Y207.458
N6755 X419.05
N6760 X419.004 Z-11.993
N6765 X418.962 Z-11.971
N6770 X418.929 Z-11.938
N6775 X418.907 Z-11.896
N6780 X418.9 Z-11.85
N6785 Z5.
N6790 X402.233 Y107.208
N6795 Z2.
N6800 Z0.15
N6805 X402.241 Z0.104
N6810 X402.262 Z0.062
N6815 X402.295 Z0.029
N6820 X402.337 Z0.007
N6825 X402.383 Z0.
N6830 X402.458
N6835 X402.497 Y107.214
N6840 X402.532 Y107.232
N6845 X402.559 Y107.26
N6850 X402.577 Y107.295
N6855 X402.583 Y107.333
N6860 G3 X402.083 Z-0.5 I-0.25 J0.
N6865 X402.583 Z-1. I0.25 J0.
N6870 X402.083 Z-1.5 I-0.25 J0.
N6875 X402.583 Z-2. I0.25 J0.
N6880 X402.083 Z-2.5 I-0.25 J0.
N6885 X402.583 Z-3. I0.25 J0.
N6890 X402.083 Z-3.5 I-0.25 J0.
N6895 X402.583 Z-4. I0.25 J0.
N6900 X402.083 Z-4.5 I-0.25 J0.
N6905 X402.583 Z-5. I0.25 J0.
N6910 X402.083 Z-5.5 I-0.25 J0.
N6915 X402.583 Z-6. I0.25 J0.
N6920 X402.083 Z-6.5 I-0.25 J0.
N6925 X402.583 Z-7. I0.25 J0.
N6930 X402.083 Z-7.5 I-0.25 J0.
N6935 X402.583 Z-8. I0.25 J0.
N6940 X402.083 Z-8.5 I-0.25 J0.
N6945 X402.583 Z-9. I0.25 J0.
N6950 X402.083 Z-9.5 I-0.25 J0.
N6955 X402.583 Z-10. I0.25 J0.
N6960 X402.083 Z-10.5 I-0.25 J0.
N6965 X402.583 Z-11. I0.25 J0.
N6970 X402.083 Z-11.5 I-0.25 J0.
N6975 X402.583 Z-12. I0.25 J0.
N6980 X402.083 I-0.25 J0.
N6985 X402.583 I0.25 J0.
N6990 G1 X402.577 Y107.372
N6995 X402.559 Y107.407
N7000 X402.532 Y107.434
N7005 X402.497 Y107.452
N7010 X402.458 Y107.458
N7015 X402.383
N7020 X402.337 Z-11.993
N7025 X402.295 Z-11.971
N7030 X402.262 Z-11.938
N7035 X402.241 Z-11.896
N7040 X402.233 Z-11.85
N7045 Z5.
N7050 X352.233 Y107.208
N7055 Z2.
N7060 Z0.15
N7065 X352.241 Z0.104
N7070 X352.262 Z0.062
N7075 X352.295 Z0.029
N7080 X352.337 Z0.007
N7085 X352.383 Z0.
N7090 X352.458
N7095 X352.497 Y107.214
N7100 X352.532 Y107.232
N7105 X352.559 Y107.26
N7110 X352.577 Y107.295
N7115 X352.583 Y107.333
N7120 G3 X352.083 Z-0.5 I-0.25 J0.
N7125 X352.583 Z-1. I0.25 J0.
N7130 X352.083 Z-1.5 I-0.25 J0.
N7135 X352.583 Z-2. I0.25 J0.
N7140 X352.083 Z-2.5 I-0.25 J0.
N7145 X352.583 Z-3. I0.25 J0.
N7150 X352.083 Z-3.5 I-0.25 J0.
N7155 X352.583 Z-4. I0.25 J0.
N7160 X352.083 Z-4.5 I-0.25 J0.
N7165 X352.583 Z-5. I0.25 J0.
N7170 X352.083 Z-5.5 I-0.25 J0.
N7175 X352.583 Z-6. I0.25 J0.
N7180 X352.083 Z-6.5 I-0.25 J0.
N7185 X352.583 Z-7. I0.25 J0.
N7190 X352.083 Z-7.5 I-0.25 J0.
N7195 X352.583 Z-8. I0.25 J0.
N7200 X352.083 Z-8.5 I-0.25 J0.
N7205 X352.583 Z-9. I0.25 J0.
N7210 X352.083 Z-9.5 I-0.25 J0.
N7215 X352.583 Z-10. I0.25 J0.
N7220 X352.083 Z-10.5 I-0.25 J0.
N7225 X352.583 Z-11. I0.25 J0.
N7230 X352.083 Z-11.5 I-0.25 J0.
N7235 X352.583 Z-12. I0.25 J0.
N7240 X352.083 I-0.25 J0.
N7245 X352.583 I0.25 J0.
N7250 G1 X352.577 Y107.372
N7255 X352.559 Y107.407
N7260 X352.532 Y107.434
N7265 X352.497 Y107.452
N7270 X352.458 Y107.458
N7275 X352.383
N7280 X352.337 Z-11.993
N7285 X352.295 Z-11.971
N7290 X352.262 Z-11.938
N7295 X352.241 Z-11.896
N7300 X352.233 Z-11.85
N7305 Z5.
N7310 X302.233 Y90.542
N7315 Z2.
N7320 Z0.15
N7325 X302.241 Z0.104
N7330 X302.262 Z0.062
N7335 X302.295 Z0.029
N7340 X302.337 Z0.007
N7345 X302.383 Z0.
N7350 X302.458
N7355 X302.497 Y90.548
N7360 X302.532 Y90.566
N7365 X302.559 Y90.593
N7370 X302.577 Y90.628
N7375 X302.583 Y90.667
N7380 G3 X302.083 Z-0.5 I-0.25 J0.
N7385 X302.583 Z-1. I0.25 J0.
N7390 X302.083 Z-1.5 I-0.25 J0.
N7395 X302.583 Z-2. I0.25 J0.
N7400 X302.083 Z-2.5 I-0.25 J0.
N7405 X302.583 Z-3. I0.25 J0.
N7410 X302.083 Z-3.5 I-0.25 J0.
N7415 X302.583 Z-4. I0.25 J0.
N7420 X302.083 Z-4.5 I-0.25 J0.
N7425 X302.583 Z-5. I0.25 J0.
N7430 X302.083 Z-5.5 I-0.25 J0.
N7435 X302.583 Z-6. I0.25 J0.
N7440 X302.083 Z-6.5 I-0.25 J0.
N7445 X302.583 Z-7. I0.25 J0.
N7450 X302.083 Z-7.5 I-0.25 J0.
N7455 X302.583 Z-8. I0.25 J0.
N7460 X302.083 Z-8.5 I-0.25 J0.
N7465 X302.583 Z-9. I0.25 J0.
N7470 X302.083 Z-9.5 I-0.25 J0.
N7475 X302.583 Z-10. I0.25 J0.
N7480 X302.083 Z-10.5 I-0.25 J0.
N7485 X302.583 Z-11. I0.25 J0.
N7490 X302.083 Z-11.5 I-0.25 J0.
N7495 X302.583 Z-12. I0.25 J0.
N7500 X302.083 I-0.25 J0.
N7505 X302.583 I0.25 J0.
N7510 G1 X302.577 Y90.705
N7515 X302.559 Y90.74
N7520 X302.532 Y90.768
N7525 X302.497 Y90.786
N7530 X302.458 Y90.792
N7535 X302.383
N7540 X302.337 Z-11.993
N7545 X302.295 Z-11.971
N7550 X302.262 Z-11.938
N7555 X302.241 Z-11.896
N7560 X302.233 Z-11.85
N7565 Z5.
N7570 Y57.208
N7575 Z2.
N7580 Z0.15
N7585 X302.241 Z0.104
N7590 X302.262 Z0.062
N7595 X302.295 Z0.029
N7600 X302.337 Z0.007
N7605 X302.383 Z0.
N7610 X302.458
N7615 X302.497 Y57.214
N7620 X302.532 Y57.232
N7625 X302.559 Y57.26
N7630 X302.577 Y57.295
N7635 X302.583 Y57.333
N7640 G3 X302.083 Z-0.5 I-0.25 J0.
N7645 X302.583 Z-1. I0.25 J0.
N7650 X302.083 Z-1.5 I-0.25 J0.
N7655 X302.583 Z-2. I0.25 J0.
N7660 X302.083 Z-2.5 I-0.25 J0.
N7665 X302.583 Z-3. I0.25 J0.
N7670 X302.083 Z-3.5 I-0.25 J0.
N7675 X302.583 Z-4. I0.25 J0.
N7680 X302.083 Z-4.5 I-0.25 J0.
N7685 X302.583 Z-5. I0.25 J0.
N7690 X302.083 Z-5.5 I-0.25 J0.
N7695 X302.583 Z-6. I0.25 J0.
N7700 X302.083 Z-6.5 I-0.25 J0.
N7705 X302.583 Z-7. I0.25 J0.
N7710 X302.083 Z-7.5 I-0.25 J0.
N7715 X302.583 Z-8. I0.25 J0.
N7720 X302.083 Z-8.5 I-0.25 J0.
N7725 X302.583 Z-9. I0.25 J0.
N7730 X302.083 Z-9.5 I-0.25 J0.
N7735 X302.583 Z-10. I0.25 J0.
N7740 X302.083 Z-10.5 I-0.25 J0.
N7745 X302.583 Z-11. I0.25 J0.
N7750 X302.083 Z-11.5 I-0.25 J0.
N7755 X302.583 Z-12. I0.25 J0.
N7760 X302.083 I-0.25 J0.
N7765 X302.583 I0.25 J0.
N7770 G1 X302.577 Y57.372
N7775 X302.559 Y57.407
N7780 X302.532 Y57.434
N7785 X302.497 Y57.452
N7790 X302.458 Y57.458
N7795 X302.383
N7800 X302.337 Z-11.993
N7805 X302.295 Z-11.971
N7810 X302.262 Z-11.938
N7815 X302.241 Z-11.896
N7820 X302.233 Z-11.85
N7825 Z5.
N7830 X335.567 Y57.208
N7835 Z2.
N7840 Z0.15
N7845 X335.574 Z0.104
N7850 X335.595 Z0.062
N7855 X335.629 Z0.029
N7860 X335.67 Z0.007
N7865 X335.717 Z0.
N7870 X335.792
N7875 X335.83 Y57.214
N7880 X335.865 Y57.232
N7885 X335.893 Y57.26
N7890 X335.911 Y57.295
N7895 X335.917 Y57.333
N7900 G3 X335.417 Z-0.5 I-0.25 J0.
N7905 X335.917 Z-1. I0.25 J0.
N7910 X335.417 Z-1.5 I-0.25 J0.
N7915 X335.917 Z-2. I0.25 J0.
N7920 X335.417 Z-2.5 I-0.25 J0.
N7925 X335.778 Y57.11 Z-2.824 I0.25 J0.
N7930 X335.555 Y57.557 Z-3.324 I-0.111 J0.224
N7935 X335.778 Y57.11 Z-3.824 I0.111 J-0.224
N7940 X335.69 Y57.582 Z-4.235 I-0.111 J0.224
N7945 X335.644 Y57.084 Z-4.735 I-0.023 J-0.249
N7950 X335.69 Y57.582 Z-5.235 I0.023 J0.249
N7955 X335.516 Y57.134 Z-5.647 I-0.023 J-0.249
N7960 X335.817 Y57.533 Z-6.147 I0.151 J0.2
N7965 X335.516 Z-6.353 I-0.151 J-0.2
N7970 X335.817 Y57.134 Z-6.853 I0.151 J-0.2
N7975 X335.516 Y57.533 Z-7.353 I-0.151 J0.2
N7980 X335.69 Y57.084 Z-7.765 I0.151 J-0.2
N7985 X335.644 Y57.582 Z-8.265 I-0.023 J0.249
N7990 X335.69 Y57.084 Z-8.765 I0.023 J-0.249
N7995 X335.778 Y57.557 Z-9.176 I-0.023 J0.249
N8000 X335.555 Y57.11 Z-9.676 I-0.111 J-0.224
N8005 X335.851 Y57.165 Z-9.882 I0.111 J0.224
N8010 X335.482 Y57.502 Z-10.382 I-0.185 J0.168
N8015 X335.851 Y57.165 Z-10.882 I0.185 J-0.168
N8020 X335.482 Y57.502 Z-11.382 I-0.185 J0.168
N8025 X335.851 Y57.165 Z-11.882 I0.185 J-0.168
N8030 X335.917 Y57.333 Z-12. I-0.185 J0.168
N8035 X335.417 I-0.25 J0.
N8040 X335.917 I0.25 J0.
N8045 G1 X335.911 Y57.372
N8050 X335.893 Y57.407
N8055 X335.865 Y57.434
N8060 X335.83 Y57.452
N8065 X335.792 Y57.458
N8070 X335.717
N8075 X335.67 Z-11.993
N8080 X335.629 Z-11.971
N8085 X335.595 Z-11.938
N8090 X335.574 Z-11.896
N8095 X335.567 Z-11.85
N8100 Z5.
N8105 X378.708 Y32.683
N8110 Z2.
N8115 Z0.15
N8120 X378.716 Z0.104
N8125 X378.737 Z0.062
N8130 X378.77 Z0.029
N8135 X378.812 Z0.007
N8140 X378.858 Z0.
N8145 X378.933
N8150 X378.98 Y32.691
N8155 X379.021 Y32.712
N8160 X379.055 Y32.745
N8165 X379.076 Y32.787
N8170 X379.083 Y32.833
N8175 G3 X375.583 Z-0.5 I-1.75 J0.
N8180 X379.083 Z-1. I1.75 J0.
N8185 X375.583 Z-1.5 I-1.75 J0.
N8190 X379.083 Z-2. I1.75 J0.
N8195 X375.583 Z-2.5 I-1.75 J0.
N8200 X379.083 Z-3. I1.75 J0.
N8205 X375.583 Z-3.5 I-1.75 J0.
N8210 X379.083 Z-4. I1.75 J0.
N8215 X375.583 Z-4.5 I-1.75 J0.
N8220 X379.083 Z-5. I1.75 J0.
N8225 X375.583 Z-5.5 I-1.75 J0.
N8230 X379.083 Z-6. I1.75 J0.
N8235 X375.583 Z-6.5 I-1.75 J0.
N8240 X379.083 Z-7. I1.75 J0.
N8245 X375.583 Z-7.5 I-1.75 J0.
N8250 X379.083 Z-8. I1.75 J0.
N8255 X375.583 Z-8.5 I-1.75 J0.
N8260 X379.083 Z-9. I1.75 J0.
N8265 X375.583 Z-9.5 I-1.75 J0.
N8270 X379.083 Z-10. I1.75 J0.
N8275 X375.583 Z-10.5 I-1.75 J0.
N8280 X379.083 Z-11. I1.75 J0.
N8285 X375.583 Z-11.5 I-1.75 J0.
N8290 X379.083 Z-12. I1.75 J0.
N8295 X375.583 I-1.75 J0.
N8300 X379.083 I1.75 J0.
N8305 G1 X379.076 Y32.88
N8310 X379.055 Y32.922
N8315 X379.021 Y32.955
N8320 X378.98 Y32.976
N8325 X378.933 Y32.983
N8330 X378.858
N8335 X378.812 Z-11.993
N8340 X378.77 Z-11.971
N8345 X378.737 Z-11.938
N8350 X378.716 Z-11.896
N8355 X378.708 Z-11.85
N8360 Z5.
N8365 X418.9 Y57.208
N8370 Z2.
N8375 Z0.15
N8380 X418.907 Z0.104
N8385 X418.929 Z0.062
N8390 X418.962 Z0.029
N8395 X419.004 Z0.007
N8400 X419.05 Z0.
N8405 X419.125
N8410 X419.164 Y57.214
N8415 X419.198 Y57.232
N8420 X419.226 Y57.26
N8425 X419.244 Y57.295
N8430 X419.25 Y57.333
N8435 G3 X418.75 Z-0.5 I-0.25 J0.
N8440 X419.25 Z-1. I0.25 J0.
N8445 X418.75 Z-1.5 I-0.25 J0.
N8450 X419.25 Z-2. I0.25 J0.
N8455 X418.75 Z-2.5 I-0.25 J0.
N8460 X419.25 Z-3. I0.25 J0.
N8465 X418.75 Z-3.5 I-0.25 J0.
N8470 X419.25 Z-4. I0.25 J0.
N8475 X418.75 Z-4.5 I-0.25 J0.
N8480 X419.25 Z-5. I0.25 J0.
N8485 X418.75 Z-5.5 I-0.25 J0.
N8490 X419.25 Z-6. I0.25 J0.
N8495 X418.75 Z-6.5 I-0.25 J0.
N8500 X419.25 Z-7. I0.25 J0.
N8505 X418.75 Z-7.5 I-0.25 J0.
N8510 X419.25 Z-8. I0.25 J0.
N8515 X418.75 Z-8.5 I-0.25 J0.
N8520 X419.25 Z-9. I0.25 J0.
N8525 X418.75 Z-9.5 I-0.25 J0.
N8530 X419.25 Z-10. I0.25 J0.
N8535 X418.75 Z-10.5 I-0.25 J0.
N8540 X419.25 Z-11. I0.25 J0.
N8545 X418.75 Z-11.5 I-0.25 J0.
N8550 X419.25 Z-12. I0.25 J0.
N8555 X418.75 I-0.25 J0.
N8560 X419.25 I0.25 J0.
N8565 G1 X419.244 Y57.372
N8570 X419.226 Y57.407
N8575 X419.198 Y57.434
N8580 X419.164 Y57.452
N8585 X419.125 Y57.458
N8590 X419.05
N8595 X419.004 Z-11.993
N8600 X418.962 Z-11.971
N8605 X418.929 Z-11.938
N8610 X418.907 Z-11.896
N8615 X418.9 Z-11.85
N8620 Z5.
N8625 X452.233 Y57.208
N8630 Z2.
N8635 Z0.15
N8640 X452.241 Z0.104
N8645 X452.262 Z0.062
N8650 X452.295 Z0.029
N8655 X452.337 Z0.007
N8660 X452.383 Z0.
N8665 X452.458
N8670 X452.497 Y57.214
N8675 X452.532 Y57.232
N8680 X452.559 Y57.26
N8685 X452.577 Y57.295
N8690 X452.583 Y57.333
N8695 G3 X452.083 Z-0.5 I-0.25 J0.
N8700 X452.583 Z-1. I0.25 J0.
N8705 X452.083 Z-1.5 I-0.25 J0.
N8710 X452.583 Z-2. I0.25 J0.
N8715 X452.083 Z-2.5 I-0.25 J0.
N8720 X452.583 Z-3. I0.25 J0.
N8725 X452.31 Y57.582 Z-3.265 I-0.25 J0.
N8730 X452.088 Y57.287 Z-3.529 I0.023 J-0.249
N8735 X452.579 Y57.379 Z-4.029 I0.246 J0.046
N8740 X452.356 Y57.582 Z-4.235 I-0.246 J-0.046
N8745 X452.31 Y57.084 Z-4.735 I-0.023 J-0.249
N8750 X452.566 Y57.243 Z-4.941 I0.023 J0.249
N8755 X452.1 Y57.424 Z-5.441 I-0.233 J0.09
N8760 X452.566 Y57.243 Z-5.941 I0.233 J-0.09
N8765 X452.1 Y57.424 Z-6.441 I-0.233 J0.09
N8770 X452.566 Y57.243 Z-6.941 I0.233 J-0.09
N8775 Y57.424 Z-7.059 I-0.233 J0.09
N8780 X452.1 Y57.243 Z-7.559 I-0.233 J-0.09
N8785 X452.356 Y57.084 Z-7.765 I0.233 J0.09
N8790 X452.31 Y57.582 Z-8.265 I-0.023 J0.249
N8795 X452.356 Y57.084 Z-8.765 I0.023 J-0.249
N8800 X452.445 Y57.557 Z-9.176 I-0.023 J0.249
N8805 X452.222 Y57.11 Z-9.676 I-0.111 J-0.224
N8810 X452.445 Y57.557 Z-10.176 I0.111 J0.224
N8815 X452.222 Y57.11 Z-10.676 I-0.111 J-0.224
N8820 X452.445 Y57.557 Z-11.176 I0.111 J0.224
N8825 X452.222 Y57.11 Z-11.676 I-0.111 J-0.224
N8830 X452.583 Y57.333 Z-12. I0.111 J0.224
N8835 X452.083 I-0.25 J0.
N8840 X452.583 I0.25 J0.
N8845 G1 X452.577 Y57.372
N8850 X452.559 Y57.407
N8855 X452.532 Y57.434
N8860 X452.497 Y57.452
N8865 X452.458 Y57.458
N8870 X452.383
N8875 X452.337 Z-11.993
N8880 X452.295 Z-11.971
N8885 X452.262 Z-11.938
N8890 X452.241 Z-11.896
N8895 X452.233 Z-11.85
N8900 Z5.
N8905 Y90.542
N8910 Z2.
N8915 Z0.15
N8920 X452.241 Z0.104
N8925 X452.262 Z0.062
N8930 X452.295 Z0.029
N8935 X452.337 Z0.007
N8940 X452.383 Z0.
N8945 X452.458
N8950 X452.497 Y90.548
N8955 X452.532 Y90.566
N8960 X452.559 Y90.593
N8965 X452.577 Y90.628
N8970 X452.583 Y90.667
N8975 G3 X452.083 Z-0.5 I-0.25 J0.
N8980 X452.583 Z-1. I0.25 J0.
N8985 X452.083 Z-1.5 I-0.25 J0.
N8990 X452.583 Z-2. I0.25 J0.
N8995 X452.083 Z-2.5 I-0.25 J0.
N9000 X452.583 Z-3. I0.25 J0.
N9005 X452.083 Z-3.5 I-0.25 J0.
N9010 X452.583 Z-4. I0.25 J0.
N9015 X452.083 Z-4.5 I-0.25 J0.
N9020 X452.583 Z-5. I0.25 J0.
N9025 X452.083 Z-5.5 I-0.25 J0.
N9030 X452.583 Z-6. I0.25 J0.
N9035 X452.083 Z-6.5 I-0.25 J0.
N9040 X452.583 Z-7. I0.25 J0.
N9045 X452.083 Z-7.5 I-0.25 J0.
N9050 X452.583 Z-8. I0.25 J0.
N9055 X452.083 Z-8.5 I-0.25 J0.
N9060 X452.583 Z-9. I0.25 J0.
N9065 X452.083 Z-9.5 I-0.25 J0.
N9070 X452.583 Z-10. I0.25 J0.
N9075 X452.083 Z-10.5 I-0.25 J0.
N9080 X452.583 Z-11. I0.25 J0.
N9085 X452.083 Z-11.5 I-0.25 J0.
N9090 X452.583 Z-12. I0.25 J0.
N9095 X452.083 I-0.25 J0.
N9100 X452.583 I0.25 J0.
N9105 G1 X452.577 Y90.705
N9110 X452.559 Y90.74
N9115 X452.532 Y90.768
N9120 X452.497 Y90.786
N9125 X452.458 Y90.792
N9130 X452.383
N9135 X452.337 Z-11.993
N9140 X452.295 Z-11.971
N9145 X452.262 Z-11.938
N9150 X452.241 Z-11.896
N9155 X452.233 Z-11.85
N9160 Z15.
N9165 M9
N9170 M30
%
