%
(12MM_11X11_LEDSCHOTTEN_6MM)
(T2  D=6. CR=0. - ZMIN=-12. - FLAT END MILL)
N10 G90 G94 G17 G91.1
N15 G21
(WHEN USING FUSION 360 FOR PERSONAL USE, THE FEEDRATE OF)
(RAPID MOVES IS REDUCED TO MATCH THE FEEDRATE OF CUTTING)
(MOVES, WHICH CAN INCREASE MACHINING TIME. UNRESTRICTED RAPID)
(MOVES ARE AVAILABLE WITH A FUSION 360 SUBSCRIPTION.)
(POKKETS)
N20 (T2 M6)
(FLAT END MILL D=6. HBM 4 S 6MM)
N25 S15000 M3
N30 G0 X258.6 Y131.734
N35 Z15.
N40 G1 Z5. F12000.
N45 Z-3.4 F1800.
N50 G18 G2 X259.2 Z-4. I0.6 K0. F12000.
N55 G1 X259.8
N60 G17 G3 X260.4 Y132.333 I0. J0.6
N65 G1 Y136.067 F1000.
N70 X252.933
N75 Y128.6
N80 X260.4
N85 Y132.333
N90 G3 X259.8 Y132.934 I-0.6 J0. F12000.
N95 G1 X259.2
N100 G18 G3 X258.6 Z-3.4 I0. K0.6
N105 G1 Y131.734
N110 Z-7.4 F1800.
N115 G2 X259.2 Z-8. I0.6 K0. F12000.
N120 G1 X259.8
N125 G17 G3 X260.4 Y132.333 I0. J0.6
N130 G1 Y136.067 F1000.
N135 X252.933
N140 Y128.6
N145 X260.4
N150 Y132.333
N155 G3 X259.8 Y132.934 I-0.6 J0. F12000.
N160 G1 X259.2
N165 G18 G3 X258.6 Z-7.4 I0. K0.6
N170 G1 Y131.734
N175 Z-11.4 F1800.
N180 G2 X259.2 Z-12. I0.6 K0. F12000.
N185 G1 X259.8
N190 G17 G3 X260.4 Y132.333 I0. J0.6
N195 G1 Y136.067 F1000.
N200 X252.933
N205 Y128.6
N210 X260.4
N215 Y132.333
N220 G3 X259.8 Y132.934 I-0.6 J0. F12000.
N225 G1 X259.2
N230 G18 G3 X258.6 Z-11.4 I0. K0.6
N235 G1 Z5.
N240 X256.066 Y147.067
N245 Z-3.4 F1800.
N250 G19 G2 Y146.467 Z-4. J-0.6 K0. F12000.
N255 G1 Y145.867
N260 G17 G3 X256.666 Y145.267 I0.6 J0.
N265 G1 X260.4 F1000.
N270 Y152.733
N275 X252.933
N280 Y145.267
N285 X256.666
N290 G3 X257.266 Y145.867 I0. J0.6 F12000.
N295 G1 Y146.467
N300 G19 G3 Y147.067 Z-3.4 J0. K0.6
N305 G1 X256.066
N310 Z-7.4 F1800.
N315 G2 Y146.467 Z-8. J-0.6 K0. F12000.
N320 G1 Y145.867
N325 G17 G3 X256.666 Y145.267 I0.6 J0.
N330 G1 X260.4 F1000.
N335 Y152.733
N340 X252.933
N345 Y145.267
N350 X256.666
N355 G3 X257.266 Y145.867 I0. J0.6 F12000.
N360 G1 Y146.467
N365 G19 G3 Y147.067 Z-7.4 J0. K0.6
N370 G1 X256.066
N375 Z-11.4 F1800.
N380 G2 Y146.467 Z-12. J-0.6 K0. F12000.
N385 G1 Y145.867
N390 G17 G3 X256.666 Y145.267 I0.6 J0.
N395 G1 X260.4 F1000.
N400 Y152.733
N405 X252.933
N410 Y145.267
N415 X256.666
N420 G3 X257.266 Y145.867 I0. J0.6 F12000.
N425 G1 Y146.467
N430 G19 G3 Y147.067 Z-11.4 J0. K0.6
N435 G1 Z5.
N440 X241.933 Y148.4
N445 Z-3.4 F1800.
N450 G18 G2 X242.533 Z-4. I0.6 K0. F12000.
N455 G1 X243.133
N460 G17 G3 X243.733 Y149. I0. J0.6
N465 G1 Y152.733 F1000.
N470 X236.267
N475 Y145.267
N480 X243.733
N485 Y149.
N490 G3 X243.133 Y149.6 I-0.6 J0. F12000.
N495 G1 X242.533
N500 G18 G3 X241.933 Z-3.4 I0. K0.6
N505 G1 Y148.4
N510 Z-7.4 F1800.
N515 G2 X242.533 Z-8. I0.6 K0. F12000.
N520 G1 X243.133
N525 G17 G3 X243.733 Y149. I0. J0.6
N530 G1 Y152.733 F1000.
N535 X236.267
N540 Y145.267
N545 X243.733
N550 Y149.
N555 G3 X243.133 Y149.6 I-0.6 J0. F12000.
N560 G1 X242.533
N565 G18 G3 X241.933 Z-7.4 I0. K0.6
N570 G1 Y148.4
N575 Z-11.4 F1800.
N580 G2 X242.533 Z-12. I0.6 K0. F12000.
N585 G1 X243.133
N590 G17 G3 X243.733 Y149. I0. J0.6
N595 G1 Y152.733 F1000.
N600 X236.267
N605 Y145.267
N610 X243.733
N615 Y149.
N620 G3 X243.133 Y149.6 I-0.6 J0. F12000.
N625 G1 X242.533
N630 G18 G3 X241.933 Z-11.4 I0. K0.6
N635 G1 Z5.
N640 Y165.067
N645 Z-3.4 F1800.
N650 G2 X242.533 Z-4. I0.6 K0. F12000.
N655 G1 X243.133
N660 G17 G3 X243.733 Y165.667 I0. J0.6
N665 G1 Y169.4 F1000.
N670 X236.267
N675 Y161.933
N680 X243.733
N685 Y165.667
N690 G3 X243.133 Y166.267 I-0.6 J0. F12000.
N695 G1 X242.533
N700 G18 G3 X241.933 Z-3.4 I0. K0.6
N705 G1 Y165.067
N710 Z-7.4 F1800.
N715 G2 X242.533 Z-8. I0.6 K0. F12000.
N720 G1 X243.133
N725 G17 G3 X243.733 Y165.667 I0. J0.6
N730 G1 Y169.4 F1000.
N735 X236.267
N740 Y161.933
N745 X243.733
N750 Y165.667
N755 G3 X243.133 Y166.267 I-0.6 J0. F12000.
N760 G1 X242.533
N765 G18 G3 X241.933 Z-7.4 I0. K0.6
N770 G1 Y165.067
N775 Z-11.4 F1800.
N780 G2 X242.533 Z-12. I0.6 K0. F12000.
N785 G1 X243.133
N790 G17 G3 X243.733 Y165.667 I0. J0.6
N795 G1 Y169.4 F1000.
N800 X236.267
N805 Y161.933
N810 X243.733
N815 Y165.667
N820 G3 X243.133 Y166.267 I-0.6 J0. F12000.
N825 G1 X242.533
N830 G18 G3 X241.933 Z-11.4 I0. K0.6
N835 G1 Z5.
N840 X258.6 Y165.066
N845 Z-3.4 F1800.
N850 G2 X259.2 Z-4. I0.6 K0. F12000.
N855 G1 X259.8
N860 G17 G3 X260.4 Y165.667 I0. J0.6
N865 G1 Y169.4 F1000.
N870 X252.933
N875 Y161.933
N880 X260.4
N885 Y165.667
N890 G3 X259.8 Y166.266 I-0.6 J0. F12000.
N895 G1 X259.2
N900 G18 G3 X258.6 Z-3.4 I0. K0.6
N905 G1 Y165.066
N910 Z-7.4 F1800.
N915 G2 X259.2 Z-8. I0.6 K0. F12000.
N920 G1 X259.8
N925 G17 G3 X260.4 Y165.667 I0. J0.6
N930 G1 Y169.4 F1000.
N935 X252.933
N940 Y161.933
N945 X260.4
N950 Y165.667
N955 G3 X259.8 Y166.266 I-0.6 J0. F12000.
N960 G1 X259.2
N965 G18 G3 X258.6 Z-7.4 I0. K0.6
N970 G1 Y165.066
N975 Z-11.4 F1800.
N980 G2 X259.2 Z-12. I0.6 K0. F12000.
N985 G1 X259.8
N990 G17 G3 X260.4 Y165.667 I0. J0.6
N995 G1 Y169.4 F1000.
N1000 X252.933
N1005 Y161.933
N1010 X260.4
N1015 Y165.667
N1020 G3 X259.8 Y166.266 I-0.6 J0. F12000.
N1025 G1 X259.2
N1030 G18 G3 X258.6 Z-11.4 I0. K0.6
N1035 G1 Z5.
N1040 Y181.734
N1045 Z-3.4 F1800.
N1050 G2 X259.2 Z-4. I0.6 K0. F12000.
N1055 G1 X259.8
N1060 G17 G3 X260.4 Y182.333 I0. J0.6
N1065 G1 Y186.067 F1000.
N1070 X252.933
N1075 Y178.6
N1080 X260.4
N1085 Y182.333
N1090 G3 X259.8 Y182.934 I-0.6 J0. F12000.
N1095 G1 X259.2
N1100 G18 G3 X258.6 Z-3.4 I0. K0.6
N1105 G1 Y181.734
N1110 Z-7.4 F1800.
N1115 G2 X259.2 Z-8. I0.6 K0. F12000.
N1120 G1 X259.8
N1125 G17 G3 X260.4 Y182.333 I0. J0.6
N1130 G1 Y186.067 F1000.
N1135 X252.933
N1140 Y178.6
N1145 X260.4
N1150 Y182.333
N1155 G3 X259.8 Y182.934 I-0.6 J0. F12000.
N1160 G1 X259.2
N1165 G18 G3 X258.6 Z-7.4 I0. K0.6
N1170 G1 Y181.734
N1175 Z-11.4 F1800.
N1180 G2 X259.2 Z-12. I0.6 K0. F12000.
N1185 G1 X259.8
N1190 G17 G3 X260.4 Y182.333 I0. J0.6
N1195 G1 Y186.067 F1000.
N1200 X252.933
N1205 Y178.6
N1210 X260.4
N1215 Y182.333
N1220 G3 X259.8 Y182.934 I-0.6 J0. F12000.
N1225 G1 X259.2
N1230 G18 G3 X258.6 Z-11.4 I0. K0.6
N1235 G1 Z5.
N1240 X256.066 Y197.067
N1245 Z-3.4 F1800.
N1250 G19 G2 Y196.467 Z-4. J-0.6 K0. F12000.
N1255 G1 Y195.867
N1260 G17 G3 X256.666 Y195.267 I0.6 J0.
N1265 G1 X260.4 F1000.
N1270 Y202.733
N1275 X252.933
N1280 Y195.267
N1285 X256.666
N1290 G3 X257.266 Y195.867 I0. J0.6 F12000.
N1295 G1 Y196.467
N1300 G19 G3 Y197.067 Z-3.4 J0. K0.6
N1305 G1 X256.066
N1310 Z-7.4 F1800.
N1315 G2 Y196.467 Z-8. J-0.6 K0. F12000.
N1320 G1 Y195.867
N1325 G17 G3 X256.666 Y195.267 I0.6 J0.
N1330 G1 X260.4 F1000.
N1335 Y202.733
N1340 X252.933
N1345 Y195.267
N1350 X256.666
N1355 G3 X257.266 Y195.867 I0. J0.6 F12000.
N1360 G1 Y196.467
N1365 G19 G3 Y197.067 Z-7.4 J0. K0.6
N1370 G1 X256.066
N1375 Z-11.4 F1800.
N1380 G2 Y196.467 Z-12. J-0.6 K0. F12000.
N1385 G1 Y195.867
N1390 G17 G3 X256.666 Y195.267 I0.6 J0.
N1395 G1 X260.4 F1000.
N1400 Y202.733
N1405 X252.933
N1410 Y195.267
N1415 X256.666
N1420 G3 X257.266 Y195.867 I0. J0.6 F12000.
N1425 G1 Y196.467
N1430 G19 G3 Y197.067 Z-11.4 J0. K0.6
N1435 G1 Z5.
N1440 X241.933 Y198.4
N1445 Z-3.4 F1800.
N1450 G18 G2 X242.533 Z-4. I0.6 K0. F12000.
N1455 G1 X243.133
N1460 G17 G3 X243.733 Y199. I0. J0.6
N1465 G1 Y202.733 F1000.
N1470 X236.267
N1475 Y195.267
N1480 X243.733
N1485 Y199.
N1490 G3 X243.133 Y199.6 I-0.6 J0. F12000.
N1495 G1 X242.533
N1500 G18 G3 X241.933 Z-3.4 I0. K0.6
N1505 G1 Y198.4
N1510 Z-7.4 F1800.
N1515 G2 X242.533 Z-8. I0.6 K0. F12000.
N1520 G1 X243.133
N1525 G17 G3 X243.733 Y199. I0. J0.6
N1530 G1 Y202.733 F1000.
N1535 X236.267
N1540 Y195.267
N1545 X243.733
N1550 Y199.
N1555 G3 X243.133 Y199.6 I-0.6 J0. F12000.
N1560 G1 X242.533
N1565 G18 G3 X241.933 Z-7.4 I0. K0.6
N1570 G1 Y198.4
N1575 Z-11.4 F1800.
N1580 G2 X242.533 Z-12. I0.6 K0. F12000.
N1585 G1 X243.133
N1590 G17 G3 X243.733 Y199. I0. J0.6
N1595 G1 Y202.733 F1000.
N1600 X236.267
N1605 Y195.267
N1610 X243.733
N1615 Y199.
N1620 G3 X243.133 Y199.6 I-0.6 J0. F12000.
N1625 G1 X242.533
N1630 G18 G3 X241.933 Z-11.4 I0. K0.6
N1635 G1 Z5.
N1640 Y215.066
N1645 Z-3.4 F1800.
N1650 G2 X242.533 Z-4. I0.6 K0. F12000.
N1655 G1 X243.133
N1660 G17 G3 X243.733 Y215.666 I0. J0.6
N1665 G1 Y219.4 F1000.
N1670 X236.267
N1675 Y211.933
N1680 X243.733
N1685 Y215.666
N1690 G3 X243.133 Y216.266 I-0.6 J0. F12000.
N1695 G1 X242.533
N1700 G18 G3 X241.933 Z-3.4 I0. K0.6
N1705 G1 Y215.066
N1710 Z-7.4 F1800.
N1715 G2 X242.533 Z-8. I0.6 K0. F12000.
N1720 G1 X243.133
N1725 G17 G3 X243.733 Y215.666 I0. J0.6
N1730 G1 Y219.4 F1000.
N1735 X236.267
N1740 Y211.933
N1745 X243.733
N1750 Y215.666
N1755 G3 X243.133 Y216.266 I-0.6 J0. F12000.
N1760 G1 X242.533
N1765 G18 G3 X241.933 Z-7.4 I0. K0.6
N1770 G1 Y215.066
N1775 Z-11.4 F1800.
N1780 G2 X242.533 Z-12. I0.6 K0. F12000.
N1785 G1 X243.133
N1790 G17 G3 X243.733 Y215.666 I0. J0.6
N1795 G1 Y219.4 F1000.
N1800 X236.267
N1805 Y211.933
N1810 X243.733
N1815 Y215.666
N1820 G3 X243.133 Y216.266 I-0.6 J0. F12000.
N1825 G1 X242.533
N1830 G18 G3 X241.933 Z-11.4 I0. K0.6
N1835 G1 Z5.
N1840 X258.6 Y215.066
N1845 Z-3.4 F1800.
N1850 G2 X259.2 Z-4. I0.6 K0. F12000.
N1855 G1 X259.8
N1860 G17 G3 X260.4 Y215.667 I0. J0.6
N1865 G1 Y219.4 F1000.
N1870 X252.933
N1875 Y211.933
N1880 X260.4
N1885 Y215.667
N1890 G3 X259.8 Y216.266 I-0.6 J0. F12000.
N1895 G1 X259.2
N1900 G18 G3 X258.6 Z-3.4 I0. K0.6
N1905 G1 Y215.066
N1910 Z-7.4 F1800.
N1915 G2 X259.2 Z-8. I0.6 K0. F12000.
N1920 G1 X259.8
N1925 G17 G3 X260.4 Y215.667 I0. J0.6
N1930 G1 Y219.4 F1000.
N1935 X252.933
N1940 Y211.933
N1945 X260.4
N1950 Y215.667
N1955 G3 X259.8 Y216.266 I-0.6 J0. F12000.
N1960 G1 X259.2
N1965 G18 G3 X258.6 Z-7.4 I0. K0.6
N1970 G1 Y215.066
N1975 Z-11.4 F1800.
N1980 G2 X259.2 Z-12. I0.6 K0. F12000.
N1985 G1 X259.8
N1990 G17 G3 X260.4 Y215.667 I0. J0.6
N1995 G1 Y219.4 F1000.
N2000 X252.933
N2005 Y211.933
N2010 X260.4
N2015 Y215.667
N2020 G3 X259.8 Y216.266 I-0.6 J0. F12000.
N2025 G1 X259.2
N2030 G18 G3 X258.6 Z-11.4 I0. K0.6
N2035 G1 Z5.
N2040 X225.267 Y215.066
N2045 Z-3.4 F1800.
N2050 G2 X225.867 Z-4. I0.6 K0. F12000.
N2055 G1 X226.467
N2060 G17 G3 X227.067 Y215.667 I0. J0.6
N2065 G1 Y219.4 F1000.
N2070 X219.6
N2075 Y211.933
N2080 X227.067
N2085 Y215.667
N2090 G3 X226.467 Y216.266 I-0.6 J0. F12000.
N2095 G1 X225.867
N2100 G18 G3 X225.267 Z-3.4 I0. K0.6
N2105 G1 Y215.066
N2110 Z-7.4 F1800.
N2115 G2 X225.867 Z-8. I0.6 K0. F12000.
N2120 G1 X226.467
N2125 G17 G3 X227.067 Y215.667 I0. J0.6
N2130 G1 Y219.4 F1000.
N2135 X219.6
N2140 Y211.933
N2145 X227.067
N2150 Y215.667
N2155 G3 X226.467 Y216.266 I-0.6 J0. F12000.
N2160 G1 X225.867
N2165 G18 G3 X225.267 Z-7.4 I0. K0.6
N2170 G1 Y215.066
N2175 Z-11.4 F1800.
N2180 G2 X225.867 Z-12. I0.6 K0. F12000.
N2185 G1 X226.467
N2190 G17 G3 X227.067 Y215.667 I0. J0.6
N2195 G1 Y219.4 F1000.
N2200 X219.6
N2205 Y211.933
N2210 X227.067
N2215 Y215.667
N2220 G3 X226.467 Y216.266 I-0.6 J0. F12000.
N2225 G1 X225.867
N2230 G18 G3 X225.267 Z-11.4 I0. K0.6
N2235 G1 Z5.
N2240 Y198.4
N2245 Z-3.4 F1800.
N2250 G2 X225.867 Z-4. I0.6 K0. F12000.
N2255 G1 X226.467
N2260 G17 G3 X227.067 Y199. I0. J0.6
N2265 G1 Y202.733 F1000.
N2270 X219.6
N2275 Y195.267
N2280 X227.067
N2285 Y199.
N2290 G3 X226.467 Y199.6 I-0.6 J0. F12000.
N2295 G1 X225.867
N2300 G18 G3 X225.267 Z-3.4 I0. K0.6
N2305 G1 Y198.4
N2310 Z-7.4 F1800.
N2315 G2 X225.867 Z-8. I0.6 K0. F12000.
N2320 G1 X226.467
N2325 G17 G3 X227.067 Y199. I0. J0.6
N2330 G1 Y202.733 F1000.
N2335 X219.6
N2340 Y195.267
N2345 X227.067
N2350 Y199.
N2355 G3 X226.467 Y199.6 I-0.6 J0. F12000.
N2360 G1 X225.867
N2365 G18 G3 X225.267 Z-7.4 I0. K0.6
N2370 G1 Y198.4
N2375 Z-11.4 F1800.
N2380 G2 X225.867 Z-12. I0.6 K0. F12000.
N2385 G1 X226.467
N2390 G17 G3 X227.067 Y199. I0. J0.6
N2395 G1 Y202.733 F1000.
N2400 X219.6
N2405 Y195.267
N2410 X227.067
N2415 Y199.
N2420 G3 X226.467 Y199.6 I-0.6 J0. F12000.
N2425 G1 X225.867
N2430 G18 G3 X225.267 Z-11.4 I0. K0.6
N2435 G1 Z5.
N2440 Y181.734
N2445 Z-3.4 F1800.
N2450 G2 X225.867 Z-4. I0.6 K0. F12000.
N2455 G1 X226.467
N2460 G17 G3 X227.067 Y182.333 I0. J0.6
N2465 G1 Y186.067 F1000.
N2470 X219.6
N2475 Y178.6
N2480 X227.067
N2485 Y182.333
N2490 G3 X226.467 Y182.934 I-0.6 J0. F12000.
N2495 G1 X225.867
N2500 G18 G3 X225.267 Z-3.4 I0. K0.6
N2505 G1 Y181.734
N2510 Z-7.4 F1800.
N2515 G2 X225.867 Z-8. I0.6 K0. F12000.
N2520 G1 X226.467
N2525 G17 G3 X227.067 Y182.333 I0. J0.6
N2530 G1 Y186.067 F1000.
N2535 X219.6
N2540 Y178.6
N2545 X227.067
N2550 Y182.333
N2555 G3 X226.467 Y182.934 I-0.6 J0. F12000.
N2560 G1 X225.867
N2565 G18 G3 X225.267 Z-7.4 I0. K0.6
N2570 G1 Y181.734
N2575 Z-11.4 F1800.
N2580 G2 X225.867 Z-12. I0.6 K0. F12000.
N2585 G1 X226.467
N2590 G17 G3 X227.067 Y182.333 I0. J0.6
N2595 G1 Y186.067 F1000.
N2600 X219.6
N2605 Y178.6
N2610 X227.067
N2615 Y182.333
N2620 G3 X226.467 Y182.934 I-0.6 J0. F12000.
N2625 G1 X225.867
N2630 G18 G3 X225.267 Z-11.4 I0. K0.6
N2635 G1 Z5.
N2640 X241.933 Y181.733
N2645 Z-3.4 F1800.
N2650 G2 X242.533 Z-4. I0.6 K0. F12000.
N2655 G1 X243.133
N2660 G17 G3 X243.733 Y182.333 I0. J0.6
N2665 G1 Y186.067 F1000.
N2670 X236.267
N2675 Y178.6
N2680 X243.733
N2685 Y182.333
N2690 G3 X243.133 Y182.933 I-0.6 J0. F12000.
N2695 G1 X242.533
N2700 G18 G3 X241.933 Z-3.4 I0. K0.6
N2705 G1 Y181.733
N2710 Z-7.4 F1800.
N2715 G2 X242.533 Z-8. I0.6 K0. F12000.
N2720 G1 X243.133
N2725 G17 G3 X243.733 Y182.333 I0. J0.6
N2730 G1 Y186.067 F1000.
N2735 X236.267
N2740 Y178.6
N2745 X243.733
N2750 Y182.333
N2755 G3 X243.133 Y182.933 I-0.6 J0. F12000.
N2760 G1 X242.533
N2765 G18 G3 X241.933 Z-7.4 I0. K0.6
N2770 G1 Y181.733
N2775 Z-11.4 F1800.
N2780 G2 X242.533 Z-12. I0.6 K0. F12000.
N2785 G1 X243.133
N2790 G17 G3 X243.733 Y182.333 I0. J0.6
N2795 G1 Y186.067 F1000.
N2800 X236.267
N2805 Y178.6
N2810 X243.733
N2815 Y182.333
N2820 G3 X243.133 Y182.933 I-0.6 J0. F12000.
N2825 G1 X242.533
N2830 G18 G3 X241.933 Z-11.4 I0. K0.6
N2835 G1 Z5.
N2840 X225.267 Y165.066
N2845 Z-3.4 F1800.
N2850 G2 X225.867 Z-4. I0.6 K0. F12000.
N2855 G1 X226.467
N2860 G17 G3 X227.067 Y165.667 I0. J0.6
N2865 G1 Y169.4 F1000.
N2870 X219.6
N2875 Y161.933
N2880 X227.067
N2885 Y165.667
N2890 G3 X226.467 Y166.266 I-0.6 J0. F12000.
N2895 G1 X225.867
N2900 G18 G3 X225.267 Z-3.4 I0. K0.6
N2905 G1 Y165.066
N2910 Z-7.4 F1800.
N2915 G2 X225.867 Z-8. I0.6 K0. F12000.
N2920 G1 X226.467
N2925 G17 G3 X227.067 Y165.667 I0. J0.6
N2930 G1 Y169.4 F1000.
N2935 X219.6
N2940 Y161.933
N2945 X227.067
N2950 Y165.667
N2955 G3 X226.467 Y166.266 I-0.6 J0. F12000.
N2960 G1 X225.867
N2965 G18 G3 X225.267 Z-7.4 I0. K0.6
N2970 G1 Y165.066
N2975 Z-11.4 F1800.
N2980 G2 X225.867 Z-12. I0.6 K0. F12000.
N2985 G1 X226.467
N2990 G17 G3 X227.067 Y165.667 I0. J0.6
N2995 G1 Y169.4 F1000.
N3000 X219.6
N3005 Y161.933
N3010 X227.067
N3015 Y165.667
N3020 G3 X226.467 Y166.266 I-0.6 J0. F12000.
N3025 G1 X225.867
N3030 G18 G3 X225.267 Z-11.4 I0. K0.6
N3035 G1 Z5.
N3040 Y148.4
N3045 Z-3.4 F1800.
N3050 G2 X225.867 Z-4. I0.6 K0. F12000.
N3055 G1 X226.467
N3060 G17 G3 X227.067 Y149. I0. J0.6
N3065 G1 Y152.733 F1000.
N3070 X219.6
N3075 Y145.267
N3080 X227.067
N3085 Y149.
N3090 G3 X226.467 Y149.6 I-0.6 J0. F12000.
N3095 G1 X225.867
N3100 G18 G3 X225.267 Z-3.4 I0. K0.6
N3105 G1 Y148.4
N3110 Z-7.4 F1800.
N3115 G2 X225.867 Z-8. I0.6 K0. F12000.
N3120 G1 X226.467
N3125 G17 G3 X227.067 Y149. I0. J0.6
N3130 G1 Y152.733 F1000.
N3135 X219.6
N3140 Y145.267
N3145 X227.067
N3150 Y149.
N3155 G3 X226.467 Y149.6 I-0.6 J0. F12000.
N3160 G1 X225.867
N3165 G18 G3 X225.267 Z-7.4 I0. K0.6
N3170 G1 Y148.4
N3175 Z-11.4 F1800.
N3180 G2 X225.867 Z-12. I0.6 K0. F12000.
N3185 G1 X226.467
N3190 G17 G3 X227.067 Y149. I0. J0.6
N3195 G1 Y152.733 F1000.
N3200 X219.6
N3205 Y145.267
N3210 X227.067
N3215 Y149.
N3220 G3 X226.467 Y149.6 I-0.6 J0. F12000.
N3225 G1 X225.867
N3230 G18 G3 X225.267 Z-11.4 I0. K0.6
N3235 G1 Z5.
N3240 Y131.734
N3245 Z-3.4 F1800.
N3250 G2 X225.867 Z-4. I0.6 K0. F12000.
N3255 G1 X226.467
N3260 G17 G3 X227.067 Y132.333 I0. J0.6
N3265 G1 Y136.067 F1000.
N3270 X219.6
N3275 Y128.6
N3280 X227.067
N3285 Y132.333
N3290 G3 X226.467 Y132.934 I-0.6 J0. F12000.
N3295 G1 X225.867
N3300 G18 G3 X225.267 Z-3.4 I0. K0.6
N3305 G1 Y131.734
N3310 Z-7.4 F1800.
N3315 G2 X225.867 Z-8. I0.6 K0. F12000.
N3320 G1 X226.467
N3325 G17 G3 X227.067 Y132.333 I0. J0.6
N3330 G1 Y136.067 F1000.
N3335 X219.6
N3340 Y128.6
N3345 X227.067
N3350 Y132.333
N3355 G3 X226.467 Y132.934 I-0.6 J0. F12000.
N3360 G1 X225.867
N3365 G18 G3 X225.267 Z-7.4 I0. K0.6
N3370 G1 Y131.734
N3375 Z-11.4 F1800.
N3380 G2 X225.867 Z-12. I0.6 K0. F12000.
N3385 G1 X226.467
N3390 G17 G3 X227.067 Y132.333 I0. J0.6
N3395 G1 Y136.067 F1000.
N3400 X219.6
N3405 Y128.6
N3410 X227.067
N3415 Y132.333
N3420 G3 X226.467 Y132.934 I-0.6 J0. F12000.
N3425 G1 X225.867
N3430 G18 G3 X225.267 Z-11.4 I0. K0.6
N3435 G1 Z5.
N3440 X241.933 Y131.734
N3445 Z-3.4 F1800.
N3450 G2 X242.533 Z-4. I0.6 K0. F12000.
N3455 G1 X243.133
N3460 G17 G3 X243.733 Y132.334 I0. J0.6
N3465 G1 Y136.067 F1000.
N3470 X236.267
N3475 Y128.6
N3480 X243.733
N3485 Y132.334
N3490 G3 X243.133 Y132.934 I-0.6 J0. F12000.
N3495 G1 X242.533
N3500 G18 G3 X241.933 Z-3.4 I0. K0.6
N3505 G1 Y131.734
N3510 Z-7.4 F1800.
N3515 G2 X242.533 Z-8. I0.6 K0. F12000.
N3520 G1 X243.133
N3525 G17 G3 X243.733 Y132.334 I0. J0.6
N3530 G1 Y136.067 F1000.
N3535 X236.267
N3540 Y128.6
N3545 X243.733
N3550 Y132.334
N3555 G3 X243.133 Y132.934 I-0.6 J0. F12000.
N3560 G1 X242.533
N3565 G18 G3 X241.933 Z-7.4 I0. K0.6
N3570 G1 Y131.734
N3575 Z-11.4 F1800.
N3580 G2 X242.533 Z-12. I0.6 K0. F12000.
N3585 G1 X243.133
N3590 G17 G3 X243.733 Y132.334 I0. J0.6
N3595 G1 Y136.067 F1000.
N3600 X236.267
N3605 Y128.6
N3610 X243.733
N3615 Y132.334
N3620 G3 X243.133 Y132.934 I-0.6 J0. F12000.
N3625 G1 X242.533
N3630 G18 G3 X241.933 Z-11.4 I0. K0.6
N3635 G1 Z5.
N3640 Y115.067
N3645 Z-3.4 F1800.
N3650 G2 X242.533 Z-4. I0.6 K0. F12000.
N3655 G1 X243.133
N3660 G17 G3 X243.733 Y115.667 I0. J0.6
N3665 G1 Y119.4 F1000.
N3670 X236.267
N3675 Y111.933
N3680 X243.733
N3685 Y115.667
N3690 G3 X243.133 Y116.267 I-0.6 J0. F12000.
N3695 G1 X242.533
N3700 G18 G3 X241.933 Z-3.4 I0. K0.6
N3705 G1 Y115.067
N3710 Z-7.4 F1800.
N3715 G2 X242.533 Z-8. I0.6 K0. F12000.
N3720 G1 X243.133
N3725 G17 G3 X243.733 Y115.667 I0. J0.6
N3730 G1 Y119.4 F1000.
N3735 X236.267
N3740 Y111.933
N3745 X243.733
N3750 Y115.667
N3755 G3 X243.133 Y116.267 I-0.6 J0. F12000.
N3760 G1 X242.533
N3765 G18 G3 X241.933 Z-7.4 I0. K0.6
N3770 G1 Y115.067
N3775 Z-11.4 F1800.
N3780 G2 X242.533 Z-12. I0.6 K0. F12000.
N3785 G1 X243.133
N3790 G17 G3 X243.733 Y115.667 I0. J0.6
N3795 G1 Y119.4 F1000.
N3800 X236.267
N3805 Y111.933
N3810 X243.733
N3815 Y115.667
N3820 G3 X243.133 Y116.267 I-0.6 J0. F12000.
N3825 G1 X242.533
N3830 G18 G3 X241.933 Z-11.4 I0. K0.6
N3835 G1 Z5.
N3840 X258.6 Y115.066
N3845 Z-3.4 F1800.
N3850 G2 X259.2 Z-4. I0.6 K0. F12000.
N3855 G1 X259.8
N3860 G17 G3 X260.4 Y115.666 I0. J0.6
N3865 G1 Y119.4 F1000.
N3870 X252.933
N3875 Y111.933
N3880 X260.4
N3885 Y115.666
N3890 G3 X259.8 Y116.267 I-0.6 J0. F12000.
N3895 G1 X259.2
N3900 G18 G3 X258.6 Z-3.4 I0. K0.6
N3905 G1 Y115.066
N3910 Z-7.4 F1800.
N3915 G2 X259.2 Z-8. I0.6 K0. F12000.
N3920 G1 X259.8
N3925 G17 G3 X260.4 Y115.666 I0. J0.6
N3930 G1 Y119.4 F1000.
N3935 X252.933
N3940 Y111.933
N3945 X260.4
N3950 Y115.666
N3955 G3 X259.8 Y116.267 I-0.6 J0. F12000.
N3960 G1 X259.2
N3965 G18 G3 X258.6 Z-7.4 I0. K0.6
N3970 G1 Y115.066
N3975 Z-11.4 F1800.
N3980 G2 X259.2 Z-12. I0.6 K0. F12000.
N3985 G1 X259.8
N3990 G17 G3 X260.4 Y115.666 I0. J0.6
N3995 G1 Y119.4 F1000.
N4000 X252.933
N4005 Y111.933
N4010 X260.4
N4015 Y115.666
N4020 G3 X259.8 Y116.267 I-0.6 J0. F12000.
N4025 G1 X259.2
N4030 G18 G3 X258.6 Z-11.4 I0. K0.6
N4035 G1 Z5.
N4040 Y98.4
N4045 Z-3.4 F1800.
N4050 G2 X259.2 Z-4. I0.6 K0. F12000.
N4055 G1 X259.8
N4060 G17 G3 X260.4 Y99. I0. J0.6
N4065 G1 Y102.733 F1000.
N4070 X252.933
N4075 Y95.267
N4080 X260.4
N4085 Y99.
N4090 G3 X259.8 Y99.6 I-0.6 J0. F12000.
N4095 G1 X259.2
N4100 G18 G3 X258.6 Z-3.4 I0. K0.6
N4105 G1 Y98.4
N4110 Z-7.4 F1800.
N4115 G2 X259.2 Z-8. I0.6 K0. F12000.
N4120 G1 X259.8
N4125 G17 G3 X260.4 Y99. I0. J0.6
N4130 G1 Y102.733 F1000.
N4135 X252.933
N4140 Y95.267
N4145 X260.4
N4150 Y99.
N4155 G3 X259.8 Y99.6 I-0.6 J0. F12000.
N4160 G1 X259.2
N4165 G18 G3 X258.6 Z-7.4 I0. K0.6
N4170 G1 Y98.4
N4175 Z-11.4 F1800.
N4180 G2 X259.2 Z-12. I0.6 K0. F12000.
N4185 G1 X259.8
N4190 G17 G3 X260.4 Y99. I0. J0.6
N4195 G1 Y102.733 F1000.
N4200 X252.933
N4205 Y95.267
N4210 X260.4
N4215 Y99.
N4220 G3 X259.8 Y99.6 I-0.6 J0. F12000.
N4225 G1 X259.2
N4230 G18 G3 X258.6 Z-11.4 I0. K0.6
N4235 G1 Z5.
N4240 Y81.733
N4245 Z-3.4 F1800.
N4250 G2 X259.2 Z-4. I0.6 K0. F12000.
N4255 G1 X259.8
N4260 G17 G3 X260.4 Y82.333 I0. J0.6
N4265 G1 Y86.067 F1000.
N4270 X252.933
N4275 Y78.6
N4280 X260.4
N4285 Y82.333
N4290 G3 X259.8 Y82.933 I-0.6 J0. F12000.
N4295 G1 X259.2
N4300 G18 G3 X258.6 Z-3.4 I0. K0.6
N4305 G1 Y81.733
N4310 Z-7.4 F1800.
N4315 G2 X259.2 Z-8. I0.6 K0. F12000.
N4320 G1 X259.8
N4325 G17 G3 X260.4 Y82.333 I0. J0.6
N4330 G1 Y86.067 F1000.
N4335 X252.933
N4340 Y78.6
N4345 X260.4
N4350 Y82.333
N4355 G3 X259.8 Y82.933 I-0.6 J0. F12000.
N4360 G1 X259.2
N4365 G18 G3 X258.6 Z-7.4 I0. K0.6
N4370 G1 Y81.733
N4375 Z-11.4 F1800.
N4380 G2 X259.2 Z-12. I0.6 K0. F12000.
N4385 G1 X259.8
N4390 G17 G3 X260.4 Y82.333 I0. J0.6
N4395 G1 Y86.067 F1000.
N4400 X252.933
N4405 Y78.6
N4410 X260.4
N4415 Y82.333
N4420 G3 X259.8 Y82.933 I-0.6 J0. F12000.
N4425 G1 X259.2
N4430 G18 G3 X258.6 Z-11.4 I0. K0.6
N4435 G1 Z5.
N4440 X256.066 Y63.733
N4445 Z-3.4 F1800.
N4450 G19 G2 Y63.133 Z-4. J-0.6 K0. F12000.
N4455 G1 Y62.533
N4460 G17 G3 X256.666 Y61.933 I0.6 J0.
N4465 G1 X260.4 F1000.
N4470 Y69.4
N4475 X252.933
N4480 Y61.933
N4485 X256.666
N4490 G3 X257.266 Y62.533 I0. J0.6 F12000.
N4495 G1 Y63.133
N4500 G19 G3 Y63.733 Z-3.4 J0. K0.6
N4505 G1 X256.066
N4510 Z-7.4 F1800.
N4515 G2 Y63.133 Z-8. J-0.6 K0. F12000.
N4520 G1 Y62.533
N4525 G17 G3 X256.666 Y61.933 I0.6 J0.
N4530 G1 X260.4 F1000.
N4535 Y69.4
N4540 X252.933
N4545 Y61.933
N4550 X256.666
N4555 G3 X257.266 Y62.533 I0. J0.6 F12000.
N4560 G1 Y63.133
N4565 G19 G3 Y63.733 Z-7.4 J0. K0.6
N4570 G1 X256.066
N4575 Z-11.4 F1800.
N4580 G2 Y63.133 Z-12. J-0.6 K0. F12000.
N4585 G1 Y62.533
N4590 G17 G3 X256.666 Y61.933 I0.6 J0.
N4595 G1 X260.4 F1000.
N4600 Y69.4
N4605 X252.933
N4610 Y61.933
N4615 X256.666
N4620 G3 X257.266 Y62.533 I0. J0.6 F12000.
N4625 G1 Y63.133
N4630 G19 G3 Y63.733 Z-11.4 J0. K0.6
N4635 G1 Z5.
N4640 X256.066 Y47.067
N4645 Z-3.4 F1800.
N4650 G2 Y46.467 Z-4. J-0.6 K0. F12000.
N4655 G1 Y45.867
N4660 G17 G3 X256.666 Y45.267 I0.6 J0.
N4665 G1 X260.4 F1000.
N4670 Y52.733
N4675 X252.933
N4680 Y45.267
N4685 X256.666
N4690 G3 X257.266 Y45.867 I0. J0.6 F12000.
N4695 G1 Y46.467
N4700 G19 G3 Y47.067 Z-3.4 J0. K0.6
N4705 G1 X256.066
N4710 Z-7.4 F1800.
N4715 G2 Y46.467 Z-8. J-0.6 K0. F12000.
N4720 G1 Y45.867
N4725 G17 G3 X256.666 Y45.267 I0.6 J0.
N4730 G1 X260.4 F1000.
N4735 Y52.733
N4740 X252.933
N4745 Y45.267
N4750 X256.666
N4755 G3 X257.266 Y45.867 I0. J0.6 F12000.
N4760 G1 Y46.467
N4765 G19 G3 Y47.067 Z-7.4 J0. K0.6
N4770 G1 X256.066
N4775 Z-11.4 F1800.
N4780 G2 Y46.467 Z-12. J-0.6 K0. F12000.
N4785 G1 Y45.867
N4790 G17 G3 X256.666 Y45.267 I0.6 J0.
N4795 G1 X260.4 F1000.
N4800 Y52.733
N4805 X252.933
N4810 Y45.267
N4815 X256.666
N4820 G3 X257.266 Y45.867 I0. J0.6 F12000.
N4825 G1 Y46.467
N4830 G19 G3 Y47.067 Z-11.4 J0. K0.6
N4835 G1 Z5.
N4840 X241.933 Y48.4
N4845 Z-3.4 F1800.
N4850 G18 G2 X242.533 Z-4. I0.6 K0. F12000.
N4855 G1 X243.133
N4860 G17 G3 X243.733 Y49. I0. J0.6
N4865 G1 Y52.733 F1000.
N4870 X236.267
N4875 Y45.267
N4880 X243.733
N4885 Y49.
N4890 G3 X243.133 Y49.6 I-0.6 J0. F12000.
N4895 G1 X242.533
N4900 G18 G3 X241.933 Z-3.4 I0. K0.6
N4905 G1 Y48.4
N4910 Z-7.4 F1800.
N4915 G2 X242.533 Z-8. I0.6 K0. F12000.
N4920 G1 X243.133
N4925 G17 G3 X243.733 Y49. I0. J0.6
N4930 G1 Y52.733 F1000.
N4935 X236.267
N4940 Y45.267
N4945 X243.733
N4950 Y49.
N4955 G3 X243.133 Y49.6 I-0.6 J0. F12000.
N4960 G1 X242.533
N4965 G18 G3 X241.933 Z-7.4 I0. K0.6
N4970 G1 Y48.4
N4975 Z-11.4 F1800.
N4980 G2 X242.533 Z-12. I0.6 K0. F12000.
N4985 G1 X243.133
N4990 G17 G3 X243.733 Y49. I0. J0.6
N4995 G1 Y52.733 F1000.
N5000 X236.267
N5005 Y45.267
N5010 X243.733
N5015 Y49.
N5020 G3 X243.133 Y49.6 I-0.6 J0. F12000.
N5025 G1 X242.533
N5030 G18 G3 X241.933 Z-11.4 I0. K0.6
N5035 G1 Z5.
N5040 Y65.067
N5045 Z-3.4 F1800.
N5050 G2 X242.533 Z-4. I0.6 K0. F12000.
N5055 G1 X243.133
N5060 G17 G3 X243.733 Y65.667 I0. J0.6
N5065 G1 Y69.4 F1000.
N5070 X236.267
N5075 Y61.933
N5080 X243.733
N5085 Y65.667
N5090 G3 X243.133 Y66.267 I-0.6 J0. F12000.
N5095 G1 X242.533
N5100 G18 G3 X241.933 Z-3.4 I0. K0.6
N5105 G1 Y65.067
N5110 Z-7.4 F1800.
N5115 G2 X242.533 Z-8. I0.6 K0. F12000.
N5120 G1 X243.133
N5125 G17 G3 X243.733 Y65.667 I0. J0.6
N5130 G1 Y69.4 F1000.
N5135 X236.267
N5140 Y61.933
N5145 X243.733
N5150 Y65.667
N5155 G3 X243.133 Y66.267 I-0.6 J0. F12000.
N5160 G1 X242.533
N5165 G18 G3 X241.933 Z-7.4 I0. K0.6
N5170 G1 Y65.067
N5175 Z-11.4 F1800.
N5180 G2 X242.533 Z-12. I0.6 K0. F12000.
N5185 G1 X243.133
N5190 G17 G3 X243.733 Y65.667 I0. J0.6
N5195 G1 Y69.4 F1000.
N5200 X236.267
N5205 Y61.933
N5210 X243.733
N5215 Y65.667
N5220 G3 X243.133 Y66.267 I-0.6 J0. F12000.
N5225 G1 X242.533
N5230 G18 G3 X241.933 Z-11.4 I0. K0.6
N5235 G1 Z5.
N5240 Y81.734
N5245 Z-3.4 F1800.
N5250 G2 X242.533 Z-4. I0.6 K0. F12000.
N5255 G1 X243.133
N5260 G17 G3 X243.733 Y82.334 I0. J0.6
N5265 G1 Y86.067 F1000.
N5270 X236.267
N5275 Y78.6
N5280 X243.733
N5285 Y82.334
N5290 G3 X243.133 Y82.934 I-0.6 J0. F12000.
N5295 G1 X242.533
N5300 G18 G3 X241.933 Z-3.4 I0. K0.6
N5305 G1 Y81.734
N5310 Z-7.4 F1800.
N5315 G2 X242.533 Z-8. I0.6 K0. F12000.
N5320 G1 X243.133
N5325 G17 G3 X243.733 Y82.334 I0. J0.6
N5330 G1 Y86.067 F1000.
N5335 X236.267
N5340 Y78.6
N5345 X243.733
N5350 Y82.334
N5355 G3 X243.133 Y82.934 I-0.6 J0. F12000.
N5360 G1 X242.533
N5365 G18 G3 X241.933 Z-7.4 I0. K0.6
N5370 G1 Y81.734
N5375 Z-11.4 F1800.
N5380 G2 X242.533 Z-12. I0.6 K0. F12000.
N5385 G1 X243.133
N5390 G17 G3 X243.733 Y82.334 I0. J0.6
N5395 G1 Y86.067 F1000.
N5400 X236.267
N5405 Y78.6
N5410 X243.733
N5415 Y82.334
N5420 G3 X243.133 Y82.934 I-0.6 J0. F12000.
N5425 G1 X242.533
N5430 G18 G3 X241.933 Z-11.4 I0. K0.6
N5435 G1 Z5.
N5440 Y98.4
N5445 Z-3.4 F1800.
N5450 G2 X242.533 Z-4. I0.6 K0. F12000.
N5455 G1 X243.133
N5460 G17 G3 X243.733 Y99. I0. J0.6
N5465 G1 Y102.733 F1000.
N5470 X236.267
N5475 Y95.267
N5480 X243.733
N5485 Y99.
N5490 G3 X243.133 Y99.6 I-0.6 J0. F12000.
N5495 G1 X242.533
N5500 G18 G3 X241.933 Z-3.4 I0. K0.6
N5505 G1 Y98.4
N5510 Z-7.4 F1800.
N5515 G2 X242.533 Z-8. I0.6 K0. F12000.
N5520 G1 X243.133
N5525 G17 G3 X243.733 Y99. I0. J0.6
N5530 G1 Y102.733 F1000.
N5535 X236.267
N5540 Y95.267
N5545 X243.733
N5550 Y99.
N5555 G3 X243.133 Y99.6 I-0.6 J0. F12000.
N5560 G1 X242.533
N5565 G18 G3 X241.933 Z-7.4 I0. K0.6
N5570 G1 Y98.4
N5575 Z-11.4 F1800.
N5580 G2 X242.533 Z-12. I0.6 K0. F12000.
N5585 G1 X243.133
N5590 G17 G3 X243.733 Y99. I0. J0.6
N5595 G1 Y102.733 F1000.
N5600 X236.267
N5605 Y95.267
N5610 X243.733
N5615 Y99.
N5620 G3 X243.133 Y99.6 I-0.6 J0. F12000.
N5625 G1 X242.533
N5630 G18 G3 X241.933 Z-11.4 I0. K0.6
N5635 G1 Z5.
N5640 X225.267 Y98.4
N5645 Z-3.4 F1800.
N5650 G2 X225.867 Z-4. I0.6 K0. F12000.
N5655 G1 X226.467
N5660 G17 G3 X227.067 Y99. I0. J0.6
N5665 G1 Y102.733 F1000.
N5670 X219.6
N5675 Y95.267
N5680 X227.067
N5685 Y99.
N5690 G3 X226.467 Y99.6 I-0.6 J0. F12000.
N5695 G1 X225.867
N5700 G18 G3 X225.267 Z-3.4 I0. K0.6
N5705 G1 Y98.4
N5710 Z-7.4 F1800.
N5715 G2 X225.867 Z-8. I0.6 K0. F12000.
N5720 G1 X226.467
N5725 G17 G3 X227.067 Y99. I0. J0.6
N5730 G1 Y102.733 F1000.
N5735 X219.6
N5740 Y95.267
N5745 X227.067
N5750 Y99.
N5755 G3 X226.467 Y99.6 I-0.6 J0. F12000.
N5760 G1 X225.867
N5765 G18 G3 X225.267 Z-7.4 I0. K0.6
N5770 G1 Y98.4
N5775 Z-11.4 F1800.
N5780 G2 X225.867 Z-12. I0.6 K0. F12000.
N5785 G1 X226.467
N5790 G17 G3 X227.067 Y99. I0. J0.6
N5795 G1 Y102.733 F1000.
N5800 X219.6
N5805 Y95.267
N5810 X227.067
N5815 Y99.
N5820 G3 X226.467 Y99.6 I-0.6 J0. F12000.
N5825 G1 X225.867
N5830 G18 G3 X225.267 Z-11.4 I0. K0.6
N5835 G1 Z5.
N5840 Y115.066
N5845 Z-3.4 F1800.
N5850 G2 X225.867 Z-4. I0.6 K0. F12000.
N5855 G1 X226.467
N5860 G17 G3 X227.067 Y115.666 I0. J0.6
N5865 G1 Y119.4 F1000.
N5870 X219.6
N5875 Y111.933
N5880 X227.067
N5885 Y115.666
N5890 G3 X226.467 Y116.267 I-0.6 J0. F12000.
N5895 G1 X225.867
N5900 G18 G3 X225.267 Z-3.4 I0. K0.6
N5905 G1 Y115.066
N5910 Z-7.4 F1800.
N5915 G2 X225.867 Z-8. I0.6 K0. F12000.
N5920 G1 X226.467
N5925 G17 G3 X227.067 Y115.666 I0. J0.6
N5930 G1 Y119.4 F1000.
N5935 X219.6
N5940 Y111.933
N5945 X227.067
N5950 Y115.666
N5955 G3 X226.467 Y116.267 I-0.6 J0. F12000.
N5960 G1 X225.867
N5965 G18 G3 X225.267 Z-7.4 I0. K0.6
N5970 G1 Y115.066
N5975 Z-11.4 F1800.
N5980 G2 X225.867 Z-12. I0.6 K0. F12000.
N5985 G1 X226.467
N5990 G17 G3 X227.067 Y115.666 I0. J0.6
N5995 G1 Y119.4 F1000.
N6000 X219.6
N6005 Y111.933
N6010 X227.067
N6015 Y115.666
N6020 G3 X226.467 Y116.267 I-0.6 J0. F12000.
N6025 G1 X225.867
N6030 G18 G3 X225.267 Z-11.4 I0. K0.6
N6035 G1 Z5.
N6040 X208.6 Y115.066
N6045 Z-3.4 F1800.
N6050 G2 X209.2 Z-4. I0.6 K0. F12000.
N6055 G1 X209.8
N6060 G17 G3 X210.4 Y115.666 I0. J0.6
N6065 G1 Y119.4 F1000.
N6070 X202.933
N6075 Y111.933
N6080 X210.4
N6085 Y115.666
N6090 G3 X209.8 Y116.267 I-0.6 J0. F12000.
N6095 G1 X209.2
N6100 G18 G3 X208.6 Z-3.4 I0. K0.6
N6105 G1 Y115.066
N6110 Z-7.4 F1800.
N6115 G2 X209.2 Z-8. I0.6 K0. F12000.
N6120 G1 X209.8
N6125 G17 G3 X210.4 Y115.666 I0. J0.6
N6130 G1 Y119.4 F1000.
N6135 X202.933
N6140 Y111.933
N6145 X210.4
N6150 Y115.666
N6155 G3 X209.8 Y116.267 I-0.6 J0. F12000.
N6160 G1 X209.2
N6165 G18 G3 X208.6 Z-7.4 I0. K0.6
N6170 G1 Y115.066
N6175 Z-11.4 F1800.
N6180 G2 X209.2 Z-12. I0.6 K0. F12000.
N6185 G1 X209.8
N6190 G17 G3 X210.4 Y115.666 I0. J0.6
N6195 G1 Y119.4 F1000.
N6200 X202.933
N6205 Y111.933
N6210 X210.4
N6215 Y115.666
N6220 G3 X209.8 Y116.267 I-0.6 J0. F12000.
N6225 G1 X209.2
N6230 G18 G3 X208.6 Z-11.4 I0. K0.6
N6235 G1 Z5.
N6240 Y131.734
N6245 Z-3.4 F1800.
N6250 G2 X209.2 Z-4. I0.6 K0. F12000.
N6255 G1 X209.8
N6260 G17 G3 X210.4 Y132.333 I0. J0.6
N6265 G1 Y136.067 F1000.
N6270 X202.933
N6275 Y128.6
N6280 X210.4
N6285 Y132.333
N6290 G3 X209.8 Y132.934 I-0.6 J0. F12000.
N6295 G1 X209.2
N6300 G18 G3 X208.6 Z-3.4 I0. K0.6
N6305 G1 Y131.734
N6310 Z-7.4 F1800.
N6315 G2 X209.2 Z-8. I0.6 K0. F12000.
N6320 G1 X209.8
N6325 G17 G3 X210.4 Y132.333 I0. J0.6
N6330 G1 Y136.067 F1000.
N6335 X202.933
N6340 Y128.6
N6345 X210.4
N6350 Y132.333
N6355 G3 X209.8 Y132.934 I-0.6 J0. F12000.
N6360 G1 X209.2
N6365 G18 G3 X208.6 Z-7.4 I0. K0.6
N6370 G1 Y131.734
N6375 Z-11.4 F1800.
N6380 G2 X209.2 Z-12. I0.6 K0. F12000.
N6385 G1 X209.8
N6390 G17 G3 X210.4 Y132.333 I0. J0.6
N6395 G1 Y136.067 F1000.
N6400 X202.933
N6405 Y128.6
N6410 X210.4
N6415 Y132.333
N6420 G3 X209.8 Y132.934 I-0.6 J0. F12000.
N6425 G1 X209.2
N6430 G18 G3 X208.6 Z-11.4 I0. K0.6
N6435 G1 Z5.
N6440 Y148.4
N6445 Z-3.4 F1800.
N6450 G2 X209.2 Z-4. I0.6 K0. F12000.
N6455 G1 X209.8
N6460 G17 G3 X210.4 Y149. I0. J0.6
N6465 G1 Y152.733 F1000.
N6470 X202.933
N6475 Y145.267
N6480 X210.4
N6485 Y149.
N6490 G3 X209.8 Y149.6 I-0.6 J0. F12000.
N6495 G1 X209.2
N6500 G18 G3 X208.6 Z-3.4 I0. K0.6
N6505 G1 Y148.4
N6510 Z-7.4 F1800.
N6515 G2 X209.2 Z-8. I0.6 K0. F12000.
N6520 G1 X209.8
N6525 G17 G3 X210.4 Y149. I0. J0.6
N6530 G1 Y152.733 F1000.
N6535 X202.933
N6540 Y145.267
N6545 X210.4
N6550 Y149.
N6555 G3 X209.8 Y149.6 I-0.6 J0. F12000.
N6560 G1 X209.2
N6565 G18 G3 X208.6 Z-7.4 I0. K0.6
N6570 G1 Y148.4
N6575 Z-11.4 F1800.
N6580 G2 X209.2 Z-12. I0.6 K0. F12000.
N6585 G1 X209.8
N6590 G17 G3 X210.4 Y149. I0. J0.6
N6595 G1 Y152.733 F1000.
N6600 X202.933
N6605 Y145.267
N6610 X210.4
N6615 Y149.
N6620 G3 X209.8 Y149.6 I-0.6 J0. F12000.
N6625 G1 X209.2
N6630 G18 G3 X208.6 Z-11.4 I0. K0.6
N6635 G1 Z5.
N6640 Y165.066
N6645 Z-3.4 F1800.
N6650 G2 X209.2 Z-4. I0.6 K0. F12000.
N6655 G1 X209.8
N6660 G17 G3 X210.4 Y165.667 I0. J0.6
N6665 G1 Y169.4 F1000.
N6670 X202.933
N6675 Y161.933
N6680 X210.4
N6685 Y165.667
N6690 G3 X209.8 Y166.266 I-0.6 J0. F12000.
N6695 G1 X209.2
N6700 G18 G3 X208.6 Z-3.4 I0. K0.6
N6705 G1 Y165.066
N6710 Z-7.4 F1800.
N6715 G2 X209.2 Z-8. I0.6 K0. F12000.
N6720 G1 X209.8
N6725 G17 G3 X210.4 Y165.667 I0. J0.6
N6730 G1 Y169.4 F1000.
N6735 X202.933
N6740 Y161.933
N6745 X210.4
N6750 Y165.667
N6755 G3 X209.8 Y166.266 I-0.6 J0. F12000.
N6760 G1 X209.2
N6765 G18 G3 X208.6 Z-7.4 I0. K0.6
N6770 G1 Y165.066
N6775 Z-11.4 F1800.
N6780 G2 X209.2 Z-12. I0.6 K0. F12000.
N6785 G1 X209.8
N6790 G17 G3 X210.4 Y165.667 I0. J0.6
N6795 G1 Y169.4 F1000.
N6800 X202.933
N6805 Y161.933
N6810 X210.4
N6815 Y165.667
N6820 G3 X209.8 Y166.266 I-0.6 J0. F12000.
N6825 G1 X209.2
N6830 G18 G3 X208.6 Z-11.4 I0. K0.6
N6835 G1 Z5.
N6840 Y181.734
N6845 Z-3.4 F1800.
N6850 G2 X209.2 Z-4. I0.6 K0. F12000.
N6855 G1 X209.8
N6860 G17 G3 X210.4 Y182.333 I0. J0.6
N6865 G1 Y186.067 F1000.
N6870 X202.933
N6875 Y178.6
N6880 X210.4
N6885 Y182.333
N6890 G3 X209.8 Y182.934 I-0.6 J0. F12000.
N6895 G1 X209.2
N6900 G18 G3 X208.6 Z-3.4 I0. K0.6
N6905 G1 Y181.734
N6910 Z-7.4 F1800.
N6915 G2 X209.2 Z-8. I0.6 K0. F12000.
N6920 G1 X209.8
N6925 G17 G3 X210.4 Y182.333 I0. J0.6
N6930 G1 Y186.067 F1000.
N6935 X202.933
N6940 Y178.6
N6945 X210.4
N6950 Y182.333
N6955 G3 X209.8 Y182.934 I-0.6 J0. F12000.
N6960 G1 X209.2
N6965 G18 G3 X208.6 Z-7.4 I0. K0.6
N6970 G1 Y181.734
N6975 Z-11.4 F1800.
N6980 G2 X209.2 Z-12. I0.6 K0. F12000.
N6985 G1 X209.8
N6990 G17 G3 X210.4 Y182.333 I0. J0.6
N6995 G1 Y186.067 F1000.
N7000 X202.933
N7005 Y178.6
N7010 X210.4
N7015 Y182.333
N7020 G3 X209.8 Y182.934 I-0.6 J0. F12000.
N7025 G1 X209.2
N7030 G18 G3 X208.6 Z-11.4 I0. K0.6
N7035 G1 Z5.
N7040 Y198.4
N7045 Z-3.4 F1800.
N7050 G2 X209.2 Z-4. I0.6 K0. F12000.
N7055 G1 X209.8
N7060 G17 G3 X210.4 Y199. I0. J0.6
N7065 G1 Y202.733 F1000.
N7070 X202.933
N7075 Y195.267
N7080 X210.4
N7085 Y199.
N7090 G3 X209.8 Y199.6 I-0.6 J0. F12000.
N7095 G1 X209.2
N7100 G18 G3 X208.6 Z-3.4 I0. K0.6
N7105 G1 Y198.4
N7110 Z-7.4 F1800.
N7115 G2 X209.2 Z-8. I0.6 K0. F12000.
N7120 G1 X209.8
N7125 G17 G3 X210.4 Y199. I0. J0.6
N7130 G1 Y202.733 F1000.
N7135 X202.933
N7140 Y195.267
N7145 X210.4
N7150 Y199.
N7155 G3 X209.8 Y199.6 I-0.6 J0. F12000.
N7160 G1 X209.2
N7165 G18 G3 X208.6 Z-7.4 I0. K0.6
N7170 G1 Y198.4
N7175 Z-11.4 F1800.
N7180 G2 X209.2 Z-12. I0.6 K0. F12000.
N7185 G1 X209.8
N7190 G17 G3 X210.4 Y199. I0. J0.6
N7195 G1 Y202.733 F1000.
N7200 X202.933
N7205 Y195.267
N7210 X210.4
N7215 Y199.
N7220 G3 X209.8 Y199.6 I-0.6 J0. F12000.
N7225 G1 X209.2
N7230 G18 G3 X208.6 Z-11.4 I0. K0.6
N7235 G1 Z5.
N7240 Y215.066
N7245 Z-3.4 F1800.
N7250 G2 X209.2 Z-4. I0.6 K0. F12000.
N7255 G1 X209.8
N7260 G17 G3 X210.4 Y215.667 I0. J0.6
N7265 G1 Y219.4 F1000.
N7270 X202.933
N7275 Y211.933
N7280 X210.4
N7285 Y215.667
N7290 G3 X209.8 Y216.266 I-0.6 J0. F12000.
N7295 G1 X209.2
N7300 G18 G3 X208.6 Z-3.4 I0. K0.6
N7305 G1 Y215.066
N7310 Z-7.4 F1800.
N7315 G2 X209.2 Z-8. I0.6 K0. F12000.
N7320 G1 X209.8
N7325 G17 G3 X210.4 Y215.667 I0. J0.6
N7330 G1 Y219.4 F1000.
N7335 X202.933
N7340 Y211.933
N7345 X210.4
N7350 Y215.667
N7355 G3 X209.8 Y216.266 I-0.6 J0. F12000.
N7360 G1 X209.2
N7365 G18 G3 X208.6 Z-7.4 I0. K0.6
N7370 G1 Y215.066
N7375 Z-11.4 F1800.
N7380 G2 X209.2 Z-12. I0.6 K0. F12000.
N7385 G1 X209.8
N7390 G17 G3 X210.4 Y215.667 I0. J0.6
N7395 G1 Y219.4 F1000.
N7400 X202.933
N7405 Y211.933
N7410 X210.4
N7415 Y215.667
N7420 G3 X209.8 Y216.266 I-0.6 J0. F12000.
N7425 G1 X209.2
N7430 G18 G3 X208.6 Z-11.4 I0. K0.6
N7435 G1 Z5.
N7440 X191.933 Y215.067
N7445 Z-3.4 F1800.
N7450 G2 X192.533 Z-4. I0.6 K0. F12000.
N7455 G1 X193.133
N7460 G17 G3 X193.733 Y215.667 I0. J0.6
N7465 G1 Y219.4 F1000.
N7470 X186.267
N7475 Y211.933
N7480 X193.733
N7485 Y215.667
N7490 G3 X193.133 Y216.267 I-0.6 J0. F12000.
N7495 G1 X192.533
N7500 G18 G3 X191.933 Z-3.4 I0. K0.6
N7505 G1 Y215.067
N7510 Z-7.4 F1800.
N7515 G2 X192.533 Z-8. I0.6 K0. F12000.
N7520 G1 X193.133
N7525 G17 G3 X193.733 Y215.667 I0. J0.6
N7530 G1 Y219.4 F1000.
N7535 X186.267
N7540 Y211.933
N7545 X193.733
N7550 Y215.667
N7555 G3 X193.133 Y216.267 I-0.6 J0. F12000.
N7560 G1 X192.533
N7565 G18 G3 X191.933 Z-7.4 I0. K0.6
N7570 G1 Y215.067
N7575 Z-11.4 F1800.
N7580 G2 X192.533 Z-12. I0.6 K0. F12000.
N7585 G1 X193.133
N7590 G17 G3 X193.733 Y215.667 I0. J0.6
N7595 G1 Y219.4 F1000.
N7600 X186.267
N7605 Y211.933
N7610 X193.733
N7615 Y215.667
N7620 G3 X193.133 Y216.267 I-0.6 J0. F12000.
N7625 G1 X192.533
N7630 G18 G3 X191.933 Z-11.4 I0. K0.6
N7635 G1 Z5.
N7640 Y198.4
N7645 Z-3.4 F1800.
N7650 G2 X192.533 Z-4. I0.6 K0. F12000.
N7655 G1 X193.133
N7660 G17 G3 X193.733 Y199. I0. J0.6
N7665 G1 Y202.733 F1000.
N7670 X186.267
N7675 Y195.267
N7680 X193.733
N7685 Y199.
N7690 G3 X193.133 Y199.6 I-0.6 J0. F12000.
N7695 G1 X192.533
N7700 G18 G3 X191.933 Z-3.4 I0. K0.6
N7705 G1 Y198.4
N7710 Z-7.4 F1800.
N7715 G2 X192.533 Z-8. I0.6 K0. F12000.
N7720 G1 X193.133
N7725 G17 G3 X193.733 Y199. I0. J0.6
N7730 G1 Y202.733 F1000.
N7735 X186.267
N7740 Y195.267
N7745 X193.733
N7750 Y199.
N7755 G3 X193.133 Y199.6 I-0.6 J0. F12000.
N7760 G1 X192.533
N7765 G18 G3 X191.933 Z-7.4 I0. K0.6
N7770 G1 Y198.4
N7775 Z-11.4 F1800.
N7780 G2 X192.533 Z-12. I0.6 K0. F12000.
N7785 G1 X193.133
N7790 G17 G3 X193.733 Y199. I0. J0.6
N7795 G1 Y202.733 F1000.
N7800 X186.267
N7805 Y195.267
N7810 X193.733
N7815 Y199.
N7820 G3 X193.133 Y199.6 I-0.6 J0. F12000.
N7825 G1 X192.533
N7830 G18 G3 X191.933 Z-11.4 I0. K0.6
N7835 G1 Z5.
N7840 Y181.733
N7845 Z-3.4 F1800.
N7850 G2 X192.533 Z-4. I0.6 K0. F12000.
N7855 G1 X193.133
N7860 G17 G3 X193.733 Y182.333 I0. J0.6
N7865 G1 Y186.067 F1000.
N7870 X186.267
N7875 Y178.6
N7880 X193.733
N7885 Y182.333
N7890 G3 X193.133 Y182.933 I-0.6 J0. F12000.
N7895 G1 X192.533
N7900 G18 G3 X191.933 Z-3.4 I0. K0.6
N7905 G1 Y181.733
N7910 Z-7.4 F1800.
N7915 G2 X192.533 Z-8. I0.6 K0. F12000.
N7920 G1 X193.133
N7925 G17 G3 X193.733 Y182.333 I0. J0.6
N7930 G1 Y186.067 F1000.
N7935 X186.267
N7940 Y178.6
N7945 X193.733
N7950 Y182.333
N7955 G3 X193.133 Y182.933 I-0.6 J0. F12000.
N7960 G1 X192.533
N7965 G18 G3 X191.933 Z-7.4 I0. K0.6
N7970 G1 Y181.733
N7975 Z-11.4 F1800.
N7980 G2 X192.533 Z-12. I0.6 K0. F12000.
N7985 G1 X193.133
N7990 G17 G3 X193.733 Y182.333 I0. J0.6
N7995 G1 Y186.067 F1000.
N8000 X186.267
N8005 Y178.6
N8010 X193.733
N8015 Y182.333
N8020 G3 X193.133 Y182.933 I-0.6 J0. F12000.
N8025 G1 X192.533
N8030 G18 G3 X191.933 Z-11.4 I0. K0.6
N8035 G1 Z5.
N8040 Y165.067
N8045 Z-3.4 F1800.
N8050 G2 X192.533 Z-4. I0.6 K0. F12000.
N8055 G1 X193.133
N8060 G17 G3 X193.733 Y165.667 I0. J0.6
N8065 G1 Y169.4 F1000.
N8070 X186.267
N8075 Y161.933
N8080 X193.733
N8085 Y165.667
N8090 G3 X193.133 Y166.267 I-0.6 J0. F12000.
N8095 G1 X192.533
N8100 G18 G3 X191.933 Z-3.4 I0. K0.6
N8105 G1 Y165.067
N8110 Z-7.4 F1800.
N8115 G2 X192.533 Z-8. I0.6 K0. F12000.
N8120 G1 X193.133
N8125 G17 G3 X193.733 Y165.667 I0. J0.6
N8130 G1 Y169.4 F1000.
N8135 X186.267
N8140 Y161.933
N8145 X193.733
N8150 Y165.667
N8155 G3 X193.133 Y166.267 I-0.6 J0. F12000.
N8160 G1 X192.533
N8165 G18 G3 X191.933 Z-7.4 I0. K0.6
N8170 G1 Y165.067
N8175 Z-11.4 F1800.
N8180 G2 X192.533 Z-12. I0.6 K0. F12000.
N8185 G1 X193.133
N8190 G17 G3 X193.733 Y165.667 I0. J0.6
N8195 G1 Y169.4 F1000.
N8200 X186.267
N8205 Y161.933
N8210 X193.733
N8215 Y165.667
N8220 G3 X193.133 Y166.267 I-0.6 J0. F12000.
N8225 G1 X192.533
N8230 G18 G3 X191.933 Z-11.4 I0. K0.6
N8235 G1 Z5.
N8240 Y148.4
N8245 Z-3.4 F1800.
N8250 G2 X192.533 Z-4. I0.6 K0. F12000.
N8255 G1 X193.133
N8260 G17 G3 X193.733 Y149. I0. J0.6
N8265 G1 Y152.733 F1000.
N8270 X186.267
N8275 Y145.267
N8280 X193.733
N8285 Y149.
N8290 G3 X193.133 Y149.6 I-0.6 J0. F12000.
N8295 G1 X192.533
N8300 G18 G3 X191.933 Z-3.4 I0. K0.6
N8305 G1 Y148.4
N8310 Z-7.4 F1800.
N8315 G2 X192.533 Z-8. I0.6 K0. F12000.
N8320 G1 X193.133
N8325 G17 G3 X193.733 Y149. I0. J0.6
N8330 G1 Y152.733 F1000.
N8335 X186.267
N8340 Y145.267
N8345 X193.733
N8350 Y149.
N8355 G3 X193.133 Y149.6 I-0.6 J0. F12000.
N8360 G1 X192.533
N8365 G18 G3 X191.933 Z-7.4 I0. K0.6
N8370 G1 Y148.4
N8375 Z-11.4 F1800.
N8380 G2 X192.533 Z-12. I0.6 K0. F12000.
N8385 G1 X193.133
N8390 G17 G3 X193.733 Y149. I0. J0.6
N8395 G1 Y152.733 F1000.
N8400 X186.267
N8405 Y145.267
N8410 X193.733
N8415 Y149.
N8420 G3 X193.133 Y149.6 I-0.6 J0. F12000.
N8425 G1 X192.533
N8430 G18 G3 X191.933 Z-11.4 I0. K0.6
N8435 G1 Z5.
N8440 Y131.733
N8445 Z-3.4 F1800.
N8450 G2 X192.533 Z-4. I0.6 K0. F12000.
N8455 G1 X193.133
N8460 G17 G3 X193.733 Y132.333 I0. J0.6
N8465 G1 Y136.067 F1000.
N8470 X186.267
N8475 Y128.6
N8480 X193.733
N8485 Y132.333
N8490 G3 X193.133 Y132.933 I-0.6 J0. F12000.
N8495 G1 X192.533
N8500 G18 G3 X191.933 Z-3.4 I0. K0.6
N8505 G1 Y131.733
N8510 Z-7.4 F1800.
N8515 G2 X192.533 Z-8. I0.6 K0. F12000.
N8520 G1 X193.133
N8525 G17 G3 X193.733 Y132.333 I0. J0.6
N8530 G1 Y136.067 F1000.
N8535 X186.267
N8540 Y128.6
N8545 X193.733
N8550 Y132.333
N8555 G3 X193.133 Y132.933 I-0.6 J0. F12000.
N8560 G1 X192.533
N8565 G18 G3 X191.933 Z-7.4 I0. K0.6
N8570 G1 Y131.733
N8575 Z-11.4 F1800.
N8580 G2 X192.533 Z-12. I0.6 K0. F12000.
N8585 G1 X193.133
N8590 G17 G3 X193.733 Y132.333 I0. J0.6
N8595 G1 Y136.067 F1000.
N8600 X186.267
N8605 Y128.6
N8610 X193.733
N8615 Y132.333
N8620 G3 X193.133 Y132.933 I-0.6 J0. F12000.
N8625 G1 X192.533
N8630 G18 G3 X191.933 Z-11.4 I0. K0.6
N8635 G1 Z5.
N8640 Y115.067
N8645 Z-3.4 F1800.
N8650 G2 X192.533 Z-4. I0.6 K0. F12000.
N8655 G1 X193.133
N8660 G17 G3 X193.733 Y115.667 I0. J0.6
N8665 G1 Y119.4 F1000.
N8670 X186.267
N8675 Y111.933
N8680 X193.733
N8685 Y115.667
N8690 G3 X193.133 Y116.267 I-0.6 J0. F12000.
N8695 G1 X192.533
N8700 G18 G3 X191.933 Z-3.4 I0. K0.6
N8705 G1 Y115.067
N8710 Z-7.4 F1800.
N8715 G2 X192.533 Z-8. I0.6 K0. F12000.
N8720 G1 X193.133
N8725 G17 G3 X193.733 Y115.667 I0. J0.6
N8730 G1 Y119.4 F1000.
N8735 X186.267
N8740 Y111.933
N8745 X193.733
N8750 Y115.667
N8755 G3 X193.133 Y116.267 I-0.6 J0. F12000.
N8760 G1 X192.533
N8765 G18 G3 X191.933 Z-7.4 I0. K0.6
N8770 G1 Y115.067
N8775 Z-11.4 F1800.
N8780 G2 X192.533 Z-12. I0.6 K0. F12000.
N8785 G1 X193.133
N8790 G17 G3 X193.733 Y115.667 I0. J0.6
N8795 G1 Y119.4 F1000.
N8800 X186.267
N8805 Y111.933
N8810 X193.733
N8815 Y115.667
N8820 G3 X193.133 Y116.267 I-0.6 J0. F12000.
N8825 G1 X192.533
N8830 G18 G3 X191.933 Z-11.4 I0. K0.6
N8835 G1 Z5.
N8840 Y98.4
N8845 Z-3.4 F1800.
N8850 G2 X192.533 Z-4. I0.6 K0. F12000.
N8855 G1 X193.133
N8860 G17 G3 X193.733 Y99. I0. J0.6
N8865 G1 Y102.733 F1000.
N8870 X186.267
N8875 Y95.267
N8880 X193.733
N8885 Y99.
N8890 G3 X193.133 Y99.6 I-0.6 J0. F12000.
N8895 G1 X192.533
N8900 G18 G3 X191.933 Z-3.4 I0. K0.6
N8905 G1 Y98.4
N8910 Z-7.4 F1800.
N8915 G2 X192.533 Z-8. I0.6 K0. F12000.
N8920 G1 X193.133
N8925 G17 G3 X193.733 Y99. I0. J0.6
N8930 G1 Y102.733 F1000.
N8935 X186.267
N8940 Y95.267
N8945 X193.733
N8950 Y99.
N8955 G3 X193.133 Y99.6 I-0.6 J0. F12000.
N8960 G1 X192.533
N8965 G18 G3 X191.933 Z-7.4 I0. K0.6
N8970 G1 Y98.4
N8975 Z-11.4 F1800.
N8980 G2 X192.533 Z-12. I0.6 K0. F12000.
N8985 G1 X193.133
N8990 G17 G3 X193.733 Y99. I0. J0.6
N8995 G1 Y102.733 F1000.
N9000 X186.267
N9005 Y95.267
N9010 X193.733
N9015 Y99.
N9020 G3 X193.133 Y99.6 I-0.6 J0. F12000.
N9025 G1 X192.533
N9030 G18 G3 X191.933 Z-11.4 I0. K0.6
N9035 G1 Z5.
N9040 X207.266 Y100.933
N9045 Z-3.4 F1800.
N9050 G19 G3 Y101.533 Z-4. J0.6 K0. F12000.
N9055 G1 Y102.133
N9060 G17 G3 X206.666 Y102.733 I-0.6 J0.
N9065 G1 X202.933 F1000.
N9070 Y95.267
N9075 X210.4
N9080 Y102.733
N9085 X206.666
N9090 G3 X206.066 Y102.133 I0. J-0.6 F12000.
N9095 G1 Y101.533
N9100 G19 G2 Y100.933 Z-3.4 J0. K0.6
N9105 G1 X207.266
N9110 Z-7.4 F1800.
N9115 G3 Y101.533 Z-8. J0.6 K0. F12000.
N9120 G1 Y102.133
N9125 G17 G3 X206.666 Y102.733 I-0.6 J0.
N9130 G1 X202.933 F1000.
N9135 Y95.267
N9140 X210.4
N9145 Y102.733
N9150 X206.666
N9155 G3 X206.066 Y102.133 I0. J-0.6 F12000.
N9160 G1 Y101.533
N9165 G19 G2 Y100.933 Z-7.4 J0. K0.6
N9170 G1 X207.266
N9175 Z-11.4 F1800.
N9180 G3 Y101.533 Z-12. J0.6 K0. F12000.
N9185 G1 Y102.133
N9190 G17 G3 X206.666 Y102.733 I-0.6 J0.
N9195 G1 X202.933 F1000.
N9200 Y95.267
N9205 X210.4
N9210 Y102.733
N9215 X206.666
N9220 G3 X206.066 Y102.133 I0. J-0.6 F12000.
N9225 G1 Y101.533
N9230 G19 G2 Y100.933 Z-11.4 J0. K0.6
N9235 G1 Z5.
N9240 X208.6 Y81.733
N9245 Z-3.4 F1800.
N9250 G18 G2 X209.2 Z-4. I0.6 K0. F12000.
N9255 G1 X209.8
N9260 G17 G3 X210.4 Y82.333 I0. J0.6
N9265 G1 Y86.067 F1000.
N9270 X202.933
N9275 Y78.6
N9280 X210.4
N9285 Y82.333
N9290 G3 X209.8 Y82.933 I-0.6 J0. F12000.
N9295 G1 X209.2
N9300 G18 G3 X208.6 Z-3.4 I0. K0.6
N9305 G1 Y81.733
N9310 Z-7.4 F1800.
N9315 G2 X209.2 Z-8. I0.6 K0. F12000.
N9320 G1 X209.8
N9325 G17 G3 X210.4 Y82.333 I0. J0.6
N9330 G1 Y86.067 F1000.
N9335 X202.933
N9340 Y78.6
N9345 X210.4
N9350 Y82.333
N9355 G3 X209.8 Y82.933 I-0.6 J0. F12000.
N9360 G1 X209.2
N9365 G18 G3 X208.6 Z-7.4 I0. K0.6
N9370 G1 Y81.733
N9375 Z-11.4 F1800.
N9380 G2 X209.2 Z-12. I0.6 K0. F12000.
N9385 G1 X209.8
N9390 G17 G3 X210.4 Y82.333 I0. J0.6
N9395 G1 Y86.067 F1000.
N9400 X202.933
N9405 Y78.6
N9410 X210.4
N9415 Y82.333
N9420 G3 X209.8 Y82.933 I-0.6 J0. F12000.
N9425 G1 X209.2
N9430 G18 G3 X208.6 Z-11.4 I0. K0.6
N9435 G1 Z5.
N9440 X222.733 Y80.4
N9445 Z-3.4 F1800.
N9450 G19 G2 Y79.8 Z-4. J-0.6 K0. F12000.
N9455 G1 Y79.2
N9460 G17 G3 X223.333 Y78.6 I0.6 J0.
N9465 G1 X227.067 F1000.
N9470 Y86.067
N9475 X219.6
N9480 Y78.6
N9485 X223.333
N9490 G3 X223.933 Y79.2 I0. J0.6 F12000.
N9495 G1 Y79.8
N9500 G19 G3 Y80.4 Z-3.4 J0. K0.6
N9505 G1 X222.733
N9510 Z-7.4 F1800.
N9515 G2 Y79.8 Z-8. J-0.6 K0. F12000.
N9520 G1 Y79.2
N9525 G17 G3 X223.333 Y78.6 I0.6 J0.
N9530 G1 X227.067 F1000.
N9535 Y86.067
N9540 X219.6
N9545 Y78.6
N9550 X223.333
N9555 G3 X223.933 Y79.2 I0. J0.6 F12000.
N9560 G1 Y79.8
N9565 G19 G3 Y80.4 Z-7.4 J0. K0.6
N9570 G1 X222.733
N9575 Z-11.4 F1800.
N9580 G2 Y79.8 Z-12. J-0.6 K0. F12000.
N9585 G1 Y79.2
N9590 G17 G3 X223.333 Y78.6 I0.6 J0.
N9595 G1 X227.067 F1000.
N9600 Y86.067
N9605 X219.6
N9610 Y78.6
N9615 X223.333
N9620 G3 X223.933 Y79.2 I0. J0.6 F12000.
N9625 G1 Y79.8
N9630 G19 G3 Y80.4 Z-11.4 J0. K0.6
N9635 G1 Z5.
N9640 X222.733 Y63.733
N9645 Z-3.4 F1800.
N9650 G2 Y63.133 Z-4. J-0.6 K0. F12000.
N9655 G1 Y62.533
N9660 G17 G3 X223.333 Y61.933 I0.6 J0.
N9665 G1 X227.067 F1000.
N9670 Y69.4
N9675 X219.6
N9680 Y61.933
N9685 X223.333
N9690 G3 X223.933 Y62.533 I0. J0.6 F12000.
N9695 G1 Y63.133
N9700 G19 G3 Y63.733 Z-3.4 J0. K0.6
N9705 G1 X222.733
N9710 Z-7.4 F1800.
N9715 G2 Y63.133 Z-8. J-0.6 K0. F12000.
N9720 G1 Y62.533
N9725 G17 G3 X223.333 Y61.933 I0.6 J0.
N9730 G1 X227.067 F1000.
N9735 Y69.4
N9740 X219.6
N9745 Y61.933
N9750 X223.333
N9755 G3 X223.933 Y62.533 I0. J0.6 F12000.
N9760 G1 Y63.133
N9765 G19 G3 Y63.733 Z-7.4 J0. K0.6
N9770 G1 X222.733
N9775 Z-11.4 F1800.
N9780 G2 Y63.133 Z-12. J-0.6 K0. F12000.
N9785 G1 Y62.533
N9790 G17 G3 X223.333 Y61.933 I0.6 J0.
N9795 G1 X227.067 F1000.
N9800 Y69.4
N9805 X219.6
N9810 Y61.933
N9815 X223.333
N9820 G3 X223.933 Y62.533 I0. J0.6 F12000.
N9825 G1 Y63.133
N9830 G19 G3 Y63.733 Z-11.4 J0. K0.6
N9835 G1 Z5.
N9840 X225.267 Y48.4
N9845 Z-3.4 F1800.
N9850 G18 G2 X225.867 Z-4. I0.6 K0. F12000.
N9855 G1 X226.467
N9860 G17 G3 X227.067 Y49. I0. J0.6
N9865 G1 Y52.733 F1000.
N9870 X219.6
N9875 Y45.267
N9880 X227.067
N9885 Y49.
N9890 G3 X226.467 Y49.6 I-0.6 J0. F12000.
N9895 G1 X225.867
N9900 G18 G3 X225.267 Z-3.4 I0. K0.6
N9905 G1 Y48.4
N9910 Z-7.4 F1800.
N9915 G2 X225.867 Z-8. I0.6 K0. F12000.
N9920 G1 X226.467
N9925 G17 G3 X227.067 Y49. I0. J0.6
N9930 G1 Y52.733 F1000.
N9935 X219.6
N9940 Y45.267
N9945 X227.067
N9950 Y49.
N9955 G3 X226.467 Y49.6 I-0.6 J0. F12000.
N9960 G1 X225.867
N9965 G18 G3 X225.267 Z-7.4 I0. K0.6
N9970 G1 Y48.4
N9975 Z-11.4 F1800.
N9980 G2 X225.867 Z-12. I0.6 K0. F12000.
N9985 G1 X226.467
N9990 G17 G3 X227.067 Y49. I0. J0.6
N9995 G1 Y52.733 F1000.
N10000 X219.6
N10005 Y45.267
N10010 X227.067
N10015 Y49.
N10020 G3 X226.467 Y49.6 I-0.6 J0. F12000.
N10025 G1 X225.867
N10030 G18 G3 X225.267 Z-11.4 I0. K0.6
N10035 G1 Z5.
N10040 X208.6 Y48.4
N10045 Z-3.4 F1800.
N10050 G2 X209.2 Z-4. I0.6 K0. F12000.
N10055 G1 X209.8
N10060 G17 G3 X210.4 Y49. I0. J0.6
N10065 G1 Y52.733 F1000.
N10070 X202.933
N10075 Y45.267
N10080 X210.4
N10085 Y49.
N10090 G3 X209.8 Y49.6 I-0.6 J0. F12000.
N10095 G1 X209.2
N10100 G18 G3 X208.6 Z-3.4 I0. K0.6
N10105 G1 Y48.4
N10110 Z-7.4 F1800.
N10115 G2 X209.2 Z-8. I0.6 K0. F12000.
N10120 G1 X209.8
N10125 G17 G3 X210.4 Y49. I0. J0.6
N10130 G1 Y52.733 F1000.
N10135 X202.933
N10140 Y45.267
N10145 X210.4
N10150 Y49.
N10155 G3 X209.8 Y49.6 I-0.6 J0. F12000.
N10160 G1 X209.2
N10165 G18 G3 X208.6 Z-7.4 I0. K0.6
N10170 G1 Y48.4
N10175 Z-11.4 F1800.
N10180 G2 X209.2 Z-12. I0.6 K0. F12000.
N10185 G1 X209.8
N10190 G17 G3 X210.4 Y49. I0. J0.6
N10195 G1 Y52.733 F1000.
N10200 X202.933
N10205 Y45.267
N10210 X210.4
N10215 Y49.
N10220 G3 X209.8 Y49.6 I-0.6 J0. F12000.
N10225 G1 X209.2
N10230 G18 G3 X208.6 Z-11.4 I0. K0.6
N10235 G1 Z5.
N10240 X206.066 Y63.733
N10245 Z-3.4 F1800.
N10250 G19 G2 Y63.133 Z-4. J-0.6 K0. F12000.
N10255 G1 Y62.533
N10260 G17 G3 X206.666 Y61.933 I0.6 J0.
N10265 G1 X210.4 F1000.
N10270 Y69.4
N10275 X202.933
N10280 Y61.933
N10285 X206.666
N10290 G3 X207.266 Y62.533 I0. J0.6 F12000.
N10295 G1 Y63.133
N10300 G19 G3 Y63.733 Z-3.4 J0. K0.6
N10305 G1 X206.066
N10310 Z-7.4 F1800.
N10315 G2 Y63.133 Z-8. J-0.6 K0. F12000.
N10320 G1 Y62.533
N10325 G17 G3 X206.666 Y61.933 I0.6 J0.
N10330 G1 X210.4 F1000.
N10335 Y69.4
N10340 X202.933
N10345 Y61.933
N10350 X206.666
N10355 G3 X207.266 Y62.533 I0. J0.6 F12000.
N10360 G1 Y63.133
N10365 G19 G3 Y63.733 Z-7.4 J0. K0.6
N10370 G1 X206.066
N10375 Z-11.4 F1800.
N10380 G2 Y63.133 Z-12. J-0.6 K0. F12000.
N10385 G1 Y62.533
N10390 G17 G3 X206.666 Y61.933 I0.6 J0.
N10395 G1 X210.4 F1000.
N10400 Y69.4
N10405 X202.933
N10410 Y61.933
N10415 X206.666
N10420 G3 X207.266 Y62.533 I0. J0.6 F12000.
N10425 G1 Y63.133
N10430 G19 G3 Y63.733 Z-11.4 J0. K0.6
N10435 G1 Z5.
N10440 X191.933 Y65.066
N10445 Z-3.4 F1800.
N10450 G18 G2 X192.533 Z-4. I0.6 K0. F12000.
N10455 G1 X193.133
N10460 G17 G3 X193.733 Y65.666 I0. J0.6
N10465 G1 Y69.4 F1000.
N10470 X186.267
N10475 Y61.933
N10480 X193.733
N10485 Y65.666
N10490 G3 X193.133 Y66.266 I-0.6 J0. F12000.
N10495 G1 X192.533
N10500 G18 G3 X191.933 Z-3.4 I0. K0.6
N10505 G1 Y65.066
N10510 Z-7.4 F1800.
N10515 G2 X192.533 Z-8. I0.6 K0. F12000.
N10520 G1 X193.133
N10525 G17 G3 X193.733 Y65.666 I0. J0.6
N10530 G1 Y69.4 F1000.
N10535 X186.267
N10540 Y61.933
N10545 X193.733
N10550 Y65.666
N10555 G3 X193.133 Y66.266 I-0.6 J0. F12000.
N10560 G1 X192.533
N10565 G18 G3 X191.933 Z-7.4 I0. K0.6
N10570 G1 Y65.066
N10575 Z-11.4 F1800.
N10580 G2 X192.533 Z-12. I0.6 K0. F12000.
N10585 G1 X193.133
N10590 G17 G3 X193.733 Y65.666 I0. J0.6
N10595 G1 Y69.4 F1000.
N10600 X186.267
N10605 Y61.933
N10610 X193.733
N10615 Y65.666
N10620 G3 X193.133 Y66.266 I-0.6 J0. F12000.
N10625 G1 X192.533
N10630 G18 G3 X191.933 Z-11.4 I0. K0.6
N10635 G1 Z5.
N10640 Y81.734
N10645 Z-3.4 F1800.
N10650 G2 X192.533 Z-4. I0.6 K0. F12000.
N10655 G1 X193.133
N10660 G17 G3 X193.733 Y82.334 I0. J0.6
N10665 G1 Y86.067 F1000.
N10670 X186.267
N10675 Y78.6
N10680 X193.733
N10685 Y82.334
N10690 G3 X193.133 Y82.934 I-0.6 J0. F12000.
N10695 G1 X192.533
N10700 G18 G3 X191.933 Z-3.4 I0. K0.6
N10705 G1 Y81.734
N10710 Z-7.4 F1800.
N10715 G2 X192.533 Z-8. I0.6 K0. F12000.
N10720 G1 X193.133
N10725 G17 G3 X193.733 Y82.334 I0. J0.6
N10730 G1 Y86.067 F1000.
N10735 X186.267
N10740 Y78.6
N10745 X193.733
N10750 Y82.334
N10755 G3 X193.133 Y82.934 I-0.6 J0. F12000.
N10760 G1 X192.533
N10765 G18 G3 X191.933 Z-7.4 I0. K0.6
N10770 G1 Y81.734
N10775 Z-11.4 F1800.
N10780 G2 X192.533 Z-12. I0.6 K0. F12000.
N10785 G1 X193.133
N10790 G17 G3 X193.733 Y82.334 I0. J0.6
N10795 G1 Y86.067 F1000.
N10800 X186.267
N10805 Y78.6
N10810 X193.733
N10815 Y82.334
N10820 G3 X193.133 Y82.934 I-0.6 J0. F12000.
N10825 G1 X192.533
N10830 G18 G3 X191.933 Z-11.4 I0. K0.6
N10835 G1 Z5.
N10840 X175.267 Y81.733
N10845 Z-3.4 F1800.
N10850 G2 X175.867 Z-4. I0.6 K0. F12000.
N10855 G1 X176.467
N10860 G17 G3 X177.067 Y82.333 I0. J0.6
N10865 G1 Y86.067 F1000.
N10870 X169.6
N10875 Y78.6
N10880 X177.067
N10885 Y82.333
N10890 G3 X176.467 Y82.933 I-0.6 J0. F12000.
N10895 G1 X175.867
N10900 G18 G3 X175.267 Z-3.4 I0. K0.6
N10905 G1 Y81.733
N10910 Z-7.4 F1800.
N10915 G2 X175.867 Z-8. I0.6 K0. F12000.
N10920 G1 X176.467
N10925 G17 G3 X177.067 Y82.333 I0. J0.6
N10930 G1 Y86.067 F1000.
N10935 X169.6
N10940 Y78.6
N10945 X177.067
N10950 Y82.333
N10955 G3 X176.467 Y82.933 I-0.6 J0. F12000.
N10960 G1 X175.867
N10965 G18 G3 X175.267 Z-7.4 I0. K0.6
N10970 G1 Y81.733
N10975 Z-11.4 F1800.
N10980 G2 X175.867 Z-12. I0.6 K0. F12000.
N10985 G1 X176.467
N10990 G17 G3 X177.067 Y82.333 I0. J0.6
N10995 G1 Y86.067 F1000.
N11000 X169.6
N11005 Y78.6
N11010 X177.067
N11015 Y82.333
N11020 G3 X176.467 Y82.933 I-0.6 J0. F12000.
N11025 G1 X175.867
N11030 G18 G3 X175.267 Z-11.4 I0. K0.6
N11035 G1 Z5.
N11040 X173.933 Y100.933
N11045 Z-3.4 F1800.
N11050 G19 G3 Y101.533 Z-4. J0.6 K0. F12000.
N11055 G1 Y102.133
N11060 G17 G3 X173.333 Y102.733 I-0.6 J0.
N11065 G1 X169.6 F1000.
N11070 Y95.267
N11075 X177.067
N11080 Y102.733
N11085 X173.333
N11090 G3 X172.733 Y102.133 I0. J-0.6 F12000.
N11095 G1 Y101.533
N11100 G19 G2 Y100.933 Z-3.4 J0. K0.6
N11105 G1 X173.933
N11110 Z-7.4 F1800.
N11115 G3 Y101.533 Z-8. J0.6 K0. F12000.
N11120 G1 Y102.133
N11125 G17 G3 X173.333 Y102.733 I-0.6 J0.
N11130 G1 X169.6 F1000.
N11135 Y95.267
N11140 X177.067
N11145 Y102.733
N11150 X173.333
N11155 G3 X172.733 Y102.133 I0. J-0.6 F12000.
N11160 G1 Y101.533
N11165 G19 G2 Y100.933 Z-7.4 J0. K0.6
N11170 G1 X173.933
N11175 Z-11.4 F1800.
N11180 G3 Y101.533 Z-12. J0.6 K0. F12000.
N11185 G1 Y102.133
N11190 G17 G3 X173.333 Y102.733 I-0.6 J0.
N11195 G1 X169.6 F1000.
N11200 Y95.267
N11205 X177.067
N11210 Y102.733
N11215 X173.333
N11220 G3 X172.733 Y102.133 I0. J-0.6 F12000.
N11225 G1 Y101.533
N11230 G19 G2 Y100.933 Z-11.4 J0. K0.6
N11235 G1 Z5.
N11240 X175.267 Y115.066
N11245 Z-3.4 F1800.
N11250 G18 G2 X175.867 Z-4. I0.6 K0. F12000.
N11255 G1 X176.467
N11260 G17 G3 X177.067 Y115.666 I0. J0.6
N11265 G1 Y119.4 F1000.
N11270 X169.6
N11275 Y111.933
N11280 X177.067
N11285 Y115.666
N11290 G3 X176.467 Y116.267 I-0.6 J0. F12000.
N11295 G1 X175.867
N11300 G18 G3 X175.267 Z-3.4 I0. K0.6
N11305 G1 Y115.066
N11310 Z-7.4 F1800.
N11315 G2 X175.867 Z-8. I0.6 K0. F12000.
N11320 G1 X176.467
N11325 G17 G3 X177.067 Y115.666 I0. J0.6
N11330 G1 Y119.4 F1000.
N11335 X169.6
N11340 Y111.933
N11345 X177.067
N11350 Y115.666
N11355 G3 X176.467 Y116.267 I-0.6 J0. F12000.
N11360 G1 X175.867
N11365 G18 G3 X175.267 Z-7.4 I0. K0.6
N11370 G1 Y115.066
N11375 Z-11.4 F1800.
N11380 G2 X175.867 Z-12. I0.6 K0. F12000.
N11385 G1 X176.467
N11390 G17 G3 X177.067 Y115.666 I0. J0.6
N11395 G1 Y119.4 F1000.
N11400 X169.6
N11405 Y111.933
N11410 X177.067
N11415 Y115.666
N11420 G3 X176.467 Y116.267 I-0.6 J0. F12000.
N11425 G1 X175.867
N11430 G18 G3 X175.267 Z-11.4 I0. K0.6
N11435 G1 Z5.
N11440 Y131.734
N11445 Z-3.4 F1800.
N11450 G2 X175.867 Z-4. I0.6 K0. F12000.
N11455 G1 X176.467
N11460 G17 G3 X177.067 Y132.333 I0. J0.6
N11465 G1 Y136.067 F1000.
N11470 X169.6
N11475 Y128.6
N11480 X177.067
N11485 Y132.333
N11490 G3 X176.467 Y132.934 I-0.6 J0. F12000.
N11495 G1 X175.867
N11500 G18 G3 X175.267 Z-3.4 I0. K0.6
N11505 G1 Y131.734
N11510 Z-7.4 F1800.
N11515 G2 X175.867 Z-8. I0.6 K0. F12000.
N11520 G1 X176.467
N11525 G17 G3 X177.067 Y132.333 I0. J0.6
N11530 G1 Y136.067 F1000.
N11535 X169.6
N11540 Y128.6
N11545 X177.067
N11550 Y132.333
N11555 G3 X176.467 Y132.934 I-0.6 J0. F12000.
N11560 G1 X175.867
N11565 G18 G3 X175.267 Z-7.4 I0. K0.6
N11570 G1 Y131.734
N11575 Z-11.4 F1800.
N11580 G2 X175.867 Z-12. I0.6 K0. F12000.
N11585 G1 X176.467
N11590 G17 G3 X177.067 Y132.333 I0. J0.6
N11595 G1 Y136.067 F1000.
N11600 X169.6
N11605 Y128.6
N11610 X177.067
N11615 Y132.333
N11620 G3 X176.467 Y132.934 I-0.6 J0. F12000.
N11625 G1 X175.867
N11630 G18 G3 X175.267 Z-11.4 I0. K0.6
N11635 G1 Z5.
N11640 Y148.4
N11645 Z-3.4 F1800.
N11650 G2 X175.867 Z-4. I0.6 K0. F12000.
N11655 G1 X176.467
N11660 G17 G3 X177.067 Y149. I0. J0.6
N11665 G1 Y152.733 F1000.
N11670 X169.6
N11675 Y145.267
N11680 X177.067
N11685 Y149.
N11690 G3 X176.467 Y149.6 I-0.6 J0. F12000.
N11695 G1 X175.867
N11700 G18 G3 X175.267 Z-3.4 I0. K0.6
N11705 G1 Y148.4
N11710 Z-7.4 F1800.
N11715 G2 X175.867 Z-8. I0.6 K0. F12000.
N11720 G1 X176.467
N11725 G17 G3 X177.067 Y149. I0. J0.6
N11730 G1 Y152.733 F1000.
N11735 X169.6
N11740 Y145.267
N11745 X177.067
N11750 Y149.
N11755 G3 X176.467 Y149.6 I-0.6 J0. F12000.
N11760 G1 X175.867
N11765 G18 G3 X175.267 Z-7.4 I0. K0.6
N11770 G1 Y148.4
N11775 Z-11.4 F1800.
N11780 G2 X175.867 Z-12. I0.6 K0. F12000.
N11785 G1 X176.467
N11790 G17 G3 X177.067 Y149. I0. J0.6
N11795 G1 Y152.733 F1000.
N11800 X169.6
N11805 Y145.267
N11810 X177.067
N11815 Y149.
N11820 G3 X176.467 Y149.6 I-0.6 J0. F12000.
N11825 G1 X175.867
N11830 G18 G3 X175.267 Z-11.4 I0. K0.6
N11835 G1 Z5.
N11840 Y165.066
N11845 Z-3.4 F1800.
N11850 G2 X175.867 Z-4. I0.6 K0. F12000.
N11855 G1 X176.467
N11860 G17 G3 X177.067 Y165.667 I0. J0.6
N11865 G1 Y169.4 F1000.
N11870 X169.6
N11875 Y161.933
N11880 X177.067
N11885 Y165.667
N11890 G3 X176.467 Y166.266 I-0.6 J0. F12000.
N11895 G1 X175.867
N11900 G18 G3 X175.267 Z-3.4 I0. K0.6
N11905 G1 Y165.066
N11910 Z-7.4 F1800.
N11915 G2 X175.867 Z-8. I0.6 K0. F12000.
N11920 G1 X176.467
N11925 G17 G3 X177.067 Y165.667 I0. J0.6
N11930 G1 Y169.4 F1000.
N11935 X169.6
N11940 Y161.933
N11945 X177.067
N11950 Y165.667
N11955 G3 X176.467 Y166.266 I-0.6 J0. F12000.
N11960 G1 X175.867
N11965 G18 G3 X175.267 Z-7.4 I0. K0.6
N11970 G1 Y165.066
N11975 Z-11.4 F1800.
N11980 G2 X175.867 Z-12. I0.6 K0. F12000.
N11985 G1 X176.467
N11990 G17 G3 X177.067 Y165.667 I0. J0.6
N11995 G1 Y169.4 F1000.
N12000 X169.6
N12005 Y161.933
N12010 X177.067
N12015 Y165.667
N12020 G3 X176.467 Y166.266 I-0.6 J0. F12000.
N12025 G1 X175.867
N12030 G18 G3 X175.267 Z-11.4 I0. K0.6
N12035 G1 Z5.
N12040 Y181.734
N12045 Z-3.4 F1800.
N12050 G2 X175.867 Z-4. I0.6 K0. F12000.
N12055 G1 X176.467
N12060 G17 G3 X177.067 Y182.333 I0. J0.6
N12065 G1 Y186.067 F1000.
N12070 X169.6
N12075 Y178.6
N12080 X177.067
N12085 Y182.333
N12090 G3 X176.467 Y182.934 I-0.6 J0. F12000.
N12095 G1 X175.867
N12100 G18 G3 X175.267 Z-3.4 I0. K0.6
N12105 G1 Y181.734
N12110 Z-7.4 F1800.
N12115 G2 X175.867 Z-8. I0.6 K0. F12000.
N12120 G1 X176.467
N12125 G17 G3 X177.067 Y182.333 I0. J0.6
N12130 G1 Y186.067 F1000.
N12135 X169.6
N12140 Y178.6
N12145 X177.067
N12150 Y182.333
N12155 G3 X176.467 Y182.934 I-0.6 J0. F12000.
N12160 G1 X175.867
N12165 G18 G3 X175.267 Z-7.4 I0. K0.6
N12170 G1 Y181.734
N12175 Z-11.4 F1800.
N12180 G2 X175.867 Z-12. I0.6 K0. F12000.
N12185 G1 X176.467
N12190 G17 G3 X177.067 Y182.333 I0. J0.6
N12195 G1 Y186.067 F1000.
N12200 X169.6
N12205 Y178.6
N12210 X177.067
N12215 Y182.333
N12220 G3 X176.467 Y182.934 I-0.6 J0. F12000.
N12225 G1 X175.867
N12230 G18 G3 X175.267 Z-11.4 I0. K0.6
N12235 G1 Z5.
N12240 Y198.4
N12245 Z-3.4 F1800.
N12250 G2 X175.867 Z-4. I0.6 K0. F12000.
N12255 G1 X176.467
N12260 G17 G3 X177.067 Y199. I0. J0.6
N12265 G1 Y202.733 F1000.
N12270 X169.6
N12275 Y195.267
N12280 X177.067
N12285 Y199.
N12290 G3 X176.467 Y199.6 I-0.6 J0. F12000.
N12295 G1 X175.867
N12300 G18 G3 X175.267 Z-3.4 I0. K0.6
N12305 G1 Y198.4
N12310 Z-7.4 F1800.
N12315 G2 X175.867 Z-8. I0.6 K0. F12000.
N12320 G1 X176.467
N12325 G17 G3 X177.067 Y199. I0. J0.6
N12330 G1 Y202.733 F1000.
N12335 X169.6
N12340 Y195.267
N12345 X177.067
N12350 Y199.
N12355 G3 X176.467 Y199.6 I-0.6 J0. F12000.
N12360 G1 X175.867
N12365 G18 G3 X175.267 Z-7.4 I0. K0.6
N12370 G1 Y198.4
N12375 Z-11.4 F1800.
N12380 G2 X175.867 Z-12. I0.6 K0. F12000.
N12385 G1 X176.467
N12390 G17 G3 X177.067 Y199. I0. J0.6
N12395 G1 Y202.733 F1000.
N12400 X169.6
N12405 Y195.267
N12410 X177.067
N12415 Y199.
N12420 G3 X176.467 Y199.6 I-0.6 J0. F12000.
N12425 G1 X175.867
N12430 G18 G3 X175.267 Z-11.4 I0. K0.6
N12435 G1 Z5.
N12440 Y215.066
N12445 Z-3.4 F1800.
N12450 G2 X175.867 Z-4. I0.6 K0. F12000.
N12455 G1 X176.467
N12460 G17 G3 X177.067 Y215.667 I0. J0.6
N12465 G1 Y219.4 F1000.
N12470 X169.6
N12475 Y211.933
N12480 X177.067
N12485 Y215.667
N12490 G3 X176.467 Y216.266 I-0.6 J0. F12000.
N12495 G1 X175.867
N12500 G18 G3 X175.267 Z-3.4 I0. K0.6
N12505 G1 Y215.066
N12510 Z-7.4 F1800.
N12515 G2 X175.867 Z-8. I0.6 K0. F12000.
N12520 G1 X176.467
N12525 G17 G3 X177.067 Y215.667 I0. J0.6
N12530 G1 Y219.4 F1000.
N12535 X169.6
N12540 Y211.933
N12545 X177.067
N12550 Y215.667
N12555 G3 X176.467 Y216.266 I-0.6 J0. F12000.
N12560 G1 X175.867
N12565 G18 G3 X175.267 Z-7.4 I0. K0.6
N12570 G1 Y215.066
N12575 Z-11.4 F1800.
N12580 G2 X175.867 Z-12. I0.6 K0. F12000.
N12585 G1 X176.467
N12590 G17 G3 X177.067 Y215.667 I0. J0.6
N12595 G1 Y219.4 F1000.
N12600 X169.6
N12605 Y211.933
N12610 X177.067
N12615 Y215.667
N12620 G3 X176.467 Y216.266 I-0.6 J0. F12000.
N12625 G1 X175.867
N12630 G18 G3 X175.267 Z-11.4 I0. K0.6
N12635 G1 Z5.
N12640 X158.6 Y215.066
N12645 Z-3.4 F1800.
N12650 G2 X159.2 Z-4. I0.6 K0. F12000.
N12655 G1 X159.8
N12660 G17 G3 X160.4 Y215.667 I0. J0.6
N12665 G1 Y219.4 F1000.
N12670 X152.933
N12675 Y211.933
N12680 X160.4
N12685 Y215.667
N12690 G3 X159.8 Y216.266 I-0.6 J0. F12000.
N12695 G1 X159.2
N12700 G18 G3 X158.6 Z-3.4 I0. K0.6
N12705 G1 Y215.066
N12710 Z-7.4 F1800.
N12715 G2 X159.2 Z-8. I0.6 K0. F12000.
N12720 G1 X159.8
N12725 G17 G3 X160.4 Y215.667 I0. J0.6
N12730 G1 Y219.4 F1000.
N12735 X152.933
N12740 Y211.933
N12745 X160.4
N12750 Y215.667
N12755 G3 X159.8 Y216.266 I-0.6 J0. F12000.
N12760 G1 X159.2
N12765 G18 G3 X158.6 Z-7.4 I0. K0.6
N12770 G1 Y215.066
N12775 Z-11.4 F1800.
N12780 G2 X159.2 Z-12. I0.6 K0. F12000.
N12785 G1 X159.8
N12790 G17 G3 X160.4 Y215.667 I0. J0.6
N12795 G1 Y219.4 F1000.
N12800 X152.933
N12805 Y211.933
N12810 X160.4
N12815 Y215.667
N12820 G3 X159.8 Y216.266 I-0.6 J0. F12000.
N12825 G1 X159.2
N12830 G18 G3 X158.6 Z-11.4 I0. K0.6
N12835 G1 Z5.
N12840 X156.066 Y197.067
N12845 Z-3.4 F1800.
N12850 G19 G2 Y196.467 Z-4. J-0.6 K0. F12000.
N12855 G1 Y195.867
N12860 G17 G3 X156.666 Y195.267 I0.6 J0.
N12865 G1 X160.4 F1000.
N12870 Y202.733
N12875 X152.933
N12880 Y195.267
N12885 X156.666
N12890 G3 X157.266 Y195.867 I0. J0.6 F12000.
N12895 G1 Y196.467
N12900 G19 G3 Y197.067 Z-3.4 J0. K0.6
N12905 G1 X156.066
N12910 Z-7.4 F1800.
N12915 G2 Y196.467 Z-8. J-0.6 K0. F12000.
N12920 G1 Y195.867
N12925 G17 G3 X156.666 Y195.267 I0.6 J0.
N12930 G1 X160.4 F1000.
N12935 Y202.733
N12940 X152.933
N12945 Y195.267
N12950 X156.666
N12955 G3 X157.266 Y195.867 I0. J0.6 F12000.
N12960 G1 Y196.467
N12965 G19 G3 Y197.067 Z-7.4 J0. K0.6
N12970 G1 X156.066
N12975 Z-11.4 F1800.
N12980 G2 Y196.467 Z-12. J-0.6 K0. F12000.
N12985 G1 Y195.867
N12990 G17 G3 X156.666 Y195.267 I0.6 J0.
N12995 G1 X160.4 F1000.
N13000 Y202.733
N13005 X152.933
N13010 Y195.267
N13015 X156.666
N13020 G3 X157.266 Y195.867 I0. J0.6 F12000.
N13025 G1 Y196.467
N13030 G19 G3 Y197.067 Z-11.4 J0. K0.6
N13035 G1 Z5.
N13040 X158.6 Y181.734
N13045 Z-3.4 F1800.
N13050 G18 G2 X159.2 Z-4. I0.6 K0. F12000.
N13055 G1 X159.8
N13060 G17 G3 X160.4 Y182.333 I0. J0.6
N13065 G1 Y186.067 F1000.
N13070 X152.933
N13075 Y178.6
N13080 X160.4
N13085 Y182.333
N13090 G3 X159.8 Y182.934 I-0.6 J0. F12000.
N13095 G1 X159.2
N13100 G18 G3 X158.6 Z-3.4 I0. K0.6
N13105 G1 Y181.734
N13110 Z-7.4 F1800.
N13115 G2 X159.2 Z-8. I0.6 K0. F12000.
N13120 G1 X159.8
N13125 G17 G3 X160.4 Y182.333 I0. J0.6
N13130 G1 Y186.067 F1000.
N13135 X152.933
N13140 Y178.6
N13145 X160.4
N13150 Y182.333
N13155 G3 X159.8 Y182.934 I-0.6 J0. F12000.
N13160 G1 X159.2
N13165 G18 G3 X158.6 Z-7.4 I0. K0.6
N13170 G1 Y181.734
N13175 Z-11.4 F1800.
N13180 G2 X159.2 Z-12. I0.6 K0. F12000.
N13185 G1 X159.8
N13190 G17 G3 X160.4 Y182.333 I0. J0.6
N13195 G1 Y186.067 F1000.
N13200 X152.933
N13205 Y178.6
N13210 X160.4
N13215 Y182.333
N13220 G3 X159.8 Y182.934 I-0.6 J0. F12000.
N13225 G1 X159.2
N13230 G18 G3 X158.6 Z-11.4 I0. K0.6
N13235 G1 Z5.
N13240 Y165.066
N13245 Z-3.4 F1800.
N13250 G2 X159.2 Z-4. I0.6 K0. F12000.
N13255 G1 X159.8
N13260 G17 G3 X160.4 Y165.667 I0. J0.6
N13265 G1 Y169.4 F1000.
N13270 X152.933
N13275 Y161.933
N13280 X160.4
N13285 Y165.667
N13290 G3 X159.8 Y166.266 I-0.6 J0. F12000.
N13295 G1 X159.2
N13300 G18 G3 X158.6 Z-3.4 I0. K0.6
N13305 G1 Y165.066
N13310 Z-7.4 F1800.
N13315 G2 X159.2 Z-8. I0.6 K0. F12000.
N13320 G1 X159.8
N13325 G17 G3 X160.4 Y165.667 I0. J0.6
N13330 G1 Y169.4 F1000.
N13335 X152.933
N13340 Y161.933
N13345 X160.4
N13350 Y165.667
N13355 G3 X159.8 Y166.266 I-0.6 J0. F12000.
N13360 G1 X159.2
N13365 G18 G3 X158.6 Z-7.4 I0. K0.6
N13370 G1 Y165.066
N13375 Z-11.4 F1800.
N13380 G2 X159.2 Z-12. I0.6 K0. F12000.
N13385 G1 X159.8
N13390 G17 G3 X160.4 Y165.667 I0. J0.6
N13395 G1 Y169.4 F1000.
N13400 X152.933
N13405 Y161.933
N13410 X160.4
N13415 Y165.667
N13420 G3 X159.8 Y166.266 I-0.6 J0. F12000.
N13425 G1 X159.2
N13430 G18 G3 X158.6 Z-11.4 I0. K0.6
N13435 G1 Z5.
N13440 Y148.4
N13445 Z-3.4 F1800.
N13450 G2 X159.2 Z-4. I0.6 K0. F12000.
N13455 G1 X159.8
N13460 G17 G3 X160.4 Y149. I0. J0.6
N13465 G1 Y152.733 F1000.
N13470 X152.933
N13475 Y145.267
N13480 X160.4
N13485 Y149.
N13490 G3 X159.8 Y149.6 I-0.6 J0. F12000.
N13495 G1 X159.2
N13500 G18 G3 X158.6 Z-3.4 I0. K0.6
N13505 G1 Y148.4
N13510 Z-7.4 F1800.
N13515 G2 X159.2 Z-8. I0.6 K0. F12000.
N13520 G1 X159.8
N13525 G17 G3 X160.4 Y149. I0. J0.6
N13530 G1 Y152.733 F1000.
N13535 X152.933
N13540 Y145.267
N13545 X160.4
N13550 Y149.
N13555 G3 X159.8 Y149.6 I-0.6 J0. F12000.
N13560 G1 X159.2
N13565 G18 G3 X158.6 Z-7.4 I0. K0.6
N13570 G1 Y148.4
N13575 Z-11.4 F1800.
N13580 G2 X159.2 Z-12. I0.6 K0. F12000.
N13585 G1 X159.8
N13590 G17 G3 X160.4 Y149. I0. J0.6
N13595 G1 Y152.733 F1000.
N13600 X152.933
N13605 Y145.267
N13610 X160.4
N13615 Y149.
N13620 G3 X159.8 Y149.6 I-0.6 J0. F12000.
N13625 G1 X159.2
N13630 G18 G3 X158.6 Z-11.4 I0. K0.6
N13635 G1 Z5.
N13640 Y131.734
N13645 Z-3.4 F1800.
N13650 G2 X159.2 Z-4. I0.6 K0. F12000.
N13655 G1 X159.8
N13660 G17 G3 X160.4 Y132.333 I0. J0.6
N13665 G1 Y136.067 F1000.
N13670 X152.933
N13675 Y128.6
N13680 X160.4
N13685 Y132.333
N13690 G3 X159.8 Y132.934 I-0.6 J0. F12000.
N13695 G1 X159.2
N13700 G18 G3 X158.6 Z-3.4 I0. K0.6
N13705 G1 Y131.734
N13710 Z-7.4 F1800.
N13715 G2 X159.2 Z-8. I0.6 K0. F12000.
N13720 G1 X159.8
N13725 G17 G3 X160.4 Y132.333 I0. J0.6
N13730 G1 Y136.067 F1000.
N13735 X152.933
N13740 Y128.6
N13745 X160.4
N13750 Y132.333
N13755 G3 X159.8 Y132.934 I-0.6 J0. F12000.
N13760 G1 X159.2
N13765 G18 G3 X158.6 Z-7.4 I0. K0.6
N13770 G1 Y131.734
N13775 Z-11.4 F1800.
N13780 G2 X159.2 Z-12. I0.6 K0. F12000.
N13785 G1 X159.8
N13790 G17 G3 X160.4 Y132.333 I0. J0.6
N13795 G1 Y136.067 F1000.
N13800 X152.933
N13805 Y128.6
N13810 X160.4
N13815 Y132.333
N13820 G3 X159.8 Y132.934 I-0.6 J0. F12000.
N13825 G1 X159.2
N13830 G18 G3 X158.6 Z-11.4 I0. K0.6
N13835 G1 Z5.
N13840 Y115.066
N13845 Z-3.4 F1800.
N13850 G2 X159.2 Z-4. I0.6 K0. F12000.
N13855 G1 X159.8
N13860 G17 G3 X160.4 Y115.666 I0. J0.6
N13865 G1 Y119.4 F1000.
N13870 X152.933
N13875 Y111.933
N13880 X160.4
N13885 Y115.666
N13890 G3 X159.8 Y116.267 I-0.6 J0. F12000.
N13895 G1 X159.2
N13900 G18 G3 X158.6 Z-3.4 I0. K0.6
N13905 G1 Y115.066
N13910 Z-7.4 F1800.
N13915 G2 X159.2 Z-8. I0.6 K0. F12000.
N13920 G1 X159.8
N13925 G17 G3 X160.4 Y115.666 I0. J0.6
N13930 G1 Y119.4 F1000.
N13935 X152.933
N13940 Y111.933
N13945 X160.4
N13950 Y115.666
N13955 G3 X159.8 Y116.267 I-0.6 J0. F12000.
N13960 G1 X159.2
N13965 G18 G3 X158.6 Z-7.4 I0. K0.6
N13970 G1 Y115.066
N13975 Z-11.4 F1800.
N13980 G2 X159.2 Z-12. I0.6 K0. F12000.
N13985 G1 X159.8
N13990 G17 G3 X160.4 Y115.666 I0. J0.6
N13995 G1 Y119.4 F1000.
N14000 X152.933
N14005 Y111.933
N14010 X160.4
N14015 Y115.666
N14020 G3 X159.8 Y116.267 I-0.6 J0. F12000.
N14025 G1 X159.2
N14030 G18 G3 X158.6 Z-11.4 I0. K0.6
N14035 G1 Z5.
N14040 X157.266 Y100.933
N14045 Z-3.4 F1800.
N14050 G19 G3 Y101.533 Z-4. J0.6 K0. F12000.
N14055 G1 Y102.133
N14060 G17 G3 X156.666 Y102.733 I-0.6 J0.
N14065 G1 X152.933 F1000.
N14070 Y95.267
N14075 X160.4
N14080 Y102.733
N14085 X156.666
N14090 G3 X156.066 Y102.133 I0. J-0.6 F12000.
N14095 G1 Y101.533
N14100 G19 G2 Y100.933 Z-3.4 J0. K0.6
N14105 G1 X157.266
N14110 Z-7.4 F1800.
N14115 G3 Y101.533 Z-8. J0.6 K0. F12000.
N14120 G1 Y102.133
N14125 G17 G3 X156.666 Y102.733 I-0.6 J0.
N14130 G1 X152.933 F1000.
N14135 Y95.267
N14140 X160.4
N14145 Y102.733
N14150 X156.666
N14155 G3 X156.066 Y102.133 I0. J-0.6 F12000.
N14160 G1 Y101.533
N14165 G19 G2 Y100.933 Z-7.4 J0. K0.6
N14170 G1 X157.266
N14175 Z-11.4 F1800.
N14180 G3 Y101.533 Z-12. J0.6 K0. F12000.
N14185 G1 Y102.133
N14190 G17 G3 X156.666 Y102.733 I-0.6 J0.
N14195 G1 X152.933 F1000.
N14200 Y95.267
N14205 X160.4
N14210 Y102.733
N14215 X156.666
N14220 G3 X156.066 Y102.133 I0. J-0.6 F12000.
N14225 G1 Y101.533
N14230 G19 G2 Y100.933 Z-11.4 J0. K0.6
N14235 G1 Z5.
N14240 X141.933 Y98.4
N14245 Z-3.4 F1800.
N14250 G18 G2 X142.533 Z-4. I0.6 K0. F12000.
N14255 G1 X143.133
N14260 G17 G3 X143.733 Y99. I0. J0.6
N14265 G1 Y102.733 F1000.
N14270 X136.267
N14275 Y95.267
N14280 X143.733
N14285 Y99.
N14290 G3 X143.133 Y99.6 I-0.6 J0. F12000.
N14295 G1 X142.533
N14300 G18 G3 X141.933 Z-3.4 I0. K0.6
N14305 G1 Y98.4
N14310 Z-7.4 F1800.
N14315 G2 X142.533 Z-8. I0.6 K0. F12000.
N14320 G1 X143.133
N14325 G17 G3 X143.733 Y99. I0. J0.6
N14330 G1 Y102.733 F1000.
N14335 X136.267
N14340 Y95.267
N14345 X143.733
N14350 Y99.
N14355 G3 X143.133 Y99.6 I-0.6 J0. F12000.
N14360 G1 X142.533
N14365 G18 G3 X141.933 Z-7.4 I0. K0.6
N14370 G1 Y98.4
N14375 Z-11.4 F1800.
N14380 G2 X142.533 Z-12. I0.6 K0. F12000.
N14385 G1 X143.133
N14390 G17 G3 X143.733 Y99. I0. J0.6
N14395 G1 Y102.733 F1000.
N14400 X136.267
N14405 Y95.267
N14410 X143.733
N14415 Y99.
N14420 G3 X143.133 Y99.6 I-0.6 J0. F12000.
N14425 G1 X142.533
N14430 G18 G3 X141.933 Z-11.4 I0. K0.6
N14435 G1 Z5.
N14440 Y115.067
N14445 Z-3.4 F1800.
N14450 G2 X142.533 Z-4. I0.6 K0. F12000.
N14455 G1 X143.133
N14460 G17 G3 X143.733 Y115.667 I0. J0.6
N14465 G1 Y119.4 F1000.
N14470 X136.267
N14475 Y111.933
N14480 X143.733
N14485 Y115.667
N14490 G3 X143.133 Y116.267 I-0.6 J0. F12000.
N14495 G1 X142.533
N14500 G18 G3 X141.933 Z-3.4 I0. K0.6
N14505 G1 Y115.067
N14510 Z-7.4 F1800.
N14515 G2 X142.533 Z-8. I0.6 K0. F12000.
N14520 G1 X143.133
N14525 G17 G3 X143.733 Y115.667 I0. J0.6
N14530 G1 Y119.4 F1000.
N14535 X136.267
N14540 Y111.933
N14545 X143.733
N14550 Y115.667
N14555 G3 X143.133 Y116.267 I-0.6 J0. F12000.
N14560 G1 X142.533
N14565 G18 G3 X141.933 Z-7.4 I0. K0.6
N14570 G1 Y115.067
N14575 Z-11.4 F1800.
N14580 G2 X142.533 Z-12. I0.6 K0. F12000.
N14585 G1 X143.133
N14590 G17 G3 X143.733 Y115.667 I0. J0.6
N14595 G1 Y119.4 F1000.
N14600 X136.267
N14605 Y111.933
N14610 X143.733
N14615 Y115.667
N14620 G3 X143.133 Y116.267 I-0.6 J0. F12000.
N14625 G1 X142.533
N14630 G18 G3 X141.933 Z-11.4 I0. K0.6
N14635 G1 Z5.
N14640 Y131.734
N14645 Z-3.4 F1800.
N14650 G2 X142.533 Z-4. I0.6 K0. F12000.
N14655 G1 X143.133
N14660 G17 G3 X143.733 Y132.334 I0. J0.6
N14665 G1 Y136.067 F1000.
N14670 X136.267
N14675 Y128.6
N14680 X143.733
N14685 Y132.334
N14690 G3 X143.133 Y132.934 I-0.6 J0. F12000.
N14695 G1 X142.533
N14700 G18 G3 X141.933 Z-3.4 I0. K0.6
N14705 G1 Y131.734
N14710 Z-7.4 F1800.
N14715 G2 X142.533 Z-8. I0.6 K0. F12000.
N14720 G1 X143.133
N14725 G17 G3 X143.733 Y132.334 I0. J0.6
N14730 G1 Y136.067 F1000.
N14735 X136.267
N14740 Y128.6
N14745 X143.733
N14750 Y132.334
N14755 G3 X143.133 Y132.934 I-0.6 J0. F12000.
N14760 G1 X142.533
N14765 G18 G3 X141.933 Z-7.4 I0. K0.6
N14770 G1 Y131.734
N14775 Z-11.4 F1800.
N14780 G2 X142.533 Z-12. I0.6 K0. F12000.
N14785 G1 X143.133
N14790 G17 G3 X143.733 Y132.334 I0. J0.6
N14795 G1 Y136.067 F1000.
N14800 X136.267
N14805 Y128.6
N14810 X143.733
N14815 Y132.334
N14820 G3 X143.133 Y132.934 I-0.6 J0. F12000.
N14825 G1 X142.533
N14830 G18 G3 X141.933 Z-11.4 I0. K0.6
N14835 G1 Z5.
N14840 Y148.4
N14845 Z-3.4 F1800.
N14850 G2 X142.533 Z-4. I0.6 K0. F12000.
N14855 G1 X143.133
N14860 G17 G3 X143.733 Y149. I0. J0.6
N14865 G1 Y152.733 F1000.
N14870 X136.267
N14875 Y145.267
N14880 X143.733
N14885 Y149.
N14890 G3 X143.133 Y149.6 I-0.6 J0. F12000.
N14895 G1 X142.533
N14900 G18 G3 X141.933 Z-3.4 I0. K0.6
N14905 G1 Y148.4
N14910 Z-7.4 F1800.
N14915 G2 X142.533 Z-8. I0.6 K0. F12000.
N14920 G1 X143.133
N14925 G17 G3 X143.733 Y149. I0. J0.6
N14930 G1 Y152.733 F1000.
N14935 X136.267
N14940 Y145.267
N14945 X143.733
N14950 Y149.
N14955 G3 X143.133 Y149.6 I-0.6 J0. F12000.
N14960 G1 X142.533
N14965 G18 G3 X141.933 Z-7.4 I0. K0.6
N14970 G1 Y148.4
N14975 Z-11.4 F1800.
N14980 G2 X142.533 Z-12. I0.6 K0. F12000.
N14985 G1 X143.133
N14990 G17 G3 X143.733 Y149. I0. J0.6
N14995 G1 Y152.733 F1000.
N15000 X136.267
N15005 Y145.267
N15010 X143.733
N15015 Y149.
N15020 G3 X143.133 Y149.6 I-0.6 J0. F12000.
N15025 G1 X142.533
N15030 G18 G3 X141.933 Z-11.4 I0. K0.6
N15035 G1 Z5.
N15040 Y165.066
N15045 Z-3.4 F1800.
N15050 G2 X142.533 Z-4. I0.6 K0. F12000.
N15055 G1 X143.133
N15060 G17 G3 X143.733 Y165.666 I0. J0.6
N15065 G1 Y169.4 F1000.
N15070 X136.267
N15075 Y161.933
N15080 X143.733
N15085 Y165.666
N15090 G3 X143.133 Y166.266 I-0.6 J0. F12000.
N15095 G1 X142.533
N15100 G18 G3 X141.933 Z-3.4 I0. K0.6
N15105 G1 Y165.066
N15110 Z-7.4 F1800.
N15115 G2 X142.533 Z-8. I0.6 K0. F12000.
N15120 G1 X143.133
N15125 G17 G3 X143.733 Y165.666 I0. J0.6
N15130 G1 Y169.4 F1000.
N15135 X136.267
N15140 Y161.933
N15145 X143.733
N15150 Y165.666
N15155 G3 X143.133 Y166.266 I-0.6 J0. F12000.
N15160 G1 X142.533
N15165 G18 G3 X141.933 Z-7.4 I0. K0.6
N15170 G1 Y165.066
N15175 Z-11.4 F1800.
N15180 G2 X142.533 Z-12. I0.6 K0. F12000.
N15185 G1 X143.133
N15190 G17 G3 X143.733 Y165.666 I0. J0.6
N15195 G1 Y169.4 F1000.
N15200 X136.267
N15205 Y161.933
N15210 X143.733
N15215 Y165.666
N15220 G3 X143.133 Y166.266 I-0.6 J0. F12000.
N15225 G1 X142.533
N15230 G18 G3 X141.933 Z-11.4 I0. K0.6
N15235 G1 Z5.
N15240 Y181.734
N15245 Z-3.4 F1800.
N15250 G2 X142.533 Z-4. I0.6 K0. F12000.
N15255 G1 X143.133
N15260 G17 G3 X143.733 Y182.334 I0. J0.6
N15265 G1 Y186.067 F1000.
N15270 X136.267
N15275 Y178.6
N15280 X143.733
N15285 Y182.334
N15290 G3 X143.133 Y182.934 I-0.6 J0. F12000.
N15295 G1 X142.533
N15300 G18 G3 X141.933 Z-3.4 I0. K0.6
N15305 G1 Y181.734
N15310 Z-7.4 F1800.
N15315 G2 X142.533 Z-8. I0.6 K0. F12000.
N15320 G1 X143.133
N15325 G17 G3 X143.733 Y182.334 I0. J0.6
N15330 G1 Y186.067 F1000.
N15335 X136.267
N15340 Y178.6
N15345 X143.733
N15350 Y182.334
N15355 G3 X143.133 Y182.934 I-0.6 J0. F12000.
N15360 G1 X142.533
N15365 G18 G3 X141.933 Z-7.4 I0. K0.6
N15370 G1 Y181.734
N15375 Z-11.4 F1800.
N15380 G2 X142.533 Z-12. I0.6 K0. F12000.
N15385 G1 X143.133
N15390 G17 G3 X143.733 Y182.334 I0. J0.6
N15395 G1 Y186.067 F1000.
N15400 X136.267
N15405 Y178.6
N15410 X143.733
N15415 Y182.334
N15420 G3 X143.133 Y182.934 I-0.6 J0. F12000.
N15425 G1 X142.533
N15430 G18 G3 X141.933 Z-11.4 I0. K0.6
N15435 G1 Z5.
N15440 Y198.4
N15445 Z-3.4 F1800.
N15450 G2 X142.533 Z-4. I0.6 K0. F12000.
N15455 G1 X143.133
N15460 G17 G3 X143.733 Y199. I0. J0.6
N15465 G1 Y202.733 F1000.
N15470 X136.267
N15475 Y195.267
N15480 X143.733
N15485 Y199.
N15490 G3 X143.133 Y199.6 I-0.6 J0. F12000.
N15495 G1 X142.533
N15500 G18 G3 X141.933 Z-3.4 I0. K0.6
N15505 G1 Y198.4
N15510 Z-7.4 F1800.
N15515 G2 X142.533 Z-8. I0.6 K0. F12000.
N15520 G1 X143.133
N15525 G17 G3 X143.733 Y199. I0. J0.6
N15530 G1 Y202.733 F1000.
N15535 X136.267
N15540 Y195.267
N15545 X143.733
N15550 Y199.
N15555 G3 X143.133 Y199.6 I-0.6 J0. F12000.
N15560 G1 X142.533
N15565 G18 G3 X141.933 Z-7.4 I0. K0.6
N15570 G1 Y198.4
N15575 Z-11.4 F1800.
N15580 G2 X142.533 Z-12. I0.6 K0. F12000.
N15585 G1 X143.133
N15590 G17 G3 X143.733 Y199. I0. J0.6
N15595 G1 Y202.733 F1000.
N15600 X136.267
N15605 Y195.267
N15610 X143.733
N15615 Y199.
N15620 G3 X143.133 Y199.6 I-0.6 J0. F12000.
N15625 G1 X142.533
N15630 G18 G3 X141.933 Z-11.4 I0. K0.6
N15635 G1 Z5.
N15640 Y215.066
N15645 Z-3.4 F1800.
N15650 G2 X142.533 Z-4. I0.6 K0. F12000.
N15655 G1 X143.133
N15660 G17 G3 X143.733 Y215.666 I0. J0.6
N15665 G1 Y219.4 F1000.
N15670 X136.267
N15675 Y211.933
N15680 X143.733
N15685 Y215.666
N15690 G3 X143.133 Y216.266 I-0.6 J0. F12000.
N15695 G1 X142.533
N15700 G18 G3 X141.933 Z-3.4 I0. K0.6
N15705 G1 Y215.066
N15710 Z-7.4 F1800.
N15715 G2 X142.533 Z-8. I0.6 K0. F12000.
N15720 G1 X143.133
N15725 G17 G3 X143.733 Y215.666 I0. J0.6
N15730 G1 Y219.4 F1000.
N15735 X136.267
N15740 Y211.933
N15745 X143.733
N15750 Y215.666
N15755 G3 X143.133 Y216.266 I-0.6 J0. F12000.
N15760 G1 X142.533
N15765 G18 G3 X141.933 Z-7.4 I0. K0.6
N15770 G1 Y215.066
N15775 Z-11.4 F1800.
N15780 G2 X142.533 Z-12. I0.6 K0. F12000.
N15785 G1 X143.133
N15790 G17 G3 X143.733 Y215.666 I0. J0.6
N15795 G1 Y219.4 F1000.
N15800 X136.267
N15805 Y211.933
N15810 X143.733
N15815 Y215.666
N15820 G3 X143.133 Y216.266 I-0.6 J0. F12000.
N15825 G1 X142.533
N15830 G18 G3 X141.933 Z-11.4 I0. K0.6
N15835 G1 Z5.
N15840 X125.267 Y215.066
N15845 Z-3.4 F1800.
N15850 G2 X125.867 Z-4. I0.6 K0. F12000.
N15855 G1 X126.467
N15860 G17 G3 X127.067 Y215.667 I0. J0.6
N15865 G1 Y219.4 F1000.
N15870 X119.6
N15875 Y211.933
N15880 X127.067
N15885 Y215.667
N15890 G3 X126.467 Y216.266 I-0.6 J0. F12000.
N15895 G1 X125.867
N15900 G18 G3 X125.267 Z-3.4 I0. K0.6
N15905 G1 Y215.066
N15910 Z-7.4 F1800.
N15915 G2 X125.867 Z-8. I0.6 K0. F12000.
N15920 G1 X126.467
N15925 G17 G3 X127.067 Y215.667 I0. J0.6
N15930 G1 Y219.4 F1000.
N15935 X119.6
N15940 Y211.933
N15945 X127.067
N15950 Y215.667
N15955 G3 X126.467 Y216.266 I-0.6 J0. F12000.
N15960 G1 X125.867
N15965 G18 G3 X125.267 Z-7.4 I0. K0.6
N15970 G1 Y215.066
N15975 Z-11.4 F1800.
N15980 G2 X125.867 Z-12. I0.6 K0. F12000.
N15985 G1 X126.467
N15990 G17 G3 X127.067 Y215.667 I0. J0.6
N15995 G1 Y219.4 F1000.
N16000 X119.6
N16005 Y211.933
N16010 X127.067
N16015 Y215.667
N16020 G3 X126.467 Y216.266 I-0.6 J0. F12000.
N16025 G1 X125.867
N16030 G18 G3 X125.267 Z-11.4 I0. K0.6
N16035 G1 Z5.
N16040 Y198.4
N16045 Z-3.4 F1800.
N16050 G2 X125.867 Z-4. I0.6 K0. F12000.
N16055 G1 X126.467
N16060 G17 G3 X127.067 Y199. I0. J0.6
N16065 G1 Y202.733 F1000.
N16070 X119.6
N16075 Y195.267
N16080 X127.067
N16085 Y199.
N16090 G3 X126.467 Y199.6 I-0.6 J0. F12000.
N16095 G1 X125.867
N16100 G18 G3 X125.267 Z-3.4 I0. K0.6
N16105 G1 Y198.4
N16110 Z-7.4 F1800.
N16115 G2 X125.867 Z-8. I0.6 K0. F12000.
N16120 G1 X126.467
N16125 G17 G3 X127.067 Y199. I0. J0.6
N16130 G1 Y202.733 F1000.
N16135 X119.6
N16140 Y195.267
N16145 X127.067
N16150 Y199.
N16155 G3 X126.467 Y199.6 I-0.6 J0. F12000.
N16160 G1 X125.867
N16165 G18 G3 X125.267 Z-7.4 I0. K0.6
N16170 G1 Y198.4
N16175 Z-11.4 F1800.
N16180 G2 X125.867 Z-12. I0.6 K0. F12000.
N16185 G1 X126.467
N16190 G17 G3 X127.067 Y199. I0. J0.6
N16195 G1 Y202.733 F1000.
N16200 X119.6
N16205 Y195.267
N16210 X127.067
N16215 Y199.
N16220 G3 X126.467 Y199.6 I-0.6 J0. F12000.
N16225 G1 X125.867
N16230 G18 G3 X125.267 Z-11.4 I0. K0.6
N16235 G1 Z5.
N16240 Y181.734
N16245 Z-3.4 F1800.
N16250 G2 X125.867 Z-4. I0.6 K0. F12000.
N16255 G1 X126.467
N16260 G17 G3 X127.067 Y182.333 I0. J0.6
N16265 G1 Y186.067 F1000.
N16270 X119.6
N16275 Y178.6
N16280 X127.067
N16285 Y182.333
N16290 G3 X126.467 Y182.934 I-0.6 J0. F12000.
N16295 G1 X125.867
N16300 G18 G3 X125.267 Z-3.4 I0. K0.6
N16305 G1 Y181.734
N16310 Z-7.4 F1800.
N16315 G2 X125.867 Z-8. I0.6 K0. F12000.
N16320 G1 X126.467
N16325 G17 G3 X127.067 Y182.333 I0. J0.6
N16330 G1 Y186.067 F1000.
N16335 X119.6
N16340 Y178.6
N16345 X127.067
N16350 Y182.333
N16355 G3 X126.467 Y182.934 I-0.6 J0. F12000.
N16360 G1 X125.867
N16365 G18 G3 X125.267 Z-7.4 I0. K0.6
N16370 G1 Y181.734
N16375 Z-11.4 F1800.
N16380 G2 X125.867 Z-12. I0.6 K0. F12000.
N16385 G1 X126.467
N16390 G17 G3 X127.067 Y182.333 I0. J0.6
N16395 G1 Y186.067 F1000.
N16400 X119.6
N16405 Y178.6
N16410 X127.067
N16415 Y182.333
N16420 G3 X126.467 Y182.934 I-0.6 J0. F12000.
N16425 G1 X125.867
N16430 G18 G3 X125.267 Z-11.4 I0. K0.6
N16435 G1 Z5.
N16440 Y165.066
N16445 Z-3.4 F1800.
N16450 G2 X125.867 Z-4. I0.6 K0. F12000.
N16455 G1 X126.467
N16460 G17 G3 X127.067 Y165.667 I0. J0.6
N16465 G1 Y169.4 F1000.
N16470 X119.6
N16475 Y161.933
N16480 X127.067
N16485 Y165.667
N16490 G3 X126.467 Y166.266 I-0.6 J0. F12000.
N16495 G1 X125.867
N16500 G18 G3 X125.267 Z-3.4 I0. K0.6
N16505 G1 Y165.066
N16510 Z-7.4 F1800.
N16515 G2 X125.867 Z-8. I0.6 K0. F12000.
N16520 G1 X126.467
N16525 G17 G3 X127.067 Y165.667 I0. J0.6
N16530 G1 Y169.4 F1000.
N16535 X119.6
N16540 Y161.933
N16545 X127.067
N16550 Y165.667
N16555 G3 X126.467 Y166.266 I-0.6 J0. F12000.
N16560 G1 X125.867
N16565 G18 G3 X125.267 Z-7.4 I0. K0.6
N16570 G1 Y165.066
N16575 Z-11.4 F1800.
N16580 G2 X125.867 Z-12. I0.6 K0. F12000.
N16585 G1 X126.467
N16590 G17 G3 X127.067 Y165.667 I0. J0.6
N16595 G1 Y169.4 F1000.
N16600 X119.6
N16605 Y161.933
N16610 X127.067
N16615 Y165.667
N16620 G3 X126.467 Y166.266 I-0.6 J0. F12000.
N16625 G1 X125.867
N16630 G18 G3 X125.267 Z-11.4 I0. K0.6
N16635 G1 Z5.
N16640 X122.733 Y147.067
N16645 Z-3.4 F1800.
N16650 G19 G2 Y146.467 Z-4. J-0.6 K0. F12000.
N16655 G1 Y145.867
N16660 G17 G3 X123.333 Y145.267 I0.6 J0.
N16665 G1 X127.067 F1000.
N16670 Y152.733
N16675 X119.6
N16680 Y145.267
N16685 X123.333
N16690 G3 X123.933 Y145.867 I0. J0.6 F12000.
N16695 G1 Y146.467
N16700 G19 G3 Y147.067 Z-3.4 J0. K0.6
N16705 G1 X122.733
N16710 Z-7.4 F1800.
N16715 G2 Y146.467 Z-8. J-0.6 K0. F12000.
N16720 G1 Y145.867
N16725 G17 G3 X123.333 Y145.267 I0.6 J0.
N16730 G1 X127.067 F1000.
N16735 Y152.733
N16740 X119.6
N16745 Y145.267
N16750 X123.333
N16755 G3 X123.933 Y145.867 I0. J0.6 F12000.
N16760 G1 Y146.467
N16765 G19 G3 Y147.067 Z-7.4 J0. K0.6
N16770 G1 X122.733
N16775 Z-11.4 F1800.
N16780 G2 Y146.467 Z-12. J-0.6 K0. F12000.
N16785 G1 Y145.867
N16790 G17 G3 X123.333 Y145.267 I0.6 J0.
N16795 G1 X127.067 F1000.
N16800 Y152.733
N16805 X119.6
N16810 Y145.267
N16815 X123.333
N16820 G3 X123.933 Y145.867 I0. J0.6 F12000.
N16825 G1 Y146.467
N16830 G19 G3 Y147.067 Z-11.4 J0. K0.6
N16835 G1 Z5.
N16840 X125.267 Y131.734
N16845 Z-3.4 F1800.
N16850 G18 G2 X125.867 Z-4. I0.6 K0. F12000.
N16855 G1 X126.467
N16860 G17 G3 X127.067 Y132.333 I0. J0.6
N16865 G1 Y136.067 F1000.
N16870 X119.6
N16875 Y128.6
N16880 X127.067
N16885 Y132.333
N16890 G3 X126.467 Y132.934 I-0.6 J0. F12000.
N16895 G1 X125.867
N16900 G18 G3 X125.267 Z-3.4 I0. K0.6
N16905 G1 Y131.734
N16910 Z-7.4 F1800.
N16915 G2 X125.867 Z-8. I0.6 K0. F12000.
N16920 G1 X126.467
N16925 G17 G3 X127.067 Y132.333 I0. J0.6
N16930 G1 Y136.067 F1000.
N16935 X119.6
N16940 Y128.6
N16945 X127.067
N16950 Y132.333
N16955 G3 X126.467 Y132.934 I-0.6 J0. F12000.
N16960 G1 X125.867
N16965 G18 G3 X125.267 Z-7.4 I0. K0.6
N16970 G1 Y131.734
N16975 Z-11.4 F1800.
N16980 G2 X125.867 Z-12. I0.6 K0. F12000.
N16985 G1 X126.467
N16990 G17 G3 X127.067 Y132.333 I0. J0.6
N16995 G1 Y136.067 F1000.
N17000 X119.6
N17005 Y128.6
N17010 X127.067
N17015 Y132.333
N17020 G3 X126.467 Y132.934 I-0.6 J0. F12000.
N17025 G1 X125.867
N17030 G18 G3 X125.267 Z-11.4 I0. K0.6
N17035 G1 Z5.
N17040 Y115.066
N17045 Z-3.4 F1800.
N17050 G2 X125.867 Z-4. I0.6 K0. F12000.
N17055 G1 X126.467
N17060 G17 G3 X127.067 Y115.666 I0. J0.6
N17065 G1 Y119.4 F1000.
N17070 X119.6
N17075 Y111.933
N17080 X127.067
N17085 Y115.666
N17090 G3 X126.467 Y116.267 I-0.6 J0. F12000.
N17095 G1 X125.867
N17100 G18 G3 X125.267 Z-3.4 I0. K0.6
N17105 G1 Y115.066
N17110 Z-7.4 F1800.
N17115 G2 X125.867 Z-8. I0.6 K0. F12000.
N17120 G1 X126.467
N17125 G17 G3 X127.067 Y115.666 I0. J0.6
N17130 G1 Y119.4 F1000.
N17135 X119.6
N17140 Y111.933
N17145 X127.067
N17150 Y115.666
N17155 G3 X126.467 Y116.267 I-0.6 J0. F12000.
N17160 G1 X125.867
N17165 G18 G3 X125.267 Z-7.4 I0. K0.6
N17170 G1 Y115.066
N17175 Z-11.4 F1800.
N17180 G2 X125.867 Z-12. I0.6 K0. F12000.
N17185 G1 X126.467
N17190 G17 G3 X127.067 Y115.666 I0. J0.6
N17195 G1 Y119.4 F1000.
N17200 X119.6
N17205 Y111.933
N17210 X127.067
N17215 Y115.666
N17220 G3 X126.467 Y116.267 I-0.6 J0. F12000.
N17225 G1 X125.867
N17230 G18 G3 X125.267 Z-11.4 I0. K0.6
N17235 G1 Z5.
N17240 Y98.4
N17245 Z-3.4 F1800.
N17250 G2 X125.867 Z-4. I0.6 K0. F12000.
N17255 G1 X126.467
N17260 G17 G3 X127.067 Y99. I0. J0.6
N17265 G1 Y102.733 F1000.
N17270 X119.6
N17275 Y95.267
N17280 X127.067
N17285 Y99.
N17290 G3 X126.467 Y99.6 I-0.6 J0. F12000.
N17295 G1 X125.867
N17300 G18 G3 X125.267 Z-3.4 I0. K0.6
N17305 G1 Y98.4
N17310 Z-7.4 F1800.
N17315 G2 X125.867 Z-8. I0.6 K0. F12000.
N17320 G1 X126.467
N17325 G17 G3 X127.067 Y99. I0. J0.6
N17330 G1 Y102.733 F1000.
N17335 X119.6
N17340 Y95.267
N17345 X127.067
N17350 Y99.
N17355 G3 X126.467 Y99.6 I-0.6 J0. F12000.
N17360 G1 X125.867
N17365 G18 G3 X125.267 Z-7.4 I0. K0.6
N17370 G1 Y98.4
N17375 Z-11.4 F1800.
N17380 G2 X125.867 Z-12. I0.6 K0. F12000.
N17385 G1 X126.467
N17390 G17 G3 X127.067 Y99. I0. J0.6
N17395 G1 Y102.733 F1000.
N17400 X119.6
N17405 Y95.267
N17410 X127.067
N17415 Y99.
N17420 G3 X126.467 Y99.6 I-0.6 J0. F12000.
N17425 G1 X125.867
N17430 G18 G3 X125.267 Z-11.4 I0. K0.6
N17435 G1 Z5.
N17440 X122.733 Y80.4
N17445 Z-3.4 F1800.
N17450 G19 G2 Y79.8 Z-4. J-0.6 K0. F12000.
N17455 G1 Y79.2
N17460 G17 G3 X123.333 Y78.6 I0.6 J0.
N17465 G1 X127.067 F1000.
N17470 Y86.067
N17475 X119.6
N17480 Y78.6
N17485 X123.333
N17490 G3 X123.933 Y79.2 I0. J0.6 F12000.
N17495 G1 Y79.8
N17500 G19 G3 Y80.4 Z-3.4 J0. K0.6
N17505 G1 X122.733
N17510 Z-7.4 F1800.
N17515 G2 Y79.8 Z-8. J-0.6 K0. F12000.
N17520 G1 Y79.2
N17525 G17 G3 X123.333 Y78.6 I0.6 J0.
N17530 G1 X127.067 F1000.
N17535 Y86.067
N17540 X119.6
N17545 Y78.6
N17550 X123.333
N17555 G3 X123.933 Y79.2 I0. J0.6 F12000.
N17560 G1 Y79.8
N17565 G19 G3 Y80.4 Z-7.4 J0. K0.6
N17570 G1 X122.733
N17575 Z-11.4 F1800.
N17580 G2 Y79.8 Z-12. J-0.6 K0. F12000.
N17585 G1 Y79.2
N17590 G17 G3 X123.333 Y78.6 I0.6 J0.
N17595 G1 X127.067 F1000.
N17600 Y86.067
N17605 X119.6
N17610 Y78.6
N17615 X123.333
N17620 G3 X123.933 Y79.2 I0. J0.6 F12000.
N17625 G1 Y79.8
N17630 G19 G3 Y80.4 Z-11.4 J0. K0.6
N17635 G1 Z5.
N17640 X125.267 Y65.067
N17645 Z-3.4 F1800.
N17650 G18 G2 X125.867 Z-4. I0.6 K0. F12000.
N17655 G1 X126.467
N17660 G17 G3 X127.067 Y65.667 I0. J0.6
N17665 G1 Y69.4 F1000.
N17670 X119.6
N17675 Y61.933
N17680 X127.067
N17685 Y65.667
N17690 G3 X126.467 Y66.267 I-0.6 J0. F12000.
N17695 G1 X125.867
N17700 G18 G3 X125.267 Z-3.4 I0. K0.6
N17705 G1 Y65.067
N17710 Z-7.4 F1800.
N17715 G2 X125.867 Z-8. I0.6 K0. F12000.
N17720 G1 X126.467
N17725 G17 G3 X127.067 Y65.667 I0. J0.6
N17730 G1 Y69.4 F1000.
N17735 X119.6
N17740 Y61.933
N17745 X127.067
N17750 Y65.667
N17755 G3 X126.467 Y66.267 I-0.6 J0. F12000.
N17760 G1 X125.867
N17765 G18 G3 X125.267 Z-7.4 I0. K0.6
N17770 G1 Y65.067
N17775 Z-11.4 F1800.
N17780 G2 X125.867 Z-12. I0.6 K0. F12000.
N17785 G1 X126.467
N17790 G17 G3 X127.067 Y65.667 I0. J0.6
N17795 G1 Y69.4 F1000.
N17800 X119.6
N17805 Y61.933
N17810 X127.067
N17815 Y65.667
N17820 G3 X126.467 Y66.267 I-0.6 J0. F12000.
N17825 G1 X125.867
N17830 G18 G3 X125.267 Z-11.4 I0. K0.6
N17835 G1 Z5.
N17840 X141.933 Y65.067
N17845 Z-3.4 F1800.
N17850 G2 X142.533 Z-4. I0.6 K0. F12000.
N17855 G1 X143.133
N17860 G17 G3 X143.733 Y65.667 I0. J0.6
N17865 G1 Y69.4 F1000.
N17870 X136.267
N17875 Y61.933
N17880 X143.733
N17885 Y65.667
N17890 G3 X143.133 Y66.267 I-0.6 J0. F12000.
N17895 G1 X142.533
N17900 G18 G3 X141.933 Z-3.4 I0. K0.6
N17905 G1 Y65.067
N17910 Z-7.4 F1800.
N17915 G2 X142.533 Z-8. I0.6 K0. F12000.
N17920 G1 X143.133
N17925 G17 G3 X143.733 Y65.667 I0. J0.6
N17930 G1 Y69.4 F1000.
N17935 X136.267
N17940 Y61.933
N17945 X143.733
N17950 Y65.667
N17955 G3 X143.133 Y66.267 I-0.6 J0. F12000.
N17960 G1 X142.533
N17965 G18 G3 X141.933 Z-7.4 I0. K0.6
N17970 G1 Y65.067
N17975 Z-11.4 F1800.
N17980 G2 X142.533 Z-12. I0.6 K0. F12000.
N17985 G1 X143.133
N17990 G17 G3 X143.733 Y65.667 I0. J0.6
N17995 G1 Y69.4 F1000.
N18000 X136.267
N18005 Y61.933
N18010 X143.733
N18015 Y65.667
N18020 G3 X143.133 Y66.267 I-0.6 J0. F12000.
N18025 G1 X142.533
N18030 G18 G3 X141.933 Z-11.4 I0. K0.6
N18035 G1 Z5.
N18040 X158.6 Y65.067
N18045 Z-3.4 F1800.
N18050 G2 X159.2 Z-4. I0.6 K0. F12000.
N18055 G1 X159.8
N18060 G17 G3 X160.4 Y65.667 I0. J0.6
N18065 G1 Y69.4 F1000.
N18070 X152.933
N18075 Y61.933
N18080 X160.4
N18085 Y65.667
N18090 G3 X159.8 Y66.267 I-0.6 J0. F12000.
N18095 G1 X159.2
N18100 G18 G3 X158.6 Z-3.4 I0. K0.6
N18105 G1 Y65.067
N18110 Z-7.4 F1800.
N18115 G2 X159.2 Z-8. I0.6 K0. F12000.
N18120 G1 X159.8
N18125 G17 G3 X160.4 Y65.667 I0. J0.6
N18130 G1 Y69.4 F1000.
N18135 X152.933
N18140 Y61.933
N18145 X160.4
N18150 Y65.667
N18155 G3 X159.8 Y66.267 I-0.6 J0. F12000.
N18160 G1 X159.2
N18165 G18 G3 X158.6 Z-7.4 I0. K0.6
N18170 G1 Y65.067
N18175 Z-11.4 F1800.
N18180 G2 X159.2 Z-12. I0.6 K0. F12000.
N18185 G1 X159.8
N18190 G17 G3 X160.4 Y65.667 I0. J0.6
N18195 G1 Y69.4 F1000.
N18200 X152.933
N18205 Y61.933
N18210 X160.4
N18215 Y65.667
N18220 G3 X159.8 Y66.267 I-0.6 J0. F12000.
N18225 G1 X159.2
N18230 G18 G3 X158.6 Z-11.4 I0. K0.6
N18235 G1 Z5.
N18240 X175.267 Y65.067
N18245 Z-3.4 F1800.
N18250 G2 X175.867 Z-4. I0.6 K0. F12000.
N18255 G1 X176.467
N18260 G17 G3 X177.067 Y65.667 I0. J0.6
N18265 G1 Y69.4 F1000.
N18270 X169.6
N18275 Y61.933
N18280 X177.067
N18285 Y65.667
N18290 G3 X176.467 Y66.267 I-0.6 J0. F12000.
N18295 G1 X175.867
N18300 G18 G3 X175.267 Z-3.4 I0. K0.6
N18305 G1 Y65.067
N18310 Z-7.4 F1800.
N18315 G2 X175.867 Z-8. I0.6 K0. F12000.
N18320 G1 X176.467
N18325 G17 G3 X177.067 Y65.667 I0. J0.6
N18330 G1 Y69.4 F1000.
N18335 X169.6
N18340 Y61.933
N18345 X177.067
N18350 Y65.667
N18355 G3 X176.467 Y66.267 I-0.6 J0. F12000.
N18360 G1 X175.867
N18365 G18 G3 X175.267 Z-7.4 I0. K0.6
N18370 G1 Y65.067
N18375 Z-11.4 F1800.
N18380 G2 X175.867 Z-12. I0.6 K0. F12000.
N18385 G1 X176.467
N18390 G17 G3 X177.067 Y65.667 I0. J0.6
N18395 G1 Y69.4 F1000.
N18400 X169.6
N18405 Y61.933
N18410 X177.067
N18415 Y65.667
N18420 G3 X176.467 Y66.267 I-0.6 J0. F12000.
N18425 G1 X175.867
N18430 G18 G3 X175.267 Z-11.4 I0. K0.6
N18435 G1 Z5.
N18440 Y48.4
N18445 Z-3.4 F1800.
N18450 G2 X175.867 Z-4. I0.6 K0. F12000.
N18455 G1 X176.467
N18460 G17 G3 X177.067 Y49. I0. J0.6
N18465 G1 Y52.733 F1000.
N18470 X169.6
N18475 Y45.267
N18480 X177.067
N18485 Y49.
N18490 G3 X176.467 Y49.6 I-0.6 J0. F12000.
N18495 G1 X175.867
N18500 G18 G3 X175.267 Z-3.4 I0. K0.6
N18505 G1 Y48.4
N18510 Z-7.4 F1800.
N18515 G2 X175.867 Z-8. I0.6 K0. F12000.
N18520 G1 X176.467
N18525 G17 G3 X177.067 Y49. I0. J0.6
N18530 G1 Y52.733 F1000.
N18535 X169.6
N18540 Y45.267
N18545 X177.067
N18550 Y49.
N18555 G3 X176.467 Y49.6 I-0.6 J0. F12000.
N18560 G1 X175.867
N18565 G18 G3 X175.267 Z-7.4 I0. K0.6
N18570 G1 Y48.4
N18575 Z-11.4 F1800.
N18580 G2 X175.867 Z-12. I0.6 K0. F12000.
N18585 G1 X176.467
N18590 G17 G3 X177.067 Y49. I0. J0.6
N18595 G1 Y52.733 F1000.
N18600 X169.6
N18605 Y45.267
N18610 X177.067
N18615 Y49.
N18620 G3 X176.467 Y49.6 I-0.6 J0. F12000.
N18625 G1 X175.867
N18630 G18 G3 X175.267 Z-11.4 I0. K0.6
N18635 G1 Z5.
N18640 X191.933 Y48.4
N18645 Z-3.4 F1800.
N18650 G2 X192.533 Z-4. I0.6 K0. F12000.
N18655 G1 X193.133
N18660 G17 G3 X193.733 Y49. I0. J0.6
N18665 G1 Y52.733 F1000.
N18670 X186.267
N18675 Y45.267
N18680 X193.733
N18685 Y49.
N18690 G3 X193.133 Y49.6 I-0.6 J0. F12000.
N18695 G1 X192.533
N18700 G18 G3 X191.933 Z-3.4 I0. K0.6
N18705 G1 Y48.4
N18710 Z-7.4 F1800.
N18715 G2 X192.533 Z-8. I0.6 K0. F12000.
N18720 G1 X193.133
N18725 G17 G3 X193.733 Y49. I0. J0.6
N18730 G1 Y52.733 F1000.
N18735 X186.267
N18740 Y45.267
N18745 X193.733
N18750 Y49.
N18755 G3 X193.133 Y49.6 I-0.6 J0. F12000.
N18760 G1 X192.533
N18765 G18 G3 X191.933 Z-7.4 I0. K0.6
N18770 G1 Y48.4
N18775 Z-11.4 F1800.
N18780 G2 X192.533 Z-12. I0.6 K0. F12000.
N18785 G1 X193.133
N18790 G17 G3 X193.733 Y49. I0. J0.6
N18795 G1 Y52.733 F1000.
N18800 X186.267
N18805 Y45.267
N18810 X193.733
N18815 Y49.
N18820 G3 X193.133 Y49.6 I-0.6 J0. F12000.
N18825 G1 X192.533
N18830 G18 G3 X191.933 Z-11.4 I0. K0.6
N18835 G1 Z5.
N18840 X156.066 Y47.067
N18845 Z-3.4 F1800.
N18850 G19 G2 Y46.467 Z-4. J-0.6 K0. F12000.
N18855 G1 Y45.867
N18860 G17 G3 X156.666 Y45.267 I0.6 J0.
N18865 G1 X160.4 F1000.
N18870 Y52.733
N18875 X152.933
N18880 Y45.267
N18885 X156.666
N18890 G3 X157.266 Y45.867 I0. J0.6 F12000.
N18895 G1 Y46.467
N18900 G19 G3 Y47.067 Z-3.4 J0. K0.6
N18905 G1 X156.066
N18910 Z-7.4 F1800.
N18915 G2 Y46.467 Z-8. J-0.6 K0. F12000.
N18920 G1 Y45.867
N18925 G17 G3 X156.666 Y45.267 I0.6 J0.
N18930 G1 X160.4 F1000.
N18935 Y52.733
N18940 X152.933
N18945 Y45.267
N18950 X156.666
N18955 G3 X157.266 Y45.867 I0. J0.6 F12000.
N18960 G1 Y46.467
N18965 G19 G3 Y47.067 Z-7.4 J0. K0.6
N18970 G1 X156.066
N18975 Z-11.4 F1800.
N18980 G2 Y46.467 Z-12. J-0.6 K0. F12000.
N18985 G1 Y45.867
N18990 G17 G3 X156.666 Y45.267 I0.6 J0.
N18995 G1 X160.4 F1000.
N19000 Y52.733
N19005 X152.933
N19010 Y45.267
N19015 X156.666
N19020 G3 X157.266 Y45.867 I0. J0.6 F12000.
N19025 G1 Y46.467
N19030 G19 G3 Y47.067 Z-11.4 J0. K0.6
N19035 G1 Z5.
N19040 X141.933 Y48.4
N19045 Z-3.4 F1800.
N19050 G18 G2 X142.533 Z-4. I0.6 K0. F12000.
N19055 G1 X143.133
N19060 G17 G3 X143.733 Y49. I0. J0.6
N19065 G1 Y52.733 F1000.
N19070 X136.267
N19075 Y45.267
N19080 X143.733
N19085 Y49.
N19090 G3 X143.133 Y49.6 I-0.6 J0. F12000.
N19095 G1 X142.533
N19100 G18 G3 X141.933 Z-3.4 I0. K0.6
N19105 G1 Y48.4
N19110 Z-7.4 F1800.
N19115 G2 X142.533 Z-8. I0.6 K0. F12000.
N19120 G1 X143.133
N19125 G17 G3 X143.733 Y49. I0. J0.6
N19130 G1 Y52.733 F1000.
N19135 X136.267
N19140 Y45.267
N19145 X143.733
N19150 Y49.
N19155 G3 X143.133 Y49.6 I-0.6 J0. F12000.
N19160 G1 X142.533
N19165 G18 G3 X141.933 Z-7.4 I0. K0.6
N19170 G1 Y48.4
N19175 Z-11.4 F1800.
N19180 G2 X142.533 Z-12. I0.6 K0. F12000.
N19185 G1 X143.133
N19190 G17 G3 X143.733 Y49. I0. J0.6
N19195 G1 Y52.733 F1000.
N19200 X136.267
N19205 Y45.267
N19210 X143.733
N19215 Y49.
N19220 G3 X143.133 Y49.6 I-0.6 J0. F12000.
N19225 G1 X142.533
N19230 G18 G3 X141.933 Z-11.4 I0. K0.6
N19235 G1 Z5.
N19240 X125.267 Y48.4
N19245 Z-3.4 F1800.
N19250 G2 X125.867 Z-4. I0.6 K0. F12000.
N19255 G1 X126.467
N19260 G17 G3 X127.067 Y49. I0. J0.6
N19265 G1 Y52.733 F1000.
N19270 X119.6
N19275 Y45.267
N19280 X127.067
N19285 Y49.
N19290 G3 X126.467 Y49.6 I-0.6 J0. F12000.
N19295 G1 X125.867
N19300 G18 G3 X125.267 Z-3.4 I0. K0.6
N19305 G1 Y48.4
N19310 Z-7.4 F1800.
N19315 G2 X125.867 Z-8. I0.6 K0. F12000.
N19320 G1 X126.467
N19325 G17 G3 X127.067 Y49. I0. J0.6
N19330 G1 Y52.733 F1000.
N19335 X119.6
N19340 Y45.267
N19345 X127.067
N19350 Y49.
N19355 G3 X126.467 Y49.6 I-0.6 J0. F12000.
N19360 G1 X125.867
N19365 G18 G3 X125.267 Z-7.4 I0. K0.6
N19370 G1 Y48.4
N19375 Z-11.4 F1800.
N19380 G2 X125.867 Z-12. I0.6 K0. F12000.
N19385 G1 X126.467
N19390 G17 G3 X127.067 Y49. I0. J0.6
N19395 G1 Y52.733 F1000.
N19400 X119.6
N19405 Y45.267
N19410 X127.067
N19415 Y49.
N19420 G3 X126.467 Y49.6 I-0.6 J0. F12000.
N19425 G1 X125.867
N19430 G18 G3 X125.267 Z-11.4 I0. K0.6
N19435 G1 Z5.
N19440 X108.6 Y48.4
N19445 Z-3.4 F1800.
N19450 G2 X109.2 Z-4. I0.6 K0. F12000.
N19455 G1 X109.8
N19460 G17 G3 X110.4 Y49. I0. J0.6
N19465 G1 Y52.733 F1000.
N19470 X102.933
N19475 Y45.267
N19480 X110.4
N19485 Y49.
N19490 G3 X109.8 Y49.6 I-0.6 J0. F12000.
N19495 G1 X109.2
N19500 G18 G3 X108.6 Z-3.4 I0. K0.6
N19505 G1 Y48.4
N19510 Z-7.4 F1800.
N19515 G2 X109.2 Z-8. I0.6 K0. F12000.
N19520 G1 X109.8
N19525 G17 G3 X110.4 Y49. I0. J0.6
N19530 G1 Y52.733 F1000.
N19535 X102.933
N19540 Y45.267
N19545 X110.4
N19550 Y49.
N19555 G3 X109.8 Y49.6 I-0.6 J0. F12000.
N19560 G1 X109.2
N19565 G18 G3 X108.6 Z-7.4 I0. K0.6
N19570 G1 Y48.4
N19575 Z-11.4 F1800.
N19580 G2 X109.2 Z-12. I0.6 K0. F12000.
N19585 G1 X109.8
N19590 G17 G3 X110.4 Y49. I0. J0.6
N19595 G1 Y52.733 F1000.
N19600 X102.933
N19605 Y45.267
N19610 X110.4
N19615 Y49.
N19620 G3 X109.8 Y49.6 I-0.6 J0. F12000.
N19625 G1 X109.2
N19630 G18 G3 X108.6 Z-11.4 I0. K0.6
N19635 G1 Z5.
N19640 Y65.067
N19645 Z-3.4 F1800.
N19650 G2 X109.2 Z-4. I0.6 K0. F12000.
N19655 G1 X109.8
N19660 G17 G3 X110.4 Y65.667 I0. J0.6
N19665 G1 Y69.4 F1000.
N19670 X102.933
N19675 Y61.933
N19680 X110.4
N19685 Y65.667
N19690 G3 X109.8 Y66.267 I-0.6 J0. F12000.
N19695 G1 X109.2
N19700 G18 G3 X108.6 Z-3.4 I0. K0.6
N19705 G1 Y65.067
N19710 Z-7.4 F1800.
N19715 G2 X109.2 Z-8. I0.6 K0. F12000.
N19720 G1 X109.8
N19725 G17 G3 X110.4 Y65.667 I0. J0.6
N19730 G1 Y69.4 F1000.
N19735 X102.933
N19740 Y61.933
N19745 X110.4
N19750 Y65.667
N19755 G3 X109.8 Y66.267 I-0.6 J0. F12000.
N19760 G1 X109.2
N19765 G18 G3 X108.6 Z-7.4 I0. K0.6
N19770 G1 Y65.067
N19775 Z-11.4 F1800.
N19780 G2 X109.2 Z-12. I0.6 K0. F12000.
N19785 G1 X109.8
N19790 G17 G3 X110.4 Y65.667 I0. J0.6
N19795 G1 Y69.4 F1000.
N19800 X102.933
N19805 Y61.933
N19810 X110.4
N19815 Y65.667
N19820 G3 X109.8 Y66.267 I-0.6 J0. F12000.
N19825 G1 X109.2
N19830 G18 G3 X108.6 Z-11.4 I0. K0.6
N19835 G1 Z5.
N19840 Y81.733
N19845 Z-3.4 F1800.
N19850 G2 X109.2 Z-4. I0.6 K0. F12000.
N19855 G1 X109.8
N19860 G17 G3 X110.4 Y82.333 I0. J0.6
N19865 G1 Y86.067 F1000.
N19870 X102.933
N19875 Y78.6
N19880 X110.4
N19885 Y82.333
N19890 G3 X109.8 Y82.933 I-0.6 J0. F12000.
N19895 G1 X109.2
N19900 G18 G3 X108.6 Z-3.4 I0. K0.6
N19905 G1 Y81.733
N19910 Z-7.4 F1800.
N19915 G2 X109.2 Z-8. I0.6 K0. F12000.
N19920 G1 X109.8
N19925 G17 G3 X110.4 Y82.333 I0. J0.6
N19930 G1 Y86.067 F1000.
N19935 X102.933
N19940 Y78.6
N19945 X110.4
N19950 Y82.333
N19955 G3 X109.8 Y82.933 I-0.6 J0. F12000.
N19960 G1 X109.2
N19965 G18 G3 X108.6 Z-7.4 I0. K0.6
N19970 G1 Y81.733
N19975 Z-11.4 F1800.
N19980 G2 X109.2 Z-12. I0.6 K0. F12000.
N19985 G1 X109.8
N19990 G17 G3 X110.4 Y82.333 I0. J0.6
N19995 G1 Y86.067 F1000.
N20000 X102.933
N20005 Y78.6
N20010 X110.4
N20015 Y82.333
N20020 G3 X109.8 Y82.933 I-0.6 J0. F12000.
N20025 G1 X109.2
N20030 G18 G3 X108.6 Z-11.4 I0. K0.6
N20035 G1 Z5.
N20040 X107.266 Y100.933
N20045 Z-3.4 F1800.
N20050 G19 G3 Y101.533 Z-4. J0.6 K0. F12000.
N20055 G1 Y102.133
N20060 G17 G3 X106.666 Y102.733 I-0.6 J0.
N20065 G1 X102.933 F1000.
N20070 Y95.267
N20075 X110.4
N20080 Y102.733
N20085 X106.666
N20090 G3 X106.066 Y102.133 I0. J-0.6 F12000.
N20095 G1 Y101.533
N20100 G19 G2 Y100.933 Z-3.4 J0. K0.6
N20105 G1 X107.266
N20110 Z-7.4 F1800.
N20115 G3 Y101.533 Z-8. J0.6 K0. F12000.
N20120 G1 Y102.133
N20125 G17 G3 X106.666 Y102.733 I-0.6 J0.
N20130 G1 X102.933 F1000.
N20135 Y95.267
N20140 X110.4
N20145 Y102.733
N20150 X106.666
N20155 G3 X106.066 Y102.133 I0. J-0.6 F12000.
N20160 G1 Y101.533
N20165 G19 G2 Y100.933 Z-7.4 J0. K0.6
N20170 G1 X107.266
N20175 Z-11.4 F1800.
N20180 G3 Y101.533 Z-12. J0.6 K0. F12000.
N20185 G1 Y102.133
N20190 G17 G3 X106.666 Y102.733 I-0.6 J0.
N20195 G1 X102.933 F1000.
N20200 Y95.267
N20205 X110.4
N20210 Y102.733
N20215 X106.666
N20220 G3 X106.066 Y102.133 I0. J-0.6 F12000.
N20225 G1 Y101.533
N20230 G19 G2 Y100.933 Z-11.4 J0. K0.6
N20235 G1 Z5.
N20240 X108.6 Y115.067
N20245 Z-3.4 F1800.
N20250 G18 G2 X109.2 Z-4. I0.6 K0. F12000.
N20255 G1 X109.8
N20260 G17 G3 X110.4 Y115.667 I0. J0.6
N20265 G1 Y119.4 F1000.
N20270 X102.933
N20275 Y111.933
N20280 X110.4
N20285 Y115.667
N20290 G3 X109.8 Y116.267 I-0.6 J0. F12000.
N20295 G1 X109.2
N20300 G18 G3 X108.6 Z-3.4 I0. K0.6
N20305 G1 Y115.067
N20310 Z-7.4 F1800.
N20315 G2 X109.2 Z-8. I0.6 K0. F12000.
N20320 G1 X109.8
N20325 G17 G3 X110.4 Y115.667 I0. J0.6
N20330 G1 Y119.4 F1000.
N20335 X102.933
N20340 Y111.933
N20345 X110.4
N20350 Y115.667
N20355 G3 X109.8 Y116.267 I-0.6 J0. F12000.
N20360 G1 X109.2
N20365 G18 G3 X108.6 Z-7.4 I0. K0.6
N20370 G1 Y115.067
N20375 Z-11.4 F1800.
N20380 G2 X109.2 Z-12. I0.6 K0. F12000.
N20385 G1 X109.8
N20390 G17 G3 X110.4 Y115.667 I0. J0.6
N20395 G1 Y119.4 F1000.
N20400 X102.933
N20405 Y111.933
N20410 X110.4
N20415 Y115.667
N20420 G3 X109.8 Y116.267 I-0.6 J0. F12000.
N20425 G1 X109.2
N20430 G18 G3 X108.6 Z-11.4 I0. K0.6
N20435 G1 Z5.
N20440 Y131.733
N20445 Z-3.4 F1800.
N20450 G2 X109.2 Z-4. I0.6 K0. F12000.
N20455 G1 X109.8
N20460 G17 G3 X110.4 Y132.333 I0. J0.6
N20465 G1 Y136.067 F1000.
N20470 X102.933
N20475 Y128.6
N20480 X110.4
N20485 Y132.333
N20490 G3 X109.8 Y132.933 I-0.6 J0. F12000.
N20495 G1 X109.2
N20500 G18 G3 X108.6 Z-3.4 I0. K0.6
N20505 G1 Y131.733
N20510 Z-7.4 F1800.
N20515 G2 X109.2 Z-8. I0.6 K0. F12000.
N20520 G1 X109.8
N20525 G17 G3 X110.4 Y132.333 I0. J0.6
N20530 G1 Y136.067 F1000.
N20535 X102.933
N20540 Y128.6
N20545 X110.4
N20550 Y132.333
N20555 G3 X109.8 Y132.933 I-0.6 J0. F12000.
N20560 G1 X109.2
N20565 G18 G3 X108.6 Z-7.4 I0. K0.6
N20570 G1 Y131.733
N20575 Z-11.4 F1800.
N20580 G2 X109.2 Z-12. I0.6 K0. F12000.
N20585 G1 X109.8
N20590 G17 G3 X110.4 Y132.333 I0. J0.6
N20595 G1 Y136.067 F1000.
N20600 X102.933
N20605 Y128.6
N20610 X110.4
N20615 Y132.333
N20620 G3 X109.8 Y132.933 I-0.6 J0. F12000.
N20625 G1 X109.2
N20630 G18 G3 X108.6 Z-11.4 I0. K0.6
N20635 G1 Z5.
N20640 Y148.4
N20645 Z-3.4 F1800.
N20650 G2 X109.2 Z-4. I0.6 K0. F12000.
N20655 G1 X109.8
N20660 G17 G3 X110.4 Y149. I0. J0.6
N20665 G1 Y152.733 F1000.
N20670 X102.933
N20675 Y145.267
N20680 X110.4
N20685 Y149.
N20690 G3 X109.8 Y149.6 I-0.6 J0. F12000.
N20695 G1 X109.2
