%
(LETTERPLATEN_13_13_UPPER_2_ROWS)
(T1  D=1.5 CR=0. - ZMIN=-3. - FLAT END MILL)
N10 G90 G94 G17 G91.1
N15 G21
(POCKET2)
N20 T1 M6
N25 S10000 M3
N30 M8
N35 G54
N40 G0 X250.014 Y445.505
N45 G43 Z15. H1
N50 G0 Z2.5
N55 G1 Z1.15 F300.
N60 X250.013 Z1.128 F700.
N65 X250.008 Y445.504 Z1.107
N70 X250. Y445.503 Z1.087
N75 X249.99 Y445.502 Z1.068
N80 X249.977 Y445.499 Z1.05
N85 X249.961 Y445.497 Z1.035
N90 X249.944 Y445.493 Z1.022
N95 X249.925 Y445.488 Z1.012
N100 X249.905 Y445.483 Z1.005
N105 G3 X250.295 Y444.112 Z0.405 I0.195 J-0.685
N110 X249.905 Y445.483 Z-0.194 I-0.195 J0.685
N115 X250.295 Y444.112 Z-0.794 I0.195 J-0.685
N120 X249.905 Y445.483 Z-1.394 I-0.195 J0.685
N125 X249.586 Y445.291 Z-1.495 I0.195 J-0.685
N130 G1 X249.573 Y445.277 Z-1.499
N135 X249.56 Y445.263 Z-1.5
N140 X249.487 Y445.182
N145 X249.408 Y445.107
N150 G2 X249.058 Y444.881 I-0.845 J0.926
N155 G1 X248.965 Y444.843
N160 X248.871 Y444.81
N165 X248.775 Y444.784
N170 X248.676 Y444.766
N175 X240.352 Y444.792
N180 G3 Y444.524 I0. J-0.134
N185 G1 X259.465
N190 G3 X259.709 Y444.769 I0. J0.245
N195 G1 Y445.089
N200 G3 X259.37 Y445.226 I-0.197 J0.
N205 G2 X259.079 Y444.983 I-1.272 J1.228
N210 X258.735 Y444.824 I-0.691 J1.038
N215 G1 X258.593 Y444.787
N220 X258.522 Y444.773
N225 X258.449 Y444.764
N230 X251.291 Y444.749
N235 G2 X250.619 Y444.939 I0. J1.284
N240 X250.113 Y445.421 I0.881 J1.432
N245 G3 X249.682 I-0.215 J-0.148
N250 G1 X249.623 Y445.34
N255 X249.56 Y445.263
N260 G2 X248.782 Y445.21 I-0.415 J0.358
N265 G3 X248.052 Y445.486 I-0.73 J-0.826
N270 G1 X239.392
N275 Y443.831
N280 X260.403
N285 Y457.027
N290 X259.089
N295 Y446.221
N300 X259.088 Y446.193
N305 X259.086 Y446.169
N310 X259.083 Y446.144
N315 X259.08 Y446.12
N320 X259.074 Y446.089
N325 X259.066 Y446.051
N330 X259.058 Y446.022
N335 X259.051 Y446.001
N340 X259.044 Y445.979
N345 X259.036 Y445.958
N350 X259.027 Y445.937
N355 X259.017 Y445.916
N360 X259.004 Y445.89
N365 X258.987 Y445.858
N370 X258.968 Y445.828
N375 X258.947 Y445.798
N380 X258.928 Y445.772
N385 X258.912 Y445.752
N390 X258.894 Y445.732
N395 X258.875 Y445.712
N400 X258.857 Y445.693
N405 X258.838 Y445.676
N410 X258.819 Y445.66
N415 X258.799 Y445.644
N420 X258.779 Y445.629
N425 X258.76 Y445.615
N430 X258.74 Y445.602
N435 X258.72 Y445.59
N440 X258.7 Y445.578
N445 X258.68 Y445.568
N450 X258.658 Y445.557
N455 X258.633 Y445.546
N460 X258.609 Y445.536
N465 X258.584 Y445.527
N470 X258.56 Y445.519
N475 X258.535 Y445.512
N480 X258.511 Y445.506
N485 X258.487 Y445.5
N490 X258.462 Y445.496
N495 X258.438 Y445.492
N500 X258.413 Y445.489
N505 X258.389 Y445.487
N510 X258.358 Y445.486
N515 X251.291
N520 X251.266 Y445.487
N525 X251.242 Y445.488
N530 X251.217 Y445.491
N535 X251.193 Y445.494
N540 X251.168 Y445.498
N545 X251.144 Y445.503
N550 X251.119 Y445.509
N555 X251.095 Y445.516
N560 X251.07 Y445.523
N565 X251.046 Y445.532
N570 X251.021 Y445.541
N575 X250.997 Y445.552
N580 X250.973 Y445.563
N585 X250.948 Y445.576
N590 X250.924 Y445.589
N595 X250.899 Y445.605
N600 X250.875 Y445.621
N605 X250.85 Y445.639
N610 X250.825 Y445.659
N615 X250.8 Y445.68
N620 X250.782 Y445.698
N625 X250.769 Y445.71
N630 X250.751 Y445.729
N635 X250.73 Y445.753
N640 X250.71 Y445.778
N645 X250.692 Y445.802
N650 X250.673 Y445.831
N655 X250.653 Y445.865
N660 X250.637 Y445.893
N665 X250.626 Y445.915
N670 X250.616 Y445.937
N675 X250.607 Y445.959
N680 X250.599 Y445.981
N685 X250.591 Y446.003
N690 X250.584 Y446.026
N695 X250.578 Y446.048
N700 X250.573 Y446.071
N705 X250.567 Y446.095
N710 X250.563 Y446.12
N715 X250.56 Y446.144
N720 X250.557 Y446.169
N725 X250.555 Y446.193
N730 X250.554 Y446.221
N735 Y456.631
N740 X249.24
N745 Y446.221
N750 X249.239 Y446.194
N755 X249.237 Y446.169
N760 X249.235 Y446.145
N765 X249.231 Y446.12
N770 X249.227 Y446.096
N775 X249.222 Y446.071
N780 X249.217 Y446.048
N785 X249.211 Y446.026
N790 X249.204 Y446.004
N795 X249.196 Y445.983
N800 X249.188 Y445.961
N805 X249.179 Y445.939
N810 X249.167 Y445.912
N815 X249.15 Y445.879
N820 X249.134 Y445.851
N825 X249.119 Y445.827
N830 X249.102 Y445.802
N835 X249.084 Y445.778
N840 X249.065 Y445.753
N845 X249.043 Y445.729
N850 X249.02 Y445.704
N855 X248.994 Y445.68
N860 X248.975 Y445.663
N865 X248.963 Y445.653
N870 X248.945 Y445.639
N875 X248.921 Y445.622
N880 X248.896 Y445.605
N885 X248.872 Y445.59
N890 X248.848 Y445.576
N895 X248.823 Y445.563
N900 X248.799 Y445.552
N905 X248.774 Y445.541
N910 X248.75 Y445.532
N915 X248.725 Y445.523
N920 X248.701 Y445.516
N925 X248.676 Y445.509
N930 X248.652 Y445.503
N935 X248.627 Y445.498
N940 X248.603 Y445.494
N945 X248.578 Y445.491
N950 X248.554 Y445.488
N955 X248.53 Y445.487
N960 X248.504 Y445.486
N965 X248.052
N970 X248.032 Y445.48
N975 X248.019 Y445.465
N980 X248.015 Y445.445
N985 X248.022 Y445.427
N990 X248.039 Y445.415
N995 X248.151 Y445.372
N1000 X248.162 Y445.37
N1005 X250.455 Y445.254
N1010 X250.459
N1015 X250.578 Y445.262
N1020 X250.593 Y445.268
N1025 X250.602 Y445.28
N1030 X250.603 Y445.296
N1035 X250.596 Y445.309
N1040 X250.581 Y445.323 Z-1.501
N1045 X250.567 Y445.336 Z-1.505
N1050 G3 X249.633 Y444.26 Z-2.105 I-0.467 J-0.538
N1055 X250.567 Y445.336 Z-2.705 I0.467 J0.538
N1060 X249.586 Y445.291 Z-2.995 I-0.467 J-0.538
N1065 G1 X249.573 Y445.277 Z-2.999
N1070 X249.56 Y445.263 Z-3.
N1075 X249.487 Y445.182
N1080 X249.408 Y445.107
N1085 G2 X249.058 Y444.881 I-0.845 J0.926
N1090 G1 X248.965 Y444.843
N1095 X248.871 Y444.81
N1100 X248.775 Y444.784
N1105 X248.676 Y444.766
N1110 X240.352 Y444.792
N1115 G3 Y444.524 I0. J-0.134
N1120 G1 X259.465
N1125 G3 X259.709 Y444.769 I0. J0.245
N1130 G1 Y445.089
N1135 G3 X259.37 Y445.226 I-0.197 J0.
N1140 G2 X259.079 Y444.983 I-1.272 J1.228
N1145 X258.735 Y444.824 I-0.691 J1.038
N1150 G1 X258.593 Y444.787
N1155 X258.522 Y444.773
N1160 X258.449 Y444.764
N1165 X251.291 Y444.749
N1170 G2 X250.619 Y444.939 I0. J1.284
N1175 X250.113 Y445.421 I0.881 J1.432
N1180 G3 X249.682 I-0.215 J-0.148
N1185 G1 X249.623 Y445.34
N1190 X249.56 Y445.263
N1195 G2 X248.782 Y445.21 I-0.415 J0.358
N1200 G3 X248.052 Y445.486 I-0.73 J-0.826
N1205 G1 X239.392
N1210 Y443.831
N1215 X260.403
N1220 Y457.027
N1225 X259.089
N1230 Y446.221
N1235 X259.088 Y446.193
N1240 X259.086 Y446.169
N1245 X259.083 Y446.144
N1250 X259.08 Y446.12
N1255 X259.074 Y446.089
N1260 X259.066 Y446.051
N1265 X259.058 Y446.022
N1270 X259.051 Y446.001
N1275 X259.044 Y445.979
N1280 X259.036 Y445.958
N1285 X259.027 Y445.937
N1290 X259.017 Y445.916
N1295 X259.004 Y445.89
N1300 X258.987 Y445.858
N1305 X258.968 Y445.828
N1310 X258.947 Y445.798
N1315 X258.928 Y445.772
N1320 X258.912 Y445.752
N1325 X258.894 Y445.732
N1330 X258.875 Y445.712
N1335 X258.857 Y445.693
N1340 X258.838 Y445.676
N1345 X258.819 Y445.66
N1350 X258.799 Y445.644
N1355 X258.779 Y445.629
N1360 X258.76 Y445.615
N1365 X258.74 Y445.602
N1370 X258.72 Y445.59
N1375 X258.7 Y445.578
N1380 X258.68 Y445.568
N1385 X258.658 Y445.557
N1390 X258.633 Y445.546
N1395 X258.609 Y445.536
N1400 X258.584 Y445.527
N1405 X258.56 Y445.519
N1410 X258.535 Y445.512
N1415 X258.511 Y445.506
N1420 X258.487 Y445.5
N1425 X258.462 Y445.496
N1430 X258.438 Y445.492
N1435 X258.413 Y445.489
N1440 X258.389 Y445.487
N1445 X258.358 Y445.486
N1450 X251.291
N1455 X251.266 Y445.487
N1460 X251.242 Y445.488
N1465 X251.217 Y445.491
N1470 X251.193 Y445.494
N1475 X251.168 Y445.498
N1480 X251.144 Y445.503
N1485 X251.119 Y445.509
N1490 X251.095 Y445.516
N1495 X251.07 Y445.523
N1500 X251.046 Y445.532
N1505 X251.021 Y445.541
N1510 X250.997 Y445.552
N1515 X250.973 Y445.563
N1520 X250.948 Y445.576
N1525 X250.924 Y445.589
N1530 X250.899 Y445.605
N1535 X250.875 Y445.621
N1540 X250.85 Y445.639
N1545 X250.825 Y445.659
N1550 X250.8 Y445.68
N1555 X250.782 Y445.698
N1560 X250.769 Y445.71
N1565 X250.751 Y445.729
N1570 X250.73 Y445.753
N1575 X250.71 Y445.778
N1580 X250.692 Y445.802
N1585 X250.673 Y445.831
N1590 X250.653 Y445.865
N1595 X250.637 Y445.893
N1600 X250.626 Y445.915
N1605 X250.616 Y445.937
N1610 X250.607 Y445.959
N1615 X250.599 Y445.981
N1620 X250.591 Y446.003
N1625 X250.584 Y446.026
N1630 X250.578 Y446.048
N1635 X250.573 Y446.071
N1640 X250.567 Y446.095
N1645 X250.563 Y446.12
N1650 X250.56 Y446.144
N1655 X250.557 Y446.169
N1660 X250.555 Y446.193
N1665 X250.554 Y446.221
N1670 Y456.631
N1675 X249.24
N1680 Y446.221
N1685 X249.239 Y446.194
N1690 X249.237 Y446.169
N1695 X249.235 Y446.145
N1700 X249.231 Y446.12
N1705 X249.227 Y446.096
N1710 X249.222 Y446.071
N1715 X249.217 Y446.048
N1720 X249.211 Y446.026
N1725 X249.204 Y446.004
N1730 X249.196 Y445.983
N1735 X249.188 Y445.961
N1740 X249.179 Y445.939
N1745 X249.167 Y445.912
N1750 X249.15 Y445.879
N1755 X249.134 Y445.851
N1760 X249.119 Y445.827
N1765 X249.102 Y445.802
N1770 X249.084 Y445.778
N1775 X249.065 Y445.753
N1780 X249.043 Y445.729
N1785 X249.02 Y445.704
N1790 X248.994 Y445.68
N1795 X248.975 Y445.663
N1800 X248.963 Y445.653
N1805 X248.945 Y445.639
N1810 X248.921 Y445.622
N1815 X248.896 Y445.605
N1820 X248.872 Y445.59
N1825 X248.848 Y445.576
N1830 X248.823 Y445.563
N1835 X248.799 Y445.552
N1840 X248.774 Y445.541
N1845 X248.75 Y445.532
N1850 X248.725 Y445.523
N1855 X248.701 Y445.516
N1860 X248.676 Y445.509
N1865 X248.652 Y445.503
N1870 X248.627 Y445.498
N1875 X248.603 Y445.494
N1880 X248.578 Y445.491
N1885 X248.554 Y445.488
N1890 X248.53 Y445.487
N1895 X248.504 Y445.486
N1900 X248.052
N1905 X248.028 Y445.484 Z-2.998
N1910 X248.006 Y445.479 Z-2.993
N1915 X247.986 Y445.471 Z-2.984
N1920 X247.969 Y445.461 Z-2.971
N1925 X247.954 Y445.45 Z-2.956
N1930 X247.943 Y445.439 Z-2.938
N1935 X247.935 Y445.43 Z-2.918
N1940 X247.93 Y445.423 Z-2.896
N1945 X247.927 Y445.418 Z-2.873
N1950 X247.926 Y445.417 Z-2.85
N1955 G0 Z5.
N1960 X239.457 Y411.816
N1965 Z1.15
N1970 G1 Y411.814 Z1.128 F700.
N1975 X239.458 Y411.81 Z1.107
N1980 X239.459 Y411.802 Z1.087
N1985 X239.461 Y411.792 Z1.068
N1990 X239.464 Y411.779 Z1.05
N1995 X239.467 Y411.763 Z1.035
N2000 X239.471 Y411.746 Z1.022
N2005 X239.476 Y411.728 Z1.012
N2010 X239.482 Y411.708 Z1.005
N2015 G3 X240.84 Y412.142 Z0.405 I0.679 J0.217
N2020 X239.482 Y411.708 Z-0.194 I-0.679 J-0.217
N2025 X240.84 Y412.142 Z-0.794 I0.679 J0.217
N2030 X239.482 Y411.708 Z-1.394 I-0.679 J-0.217
N2035 X239.685 Y411.395 Z-1.495 I0.679 J0.217
N2040 G1 X239.699 Y411.383 Z-1.499
N2045 X239.714 Y411.37 Z-1.5
N2050 G3 X240.694 Y411.476 I0.437 J0.543
N2055 X240.588 Y412.455 I-0.543 J0.437
N2060 G1 X240.503 Y412.529
N2065 X240.423 Y412.607
N2070 G3 X240.079 Y412.47 I-0.145 J-0.138
N2075 G1 Y412.148
N2080 G3 X240.328 Y411.899 I0.25 J0.
N2085 G1 X259.446
N2090 G3 Y412.169 I0. J0.135
N2095 G1 X241.324 Y412.144
N2100 G2 X240.831 Y412.292 I0.1 J1.222
N2105 X240.588 Y412.455 I0.816 J1.476
N2110 X240.48 Y413.205 I0.349 J0.433
N2115 G3 X240.706 Y413.928 I-1.042 J0.723
N2120 G1 Y423.935
N2125 X239.392
N2130 Y411.212
N2135 X260.403
N2140 Y412.856
N2145 X241.438
N2150 X241.407 Y412.857
N2155 X241.383 Y412.859
N2160 X241.358 Y412.862
N2165 X241.334 Y412.866
N2170 X241.309 Y412.87
N2175 X241.285 Y412.876
N2180 X241.26 Y412.882
N2185 X241.236 Y412.889
N2190 X241.211 Y412.897
N2195 X241.187 Y412.906
N2200 X241.162 Y412.916
N2205 X241.138 Y412.927
N2210 X241.114 Y412.938
N2215 X241.092 Y412.95
N2220 X241.069 Y412.963
N2225 X241.046 Y412.978
N2230 X241.022 Y412.995
N2235 X240.995 Y413.014
N2240 X240.969 Y413.035
N2245 X240.943 Y413.059
N2250 X240.917 Y413.084
N2255 X240.892 Y413.112
N2260 X240.869 Y413.139
N2265 X240.848 Y413.167
N2270 X240.83 Y413.193
N2275 X240.815 Y413.217
N2280 X240.8 Y413.242
N2285 X240.787 Y413.266
N2290 X240.776 Y413.291
N2295 X240.765 Y413.315
N2300 X240.753 Y413.345
N2305 X240.74 Y413.382
N2310 X240.732 Y413.411
N2315 X240.726 Y413.433
N2320 X240.722 Y413.454
N2325 X240.717 Y413.475
N2330 X240.714 Y413.497
N2335 X240.711 Y413.518
N2340 X240.709 Y413.54
N2345 X240.707 Y413.561
N2350 X240.706 Y413.589
N2355 Y413.928
N2360 X240.699 Y413.959
N2365 X240.68 Y413.985
N2370 X240.651 Y414.
N2375 X240.619 Y414.002
N2380 X240.589 Y413.99
N2385 X240.567 Y413.966
N2390 X239.642 Y412.416
N2395 X239.633 Y412.404
N2400 X239.62 Y412.389 Z-1.501
N2405 X239.608 Y412.374 Z-1.505
N2410 G3 X240.714 Y411.476 Z-2.105 I0.553 J-0.449
N2415 X239.608 Y412.374 Z-2.705 I-0.553 J0.449
N2420 X239.685 Y411.395 Z-2.995 I0.553 J-0.449
N2425 G1 X239.699 Y411.383 Z-2.999
N2430 X239.714 Y411.37 Z-3.
N2435 G3 X240.694 Y411.476 I0.437 J0.543
N2440 X240.588 Y412.455 I-0.543 J0.437
N2445 G1 X240.503 Y412.529
N2450 X240.423 Y412.607
N2455 G3 X240.079 Y412.47 I-0.145 J-0.138
N2460 G1 Y412.148
N2465 G3 X240.328 Y411.899 I0.25 J0.
N2470 G1 X259.446
N2475 G3 Y412.169 I0. J0.135
N2480 G1 X241.324 Y412.144
N2485 G2 X240.831 Y412.292 I0.1 J1.222
N2490 X240.588 Y412.455 I0.816 J1.476
N2495 X240.48 Y413.205 I0.349 J0.433
N2500 G3 X240.706 Y413.928 I-1.042 J0.723
N2505 G1 Y423.935
N2510 X239.392
N2515 Y411.212
N2520 X260.403
N2525 Y412.856
N2530 X241.438
N2535 X241.407 Y412.857
N2540 X241.383 Y412.859
N2545 X241.358 Y412.862
N2550 X241.334 Y412.866
N2555 X241.309 Y412.87
N2560 X241.285 Y412.876
N2565 X241.26 Y412.882
N2570 X241.236 Y412.889
N2575 X241.211 Y412.897
N2580 X241.187 Y412.906
N2585 X241.162 Y412.916
N2590 X241.138 Y412.927
N2595 X241.114 Y412.938
N2600 X241.092 Y412.95
N2605 X241.069 Y412.963
N2610 X241.046 Y412.978
N2615 X241.022 Y412.995
N2620 X240.995 Y413.014
N2625 X240.969 Y413.035
N2630 X240.943 Y413.059
N2635 X240.917 Y413.084
N2640 X240.892 Y413.112
N2645 X240.869 Y413.139
N2650 X240.848 Y413.167
N2655 X240.83 Y413.193
N2660 X240.815 Y413.217
N2665 X240.8 Y413.242
N2670 X240.787 Y413.266
N2675 X240.776 Y413.291
N2680 X240.765 Y413.315
N2685 X240.753 Y413.345
N2690 X240.74 Y413.382
N2695 X240.732 Y413.411
N2700 X240.726 Y413.433
N2705 X240.722 Y413.454
N2710 X240.717 Y413.475
N2715 X240.714 Y413.497
N2720 X240.711 Y413.518
N2725 X240.709 Y413.54
N2730 X240.707 Y413.561
N2735 X240.706 Y413.589
N2740 Y413.928
N2745 X240.705 Y413.951 Z-2.998
N2750 X240.699 Y413.973 Z-2.993
N2755 X240.691 Y413.994 Z-2.984
N2760 X240.681 Y414.011 Z-2.971
N2765 X240.67 Y414.025 Z-2.956
N2770 X240.66 Y414.036 Z-2.938
N2775 X240.651 Y414.044 Z-2.918
N2780 X240.643 Y414.05 Z-2.896
N2785 X240.639 Y414.053 Z-2.873
N2790 X240.637 Y414.054 Z-2.85
N2795 G0 Z5.
N2800 X206.127 Y411.816
N2805 Z1.15
N2810 G1 Y411.815 Z1.128 F700.
N2815 X206.128 Y411.81 Z1.107
N2820 X206.129 Y411.802 Z1.087
N2825 X206.131 Y411.792 Z1.068
N2830 X206.134 Y411.779 Z1.05
N2835 X206.137 Y411.764 Z1.035
N2840 X206.141 Y411.747 Z1.022
N2845 X206.147 Y411.728 Z1.012
N2850 X206.153 Y411.708 Z1.005
N2855 G3 X207.543 Y411.904 Z0.471 I0.678 J0.219
N2860 X206.119 Y411.95 Z-0.129 I-0.712 J0.023
N2865 X206.385 Y411.371 Z-0.306 I0.712 J-0.023
N2870 X207.543 Y411.904 Z-0.728 I0.446 J0.556
N2875 X206.119 Y411.95 Z-1.328 I-0.712 J0.023
N2880 X206.356 Y411.396 Z-1.495 I0.712 J-0.023
N2885 G1 X206.37 Y411.383 Z-1.499
N2890 X206.385 Y411.371 Z-1.5
N2895 G3 X207.255 Y412.456 I0.435 J0.543
N2900 G1 X207.17 Y412.529
N2905 X207.091 Y412.607
N2910 G3 X206.745 Y412.469 I-0.145 J-0.138
N2915 G1 Y412.148
N2920 G3 X206.995 Y411.899 I0.25 J0.
N2925 G1 X226.112
N2930 G3 Y412.169 I0. J0.135
N2935 G1 X207.946 Y412.15
N2940 G2 X207.479 Y412.305 I0.167 J1.283
N2945 X207.255 Y412.456 I0.811 J1.443
N2950 X207.146 Y413.206 I0.347 J0.433
N2955 G3 X207.373 Y413.929 I-1.039 J0.723
N2960 G1 Y423.935
N2965 X206.059
N2970 Y411.212
N2975 X227.069
N2980 Y412.856
N2985 X208.111
N2990 X208.087 Y412.857
N2995 X208.063 Y412.858
N3000 X208.038 Y412.861
N3005 X208.014 Y412.864
N3010 X207.989 Y412.868
N3015 X207.965 Y412.873
N3020 X207.941 Y412.878
N3025 X207.916 Y412.885
N3030 X207.892 Y412.892
N3035 X207.867 Y412.901
N3040 X207.843 Y412.91
N3045 X207.818 Y412.92
N3050 X207.794 Y412.932
N3055 X207.769 Y412.944
N3060 X207.743 Y412.959
N3065 X207.715 Y412.976
N3070 X207.693 Y412.991
N3075 X207.675 Y413.004
N3080 X207.658 Y413.017
N3085 X207.64 Y413.032
N3090 X207.623 Y413.047
N3095 X207.605 Y413.063
N3100 X207.588 Y413.08
N3105 X207.57 Y413.099
N3110 X207.554 Y413.117
N3115 X207.539 Y413.135
N3120 X207.525 Y413.153
N3125 X207.511 Y413.171
N3130 X207.497 Y413.193
N3135 X207.481 Y413.217
N3140 X207.467 Y413.242
N3145 X207.454 Y413.266
N3150 X207.442 Y413.291
N3155 X207.431 Y413.315
N3160 X207.422 Y413.339
N3165 X207.413 Y413.364
N3170 X207.405 Y413.388
N3175 X207.398 Y413.413
N3180 X207.392 Y413.437
N3185 X207.387 Y413.462
N3190 X207.382 Y413.486
N3195 X207.379 Y413.511
N3200 X207.376 Y413.535
N3205 X207.374 Y413.56
N3210 X207.373 Y413.589
N3215 Y413.929
N3220 X207.366 Y413.961
N3225 X207.346 Y413.987
N3230 X207.318 Y414.002
N3235 X207.286 Y414.003
N3240 X207.256 Y413.991
N3245 X207.234 Y413.968
N3250 X206.31 Y412.416
N3255 X206.302 Y412.404
N3260 X206.289 Y412.39 Z-1.501
N3265 X206.277 Y412.375 Z-1.505
N3270 G3 X206.385 Y411.371 Z-1.806 I0.554 J-0.448
N3275 X207.543 Y411.904 Z-2.228 I0.446 J0.556
N3280 X206.119 Y411.95 Z-2.828 I-0.712 J0.023
N3285 X206.356 Y411.396 Z-2.995 I0.712 J-0.023
N3290 G1 X206.37 Y411.383 Z-2.999
N3295 X206.385 Y411.371 Z-3.
N3300 G3 X207.255 Y412.456 I0.435 J0.543
N3305 G1 X207.17 Y412.529
N3310 X207.091 Y412.607
N3315 G3 X206.745 Y412.469 I-0.145 J-0.138
N3320 G1 Y412.148
N3325 G3 X206.995 Y411.899 I0.25 J0.
N3330 G1 X226.112
N3335 G3 Y412.169 I0. J0.135
N3340 G1 X207.946 Y412.15
N3345 G2 X207.479 Y412.305 I0.167 J1.283
N3350 X207.255 Y412.456 I0.811 J1.443
N3355 X207.146 Y413.206 I0.347 J0.433
N3360 G3 X207.373 Y413.929 I-1.039 J0.723
N3365 G1 Y423.935
N3370 X206.059
N3375 Y411.212
N3380 X227.069
N3385 Y412.856
N3390 X208.111
N3395 X208.087 Y412.857
N3400 X208.063 Y412.858
N3405 X208.038 Y412.861
N3410 X208.014 Y412.864
N3415 X207.989 Y412.868
N3420 X207.965 Y412.873
N3425 X207.941 Y412.878
N3430 X207.916 Y412.885
N3435 X207.892 Y412.892
N3440 X207.867 Y412.901
N3445 X207.843 Y412.91
N3450 X207.818 Y412.92
N3455 X207.794 Y412.932
N3460 X207.769 Y412.944
N3465 X207.743 Y412.959
N3470 X207.715 Y412.976
N3475 X207.693 Y412.991
N3480 X207.675 Y413.004
N3485 X207.658 Y413.017
N3490 X207.64 Y413.032
N3495 X207.623 Y413.047
N3500 X207.605 Y413.063
N3505 X207.588 Y413.08
N3510 X207.57 Y413.099
N3515 X207.554 Y413.117
N3520 X207.539 Y413.135
N3525 X207.525 Y413.153
N3530 X207.511 Y413.171
N3535 X207.497 Y413.193
N3540 X207.481 Y413.217
N3545 X207.467 Y413.242
N3550 X207.454 Y413.266
N3555 X207.442 Y413.291
N3560 X207.431 Y413.315
N3565 X207.422 Y413.339
N3570 X207.413 Y413.364
N3575 X207.405 Y413.388
N3580 X207.398 Y413.413
N3585 X207.392 Y413.437
N3590 X207.387 Y413.462
N3595 X207.382 Y413.486
N3600 X207.379 Y413.511
N3605 X207.376 Y413.535
N3610 X207.374 Y413.56
N3615 X207.373 Y413.589
N3620 Y413.929
N3625 X207.371 Y413.953 Z-2.998
N3630 X207.366 Y413.975 Z-2.993
N3635 X207.358 Y413.995 Z-2.984
N3640 X207.348 Y414.013 Z-2.971
N3645 X207.337 Y414.027 Z-2.956
N3650 X207.327 Y414.038 Z-2.938
N3655 X207.317 Y414.046 Z-2.918
N3660 X207.31 Y414.051 Z-2.896
N3665 X207.306 Y414.055 Z-2.873
N3670 X207.304 Y414.056 Z-2.85
N3675 G0 Z5.
N3680 X226.283 Y445.326
N3685 Z1.15
N3690 G1 X226.282 Z1.128 F700.
N3695 X226.277 Z1.107
N3700 X226.269 Y445.327 Z1.087
N3705 X226.258 Z1.068
N3710 X226.245 Z1.05
N3715 X226.23 Z1.035
N3720 X226.212 Y445.326 Z1.022
N3725 X226.193 Y445.325 Z1.012
N3730 X226.172 Y445.323 Z1.005
N3735 G3 X226.319 Y443.906 Z0.405 I0.073 J-0.709
N3740 X226.172 Y445.323 Z-0.194 I-0.073 J0.709
N3745 X226.319 Y443.906 Z-0.794 I0.073 J-0.709
N3750 X226.172 Y445.323 Z-1.394 I-0.073 J0.709
N3755 X225.825 Y445.19 Z-1.495 I0.073 J-0.709
N3760 G1 X225.809 Y445.178 Z-1.499
N3765 X225.794 Y445.166 Z-1.5
N3770 X225.743 Y445.126
N3775 G2 X225.042 Y444.879 I-0.746 J0.998
N3780 G1 X217.892
N3785 G2 X217.172 Y445.166 I0.059 J1.194
N3790 X216.732 Y445.805 I0.986 J1.148
N3795 G3 X216.395 I-0.168 J-0.06
N3800 G2 X215.977 Y445.181 I-1.42 J0.502
N3805 X215.287 Y444.884 I-0.793 J0.891
N3810 G1 X206.87 Y444.924
N3815 G3 X206.62 Y444.674 I0. J-0.25
N3820 G1 Y444.642
N3825 G3 X206.87 Y444.392 I0.25 J0.
N3830 G1 X226.172
N3835 G3 X226.508 Y444.728 I0. J0.335
N3840 G1 Y445.644
N3845 G3 X226.206 Y445.707 I-0.158 J0.
N3850 G2 X225.794 Y445.166 I-1.338 J0.59
N3855 X225.16 Y445.221 I-0.289 J0.353
N3860 G3 X224.581 Y445.486 I-0.579 J-0.5
N3865 G1 X217.965
N3870 X217.946
N3875 X217.922 Y445.487
N3880 X217.897 Y445.489
N3885 X217.873 Y445.492
N3890 X217.849 Y445.496
N3895 X217.824 Y445.5
N3900 X217.8 Y445.505
N3905 X217.775 Y445.512
N3910 X217.751 Y445.519
N3915 X217.726 Y445.527
N3920 X217.702 Y445.536
N3925 X217.677 Y445.546
N3930 X217.654 Y445.556
N3935 X217.631 Y445.567
N3940 X217.607 Y445.58
N3945 X217.584 Y445.593
N3950 X217.561 Y445.608
N3955 X217.538 Y445.623
N3960 X217.512 Y445.643
N3965 X217.484 Y445.666
N3970 X217.458 Y445.689
N3975 X217.434 Y445.712
N3980 X217.412 Y445.736
N3985 X217.392 Y445.759
N3990 X217.374 Y445.782
N3995 X217.357 Y445.805
N4000 X217.341 Y445.829
N4005 X217.327 Y445.852
N4010 X217.313 Y445.875
N4015 X217.301 Y445.899
N4020 X217.289 Y445.923
N4025 X217.279 Y445.947
N4030 X217.269 Y445.971
N4035 X217.26 Y445.996
N4040 X217.252 Y446.021
N4045 X217.245 Y446.047
N4050 X217.239 Y446.071
N4055 X217.234 Y446.096
N4060 X217.23 Y446.12
N4065 X217.227 Y446.145
N4070 X217.224 Y446.169
N4075 X217.222 Y446.194
N4080 X217.221 Y446.221
N4085 Y456.631
N4090 X215.907
N4095 Y446.221
N4100 X215.906 Y446.194
N4105 X215.904 Y446.169
N4110 X215.902 Y446.145
N4115 X215.898 Y446.12
N4120 X215.894 Y446.096
N4125 X215.889 Y446.071
N4130 X215.883 Y446.047
N4135 X215.876 Y446.022
N4140 X215.868 Y445.998
N4145 X215.86 Y445.974
N4150 X215.85 Y445.949
N4155 X215.84 Y445.925
N4160 X215.828 Y445.9
N4165 X215.815 Y445.876
N4170 X215.803 Y445.854
N4175 X215.791 Y445.834
N4180 X215.778 Y445.815
N4185 X215.764 Y445.795
N4190 X215.749 Y445.775
N4195 X215.734 Y445.756
N4200 X215.717 Y445.736
N4205 X215.699 Y445.717
N4210 X215.679 Y445.697
N4215 X215.658 Y445.678
N4220 X215.633 Y445.656
N4225 X215.604 Y445.633
N4230 X215.577 Y445.614
N4235 X215.552 Y445.598
N4240 X215.528 Y445.584
N4245 X215.503 Y445.57
N4250 X215.479 Y445.558
N4255 X215.454 Y445.547
N4260 X215.43 Y445.537
N4265 X215.406 Y445.528
N4270 X215.381 Y445.52
N4275 X215.357 Y445.513
N4280 X215.332 Y445.506
N4285 X215.308 Y445.501
N4290 X215.283 Y445.496
N4295 X215.259 Y445.493
N4300 X215.234 Y445.49
N4305 X215.21 Y445.488
N4310 X215.178 Y445.486
N4315 X214.102
N4320 X206.059
N4325 Y443.831
N4330 X227.069
N4335 Y457.027
N4340 X225.755
N4345 Y446.221
N4350 X225.754 Y446.194
N4355 X225.752 Y446.169
N4360 X225.75 Y446.145
N4365 X225.746 Y446.12
N4370 X225.742 Y446.096
N4375 X225.737 Y446.071
N4380 X225.73 Y446.044
N4385 X225.721 Y446.012
N4390 X225.711 Y445.981
N4395 X225.699 Y445.95
N4400 X225.688 Y445.926
N4405 X225.68 Y445.908
N4410 X225.671 Y445.89
N4415 X225.662 Y445.872
N4420 X225.649 Y445.851
N4425 X225.634 Y445.827
N4430 X225.618 Y445.803
N4435 X225.6 Y445.778
N4440 X225.58 Y445.754
N4445 X225.559 Y445.73
N4450 X225.535 Y445.705
N4455 X225.509 Y445.68
N4460 X225.484 Y445.658
N4465 X225.459 Y445.639
N4470 X225.435 Y445.621
N4475 X225.411 Y445.605
N4480 X225.386 Y445.59
N4485 X225.362 Y445.576
N4490 X225.338 Y445.563
N4495 X225.314 Y445.552
N4500 X225.289 Y445.541
N4505 X225.265 Y445.532
N4510 X225.24 Y445.523
N4515 X225.216 Y445.516
N4520 X225.191 Y445.509
N4525 X225.167 Y445.503
N4530 X225.142 Y445.498
N4535 X225.118 Y445.494
N4540 X225.093 Y445.491
N4545 X225.069 Y445.488
N4550 X225.045 Y445.487
N4555 X225.02 Y445.486
N4560 X225.007
N4565 X224.581
N4570 X224.562 Y445.48
N4575 X224.549 Y445.466
N4580 X224.544 Y445.447
N4585 X224.55 Y445.429
N4590 X224.565 Y445.416
N4595 X224.68 Y445.359
N4600 X224.69 Y445.355
N4605 X226.658 Y444.996
N4610 X226.661 Y444.995
N4615 X226.795 Y444.985
N4620 X226.812 Y444.988
N4625 X226.824 Y445.
N4630 X226.828 Y445.017
N4635 X226.822 Y445.033
N4640 X226.81 Y445.049 Z-1.501
N4645 X226.798 Y445.064 Z-1.505
N4650 G3 X225.692 Y444.165 Z-2.105 I-0.553 J-0.449
N4655 X226.798 Y445.064 Z-2.705 I0.553 J0.449
N4660 X225.825 Y445.19 Z-2.995 I-0.553 J-0.449
N4665 G1 X225.809 Y445.178 Z-2.999
N4670 X225.794 Y445.166 Z-3.
N4675 X225.743 Y445.126
N4680 G2 X225.042 Y444.879 I-0.746 J0.998
N4685 G1 X217.892
N4690 G2 X217.172 Y445.166 I0.059 J1.194
N4695 X216.732 Y445.805 I0.986 J1.148
N4700 G3 X216.395 I-0.168 J-0.06
N4705 G2 X215.977 Y445.181 I-1.42 J0.502
N4710 X215.287 Y444.884 I-0.793 J0.891
N4715 G1 X206.87 Y444.924
N4720 G3 X206.62 Y444.674 I0. J-0.25
N4725 G1 Y444.642
N4730 G3 X206.87 Y444.392 I0.25 J0.
N4735 G1 X226.172
N4740 G3 X226.508 Y444.728 I0. J0.335
N4745 G1 Y445.644
N4750 G3 X226.206 Y445.707 I-0.158 J0.
N4755 G2 X225.794 Y445.166 I-1.338 J0.59
N4760 X225.16 Y445.221 I-0.289 J0.353
N4765 G3 X224.581 Y445.486 I-0.579 J-0.5
N4770 G1 X217.965
N4775 X217.946
N4780 X217.922 Y445.487
N4785 X217.897 Y445.489
N4790 X217.873 Y445.492
N4795 X217.849 Y445.496
N4800 X217.824 Y445.5
N4805 X217.8 Y445.505
N4810 X217.775 Y445.512
N4815 X217.751 Y445.519
N4820 X217.726 Y445.527
N4825 X217.702 Y445.536
N4830 X217.677 Y445.546
N4835 X217.654 Y445.556
N4840 X217.631 Y445.567
N4845 X217.607 Y445.58
N4850 X217.584 Y445.593
N4855 X217.561 Y445.608
N4860 X217.538 Y445.623
N4865 X217.512 Y445.643
N4870 X217.484 Y445.666
N4875 X217.458 Y445.689
N4880 X217.434 Y445.712
N4885 X217.412 Y445.736
N4890 X217.392 Y445.759
N4895 X217.374 Y445.782
N4900 X217.357 Y445.805
N4905 X217.341 Y445.829
N4910 X217.327 Y445.852
N4915 X217.313 Y445.875
N4920 X217.301 Y445.899
N4925 X217.289 Y445.923
N4930 X217.279 Y445.947
N4935 X217.269 Y445.971
N4940 X217.26 Y445.996
N4945 X217.252 Y446.021
N4950 X217.245 Y446.047
N4955 X217.239 Y446.071
N4960 X217.234 Y446.096
N4965 X217.23 Y446.12
N4970 X217.227 Y446.145
N4975 X217.224 Y446.169
N4980 X217.222 Y446.194
N4985 X217.221 Y446.221
N4990 Y456.631
N4995 X215.907
N5000 Y446.221
N5005 X215.906 Y446.194
N5010 X215.904 Y446.169
N5015 X215.902 Y446.145
N5020 X215.898 Y446.12
N5025 X215.894 Y446.096
N5030 X215.889 Y446.071
N5035 X215.883 Y446.047
N5040 X215.876 Y446.022
N5045 X215.868 Y445.998
N5050 X215.86 Y445.974
N5055 X215.85 Y445.949
N5060 X215.84 Y445.925
N5065 X215.828 Y445.9
N5070 X215.815 Y445.876
N5075 X215.803 Y445.854
N5080 X215.791 Y445.834
N5085 X215.778 Y445.815
N5090 X215.764 Y445.795
N5095 X215.749 Y445.775
N5100 X215.734 Y445.756
N5105 X215.717 Y445.736
N5110 X215.699 Y445.717
N5115 X215.679 Y445.697
N5120 X215.658 Y445.678
N5125 X215.633 Y445.656
N5130 X215.604 Y445.633
N5135 X215.577 Y445.614
N5140 X215.552 Y445.598
N5145 X215.528 Y445.584
N5150 X215.503 Y445.57
N5155 X215.479 Y445.558
N5160 X215.454 Y445.547
N5165 X215.43 Y445.537
N5170 X215.406 Y445.528
N5175 X215.381 Y445.52
N5180 X215.357 Y445.513
N5185 X215.332 Y445.506
N5190 X215.308 Y445.501
N5195 X215.283 Y445.496
N5200 X215.259 Y445.493
N5205 X215.234 Y445.49
N5210 X215.21 Y445.488
N5215 X215.178 Y445.486
N5220 X214.102
N5225 X206.059
N5230 Y443.831
N5235 X227.069
N5240 Y457.027
N5245 X225.755
N5250 Y446.221
N5255 X225.754 Y446.194
N5260 X225.752 Y446.169
N5265 X225.75 Y446.145
N5270 X225.746 Y446.12
N5275 X225.742 Y446.096
N5280 X225.737 Y446.071
N5285 X225.73 Y446.044
N5290 X225.721 Y446.012
N5295 X225.711 Y445.981
N5300 X225.699 Y445.95
N5305 X225.688 Y445.926
N5310 X225.68 Y445.908
N5315 X225.671 Y445.89
N5320 X225.662 Y445.872
N5325 X225.649 Y445.851
N5330 X225.634 Y445.827
N5335 X225.618 Y445.803
N5340 X225.6 Y445.778
N5345 X225.58 Y445.754
N5350 X225.559 Y445.73
N5355 X225.535 Y445.705
N5360 X225.509 Y445.68
N5365 X225.484 Y445.658
N5370 X225.459 Y445.639
N5375 X225.435 Y445.621
N5380 X225.411 Y445.605
N5385 X225.386 Y445.59
N5390 X225.362 Y445.576
N5395 X225.338 Y445.563
N5400 X225.314 Y445.552
N5405 X225.289 Y445.541
N5410 X225.265 Y445.532
N5415 X225.24 Y445.523
N5420 X225.216 Y445.516
N5425 X225.191 Y445.509
N5430 X225.167 Y445.503
N5435 X225.142 Y445.498
N5440 X225.118 Y445.494
N5445 X225.093 Y445.491
N5450 X225.069 Y445.488
N5455 X225.045 Y445.487
N5460 X225.02 Y445.486
N5465 X225.007
N5470 X224.581
N5475 X224.558 Y445.484 Z-2.998
N5480 X224.536 Y445.478 Z-2.993
N5485 X224.515 Y445.47 Z-2.984
N5490 X224.498 Y445.46 Z-2.971
N5495 X224.484 Y445.45 Z-2.956
N5500 X224.473 Y445.439 Z-2.938
N5505 X224.465 Y445.43 Z-2.918
N5510 X224.459 Y445.423 Z-2.896
N5515 X224.456 Y445.418 Z-2.873
N5520 X224.455 Y445.417 Z-2.85
N5525 G0 Z5.
N5530 X192.898 Y443.308
N5535 Z1.15
N5540 G1 X192.9 Z1.128 F700.
N5545 X192.904 Y443.307 Z1.107
N5550 X192.912 Z1.087
N5555 X192.923 Y443.306 Z1.068
N5560 X192.936 Z1.05
N5565 X192.952 Y443.305 Z1.035
N5570 X192.969 Y443.306 Z1.022
N5575 X192.989 Z1.012
N5580 X193.009 Y443.307 Z1.005
N5585 G3 X192.902 Y444.728 Z0.405 I-0.054 J0.71
N5590 X193.009 Y443.307 Z-0.194 I0.054 J-0.71
N5595 X192.902 Y444.728 Z-0.794 I-0.054 J0.71
N5600 X193.009 Y443.307 Z-1.394 I0.054 J-0.71
N5605 X193.36 Y443.431 Z-1.495 I-0.054 J0.71
N5610 G1 X193.376 Y443.443 Z-1.499
N5615 X193.392 Y443.454 Z-1.5
N5620 G3 X192.541 Y444.554 I-0.425 J0.55
N5625 G2 X192.211 Y444.357 I-0.985 J1.273
N5630 X191.623 Y444.228 I-0.61 J1.369
N5635 G1 X185.209 Y444.231
N5640 G2 X184.605 Y444.441 I0.103 J1.272
N5645 X184.151 Y444.892 I0.918 J1.379
N5650 G3 X183.717 Y444.891 I-0.217 J-0.147
N5655 G2 X183.363 Y444.513 I-1.354 J0.911
N5660 X182.9 Y444.281 I-0.815 J1.05
N5665 G1 X182.75 Y444.245
N5670 X182.673 Y444.232
N5675 X182.596 Y444.225
N5680 X174.772 Y444.23
N5685 G2 X174.218 Y444.361 I0. J1.24
N5690 X173.758 Y444.698 I0.757 J1.513
N5695 G3 X173.419 Y444.561 I-0.142 J-0.137
N5700 G1 Y444.241
N5705 G3 X173.664 Y443.997 I0.245 J0.
N5710 G1 X192.798
N5715 G3 X193.043 Y444.241 I0. J0.245
N5720 G1 Y444.563
N5725 G3 X192.706 Y444.701 I-0.197 J0.
N5730 G1 X192.626 Y444.625
N5735 X192.541 Y444.554
N5740 G2 X191.79 Y444.637 I-0.333 J0.43
N5745 G3 X191.105 Y444.958 I-0.684 J-0.569
N5750 G1 X185.323
N5755 X185.292 Y444.96
N5760 X185.268 Y444.962
N5765 X185.244 Y444.964
N5770 X185.219 Y444.968
N5775 X185.195 Y444.973
N5780 X185.17 Y444.978
N5785 X185.143 Y444.985
N5790 X185.113 Y444.994
N5795 X185.078 Y445.006
N5800 X185.038 Y445.022
N5805 X185.004 Y445.038
N5810 X184.976 Y445.053
N5815 X184.951 Y445.068
N5820 X184.927 Y445.083
N5825 X184.903 Y445.099
N5830 X184.88 Y445.117
N5835 X184.856 Y445.136
N5840 X184.832 Y445.157
N5845 X184.808 Y445.18
N5850 X184.785 Y445.205
N5855 X184.762 Y445.231
N5860 X184.741 Y445.259
N5865 X184.722 Y445.284
N5870 X184.707 Y445.308
N5875 X184.693 Y445.331
N5880 X184.68 Y445.355
N5885 X184.668 Y445.378
N5890 X184.657 Y445.402
N5895 X184.646 Y445.426
N5900 X184.637 Y445.45
N5905 X184.628 Y445.474
N5910 X184.621 Y445.499
N5915 X184.614 Y445.523
N5920 X184.608 Y445.548
N5925 X184.603 Y445.572
N5930 X184.599 Y445.597
N5935 X184.596 Y445.621
N5940 X184.594 Y445.646
N5945 X184.592 Y445.67
N5950 X184.591 Y445.695
N5955 Y445.707
N5960 Y455.971
N5965 X183.277
N5970 Y445.707
N5975 Y445.695
N5980 X183.276 Y445.67
N5985 X183.275 Y445.646
N5990 X183.272 Y445.621
N5995 X183.269 Y445.597
N6000 X183.265 Y445.572
N6005 X183.26 Y445.548
N6010 X183.254 Y445.523
N6015 X183.247 Y445.499
N6020 X183.24 Y445.474
N6025 X183.231 Y445.45
N6030 X183.222 Y445.426
N6035 X183.211 Y445.401
N6040 X183.2 Y445.377
N6045 X183.187 Y445.352
N6050 X183.174 Y445.328
N6055 X183.159 Y445.303
N6060 X183.142 Y445.279
N6065 X183.121 Y445.25
N6070 X183.095 Y445.218
N6075 X183.07 Y445.19
N6080 X183.045 Y445.166
N6085 X183.021 Y445.143
N6090 X182.996 Y445.123
N6095 X182.972 Y445.104
N6100 X182.947 Y445.087
N6105 X182.923 Y445.071
N6110 X182.898 Y445.056
N6115 X182.872 Y445.042
N6120 X182.845 Y445.029
N6125 X182.814 Y445.015
N6130 X182.779 Y445.002
N6135 X182.743 Y444.99
N6140 X182.708 Y444.98
N6145 X182.678 Y444.973
N6150 X182.654 Y444.969
N6155 X182.629 Y444.965
N6160 X182.605 Y444.962
N6165 X182.58 Y444.96
N6170 X182.556 Y444.959
N6175 X182.535 Y444.958
N6180 X174.772
N6185 X174.737 Y444.96
N6190 X174.701 Y444.963
N6195 X174.67 Y444.968
N6200 X174.646 Y444.972
N6205 X174.621 Y444.977
N6210 X174.597 Y444.983
N6215 X174.572 Y444.99
N6220 X174.547 Y444.998
N6225 X174.522 Y445.007
N6230 X174.497 Y445.017
N6235 X174.473 Y445.028
N6240 X174.449 Y445.04
N6245 X174.425 Y445.052
N6250 X174.401 Y445.066
N6255 X174.378 Y445.081
N6260 X174.357 Y445.095
N6265 X174.336 Y445.11
N6270 X174.315 Y445.127
N6275 X174.294 Y445.144
N6280 X174.273 Y445.163
N6285 X174.253 Y445.184
N6290 X174.232 Y445.206
N6295 X174.214 Y445.226
N6300 X174.2 Y445.244
N6305 X174.186 Y445.262
N6310 X174.172 Y445.282
N6315 X174.158 Y445.303
N6320 X174.146 Y445.323
N6325 X174.134 Y445.343
N6330 X174.123 Y445.363
N6335 X174.113 Y445.383
N6340 X174.104 Y445.403
N6345 X174.094 Y445.426
N6350 X174.085 Y445.45
N6355 X174.076 Y445.474
N6360 X174.069 Y445.499
N6365 X174.062 Y445.523
N6370 X174.056 Y445.548
N6375 X174.051 Y445.572
N6380 X174.047 Y445.597
N6385 X174.044 Y445.621
N6390 X174.042 Y445.646
N6395 X174.04 Y445.67
N6400 X174.039 Y445.695
N6405 Y445.707
N6410 Y457.631
N6415 X172.726
N6420 Y443.303
N6425 X193.736
N6430 Y456.961
N6435 X192.422
N6440 Y445.707
N6445 Y445.695
N6450 X192.421 Y445.67
N6455 X192.419 Y445.646
N6460 X192.417 Y445.621
N6465 X192.414 Y445.597
N6470 X192.41 Y445.572
N6475 X192.405 Y445.548
N6480 X192.399 Y445.523
N6485 X192.392 Y445.499
N6490 X192.385 Y445.474
N6495 X192.376 Y445.45
N6500 X192.367 Y445.426
N6505 X192.358 Y445.404
N6510 X192.349 Y445.385
N6515 X192.339 Y445.366
N6520 X192.329 Y445.346
N6525 X192.315 Y445.322
N6530 X192.296 Y445.292
N6535 X192.275 Y445.262
N6540 X192.252 Y445.232
N6545 X192.233 Y445.211
N6550 X192.22 Y445.196
N6555 X192.206 Y445.182
N6560 X192.191 Y445.167
N6565 X192.17 Y445.148
N6570 X192.142 Y445.124
N6575 X192.119 Y445.106
N6580 X192.1 Y445.092
N6585 X192.081 Y445.079
N6590 X192.062 Y445.067
N6595 X192.043 Y445.056
N6600 X192.024 Y445.046
N6605 X192.005 Y445.036
N6610 X191.986 Y445.027
N6615 X191.965 Y445.018
N6620 X191.944 Y445.009
N6625 X191.92 Y445.
N6630 X191.896 Y444.992
N6635 X191.872 Y444.985
N6640 X191.847 Y444.979
N6645 X191.823 Y444.973
N6650 X191.798 Y444.969
N6655 X191.774 Y444.965
N6660 X191.749 Y444.962
N6665 X191.71 Y444.959
N6670 X191.612 Y444.958
N6675 X191.607
N6680 X191.105
N6685 X191.086 Y444.95
N6690 X191.078 Y444.932
N6695 X191.085 Y444.912
N6700 X191.164 Y444.821
N6705 X191.166 Y444.819
N6710 X192.374 Y443.71
N6715 X192.382 Y443.697
N6720 X192.381 Y443.683
N6725 X192.365 Y443.639
N6730 X192.363 Y443.627
N6735 X192.368 Y443.616
N6740 X192.379 Y443.6 Z-1.501
N6745 X192.39 Y443.584 Z-1.505
N6750 G3 X193.521 Y444.452 Z-2.105 I0.565 J0.434
N6755 X192.39 Y443.584 Z-2.705 I-0.565 J-0.434
N6760 X193.36 Y443.431 Z-2.995 I0.565 J0.434
N6765 G1 X193.376 Y443.443 Z-2.999
N6770 X193.392 Y443.454 Z-3.
N6775 G3 X192.541 Y444.554 I-0.425 J0.55
N6780 G2 X192.211 Y444.357 I-0.985 J1.273
N6785 X191.623 Y444.228 I-0.61 J1.369
N6790 G1 X185.209 Y444.231
N6795 G2 X184.605 Y444.441 I0.103 J1.272
N6800 X184.151 Y444.892 I0.918 J1.379
N6805 G3 X183.717 Y444.891 I-0.217 J-0.147
N6810 G2 X183.363 Y444.513 I-1.354 J0.911
N6815 X182.9 Y444.281 I-0.815 J1.05
N6820 G1 X182.75 Y444.245
N6825 X182.673 Y444.232
N6830 X182.596 Y444.225
N6835 X174.772 Y444.23
N6840 G2 X174.218 Y444.361 I0. J1.24
N6845 X173.758 Y444.698 I0.757 J1.513
N6850 G3 X173.419 Y444.561 I-0.142 J-0.137
N6855 G1 Y444.241
N6860 G3 X173.664 Y443.997 I0.245 J0.
N6865 G1 X192.798
N6870 G3 X193.043 Y444.241 I0. J0.245
N6875 G1 Y444.563
N6880 G3 X192.706 Y444.701 I-0.197 J0.
N6885 G1 X192.626 Y444.625
N6890 X192.541 Y444.554
N6895 G2 X191.79 Y444.637 I-0.333 J0.43
N6900 G3 X191.105 Y444.958 I-0.684 J-0.569
N6905 G1 X185.323
N6910 X185.292 Y444.96
N6915 X185.268 Y444.962
N6920 X185.244 Y444.964
N6925 X185.219 Y444.968
N6930 X185.195 Y444.973
N6935 X185.17 Y444.978
N6940 X185.143 Y444.985
N6945 X185.113 Y444.994
N6950 X185.078 Y445.006
N6955 X185.038 Y445.022
N6960 X185.004 Y445.038
N6965 X184.976 Y445.053
N6970 X184.951 Y445.068
N6975 X184.927 Y445.083
N6980 X184.903 Y445.099
N6985 X184.88 Y445.117
N6990 X184.856 Y445.136
N6995 X184.832 Y445.157
N7000 X184.808 Y445.18
N7005 X184.785 Y445.205
N7010 X184.762 Y445.231
N7015 X184.741 Y445.259
N7020 X184.722 Y445.284
N7025 X184.707 Y445.308
N7030 X184.693 Y445.331
N7035 X184.68 Y445.355
N7040 X184.668 Y445.378
N7045 X184.657 Y445.402
N7050 X184.646 Y445.426
N7055 X184.637 Y445.45
N7060 X184.628 Y445.474
N7065 X184.621 Y445.499
N7070 X184.614 Y445.523
N7075 X184.608 Y445.548
N7080 X184.603 Y445.572
N7085 X184.599 Y445.597
N7090 X184.596 Y445.621
N7095 X184.594 Y445.646
N7100 X184.592 Y445.67
N7105 X184.591 Y445.695
N7110 Y445.707
N7115 Y455.971
N7120 X183.277
N7125 Y445.707
N7130 Y445.695
N7135 X183.276 Y445.67
N7140 X183.275 Y445.646
N7145 X183.272 Y445.621
N7150 X183.269 Y445.597
N7155 X183.265 Y445.572
N7160 X183.26 Y445.548
N7165 X183.254 Y445.523
N7170 X183.247 Y445.499
N7175 X183.24 Y445.474
N7180 X183.231 Y445.45
N7185 X183.222 Y445.426
N7190 X183.211 Y445.401
N7195 X183.2 Y445.377
N7200 X183.187 Y445.352
N7205 X183.174 Y445.328
N7210 X183.159 Y445.303
N7215 X183.142 Y445.279
N7220 X183.121 Y445.25
N7225 X183.095 Y445.218
N7230 X183.07 Y445.19
N7235 X183.045 Y445.166
N7240 X183.021 Y445.143
N7245 X182.996 Y445.123
N7250 X182.972 Y445.104
N7255 X182.947 Y445.087
N7260 X182.923 Y445.071
N7265 X182.898 Y445.056
N7270 X182.872 Y445.042
N7275 X182.845 Y445.029
N7280 X182.814 Y445.015
N7285 X182.779 Y445.002
N7290 X182.743 Y444.99
N7295 X182.708 Y444.98
N7300 X182.678 Y444.973
N7305 X182.654 Y444.969
N7310 X182.629 Y444.965
N7315 X182.605 Y444.962
N7320 X182.58 Y444.96
N7325 X182.556 Y444.959
N7330 X182.535 Y444.958
N7335 X174.772
N7340 X174.737 Y444.96
N7345 X174.701 Y444.963
N7350 X174.67 Y444.968
N7355 X174.646 Y444.972
N7360 X174.621 Y444.977
N7365 X174.597 Y444.983
N7370 X174.572 Y444.99
N7375 X174.547 Y444.998
N7380 X174.522 Y445.007
N7385 X174.497 Y445.017
N7390 X174.473 Y445.028
N7395 X174.449 Y445.04
N7400 X174.425 Y445.052
N7405 X174.401 Y445.066
N7410 X174.378 Y445.081
N7415 X174.357 Y445.095
N7420 X174.336 Y445.11
N7425 X174.315 Y445.127
N7430 X174.294 Y445.144
N7435 X174.273 Y445.163
N7440 X174.253 Y445.184
N7445 X174.232 Y445.206
N7450 X174.214 Y445.226
N7455 X174.2 Y445.244
N7460 X174.186 Y445.262
N7465 X174.172 Y445.282
N7470 X174.158 Y445.303
N7475 X174.146 Y445.323
N7480 X174.134 Y445.343
N7485 X174.123 Y445.363
N7490 X174.113 Y445.383
N7495 X174.104 Y445.403
N7500 X174.094 Y445.426
N7505 X174.085 Y445.45
N7510 X174.076 Y445.474
N7515 X174.069 Y445.499
N7520 X174.062 Y445.523
N7525 X174.056 Y445.548
N7530 X174.051 Y445.572
N7535 X174.047 Y445.597
N7540 X174.044 Y445.621
N7545 X174.042 Y445.646
N7550 X174.04 Y445.67
N7555 X174.039 Y445.695
N7560 Y445.707
N7565 Y457.631
N7570 X172.726
N7575 Y443.303
N7580 X193.736
N7585 Y456.961
N7590 X192.422
N7595 Y445.707
N7600 Y445.695
N7605 X192.421 Y445.67
N7610 X192.419 Y445.646
N7615 X192.417 Y445.621
N7620 X192.414 Y445.597
N7625 X192.41 Y445.572
N7630 X192.405 Y445.548
N7635 X192.399 Y445.523
N7640 X192.392 Y445.499
N7645 X192.385 Y445.474
N7650 X192.376 Y445.45
N7655 X192.367 Y445.426
N7660 X192.358 Y445.404
N7665 X192.349 Y445.385
N7670 X192.339 Y445.366
N7675 X192.329 Y445.346
N7680 X192.315 Y445.322
N7685 X192.296 Y445.292
N7690 X192.275 Y445.262
N7695 X192.252 Y445.232
N7700 X192.233 Y445.211
N7705 X192.22 Y445.196
N7710 X192.206 Y445.182
N7715 X192.191 Y445.167
N7720 X192.17 Y445.148
N7725 X192.142 Y445.124
N7730 X192.119 Y445.106
N7735 X192.1 Y445.092
N7740 X192.081 Y445.079
N7745 X192.062 Y445.067
N7750 X192.043 Y445.056
N7755 X192.024 Y445.046
N7760 X192.005 Y445.036
N7765 X191.986 Y445.027
N7770 X191.965 Y445.018
N7775 X191.944 Y445.009
N7780 X191.92 Y445.
N7785 X191.896 Y444.992
N7790 X191.872 Y444.985
N7795 X191.847 Y444.979
N7800 X191.823 Y444.973
N7805 X191.798 Y444.969
N7810 X191.774 Y444.965
N7815 X191.749 Y444.962
N7820 X191.71 Y444.959
N7825 X191.612 Y444.958
N7830 X191.607
N7835 X191.105
N7840 X191.082 Y444.956 Z-2.998
N7845 X191.06 Y444.951 Z-2.993
N7850 X191.039 Y444.943 Z-2.984
N7855 X191.022 Y444.933 Z-2.971
N7860 X191.008 Y444.922 Z-2.956
N7865 X190.997 Y444.912 Z-2.938
N7870 X190.989 Y444.902 Z-2.918
N7875 X190.983 Y444.895 Z-2.896
N7880 X190.98 Y444.891 Z-2.873
N7885 X190.979 Y444.889 Z-2.85
N7890 G0 Z5.
N7895 X192.859 Y417.209
N7900 Z1.15
N7905 G1 X192.858 Z1.128 F700.
N7910 X192.853 Y417.21 Z1.107
N7915 X192.845 Y417.211 Z1.087
N7920 X192.835 Y417.213 Z1.068
N7925 X192.822 Y417.214 Z1.05
N7930 X192.806 Y417.216 Z1.035
N7935 X192.788 Y417.217 Z1.022
N7940 X192.769 Y417.218 Z1.012
N7945 X192.748 Y417.219 Z1.005
N7950 G3 X192.355 Y417.106 Z0.894 I-0.008 J-0.712
N7955 X193.126 Y415.907 Z0.294 I0.385 J-0.599
N7960 X192.355 Y417.106 Z-0.306 I-0.385 J0.599
N7965 X193.126 Y415.907 Z-0.906 I0.385 J-0.599
N7970 X192.388 Y417.126 Z-1.495 I-0.385 J0.599
N7975 G1 X192.371 Y417.116 Z-1.499
N7980 X192.355 Y417.106 Z-1.5
N7985 G2 X191.621 Y416.884 I-0.754 J1.172
N7990 G1 X174.628 Y416.9
N7995 G2 X174. Y417.167 I0.13 J1.181
N8000 X173.59 Y417.714 I0.941 J1.132
N8005 G3 X173.287 Y417.651 I-0.145 J-0.063
N8010 G1 Y415.683
N8015 G3 X173.59 Y415.62 I0.158 J0.
N8020 G2 X174. Y416.167 I1.346 J-0.581
N8025 X174.628 Y416.434 I0.759 J-0.915
N8030 G1 X191.621 Y416.45
N8035 G2 X192.872 Y415.617 I-0.02 J-1.387
N8040 G3 X193.175 Y415.68 I0.145 J0.063
N8045 G1 Y417.654
N8050 G3 X192.872 Y417.716 I-0.158 J0.
N8055 G2 X192.37 Y417.115 I-1.258 J0.541
N8060 G1 X192.355 Y417.106
N8065 G2 X191.745 Y417.216 I-0.246 J0.382
N8070 G3 X191.192 Y417.494 I-0.554 J-0.412
N8075 G1 X174.785
N8080 X174.768
N8085 X174.743 Y417.495
N8090 X174.719 Y417.497
N8095 X174.695 Y417.5
N8100 X174.67 Y417.504
N8105 X174.646 Y417.508
N8110 X174.621 Y417.513
N8115 X174.597 Y417.519
N8120 X174.573 Y417.526
N8125 X174.549 Y417.534
N8130 X174.528 Y417.541
N8135 X174.509 Y417.548
N8140 X174.491 Y417.556
N8145 X174.472 Y417.564
N8150 X174.454 Y417.573
N8155 X174.435 Y417.583
N8160 X174.417 Y417.593
N8165 X174.398 Y417.604
N8170 X174.38 Y417.616
N8175 X174.361 Y417.628
N8180 X174.342 Y417.642
N8185 X174.324 Y417.656
N8190 X174.305 Y417.671
N8195 X174.286 Y417.687
N8200 X174.268 Y417.705
N8205 X174.249 Y417.724
N8210 X174.228 Y417.747
N8215 X174.205 Y417.774
N8220 X174.187 Y417.797
N8225 X174.174 Y417.815
N8230 X174.162 Y417.832
N8235 X174.151 Y417.85
N8240 X174.141 Y417.867
N8245 X174.131 Y417.885
N8250 X174.121 Y417.902
N8255 X174.113 Y417.92
N8260 X174.103 Y417.941
N8265 X174.093 Y417.965
N8270 X174.084 Y417.99
N8275 X174.075 Y418.014
N8280 X174.068 Y418.039
N8285 X174.061 Y418.063
N8290 X174.056 Y418.087
N8295 X174.051 Y418.112
N8300 X174.047 Y418.136
N8305 X174.044 Y418.161
N8310 X174.041 Y418.185
N8315 X174.04 Y418.21
N8320 X174.039 Y418.233
N8325 Y422.704
N8330 X172.726
N8335 Y410.63
N8340 X174.039
N8345 Y415.104
N8350 X174.04 Y415.131
N8355 X174.042 Y415.155
N8360 X174.044 Y415.18
N8365 X174.048 Y415.204
N8370 X174.052 Y415.228
N8375 X174.057 Y415.253
N8380 X174.063 Y415.277
N8385 X174.07 Y415.302
N8390 X174.077 Y415.326
N8395 X174.086 Y415.351
N8400 X174.095 Y415.375
N8405 X174.106 Y415.4
N8410 X174.12 Y415.429
N8415 X174.138 Y415.462
N8420 X174.153 Y415.487
N8425 X174.164 Y415.504
N8430 X174.175 Y415.521
N8435 X174.187 Y415.537
N8440 X174.199 Y415.553
N8445 X174.212 Y415.569
N8450 X174.225 Y415.584
N8455 X174.239 Y415.6
N8460 X174.255 Y415.616
N8465 X174.273 Y415.634
N8470 X174.29 Y415.65
N8475 X174.308 Y415.666
N8480 X174.326 Y415.68
N8485 X174.344 Y415.694
N8490 X174.362 Y415.707
N8495 X174.38 Y415.719
N8500 X174.399 Y415.731
N8505 X174.42 Y415.743
N8510 X174.441 Y415.754
N8515 X174.462 Y415.765
N8520 X174.483 Y415.775
N8525 X174.504 Y415.783
N8530 X174.532 Y415.794
N8535 X174.567 Y415.806
N8540 X174.597 Y415.815
N8545 X174.621 Y415.821
N8550 X174.646 Y415.826
N8555 X174.67 Y415.83
N8560 X174.695 Y415.834
N8565 X174.719 Y415.837
N8570 X174.743 Y415.839
N8575 X174.768 Y415.84
N8580 X174.785
N8585 X191.607
N8590 X191.612
N8595 X191.71 Y415.839
N8600 X191.748 Y415.836
N8605 X191.769 Y415.834
N8610 X191.79 Y415.831
N8615 X191.811 Y415.827
N8620 X191.832 Y415.823
N8625 X191.853 Y415.818
N8630 X191.881 Y415.81
N8635 X191.915 Y415.799
N8640 X191.945 Y415.788
N8645 X191.969 Y415.778
N8650 X191.994 Y415.767
N8655 X192.018 Y415.755
N8660 X192.043 Y415.742
N8665 X192.067 Y415.727
N8670 X192.092 Y415.711
N8675 X192.116 Y415.694
N8680 X192.139 Y415.676
N8685 X192.161 Y415.658
N8690 X192.183 Y415.639
N8695 X192.204 Y415.618
N8700 X192.223 Y415.598
N8705 X192.24 Y415.58
N8710 X192.255 Y415.562
N8715 X192.269 Y415.543
N8720 X192.283 Y415.525
N8725 X192.296 Y415.507
N8730 X192.307 Y415.488
N8735 X192.319 Y415.47
N8740 X192.331 Y415.449
N8745 X192.343 Y415.424
N8750 X192.355 Y415.4
N8755 X192.366 Y415.375
N8760 X192.375 Y415.351
N8765 X192.384 Y415.326
N8770 X192.393 Y415.296
N8775 X192.402 Y415.259
N8780 X192.41 Y415.223
N8785 X192.416 Y415.186
N8790 X192.419 Y415.156
N8795 X192.421 Y415.131
N8800 X192.422 Y415.104
N8805 Y410.63
N8810 X193.736
N8815 Y422.704
N8820 X192.422
N8825 Y418.233
N8830 X192.421 Y418.21
N8835 X192.42 Y418.185
N8840 X192.417 Y418.161
N8845 X192.414 Y418.136
N8850 X192.41 Y418.112
N8855 X192.405 Y418.087
N8860 X192.4 Y418.063
N8865 X192.393 Y418.038
N8870 X192.386 Y418.014
N8875 X192.377 Y417.99
N8880 X192.368 Y417.965
N8885 X192.358 Y417.941
N8890 X192.346 Y417.914
N8895 X192.331 Y417.887
N8900 X192.319 Y417.864
N8905 X192.308 Y417.847
N8910 X192.297 Y417.829
N8915 X192.285 Y417.812
N8920 X192.272 Y417.794
N8925 X192.259 Y417.777
N8930 X192.244 Y417.759
N8935 X192.229 Y417.742
N8940 X192.21 Y417.721
N8945 X192.186 Y417.698
N8950 X192.163 Y417.677
N8955 X192.14 Y417.658
N8960 X192.116 Y417.64
N8965 X192.092 Y417.623
N8970 X192.067 Y417.607
N8975 X192.043 Y417.592
N8980 X192.018 Y417.579
N8985 X191.994 Y417.567
N8990 X191.967 Y417.555
N8995 X191.938 Y417.543
N9000 X191.912 Y417.534
N9005 X191.889 Y417.526
N9010 X191.865 Y417.519
N9015 X191.842 Y417.514
N9020 X191.819 Y417.509
N9025 X191.795 Y417.504
N9030 X191.772 Y417.501
N9035 X191.749 Y417.498
N9040 X191.71 Y417.495
N9045 X191.612 Y417.494
N9050 X191.607
N9055 X191.192
N9060 X191.162 Y417.488
N9065 X191.137 Y417.47
N9070 X191.121 Y417.443
N9075 X191.117 Y417.412
N9080 X191.126 Y417.383
N9085 X191.146 Y417.359
N9090 X191.968 Y416.729
N9095 X191.991 Y416.717
N9100 X192.017 Y416.714
N9105 X192.264 Y416.728
N9110 X192.268
N9115 X192.322 Y416.716
N9120 X192.332 Y416.719
N9125 X192.336 Y416.727
N9130 X192.338 Y416.747 Z-1.501
N9135 Y416.766 Z-1.505
N9140 G3 X190.913 Y416.792 Z-2.105 I-0.712 J0.013
N9145 X192.338 Y416.766 Z-2.705 I0.712 J-0.013
N9150 X191.675 Y417.49 Z-2.995 I-0.712 J0.013
N9155 G1 X191.656 Y417.491 Z-2.999
N9160 X191.636 Y417.492 Z-3.
N9165 G3 X191.621 Y416.45 I-0.008 J-0.521
N9170 G2 X192.872 Y415.617 I-0.02 J-1.387
N9175 G3 X193.175 Y415.68 I0.145 J0.063
N9180 G1 Y417.654
N9185 G3 X192.872 Y417.716 I-0.158 J0.
N9190 G2 X192.37 Y417.115 I-1.258 J0.541
N9195 X191.621 Y416.884 I-0.769 J1.163
N9200 G1 X174.628 Y416.9
N9205 G2 X174. Y417.167 I0.13 J1.181
N9210 X173.59 Y417.714 I0.941 J1.132
N9215 G3 X173.287 Y417.651 I-0.145 J-0.063
N9220 G1 Y415.683
N9225 G3 X173.59 Y415.62 I0.158 J0.
N9230 G2 X174. Y416.167 I1.346 J-0.581
N9235 X174.628 Y416.434 I0.759 J-0.915
N9240 G1 X191.621 Y416.45
N9245 G2 X192.147 Y416.032 I0.001 J-0.54
N9250 G3 X192.357 Y415.394 I3.647 J0.847
N9255 G1 X192.366 Y415.375
N9260 X192.375 Y415.351
N9265 X192.384 Y415.326
N9270 X192.393 Y415.296
N9275 X192.402 Y415.259
N9280 X192.41 Y415.223
N9285 X192.416 Y415.186
N9290 X192.419 Y415.156
N9295 X192.421 Y415.131
N9300 X192.422 Y415.104
N9305 Y410.63
N9310 X193.736
N9315 Y422.704
N9320 X192.422
N9325 Y418.233
N9330 X192.421 Y418.21
N9335 X192.42 Y418.185
N9340 X192.417 Y418.161
N9345 X192.414 Y418.136
N9350 X192.41 Y418.112
N9355 X192.405 Y418.087
N9360 X192.4 Y418.063
N9365 X192.393 Y418.038
N9370 X192.386 Y418.014
N9375 X192.377 Y417.99
N9380 X192.368 Y417.965
N9385 X192.358 Y417.941
N9390 X192.346 Y417.914
N9395 X192.331 Y417.887
N9400 X192.319 Y417.864
N9405 X192.308 Y417.847
N9410 X192.297 Y417.829
N9415 X192.285 Y417.812
N9420 X192.272 Y417.794
N9425 X192.259 Y417.777
N9430 X192.244 Y417.759
N9435 X192.229 Y417.742
N9440 X192.21 Y417.721
N9445 X192.186 Y417.698
N9450 X192.163 Y417.677
N9455 X192.14 Y417.658
N9460 X192.116 Y417.64
N9465 X192.092 Y417.623
N9470 X192.067 Y417.607
N9475 X192.043 Y417.592
N9480 X192.018 Y417.579
N9485 X191.994 Y417.567
N9490 X191.967 Y417.555
N9495 X191.938 Y417.543
N9500 X191.912 Y417.534
N9505 X191.889 Y417.526
N9510 X191.865 Y417.519
N9515 X191.842 Y417.514
N9520 X191.819 Y417.509
N9525 X191.795 Y417.504
N9530 X191.772 Y417.501
N9535 X191.749 Y417.498
N9540 X191.71 Y417.495
N9545 X191.612 Y417.494
N9550 X191.607
N9555 X174.785
N9560 X174.768
N9565 X174.743 Y417.495
N9570 X174.719 Y417.497
N9575 X174.695 Y417.5
N9580 X174.67 Y417.504
N9585 X174.646 Y417.508
N9590 X174.621 Y417.513
N9595 X174.597 Y417.519
N9600 X174.573 Y417.526
N9605 X174.549 Y417.534
N9610 X174.528 Y417.541
N9615 X174.509 Y417.548
N9620 X174.491 Y417.556
N9625 X174.472 Y417.564
N9630 X174.454 Y417.573
N9635 X174.435 Y417.583
N9640 X174.417 Y417.593
N9645 X174.398 Y417.604
N9650 X174.38 Y417.616
N9655 X174.361 Y417.628
N9660 X174.342 Y417.642
N9665 X174.324 Y417.656
N9670 X174.305 Y417.671
N9675 X174.286 Y417.687
N9680 X174.268 Y417.705
N9685 X174.249 Y417.724
N9690 X174.228 Y417.747
N9695 X174.205 Y417.774
N9700 X174.187 Y417.797
N9705 X174.174 Y417.815
N9710 X174.162 Y417.832
N9715 X174.151 Y417.85
N9720 X174.141 Y417.867
N9725 X174.131 Y417.885
N9730 X174.121 Y417.902
N9735 X174.113 Y417.92
N9740 X174.103 Y417.941
N9745 X174.093 Y417.965
N9750 X174.084 Y417.99
N9755 X174.075 Y418.014
N9760 X174.068 Y418.039
N9765 X174.061 Y418.063
N9770 X174.056 Y418.087
N9775 X174.051 Y418.112
N9780 X174.047 Y418.136
N9785 X174.044 Y418.161
N9790 X174.041 Y418.185
N9795 X174.04 Y418.21
N9800 X174.039 Y418.233
N9805 Y422.704
N9810 X172.726
N9815 Y410.63
N9820 X174.039
N9825 Y415.104
N9830 X174.04 Y415.131
N9835 X174.042 Y415.155
N9840 X174.044 Y415.18
N9845 X174.048 Y415.204
N9850 X174.052 Y415.228
N9855 X174.057 Y415.253
N9860 X174.063 Y415.277
N9865 X174.07 Y415.302
N9870 X174.077 Y415.326
N9875 X174.086 Y415.351
N9880 X174.095 Y415.375
N9885 X174.106 Y415.4
N9890 X174.12 Y415.429
N9895 X174.138 Y415.462
N9900 X174.153 Y415.487
N9905 X174.164 Y415.504
N9910 X174.175 Y415.521
N9915 X174.187 Y415.537
N9920 X174.199 Y415.553
N9925 X174.212 Y415.569
N9930 X174.225 Y415.584
N9935 X174.239 Y415.6
N9940 X174.255 Y415.616
N9945 X174.273 Y415.634
N9950 X174.29 Y415.65
N9955 X174.308 Y415.666
N9960 X174.326 Y415.68
N9965 X174.344 Y415.694
N9970 X174.362 Y415.707
N9975 X174.38 Y415.719
N9980 X174.399 Y415.731
N9985 X174.42 Y415.743
N9990 X174.441 Y415.754
N9995 X174.462 Y415.765
N10000 X174.483 Y415.775
N10005 X174.504 Y415.783
N10010 X174.532 Y415.794
N10015 X174.567 Y415.806
N10020 X174.597 Y415.815
N10025 X174.621 Y415.821
N10030 X174.646 Y415.826
N10035 X174.67 Y415.83
N10040 X174.695 Y415.834
N10045 X174.719 Y415.837
N10050 X174.743 Y415.839
N10055 X174.768 Y415.84
N10060 X174.785
N10065 X191.607
N10070 X191.612
N10075 X191.71 Y415.839
N10080 X191.748 Y415.836
N10085 X191.769 Y415.834
N10090 X191.79 Y415.831
N10095 X191.811 Y415.827
N10100 X191.832 Y415.823
N10105 X191.853 Y415.818
N10110 X191.881 Y415.81
N10115 X191.915 Y415.799
N10120 X191.945 Y415.788
N10125 X191.969 Y415.778
N10130 X191.994 Y415.767
N10135 X192.018 Y415.755
N10140 X192.043 Y415.742
N10145 X192.067 Y415.727
N10150 X192.092 Y415.711
N10155 X192.116 Y415.694
N10160 X192.139 Y415.676
N10165 X192.161 Y415.658
N10170 X192.183 Y415.639
N10175 X192.204 Y415.618
N10180 X192.223 Y415.598
N10185 X192.24 Y415.58
N10190 X192.255 Y415.562
N10195 X192.269 Y415.543
N10200 X192.283 Y415.525
N10205 X192.296 Y415.507
N10210 X192.307 Y415.488
N10215 X192.319 Y415.47
N10220 X192.331 Y415.449
N10225 X192.343 Y415.424
N10230 X192.355 Y415.4
N10235 X192.357 Y415.394
N10240 X192.368 Y415.373 Z-2.998
N10245 X192.382 Y415.355 Z-2.993
N10250 X192.397 Y415.34 Z-2.984
N10255 X192.413 Y415.328 Z-2.971
N10260 X192.429 Y415.319 Z-2.956
N10265 X192.443 Y415.313 Z-2.938
N10270 X192.455 Y415.309 Z-2.918
N10275 X192.464 Y415.307 Z-2.896
N10280 X192.469 Y415.306 Z-2.873
N10285 X192.471 Z-2.85
N10290 G0 Z5.
N10295 X159.582 Y409.973
N10300 Z1.15
N10305 G1 X159.583 Z1.128 F700.
N10310 X159.588 Y409.972 Z1.107
N10315 X159.596 Z1.087
N10320 X159.606 Y409.971 Z1.068
N10325 X159.62 Z1.05
N10330 X159.635 Z1.035
N10335 X159.653 Z1.022
N10340 X159.672 Y409.972 Z1.012
N10345 X159.693 Y409.974 Z1.005
N10350 G3 X159.566 Y411.393 Z0.405 I-0.063 J0.71
N10355 X159.693 Y409.974 Z-0.194 I0.063 J-0.71
N10360 X159.566 Y411.393 Z-0.794 I-0.063 J0.71
N10365 X159.693 Y409.974 Z-1.394 I0.063 J-0.71
N10370 X160.042 Y410.103 Z-1.495 I-0.063 J0.71
N10375 G1 X160.058 Y410.114 Z-1.499
N10380 X160.073 Y410.126 Z-1.5
N10385 G3 X159.206 Y411.216 I-0.434 J0.545
N10390 G2 X158.957 Y411.051 I-1.086 J1.365
N10395 X158.458 Y410.904 I-0.588 J1.074
N10400 G1 X151.927 Y410.893
N10405 G2 X151.295 Y411.097 I0.085 J1.344
N10410 X150.817 Y411.559 I0.856 J1.361
N10415 G3 X150.386 Y411.562 I-0.217 J-0.146
N10420 G2 X149.914 Y411.104 I-1.402 J0.973
N10425 X149.29 Y410.894 I-0.72 J1.109
N10430 G1 X141.426 Y410.897
N10435 G2 X140.878 Y411.03 I0.008 J1.231
N10440 X140.424 Y411.366 I0.765 J1.51
N10445 G3 X140.085 Y411.229 I-0.142 J-0.137
N10450 G1 Y410.908
N10455 G3 X140.33 Y410.663 I0.245 J0.
N10460 G1 X159.465
N10465 G3 X159.709 Y410.908 I0. J0.245
N10470 G1 Y411.229
N10475 G3 X159.371 Y411.366 I-0.197 J0.
N10480 G1 X159.291 Y411.289
N10485 X159.206 Y411.216
N10490 G2 X158.445 Y411.298 I-0.339 J0.426
N10495 G3 X157.754 Y411.625 I-0.691 J-0.566
N10500 G1 X151.996
N10505 X151.973 Y411.626
N10510 X151.948 Y411.627
N10515 X151.924 Y411.629
N10520 X151.899 Y411.633
N10525 X151.875 Y411.637
N10530 X151.85 Y411.641
N10535 X151.826 Y411.647
N10540 X151.802 Y411.654
N10545 X151.777 Y411.661
N10550 X151.752 Y411.67
N10555 X151.731 Y411.678
N10560 X151.713 Y411.685
N10565 X151.694 Y411.693
N10570 X151.676 Y411.702
N10575 X151.658 Y411.711
N10580 X151.639 Y411.721
N10585 X151.621 Y411.732
N10590 X151.603 Y411.743
N10595 X151.585 Y411.755
N10600 X151.567 Y411.768
N10605 X151.55 Y411.781
N10610 X151.532 Y411.795
N10615 X151.515 Y411.81
N10620 X151.497 Y411.825
N10625 X151.48 Y411.842
N10630 X151.462 Y411.86
N10635 X151.446 Y411.878
N10640 X151.431 Y411.895
N10645 X151.418 Y411.912
N10650 X151.405 Y411.929
N10655 X151.388 Y411.953
N10660 X151.367 Y411.985
N10665 X151.349 Y412.017
N10670 X151.332 Y412.049
N10675 X151.319 Y412.077
N10680 X151.309 Y412.102
N10685 X151.3 Y412.126
N10690 X151.292 Y412.151
N10695 X151.285 Y412.175
N10700 X151.279 Y412.199
N10705 X151.273 Y412.224
N10710 X151.269 Y412.248
N10715 X151.265 Y412.273
N10720 X151.262 Y412.297
N10725 X151.26 Y412.322
N10730 X151.258 Y412.346
N10735 Y412.367
N10740 Y422.638
N10745 X149.944
N10750 Y412.367
N10755 X149.943 Y412.346
N10760 X149.942 Y412.321
N10765 X149.939 Y412.29
N10770 X149.933 Y412.251
N10775 X149.929 Y412.225
N10780 X149.926 Y412.211
N10785 X149.921 Y412.19
N10790 X149.913 Y412.161
N10795 X149.905 Y412.137
N10800 X149.898 Y412.116
N10805 X149.89 Y412.096
N10810 X149.882 Y412.075
N10815 X149.871 Y412.053
N10820 X149.859 Y412.028
N10825 X149.846 Y412.004
N10830 X149.831 Y411.979
N10835 X149.815 Y411.955
N10840 X149.798 Y411.93
N10845 X149.779 Y411.906
N10850 X149.759 Y411.882
N10855 X149.74 Y411.86
N10860 X149.722 Y411.842
N10865 X149.701 Y411.822
N10870 X149.677 Y411.801
N10875 X149.652 Y411.781
N10880 X149.628 Y411.763
N10885 X149.603 Y411.746
N10890 X149.579 Y411.731
N10895 X149.554 Y411.717
N10900 X149.53 Y411.704
N10905 X149.504 Y411.692
N10910 X149.476 Y411.68
N10915 X149.444 Y411.668
N10920 X149.409 Y411.656
N10925 X149.374 Y411.647
N10930 X149.339 Y411.639
N10935 X149.31 Y411.634
N10940 X149.285 Y411.63
N10945 X149.261 Y411.628
N10950 X149.236 Y411.626
N10955 X149.209 Y411.625
N10960 X141.531
N10965 X141.529
N10970 X141.431
N10975 X141.399 Y411.627
N10980 X141.375 Y411.629
N10985 X141.35 Y411.632
N10990 X141.326 Y411.636
N10995 X141.301 Y411.641
N11000 X141.277 Y411.647
N11005 X141.245 Y411.655
N11010 X141.207 Y411.667
N11015 X141.178 Y411.678
N11020 X141.157 Y411.687
N11025 X141.136 Y411.697
N11030 X141.115 Y411.707
N11035 X141.094 Y411.718
N11040 X141.073 Y411.73
N11045 X141.051 Y411.743
N11050 X141.03 Y411.757
N11055 X141.005 Y411.776
N11060 X140.975 Y411.799
N11065 X140.953 Y411.818
N11070 X140.939 Y411.832
N11075 X140.918 Y411.852
N11080 X140.892 Y411.88
N11085 X140.875 Y411.901
N11090 X140.865 Y411.914
N11095 X140.851 Y411.932
N11100 X140.833 Y411.957
N11105 X140.817 Y411.982
N11110 X140.803 Y412.006
N11115 X140.79 Y412.029
N11120 X140.779 Y412.053
N11125 X140.768 Y412.077
N11130 X140.758 Y412.102
N11135 X140.748 Y412.126
N11140 X140.74 Y412.151
N11145 X140.733 Y412.175
N11150 X140.727 Y412.199
N11155 X140.721 Y412.224
N11160 X140.717 Y412.248
N11165 X140.713 Y412.273
N11170 X140.71 Y412.297
N11175 X140.708 Y412.322
N11180 X140.707 Y412.346
N11185 X140.706 Y412.367
N11190 Y424.298
N11195 X139.392
N11200 Y409.97
N11205 X160.403
N11210 Y423.627
N11215 X159.089
N11220 Y412.367
N11225 X159.088 Y412.346
N11230 X159.087 Y412.321
N11235 X159.085 Y412.297
N11240 X159.082 Y412.272
N11245 X159.078 Y412.248
N11250 X159.073 Y412.224
N11255 X159.068 Y412.199
N11260 X159.062 Y412.175
N11265 X159.054 Y412.15
N11270 X159.046 Y412.126
N11275 X159.037 Y412.101
N11280 X159.027 Y412.077
N11285 X159.015 Y412.05
N11290 X159. Y412.021
N11295 X158.983 Y411.991
N11300 X158.965 Y411.962
N11305 X158.948 Y411.937
N11310 X158.934 Y411.918
N11315 X158.918 Y411.899
N11320 X158.902 Y411.879
N11325 X158.885 Y411.861
N11330 X158.868 Y411.844
N11335 X158.852 Y411.827
N11340 X158.835 Y411.812
N11345 X158.818 Y411.798
N11350 X158.801 Y411.785
N11355 X158.785 Y411.772
N11360 X158.768 Y411.76
N11365 X158.75 Y411.748
N11370 X158.731 Y411.736
N11375 X158.712 Y411.724
N11380 X158.693 Y411.714
N11385 X158.673 Y411.704
N11390 X158.654 Y411.694
N11395 X158.635 Y411.686
N11400 X158.616 Y411.678
N11405 X158.596 Y411.67
N11410 X158.575 Y411.663
N11415 X158.552 Y411.656
N11420 X158.527 Y411.649
N11425 X158.503 Y411.643
N11430 X158.479 Y411.638
N11435 X158.454 Y411.634
N11440 X158.43 Y411.63
N11445 X158.405 Y411.628
N11450 X158.381 Y411.626
N11455 X158.354 Y411.625
N11460 X157.754
N11465 X157.735 Y411.617
N11470 X157.726 Y411.598
N11475 X157.733 Y411.579
N11480 X157.813 Y411.489
N11485 X157.815 Y411.487
N11490 X159.053 Y410.368
N11495 X159.06 Y410.355
N11500 X159.059 Y410.34
N11505 X159.044 Y410.296
N11510 X159.043 Y410.284
N11515 X159.047 Y410.273
N11520 X159.058 Y410.257 Z-1.501
N11525 X159.07 Y410.242 Z-1.505
N11530 G3 X160.189 Y411.125 Z-2.105 I0.559 J0.441
N11535 X159.07 Y410.242 Z-2.705 I-0.559 J-0.441
N11540 X160.042 Y410.103 Z-2.995 I0.559 J0.441
N11545 G1 X160.058 Y410.114 Z-2.999
N11550 X160.073 Y410.126 Z-3.
N11555 G3 X159.206 Y411.216 I-0.434 J0.545
N11560 G2 X158.957 Y411.051 I-1.086 J1.365
N11565 X158.458 Y410.904 I-0.588 J1.074
N11570 G1 X151.927 Y410.893
N11575 G2 X151.295 Y411.097 I0.085 J1.344
N11580 X150.817 Y411.559 I0.856 J1.361
N11585 G3 X150.386 Y411.562 I-0.217 J-0.146
N11590 G2 X149.914 Y411.104 I-1.402 J0.973
N11595 X149.29 Y410.894 I-0.72 J1.109
N11600 G1 X141.426 Y410.897
N11605 G2 X140.878 Y411.03 I0.008 J1.231
N11610 X140.424 Y411.366 I0.765 J1.51
N11615 G3 X140.085 Y411.229 I-0.142 J-0.137
N11620 G1 Y410.908
N11625 G3 X140.33 Y410.663 I0.245 J0.
N11630 G1 X159.465
N11635 G3 X159.709 Y410.908 I0. J0.245
N11640 G1 Y411.229
N11645 G3 X159.371 Y411.366 I-0.197 J0.
N11650 G1 X159.291 Y411.289
N11655 X159.206 Y411.216
N11660 G2 X158.445 Y411.298 I-0.339 J0.426
N11665 G3 X157.754 Y411.625 I-0.691 J-0.566
N11670 G1 X151.996
N11675 X151.973 Y411.626
N11680 X151.948 Y411.627
N11685 X151.924 Y411.629
N11690 X151.899 Y411.633
N11695 X151.875 Y411.637
N11700 X151.85 Y411.641
N11705 X151.826 Y411.647
N11710 X151.802 Y411.654
N11715 X151.777 Y411.661
N11720 X151.752 Y411.67
N11725 X151.731 Y411.678
N11730 X151.713 Y411.685
N11735 X151.694 Y411.693
N11740 X151.676 Y411.702
N11745 X151.658 Y411.711
N11750 X151.639 Y411.721
N11755 X151.621 Y411.732
N11760 X151.603 Y411.743
N11765 X151.585 Y411.755
N11770 X151.567 Y411.768
N11775 X151.55 Y411.781
N11780 X151.532 Y411.795
N11785 X151.515 Y411.81
N11790 X151.497 Y411.825
N11795 X151.48 Y411.842
N11800 X151.462 Y411.86
N11805 X151.446 Y411.878
N11810 X151.431 Y411.895
N11815 X151.418 Y411.912
N11820 X151.405 Y411.929
N11825 X151.388 Y411.953
N11830 X151.367 Y411.985
N11835 X151.349 Y412.017
N11840 X151.332 Y412.049
N11845 X151.319 Y412.077
N11850 X151.309 Y412.102
N11855 X151.3 Y412.126
N11860 X151.292 Y412.151
N11865 X151.285 Y412.175
N11870 X151.279 Y412.199
N11875 X151.273 Y412.224
N11880 X151.269 Y412.248
N11885 X151.265 Y412.273
N11890 X151.262 Y412.297
N11895 X151.26 Y412.322
N11900 X151.258 Y412.346
N11905 Y412.367
N11910 Y422.638
N11915 X149.944
N11920 Y412.367
N11925 X149.943 Y412.346
N11930 X149.942 Y412.321
N11935 X149.939 Y412.29
N11940 X149.933 Y412.251
N11945 X149.929 Y412.225
N11950 X149.926 Y412.211
N11955 X149.921 Y412.19
N11960 X149.913 Y412.161
N11965 X149.905 Y412.137
N11970 X149.898 Y412.116
N11975 X149.89 Y412.096
N11980 X149.882 Y412.075
N11985 X149.871 Y412.053
N11990 X149.859 Y412.028
N11995 X149.846 Y412.004
N12000 X149.831 Y411.979
N12005 X149.815 Y411.955
N12010 X149.798 Y411.93
N12015 X149.779 Y411.906
N12020 X149.759 Y411.882
N12025 X149.74 Y411.86
N12030 X149.722 Y411.842
N12035 X149.701 Y411.822
N12040 X149.677 Y411.801
N12045 X149.652 Y411.781
N12050 X149.628 Y411.763
N12055 X149.603 Y411.746
N12060 X149.579 Y411.731
N12065 X149.554 Y411.717
N12070 X149.53 Y411.704
N12075 X149.504 Y411.692
N12080 X149.476 Y411.68
N12085 X149.444 Y411.668
N12090 X149.409 Y411.656
N12095 X149.374 Y411.647
N12100 X149.339 Y411.639
N12105 X149.31 Y411.634
N12110 X149.285 Y411.63
N12115 X149.261 Y411.628
N12120 X149.236 Y411.626
N12125 X149.209 Y411.625
N12130 X141.531
N12135 X141.529
N12140 X141.431
N12145 X141.399 Y411.627
N12150 X141.375 Y411.629
N12155 X141.35 Y411.632
N12160 X141.326 Y411.636
N12165 X141.301 Y411.641
N12170 X141.277 Y411.647
N12175 X141.245 Y411.655
N12180 X141.207 Y411.667
N12185 X141.178 Y411.678
N12190 X141.157 Y411.687
N12195 X141.136 Y411.697
N12200 X141.115 Y411.707
N12205 X141.094 Y411.718
N12210 X141.073 Y411.73
N12215 X141.051 Y411.743
N12220 X141.03 Y411.757
N12225 X141.005 Y411.776
N12230 X140.975 Y411.799
N12235 X140.953 Y411.818
N12240 X140.939 Y411.832
N12245 X140.918 Y411.852
N12250 X140.892 Y411.88
N12255 X140.875 Y411.901
N12260 X140.865 Y411.914
N12265 X140.851 Y411.932
N12270 X140.833 Y411.957
N12275 X140.817 Y411.982
N12280 X140.803 Y412.006
N12285 X140.79 Y412.029
N12290 X140.779 Y412.053
N12295 X140.768 Y412.077
N12300 X140.758 Y412.102
N12305 X140.748 Y412.126
N12310 X140.74 Y412.151
N12315 X140.733 Y412.175
N12320 X140.727 Y412.199
N12325 X140.721 Y412.224
N12330 X140.717 Y412.248
N12335 X140.713 Y412.273
N12340 X140.71 Y412.297
N12345 X140.708 Y412.322
N12350 X140.707 Y412.346
N12355 X140.706 Y412.367
N12360 Y424.298
N12365 X139.392
N12370 Y409.97
N12375 X160.403
N12380 Y423.627
N12385 X159.089
N12390 Y412.367
N12395 X159.088 Y412.346
N12400 X159.087 Y412.321
N12405 X159.085 Y412.297
N12410 X159.082 Y412.272
N12415 X159.078 Y412.248
N12420 X159.073 Y412.224
N12425 X159.068 Y412.199
N12430 X159.062 Y412.175
N12435 X159.054 Y412.15
N12440 X159.046 Y412.126
N12445 X159.037 Y412.101
N12450 X159.027 Y412.077
N12455 X159.015 Y412.05
N12460 X159. Y412.021
N12465 X158.983 Y411.991
N12470 X158.965 Y411.962
N12475 X158.948 Y411.937
N12480 X158.934 Y411.918
N12485 X158.918 Y411.899
N12490 X158.902 Y411.879
N12495 X158.885 Y411.861
N12500 X158.868 Y411.844
N12505 X158.852 Y411.827
N12510 X158.835 Y411.812
N12515 X158.818 Y411.798
N12520 X158.801 Y411.785
N12525 X158.785 Y411.772
N12530 X158.768 Y411.76
N12535 X158.75 Y411.748
N12540 X158.731 Y411.736
N12545 X158.712 Y411.724
N12550 X158.693 Y411.714
N12555 X158.673 Y411.704
N12560 X158.654 Y411.694
N12565 X158.635 Y411.686
N12570 X158.616 Y411.678
N12575 X158.596 Y411.67
N12580 X158.575 Y411.663
N12585 X158.552 Y411.656
N12590 X158.527 Y411.649
N12595 X158.503 Y411.643
N12600 X158.479 Y411.638
N12605 X158.454 Y411.634
N12610 X158.43 Y411.63
N12615 X158.405 Y411.628
N12620 X158.381 Y411.626
N12625 X158.354 Y411.625
N12630 X157.754
N12635 X157.731 Y411.623 Z-2.998
N12640 X157.708 Y411.618 Z-2.993
N12645 X157.688 Y411.61 Z-2.984
N12650 X157.671 Y411.6 Z-2.971
N12655 X157.657 Y411.589 Z-2.956
N12660 X157.645 Y411.578 Z-2.938
N12665 X157.637 Y411.569 Z-2.918
N12670 X157.632 Y411.562 Z-2.896
N12675 X157.629 Y411.558 Z-2.873
N12680 X157.628 Y411.556 Z-2.85
N12685 G0 Z5.
N12690 X106.128 Y411.812
N12695 Z1.15
N12700 G1 Y411.81 Z1.128 F700.
N12705 X106.129 Y411.806 Z1.107
N12710 X106.131 Y411.798 Z1.087
N12715 X106.133 Y411.787 Z1.068
N12720 X106.135 Y411.774 Z1.05
N12725 X106.139 Y411.759 Z1.035
N12730 X106.143 Y411.742 Z1.022
N12735 X106.148 Y411.723 Z1.012
N12740 X106.154 Y411.704 Z1.005
N12745 G3 X106.388 Y411.368 Z0.894 I0.677 J0.222
N12750 X107.275 Y412.483 Z0.294 I0.443 J0.558
N12755 X106.388 Y411.368 Z-0.306 I-0.443 J-0.558
N12760 X107.275 Y412.483 Z-0.906 I0.443 J0.558
N12765 X106.359 Y411.393 Z-1.495 I-0.443 J-0.558
N12770 G1 X106.373 Y411.38 Z-1.499
N12775 X106.388 Y411.368 Z-1.5
N12780 G3 X107.368 Y411.48 I0.433 J0.546
N12785 X107.255 Y412.459 I-0.546 J0.433
N12790 G1 X107.17 Y412.532
N12795 X107.088 Y412.609
N12800 G3 X106.745 Y412.469 I-0.143 J-0.14
N12805 G1 Y412.148
N12810 G3 X106.995 Y411.899 I0.25 J0.
N12815 G1 X126.112
N12820 G3 Y412.169 I0. J0.135
N12825 G1 X107.93 Y412.152
N12830 G2 X107.472 Y412.311 I0.175 J1.245
N12835 X107.255 Y412.459 I0.926 J1.586
N12840 X107.146 Y413.208 I0.344 J0.433
N12845 G3 X107.373 Y413.929 I-1.034 J0.722
N12850 G1 Y423.935
N12855 X106.059
N12860 Y411.212
N12865 X127.069
N12870 Y412.856
N12875 X108.107
N12880 X108.079 Y412.857
N12885 X108.055 Y412.859
N12890 X108.03 Y412.861
N12895 X108.006 Y412.865
N12900 X107.981 Y412.869
N12905 X107.957 Y412.874
N12910 X107.933 Y412.88
N12915 X107.908 Y412.887
N12920 X107.884 Y412.895
N12925 X107.859 Y412.904
N12930 X107.838 Y412.912
N12935 X107.82 Y412.92
N12940 X107.801 Y412.928
N12945 X107.783 Y412.937
N12950 X107.765 Y412.947
N12955 X107.747 Y412.957
N12960 X107.729 Y412.968
N12965 X107.711 Y412.979
N12970 X107.689 Y412.994
N12975 X107.664 Y413.013
N12980 X107.641 Y413.031
N12985 X107.62 Y413.049
N12990 X107.599 Y413.069
N12995 X107.578 Y413.091
N13000 X107.559 Y413.111
N13005 X107.542 Y413.131
N13010 X107.526 Y413.151
N13015 X107.512 Y413.171
N13020 X107.498 Y413.191
N13025 X107.485 Y413.211
N13030 X107.473 Y413.232
N13035 X107.461 Y413.252
N13040 X107.449 Y413.277
N13045 X107.436 Y413.305
N13050 X107.424 Y413.333
N13055 X107.414 Y413.362
N13060 X107.405 Y413.388
N13065 X107.398 Y413.413
N13070 X107.392 Y413.437
N13075 X107.387 Y413.462
N13080 X107.382 Y413.486
N13085 X107.379 Y413.511
N13090 X107.376 Y413.535
N13095 X107.374 Y413.56
N13100 X107.373 Y413.589
N13105 Y413.929
N13110 X107.366 Y413.961
N13115 X107.346 Y413.987
N13120 X107.318 Y414.002
N13125 X107.286 Y414.003
N13130 X107.256 Y413.991
N13135 X107.234 Y413.968
N13140 X106.309 Y412.412
N13145 X106.301 Y412.401
N13150 X106.288 Y412.386 Z-1.501
N13155 X106.275 Y412.371 Z-1.505
N13160 G3 X107.388 Y411.48 Z-2.105 I0.556 J-0.445
N13165 X106.275 Y412.371 Z-2.705 I-0.556 J0.445
N13170 X106.359 Y411.393 Z-2.995 I0.556 J-0.445
N13175 G1 X106.373 Y411.38 Z-2.999
N13180 X106.388 Y411.368 Z-3.
N13185 G3 X107.368 Y411.48 I0.433 J0.546
N13190 X107.255 Y412.459 I-0.546 J0.433
N13195 G1 X107.17 Y412.532
N13200 X107.088 Y412.609
N13205 G3 X106.745 Y412.469 I-0.143 J-0.14
N13210 G1 Y412.148
N13215 G3 X106.995 Y411.899 I0.25 J0.
N13220 G1 X126.112
N13225 G3 Y412.169 I0. J0.135
N13230 G1 X107.93 Y412.152
N13235 G2 X107.472 Y412.311 I0.175 J1.245
N13240 X107.255 Y412.459 I0.926 J1.586
N13245 X107.146 Y413.208 I0.344 J0.433
N13250 G3 X107.373 Y413.929 I-1.034 J0.722
N13255 G1 Y423.935
N13260 X106.059
N13265 Y411.212
N13270 X127.069
N13275 Y412.856
N13280 X108.107
N13285 X108.079 Y412.857
N13290 X108.055 Y412.859
N13295 X108.03 Y412.861
N13300 X108.006 Y412.865
N13305 X107.981 Y412.869
N13310 X107.957 Y412.874
N13315 X107.933 Y412.88
N13320 X107.908 Y412.887
N13325 X107.884 Y412.895
N13330 X107.859 Y412.904
N13335 X107.838 Y412.912
N13340 X107.82 Y412.92
N13345 X107.801 Y412.928
N13350 X107.783 Y412.937
N13355 X107.765 Y412.947
N13360 X107.747 Y412.957
N13365 X107.729 Y412.968
N13370 X107.711 Y412.979
N13375 X107.689 Y412.994
N13380 X107.664 Y413.013
N13385 X107.641 Y413.031
N13390 X107.62 Y413.049
N13395 X107.599 Y413.069
N13400 X107.578 Y413.091
N13405 X107.559 Y413.111
N13410 X107.542 Y413.131
N13415 X107.526 Y413.151
N13420 X107.512 Y413.171
N13425 X107.498 Y413.191
N13430 X107.485 Y413.211
N13435 X107.473 Y413.232
N13440 X107.461 Y413.252
N13445 X107.449 Y413.277
N13450 X107.436 Y413.305
N13455 X107.424 Y413.333
N13460 X107.414 Y413.362
N13465 X107.405 Y413.388
N13470 X107.398 Y413.413
N13475 X107.392 Y413.437
N13480 X107.387 Y413.462
N13485 X107.382 Y413.486
N13490 X107.379 Y413.511
N13495 X107.376 Y413.535
N13500 X107.374 Y413.56
N13505 X107.373 Y413.589
N13510 Y413.929
N13515 X107.371 Y413.953 Z-2.998
N13520 X107.366 Y413.975 Z-2.993
N13525 X107.358 Y413.995 Z-2.984
N13530 X107.348 Y414.013 Z-2.971
N13535 X107.337 Y414.027 Z-2.956
N13540 X107.327 Y414.038 Z-2.938
N13545 X107.317 Y414.046 Z-2.918
N13550 X107.31 Y414.052 Z-2.896
N13555 X107.306 Y414.055 Z-2.873
N13560 X107.304 Y414.056 Z-2.85
N13565 G0 Z5.
N13570 X126.248 Y443.834
N13575 Z1.15
N13580 G1 X126.25 Z1.128 F700.
N13585 X126.255 Y443.833 Z1.107
N13590 X126.262 Z1.087
N13595 X126.273 Z1.068
N13600 X126.286 Y443.832 Z1.05
N13605 X126.302 Z1.035
N13610 X126.32 Y443.833 Z1.022
N13615 X126.339 Z1.012
N13620 X126.359 Y443.835 Z1.005
N13625 G3 X126.232 Y445.254 Z0.405 I-0.063 J0.71
N13630 X126.359 Y443.835 Z-0.194 I0.063 J-0.71
N13635 X126.232 Y445.254 Z-0.794 I-0.063 J0.71
N13640 X126.359 Y443.835 Z-1.394 I0.063 J-0.71
N13645 X126.709 Y443.964 Z-1.495 I-0.063 J0.71
N13650 G1 X126.724 Y443.975 Z-1.499
N13655 X126.74 Y443.987 Z-1.5
N13660 G3 X125.872 Y445.078 I-0.434 J0.545
N13665 G1 X125.792 Y445.017
N13670 X125.709 Y444.962
N13675 G2 X125.318 Y444.8 I-0.668 J1.06
N13680 G1 X125.175 Y444.772
N13685 X125.103 Y444.762
N13690 X125.031 Y444.758
N13695 X117.87 Y444.755
N13700 G2 X117.248 Y444.962 I0.076 J1.271
N13705 X116.78 Y445.42 I0.926 J1.412
N13710 G3 X116.349 Y445.421 I-0.216 J-0.148
N13715 G2 X116.116 Y445.144 I-1.61 J1.113
N13720 X115.824 Y444.931 I-0.851 J0.858
N13725 G1 X115.734 Y444.886
N13730 X115.642 Y444.846
N13735 X115.547 Y444.812
N13740 X115.45 Y444.787
N13745 X115.354 Y444.768
N13750 X115.258 Y444.755
N13755 X107.019 Y444.792
N13760 G3 Y444.524 I0. J-0.134
N13765 G1 X126.131
N13770 G3 X126.376 Y444.769 I0. J0.245
N13775 G1 Y445.09
N13780 G3 X126.038 Y445.228 I-0.197 J0.
N13785 G1 X125.957 Y445.15
N13790 X125.872 Y445.078
N13795 G2 X125.112 Y445.158 I-0.339 J0.426
N13800 G3 X124.421 Y445.486 I-0.691 J-0.566
N13805 G1 X117.961
N13810 X117.938
N13815 X117.914 Y445.488
N13820 X117.889 Y445.49
N13825 X117.865 Y445.493
N13830 X117.841 Y445.497
N13835 X117.816 Y445.502
N13840 X117.792 Y445.507
N13845 X117.767 Y445.514
N13850 X117.743 Y445.521
N13855 X117.718 Y445.53
N13860 X117.694 Y445.539
N13865 X117.669 Y445.549
N13870 X117.645 Y445.56
N13875 X117.62 Y445.573
N13880 X117.596 Y445.586
N13885 X117.571 Y445.601
N13890 X117.549 Y445.615
N13895 X117.53 Y445.629
N13900 X117.51 Y445.644
N13905 X117.49 Y445.66
N13910 X117.472 Y445.675
N13915 X117.456 Y445.69
N13920 X117.44 Y445.706
N13925 X117.423 Y445.723
N13930 X117.409 Y445.74
N13935 X117.395 Y445.755
N13940 X117.382 Y445.771
N13945 X117.37 Y445.787
N13950 X117.358 Y445.804
N13955 X117.346 Y445.821
N13960 X117.335 Y445.838
N13965 X117.325 Y445.855
N13970 X117.313 Y445.876
N13975 X117.3 Y445.9
N13980 X117.289 Y445.925
N13985 X117.278 Y445.949
N13990 X117.268 Y445.974
N13995 X117.26 Y445.998
N14000 X117.252 Y446.022
N14005 X117.245 Y446.047
N14010 X117.239 Y446.071
N14015 X117.234 Y446.096
N14020 X117.23 Y446.12
N14025 X117.227 Y446.145
N14030 X117.224 Y446.169
N14035 X117.222 Y446.194
N14040 X117.221 Y446.221
N14045 Y456.631
N14050 X115.907
N14055 Y446.221
N14060 X115.906 Y446.194
N14065 X115.904 Y446.169
N14070 X115.902 Y446.145
N14075 X115.898 Y446.12
N14080 X115.894 Y446.096
N14085 X115.889 Y446.071
N14090 X115.883 Y446.048
N14095 X115.877 Y446.027
N14100 X115.871 Y446.006
N14105 X115.865 Y445.987
N14110 X115.858 Y445.968
N14115 X115.85 Y445.949
N14120 X115.842 Y445.93
N14125 X115.833 Y445.911
N14130 X115.824 Y445.892
N14135 X115.814 Y445.873
N14140 X115.802 Y445.853
N14145 X115.789 Y445.832
N14150 X115.775 Y445.811
N14155 X115.761 Y445.79
N14160 X115.745 Y445.769
N14165 X115.727 Y445.749
N14170 X115.709 Y445.728
N14175 X115.689 Y445.707
N14180 X115.671 Y445.689
N14185 X115.655 Y445.675
N14190 X115.637 Y445.66
N14195 X115.617 Y445.643
N14200 X115.596 Y445.628
N14205 X115.576 Y445.613
N14210 X115.555 Y445.6
N14215 X115.535 Y445.588
N14220 X115.514 Y445.576
N14225 X115.493 Y445.565
N14230 X115.471 Y445.554
N14235 X115.446 Y445.544
N14240 X115.422 Y445.534
N14245 X115.398 Y445.525
N14250 X115.373 Y445.517
N14255 X115.349 Y445.511
N14260 X115.324 Y445.504
N14265 X115.3 Y445.499
N14270 X115.275 Y445.495
N14275 X115.251 Y445.492
N14280 X115.226 Y445.489
N14285 X115.202 Y445.487
N14290 X115.173 Y445.486
N14295 X106.059
N14300 Y443.831
N14305 X127.069
N14310 Y457.027
N14315 X125.755
N14320 Y446.221
N14325 X125.754 Y446.194
N14330 X125.752 Y446.169
N14335 X125.75 Y446.145
N14340 X125.746 Y446.12
N14345 X125.742 Y446.096
N14350 X125.737 Y446.071
N14355 X125.731 Y446.047
N14360 X125.724 Y446.022
N14365 X125.717 Y445.998
N14370 X125.708 Y445.974
N14375 X125.698 Y445.949
N14380 X125.688 Y445.925
N14385 X125.676 Y445.9
N14390 X125.663 Y445.876
N14395 X125.649 Y445.851
N14400 X125.633 Y445.825
N14405 X125.616 Y445.8
N14410 X125.596 Y445.774
N14415 X125.577 Y445.75
N14420 X125.556 Y445.726
N14425 X125.533 Y445.703
N14430 X125.508 Y445.679
N14435 X125.483 Y445.657
N14440 X125.457 Y445.637
N14445 X125.43 Y445.618
N14450 X125.404 Y445.601
N14455 X125.379 Y445.585
N14460 X125.354 Y445.572
N14465 X125.33 Y445.56
N14470 X125.306 Y445.548
N14475 X125.281 Y445.538
N14480 X125.257 Y445.529
N14485 X125.232 Y445.521
N14490 X125.208 Y445.513
N14495 X125.183 Y445.507
N14500 X125.159 Y445.502
N14505 X125.134 Y445.497
N14510 X125.11 Y445.493
N14515 X125.085 Y445.49
N14520 X125.061 Y445.488
N14525 X125.037 Y445.486
N14530 X125.012
N14535 X125.003
N14540 X124.421
N14545 X124.402 Y445.478
N14550 X124.393 Y445.459
N14555 X124.4 Y445.44
N14560 X124.48 Y445.349
N14565 X124.482 Y445.347
N14570 X125.719 Y444.229
N14575 X125.727 Y444.216
N14580 X125.726 Y444.201
N14585 X125.71 Y444.157
N14590 X125.709 Y444.145
N14595 X125.713 Y444.134
N14600 X125.725 Y444.118 Z-1.501
N14605 X125.737 Y444.103 Z-1.505
N14610 G3 X126.855 Y444.986 Z-2.105 I0.559 J0.442
N14615 X125.737 Y444.103 Z-2.705 I-0.559 J-0.442
N14620 X126.709 Y443.964 Z-2.995 I0.559 J0.442
N14625 G1 X126.724 Y443.975 Z-2.999
N14630 X126.74 Y443.987 Z-3.
N14635 G3 X125.872 Y445.078 I-0.434 J0.545
N14640 G1 X125.792 Y445.017
N14645 X125.709 Y444.962
N14650 G2 X125.318 Y444.8 I-0.668 J1.06
N14655 G1 X125.175 Y444.772
N14660 X125.103 Y444.762
N14665 X125.031 Y444.758
N14670 X117.87 Y444.755
N14675 G2 X117.248 Y444.962 I0.076 J1.271
N14680 X116.78 Y445.42 I0.926 J1.412
N14685 G3 X116.349 Y445.421 I-0.216 J-0.148
N14690 G2 X116.116 Y445.144 I-1.61 J1.113
N14695 X115.824 Y444.931 I-0.851 J0.858
N14700 G1 X115.734 Y444.886
N14705 X115.642 Y444.846
N14710 X115.547 Y444.812
N14715 X115.45 Y444.787
N14720 X115.354 Y444.768
N14725 X115.258 Y444.755
N14730 X107.019 Y444.792
N14735 G3 Y444.524 I0. J-0.134
N14740 G1 X126.131
N14745 G3 X126.376 Y444.769 I0. J0.245
N14750 G1 Y445.09
N14755 G3 X126.038 Y445.228 I-0.197 J0.
N14760 G1 X125.957 Y445.15
N14765 X125.872 Y445.078
N14770 G2 X125.112 Y445.158 I-0.339 J0.426
N14775 G3 X124.421 Y445.486 I-0.691 J-0.566
N14780 G1 X117.961
N14785 X117.938
N14790 X117.914 Y445.488
N14795 X117.889 Y445.49
N14800 X117.865 Y445.493
N14805 X117.841 Y445.497
N14810 X117.816 Y445.502
N14815 X117.792 Y445.507
N14820 X117.767 Y445.514
N14825 X117.743 Y445.521
N14830 X117.718 Y445.53
N14835 X117.694 Y445.539
N14840 X117.669 Y445.549
N14845 X117.645 Y445.56
N14850 X117.62 Y445.573
N14855 X117.596 Y445.586
N14860 X117.571 Y445.601
N14865 X117.549 Y445.615
N14870 X117.53 Y445.629
N14875 X117.51 Y445.644
N14880 X117.49 Y445.66
N14885 X117.472 Y445.675
N14890 X117.456 Y445.69
N14895 X117.44 Y445.706
N14900 X117.423 Y445.723
N14905 X117.409 Y445.74
N14910 X117.395 Y445.755
N14915 X117.382 Y445.771
N14920 X117.37 Y445.787
N14925 X117.358 Y445.804
N14930 X117.346 Y445.821
N14935 X117.335 Y445.838
N14940 X117.325 Y445.855
N14945 X117.313 Y445.876
N14950 X117.3 Y445.9
N14955 X117.289 Y445.925
N14960 X117.278 Y445.949
N14965 X117.268 Y445.974
N14970 X117.26 Y445.998
N14975 X117.252 Y446.022
N14980 X117.245 Y446.047
N14985 X117.239 Y446.071
N14990 X117.234 Y446.096
N14995 X117.23 Y446.12
N15000 X117.227 Y446.145
N15005 X117.224 Y446.169
N15010 X117.222 Y446.194
N15015 X117.221 Y446.221
N15020 Y456.631
N15025 X115.907
N15030 Y446.221
N15035 X115.906 Y446.194
N15040 X115.904 Y446.169
N15045 X115.902 Y446.145
N15050 X115.898 Y446.12
N15055 X115.894 Y446.096
N15060 X115.889 Y446.071
N15065 X115.883 Y446.048
N15070 X115.877 Y446.027
N15075 X115.871 Y446.006
N15080 X115.865 Y445.987
N15085 X115.858 Y445.968
N15090 X115.85 Y445.949
N15095 X115.842 Y445.93
N15100 X115.833 Y445.911
N15105 X115.824 Y445.892
N15110 X115.814 Y445.873
N15115 X115.802 Y445.853
N15120 X115.789 Y445.832
N15125 X115.775 Y445.811
N15130 X115.761 Y445.79
N15135 X115.745 Y445.769
N15140 X115.727 Y445.749
N15145 X115.709 Y445.728
N15150 X115.689 Y445.707
N15155 X115.671 Y445.689
N15160 X115.655 Y445.675
N15165 X115.637 Y445.66
N15170 X115.617 Y445.643
N15175 X115.596 Y445.628
N15180 X115.576 Y445.613
N15185 X115.555 Y445.6
N15190 X115.535 Y445.588
N15195 X115.514 Y445.576
N15200 X115.493 Y445.565
N15205 X115.471 Y445.554
N15210 X115.446 Y445.544
N15215 X115.422 Y445.534
N15220 X115.398 Y445.525
N15225 X115.373 Y445.517
N15230 X115.349 Y445.511
N15235 X115.324 Y445.504
N15240 X115.3 Y445.499
N15245 X115.275 Y445.495
N15250 X115.251 Y445.492
N15255 X115.226 Y445.489
N15260 X115.202 Y445.487
N15265 X115.173 Y445.486
N15270 X106.059
N15275 Y443.831
N15280 X127.069
N15285 Y457.027
N15290 X125.755
N15295 Y446.221
N15300 X125.754 Y446.194
N15305 X125.752 Y446.169
N15310 X125.75 Y446.145
N15315 X125.746 Y446.12
N15320 X125.742 Y446.096
N15325 X125.737 Y446.071
N15330 X125.731 Y446.047
N15335 X125.724 Y446.022
N15340 X125.717 Y445.998
N15345 X125.708 Y445.974
N15350 X125.698 Y445.949
N15355 X125.688 Y445.925
N15360 X125.676 Y445.9
N15365 X125.663 Y445.876
N15370 X125.649 Y445.851
N15375 X125.633 Y445.825
N15380 X125.616 Y445.8
N15385 X125.596 Y445.774
N15390 X125.577 Y445.75
N15395 X125.556 Y445.726
N15400 X125.533 Y445.703
N15405 X125.508 Y445.679
N15410 X125.483 Y445.657
N15415 X125.457 Y445.637
N15420 X125.43 Y445.618
N15425 X125.404 Y445.601
N15430 X125.379 Y445.585
N15435 X125.354 Y445.572
N15440 X125.33 Y445.56
N15445 X125.306 Y445.548
N15450 X125.281 Y445.538
N15455 X125.257 Y445.529
N15460 X125.232 Y445.521
N15465 X125.208 Y445.513
N15470 X125.183 Y445.507
N15475 X125.159 Y445.502
N15480 X125.134 Y445.497
N15485 X125.11 Y445.493
N15490 X125.085 Y445.49
N15495 X125.061 Y445.488
N15500 X125.037 Y445.486
N15505 X125.012
N15510 X125.003
N15515 X124.421
N15520 X124.397 Y445.484 Z-2.998
N15525 X124.375 Y445.478 Z-2.993
N15530 X124.355 Y445.47 Z-2.984
N15535 X124.338 Y445.46 Z-2.971
N15540 X124.323 Y445.45 Z-2.956
N15545 X124.312 Y445.439 Z-2.938
N15550 X124.304 Y445.43 Z-2.918
N15555 X124.299 Y445.423 Z-2.896
N15560 X124.296 Y445.418 Z-2.873
N15565 X124.295 Y445.417 Z-2.85
N15570 G0 Z5.
N15575 X158.071 Y444.479
N15580 Z1.15
N15585 G1 X158.072 Y444.48 Z1.128 F700.
N15590 X158.076 Y444.484 Z1.107
N15595 X158.081 Y444.49 Z1.087
N15600 X158.088 Y444.498 Z1.068
N15605 X158.096 Y444.508 Z1.05
N15610 X158.106 Y444.52 Z1.035
N15615 X158.117 Y444.534 Z1.022
N15620 X158.128 Y444.55 Z1.012
N15625 X158.139 Y444.567 Z1.005
N15630 G3 X158.257 Y444.959 Z0.894 I-0.595 J0.392
N15635 X156.832 Z0.294 I-0.712 J0.
N15640 X158.257 Z-0.306 I0.712 J0.
N15645 X156.832 Z-0.906 I-0.712 J0.
N15650 X157.117 Y444.389 Z-1.083 I0.712 J0.
N15655 X158.256 Y444.92 Z-1.495 I0.428 J0.57
N15660 G1 X158.257 Y444.939 Z-1.499
N15665 Y444.959 Z-1.5
N15670 G3 X158.09 I-0.083 J0.
N15675 X158.257 I0.083 J0.
N15680 G1 X158.254 Y444.982 Z-1.498
N15685 X158.245 Y445.003 Z-1.493
N15690 X158.231 Y445.02 Z-1.484
N15695 X158.215 Y445.032 Z-1.471
N15700 X158.198 Y445.039 Z-1.456
N15705 X158.183 Y445.042 Z-1.438
N15710 X158.171 Z-1.418
N15715 X158.162 Z-1.396
N15720 X158.157 Y445.041 Z-1.373
N15725 X158.155 Y445.04 Z-1.35
N15730 G0 Z5.
N15735 X140.727 Y453.848
N15740 Z1.15
N15745 G1 X140.728 Y453.85 Z1.128 F700.
N15750 X140.731 Y453.854 Z1.107
N15755 X140.735 Y453.86 Z1.087
N15760 X140.741 Y453.868 Z1.068
N15765 X140.749 Y453.879 Z1.05
N15770 X140.757 Y453.893 Z1.035
N15775 X140.766 Y453.908 Z1.022
N15780 X140.776 Y453.924 Z1.012
N15785 X140.786 Y453.942 Z1.005
N15790 G3 X139.524 Y454.604 Z0.405 I-0.631 J0.331
N15795 X140.786 Y453.942 Z-0.194 I0.631 J-0.331
N15800 X139.524 Y454.604 Z-0.794 I-0.631 J0.331
N15805 X140.786 Y453.942 Z-1.394 I0.631 J-0.331
N15810 X140.867 Y454.306 Z-1.495 I-0.631 J0.331
N15815 G1 X140.865 Y454.325 Z-1.499
N15820 X140.864 Y454.345 Z-1.5
N15825 G2 X140.872 Y454.771 I1.783 J0.18
N15830 X141.002 Y455.247 I1.911 J-0.266
N15835 G3 X140.771 Y455.593 I-0.23 J0.096
N15840 G1 X140.756
N15845 G3 X140.507 Y455.343 I0. J-0.25
N15850 G1 Y454.299
N15855 X140.513 Y454.26
N15860 X140.529 Y454.225
N15865 X140.555 Y454.195
N15870 X140.589 Y454.174
N15875 X140.68 Y454.133
N15880 X140.72 Y454.123
N15885 X140.762 Y454.124
N15890 X140.801 Y454.138
N15895 X140.834 Y454.163
N15900 X140.858 Y454.197
N15905 X140.871 Y454.236
N15910 X140.872 Y454.278
N15915 X140.864 Y454.345
N15920 G2 X141.099 Y454.741 I0.386 J0.039
N15925 G3 X141.425 Y455.066 I-0.238 J0.564
N15930 G2 X142.333 Y455.865 I1.28 J-0.541
N15935 G1 X142.425 Y455.887
N15940 X142.517 Y455.904
N15945 X142.611 Y455.915
N15950 X142.705 Y455.919
N15955 X159.42 Y455.766
N15960 X159.462 Y455.772
N15965 X159.5 Y455.791
N15970 X159.529 Y455.821
N15975 X159.549 Y455.858
N15980 X159.555 Y455.9
N15985 Y455.99
N15990 X159.549 Y456.031
N15995 X159.53 Y456.069
N16000 X159.5 Y456.099
N16005 X159.462 Y456.118
N16010 X159.421 Y456.124
N16015 X140.422
N16020 G3 X139.976 Y455.678 I0. J-0.446
N16025 G1 Y454.248
N16030 G3 X140.327 Y453.709 I0.59 J0.
N16035 G1 X156.506 Y446.622
N16040 G2 X157.178 Y445.345 I-0.65 J-1.157
N16045 X156.326 Y444.181 I-1.393 J0.126
N16050 G3 X156.385 Y443.887 I0.059 J-0.141
N16055 G1 X159.109
N16060 G3 X159.555 Y444.333 I0. J0.446
N16065 G1 Y444.984
N16070 G3 X159.071 Y445.732 I-0.819 J0.
N16075 G1 X141.967 Y453.347
N16080 G2 X141.425 Y455.066 I0.738 J1.178
N16085 X142.091 Y455.38 I0.509 J-0.215
N16090 G3 X142.82 Y455.272 I0.743 J2.492
N16095 G1 X160.139 Y455.178
N16100 Y456.708
N16105 X139.392
N16110 Y453.484
N16115 X156.109 Y446.099
N16120 X156.117 Y446.096
N16125 X156.142 Y446.084
N16130 X156.166 Y446.072
N16135 X156.19 Y446.058
N16140 X156.213 Y446.044
N16145 X156.234 Y446.03
N16150 X156.256 Y446.015
N16155 X156.278 Y445.998
N16160 X156.299 Y445.98
N16165 X156.321 Y445.961
N16170 X156.342 Y445.94
N16175 X156.364 Y445.918
N16180 X156.38 Y445.899
N16185 X156.392 Y445.886
N16190 X156.405 Y445.868
N16195 X156.421 Y445.847
N16200 X156.435 Y445.826
N16205 X156.449 Y445.805
N16210 X156.461 Y445.784
N16215 X156.473 Y445.763
N16220 X156.484 Y445.742
N16225 X156.494 Y445.721
N16230 X156.504 Y445.698
N16235 X156.513 Y445.674
N16240 X156.522 Y445.649
N16245 X156.53 Y445.625
N16250 X156.537 Y445.6
N16255 X156.543 Y445.576
N16260 X156.548 Y445.552
N16265 X156.552 Y445.527
N16270 X156.555 Y445.503
N16275 X156.558 Y445.478
N16280 X156.56 Y445.454
N16285 X156.561 Y445.429
N16290 Y445.405
N16295 X156.56 Y445.38
N16300 X156.559 Y445.356
N16305 X156.557 Y445.332
N16310 X156.554 Y445.307
N16315 X156.55 Y445.283
N16320 X156.545 Y445.258
N16325 X156.54 Y445.234
N16330 X156.533 Y445.209
N16335 X156.526 Y445.185
N16340 X156.518 Y445.16
N16345 X156.509 Y445.136
N16350 X156.499 Y445.112
N16355 X156.489 Y445.09
N16360 X156.477 Y445.067
N16365 X156.465 Y445.045
N16370 X156.452 Y445.022
N16375 X156.438 Y445.
N16380 X156.42 Y444.973
N16385 X156.397 Y444.943
N16390 X156.374 Y444.916
N16395 X156.351 Y444.891
N16400 X156.328 Y444.868
N16405 X156.305 Y444.847
N16410 X156.282 Y444.828
N16415 X156.259 Y444.81
N16420 X156.236 Y444.793
N16425 X156.213 Y444.778
N16430 X156.193 Y444.766
N16435 X156.175 Y444.755
N16440 X156.15 Y444.742
N16445 X156.117 Y444.726
N16450 X156.084 Y444.713
N16455 X156.053 Y444.701
N16460 X156.029 Y444.694
N16465 X156.014 Y444.689
N16470 X155.994 Y444.684
N16475 X155.969 Y444.678
N16480 X155.945 Y444.673
N16485 X155.92 Y444.669
N16490 X155.896 Y444.666
N16495 X155.872 Y444.664
N16500 X155.847 Y444.662
N16505 X155.823 Y444.661
N16510 X155.811
N16515 X139.392 Y444.64
N16520 Y443.303
N16525 X160.139
N16530 Y445.892
N16535 X142.402 Y453.844
N16540 X142.38 Y453.855
N16545 X142.357 Y453.867
N16550 X142.334 Y453.88
N16555 X142.31 Y453.895
N16560 X142.284 Y453.913
N16565 X142.254 Y453.936
N16570 X142.232 Y453.953
N16575 X142.217 Y453.966
N16580 X142.202 Y453.98
N16585 X142.188 Y453.995
N16590 X142.17 Y454.014
N16595 X142.149 Y454.037
N16600 X142.13 Y454.061
N16605 X142.112 Y454.084
N16610 X142.095 Y454.109
N16615 X142.079 Y454.134
N16620 X142.064 Y454.16
N16625 X142.051 Y454.185
N16630 X142.039 Y454.21
N16635 X142.028 Y454.234
N16640 X142.018 Y454.259
N16645 X142.009 Y454.283
N16650 X142.002 Y454.308
N16655 X141.995 Y454.332
N16660 X141.989 Y454.357
N16665 X141.984 Y454.381
N16670 X141.979 Y454.405
N16675 X141.976 Y454.43
N16680 X141.973 Y454.46
N16685 X141.971 Y454.497
N16690 X141.97 Y454.534
N16695 X141.972 Y454.57
N16700 X141.974 Y454.601
N16705 X141.977 Y454.625
N16710 X141.981 Y454.65
N16715 X141.986 Y454.674
N16720 X141.991 Y454.699
N16725 X141.997 Y454.723
N16730 X142.005 Y454.748
N16735 X142.013 Y454.772
N16740 X142.021 Y454.795
N16745 X142.029 Y454.815
N16750 X142.039 Y454.836
N16755 X142.048 Y454.857
N16760 X142.059 Y454.878
N16765 X142.071 Y454.898
N16770 X142.083 Y454.919
N16775 X142.096 Y454.94
N16780 X142.109 Y454.957
N16785 X142.12 Y454.972
N16790 X142.135 Y454.992
N16795 X142.155 Y455.016
N16800 X142.176 Y455.039
N16805 X142.2 Y455.063
N16810 X142.223 Y455.084
N16815 X142.244 Y455.103
N16820 X142.266 Y455.12
N16825 X142.288 Y455.136
N16830 X142.311 Y455.152
N16835 X142.337 Y455.168
N16840 X142.359 Y455.18
N16845 X142.377 Y455.19
N16850 X142.395 Y455.199
N16855 X142.413 Y455.207
N16860 X142.44 Y455.219
N16865 X142.476 Y455.232
N16870 X142.507 Y455.242
N16875 X142.531 Y455.249
N16880 X142.556 Y455.255
N16885 X142.58 Y455.26
N16890 X142.604 Y455.264
N16895 X142.629 Y455.267
N16900 X142.653 Y455.27
N16905 X142.678 Y455.272
N16910 X142.707 Y455.273
N16915 X142.82 Y455.272
N16920 X142.843 Y455.274 Z-1.498
N16925 X142.866 Y455.279 Z-1.493
N16930 X142.886 Y455.287 Z-1.484
N16935 X142.903 Y455.297 Z-1.471
N16940 X142.918 Y455.308 Z-1.456
N16945 X142.929 Y455.318 Z-1.438
N16950 X142.937 Y455.327 Z-1.418
N16955 X142.942 Y455.334 Z-1.396
N16960 X142.946 Y455.339 Z-1.373
N16965 X142.947 Y455.34 Z-1.35
N16970 G0 Z5.
N16975 X140.644 Y454.867
N16980 Z2.5
N16985 G1 Z-0.35 F300.
N16990 X140.646 Y454.868 Z-0.372 F700.
N16995 X140.65 Y454.87 Z-0.393
N17000 X140.657 Y454.873 Z-0.413
N17005 X140.666 Y454.878 Z-0.432
N17010 X140.678 Y454.884 Z-0.45
N17015 X140.692 Y454.892 Z-0.465
N17020 X140.707 Y454.901 Z-0.478
N17025 X140.723 Y454.911 Z-0.488
N17030 X140.741 Y454.922 Z-0.495
N17035 G3 X139.94 Y456.101 Z-1.095 I-0.401 J0.589
N17040 X140.741 Y454.922 Z-1.694 I0.401 J-0.589
N17045 X139.94 Y456.101 Z-2.294 I-0.401 J0.589
N17050 X140.741 Y454.922 Z-2.894 I0.401 J-0.589
N17055 X140.983 Y455.205 Z-2.995 I-0.401 J0.589
N17060 G1 X140.991 Y455.222 Z-2.999
N17065 X140.999 Y455.24 Z-3.
N17070 X141.002 Y455.247
N17075 G3 X140.771 Y455.593 I-0.23 J0.096
N17080 G1 X140.756
N17085 G3 X140.507 Y455.343 I0. J-0.25
N17090 G1 Y454.299
N17095 X140.513 Y454.26
N17100 X140.529 Y454.225
N17105 X140.555 Y454.195
N17110 X140.589 Y454.174
N17115 X140.68 Y454.133
N17120 X140.72 Y454.123
N17125 X140.762 Y454.124
N17130 X140.801 Y454.138
N17135 X140.834 Y454.163
N17140 X140.858 Y454.197
N17145 X140.871 Y454.236
N17150 X140.872 Y454.278
N17155 G2 Y454.771 I1.775 J0.246
N17160 X140.999 Y455.24 I1.911 J-0.266
N17165 G1 X141.006 Y455.262 Z-2.998
N17170 X141.01 Y455.285 Z-2.993
N17175 Y455.307 Z-2.984
N17180 X141.007 Y455.327 Z-2.971
N17185 X141.003 Y455.344 Z-2.956
N17190 X140.997 Y455.358 Z-2.938
N17195 X140.992 Y455.369 Z-2.918
N17200 X140.987 Y455.377 Z-2.896
N17205 X140.984 Y455.382 Z-2.873
N17210 X140.983 Y455.383 Z-2.85
N17215 G0 Z5.
N17220 X158.071 Y444.479
N17225 Z2.5
N17230 G1 Z-0.35 F300.
N17235 X158.072 Y444.48 Z-0.372 F700.
N17240 X158.076 Y444.484 Z-0.393
N17245 X158.081 Y444.49 Z-0.413
N17250 X158.088 Y444.498 Z-0.432
N17255 X158.096 Y444.508 Z-0.45
N17260 X158.106 Y444.52 Z-0.465
N17265 X158.117 Y444.534 Z-0.478
N17270 X158.128 Y444.55 Z-0.488
N17275 X158.139 Y444.567 Z-0.495
N17280 G3 X158.257 Y444.959 Z-0.606 I-0.595 J0.392
N17285 X156.832 Z-1.206 I-0.712 J0.
N17290 X158.257 Z-1.806 I0.712 J0.
N17295 X156.832 Z-2.406 I-0.712 J0.
N17300 X157.117 Y444.389 Z-2.583 I0.712 J0.
N17305 X158.256 Y444.92 Z-2.995 I0.428 J0.57
N17310 G1 X158.257 Y444.939 Z-2.999
N17315 Y444.959 Z-3.
N17320 G3 X158.09 I-0.083 J0.
N17325 X158.257 I0.083 J0.
N17330 G2 X158.39 Y445.557 I1.414 J0.
N17335 G3 X158.175 Y446.13 I-0.389 J0.182
N17340 G1 X141.967 Y453.347
N17345 G2 X142.333 Y455.865 I0.738 J1.178
N17350 G1 X142.425 Y455.887
N17355 X142.517 Y455.904
N17360 X142.611 Y455.915
N17365 X142.705 Y455.919
N17370 X159.42 Y455.766
N17375 X159.462 Y455.772
N17380 X159.5 Y455.791
N17385 X159.529 Y455.821
N17390 X159.549 Y455.858
N17395 X159.555 Y455.9
N17400 Y455.99
N17405 X159.549 Y456.031
N17410 X159.53 Y456.069
N17415 X159.5 Y456.099
N17420 X159.462 Y456.118
N17425 X159.421 Y456.124
N17430 X140.422
N17435 G3 X139.976 Y455.678 I0. J-0.446
N17440 G1 Y454.248
N17445 G3 X140.327 Y453.709 I0.59 J0.
N17450 G1 X156.506 Y446.622
N17455 G2 X157.178 Y445.345 I-0.65 J-1.157
N17460 X156.326 Y444.181 I-1.393 J0.126
N17465 G3 X156.385 Y443.887 I0.059 J-0.141
N17470 G1 X159.109
N17475 G3 X159.555 Y444.333 I0. J0.446
N17480 G1 Y444.984
N17485 G3 X159.071 Y445.732 I-0.819 J0.
N17490 G1 X158.175 Y446.13
N17495 G2 X157.894 Y446.578 I0.193 J0.434
N17500 G3 X157.612 Y447.025 I-0.477 J0.012
N17505 G1 X142.402 Y453.844
N17510 X142.38 Y453.855
N17515 X142.357 Y453.867
N17520 X142.334 Y453.88
N17525 X142.31 Y453.895
N17530 X142.284 Y453.913
N17535 X142.254 Y453.936
N17540 X142.232 Y453.953
N17545 X142.217 Y453.966
N17550 X142.202 Y453.98
N17555 X142.188 Y453.995
N17560 X142.17 Y454.014
N17565 X142.149 Y454.037
N17570 X142.13 Y454.061
N17575 X142.112 Y454.084
N17580 X142.095 Y454.109
N17585 X142.079 Y454.134
N17590 X142.064 Y454.16
N17595 X142.051 Y454.185
N17600 X142.039 Y454.21
N17605 X142.028 Y454.234
N17610 X142.018 Y454.259
N17615 X142.009 Y454.283
N17620 X142.002 Y454.308
N17625 X141.995 Y454.332
N17630 X141.989 Y454.357
N17635 X141.984 Y454.381
N17640 X141.979 Y454.405
N17645 X141.976 Y454.43
N17650 X141.973 Y454.46
N17655 X141.971 Y454.497
N17660 X141.97 Y454.534
N17665 X141.972 Y454.57
N17670 X141.974 Y454.601
N17675 X141.977 Y454.625
N17680 X141.981 Y454.65
N17685 X141.986 Y454.674
N17690 X141.991 Y454.699
N17695 X141.997 Y454.723
N17700 X142.005 Y454.748
N17705 X142.013 Y454.772
N17710 X142.021 Y454.795
N17715 X142.029 Y454.815
N17720 X142.039 Y454.836
N17725 X142.048 Y454.857
N17730 X142.059 Y454.878
N17735 X142.071 Y454.898
N17740 X142.083 Y454.919
N17745 X142.096 Y454.94
N17750 X142.109 Y454.957
N17755 X142.12 Y454.972
N17760 X142.135 Y454.992
N17765 X142.155 Y455.016
N17770 X142.176 Y455.039
N17775 X142.2 Y455.063
N17780 X142.223 Y455.084
N17785 X142.244 Y455.103
N17790 X142.266 Y455.12
N17795 X142.288 Y455.136
N17800 X142.311 Y455.152
N17805 X142.337 Y455.168
N17810 X142.359 Y455.18
N17815 X142.377 Y455.19
N17820 X142.395 Y455.199
N17825 X142.413 Y455.207
N17830 X142.44 Y455.219
N17835 X142.476 Y455.232
N17840 X142.507 Y455.242
N17845 X142.531 Y455.249
N17850 X142.556 Y455.255
N17855 X142.58 Y455.26
N17860 X142.604 Y455.264
N17865 X142.629 Y455.267
N17870 X142.653 Y455.27
N17875 X142.678 Y455.272
N17880 X142.707 Y455.273
N17885 X160.139 Y455.178
N17890 Y456.708
N17895 X139.392
N17900 Y453.484
N17905 X156.109 Y446.099
N17910 X156.117 Y446.096
N17915 X156.142 Y446.084
N17920 X156.166 Y446.072
N17925 X156.19 Y446.058
N17930 X156.213 Y446.044
N17935 X156.234 Y446.03
N17940 X156.256 Y446.015
N17945 X156.278 Y445.998
N17950 X156.299 Y445.98
N17955 X156.321 Y445.961
N17960 X156.342 Y445.94
N17965 X156.364 Y445.918
N17970 X156.38 Y445.899
N17975 X156.392 Y445.886
N17980 X156.405 Y445.868
N17985 X156.421 Y445.847
N17990 X156.435 Y445.826
N17995 X156.449 Y445.805
N18000 X156.461 Y445.784
N18005 X156.473 Y445.763
N18010 X156.484 Y445.742
N18015 X156.494 Y445.721
N18020 X156.504 Y445.698
N18025 X156.513 Y445.674
N18030 X156.522 Y445.649
N18035 X156.53 Y445.625
N18040 X156.537 Y445.6
N18045 X156.543 Y445.576
N18050 X156.548 Y445.552
N18055 X156.552 Y445.527
N18060 X156.555 Y445.503
N18065 X156.558 Y445.478
N18070 X156.56 Y445.454
N18075 X156.561 Y445.429
N18080 Y445.405
N18085 X156.56 Y445.38
N18090 X156.559 Y445.356
N18095 X156.557 Y445.332
N18100 X156.554 Y445.307
N18105 X156.55 Y445.283
N18110 X156.545 Y445.258
N18115 X156.54 Y445.234
N18120 X156.533 Y445.209
N18125 X156.526 Y445.185
N18130 X156.518 Y445.16
N18135 X156.509 Y445.136
N18140 X156.499 Y445.112
N18145 X156.489 Y445.09
N18150 X156.477 Y445.067
N18155 X156.465 Y445.045
N18160 X156.452 Y445.022
N18165 X156.438 Y445.
N18170 X156.42 Y444.973
N18175 X156.397 Y444.943
N18180 X156.374 Y444.916
N18185 X156.351 Y444.891
N18190 X156.328 Y444.868
N18195 X156.305 Y444.847
N18200 X156.282 Y444.828
N18205 X156.259 Y444.81
N18210 X156.236 Y444.793
N18215 X156.213 Y444.778
N18220 X156.193 Y444.766
N18225 X156.175 Y444.755
N18230 X156.15 Y444.742
N18235 X156.117 Y444.726
N18240 X156.084 Y444.713
N18245 X156.053 Y444.701
N18250 X156.029 Y444.694
N18255 X156.014 Y444.689
N18260 X155.994 Y444.684
N18265 X155.969 Y444.678
N18270 X155.945 Y444.673
N18275 X155.92 Y444.669
N18280 X155.896 Y444.666
N18285 X155.872 Y444.664
N18290 X155.847 Y444.662
N18295 X155.823 Y444.661
N18300 X155.811
N18305 X139.392 Y444.64
N18310 Y443.303
N18315 X160.139
N18320 Y445.892
N18325 X157.612 Y447.025
N18330 X157.59 Y447.033 Z-2.998
N18335 X157.567 Y447.037 Z-2.993
N18340 X157.546 Y447.038 Z-2.984
N18345 X157.526 Y447.036 Z-2.971
N18350 X157.508 Y447.032 Z-2.956
N18355 X157.494 Y447.027 Z-2.938
N18360 X157.483 Y447.022 Z-2.918
N18365 X157.475 Y447.018 Z-2.896
N18370 X157.47 Y447.015 Z-2.873
N18375 X157.468 Y447.014 Z-2.85
N18380 G0 Z5.
N18385 X79.48 Y455.711
N18390 Z1.15
N18395 G1 Y455.71 Z1.128 F700.
N18400 X79.478 Y455.705 Z1.107
N18405 X79.476 Y455.698 Z1.087
N18410 X79.472 Y455.688 Z1.068
N18415 X79.469 Y455.675 Z1.05
N18420 X79.464 Y455.66 Z1.035
N18425 X79.46 Y455.643 Z1.022
N18430 X79.456 Y455.624 Z1.012
N18435 X79.452 Y455.604 Z1.005
N18440 G3 X80.853 Y455.346 Z0.405 I0.701 J-0.129
N18445 X79.452 Y455.604 Z-0.194 I-0.701 J0.129
N18450 X80.853 Y455.346 Z-0.794 I0.701 J-0.129
N18455 X79.452 Y455.604 Z-1.394 I-0.701 J0.129
N18460 X79.482 Y455.233 Z-1.495 I0.701 J-0.129
N18465 G1 X79.489 Y455.215 Z-1.499
N18470 X79.496 Y455.197 Z-1.5
N18475 X79.54 Y455.082
N18480 G3 X79.966 Y454.945 I0.263 J0.088
N18485 G2 X80.253 Y455.099 I0.732 J-1.017
N18490 X80.569 Y455.18 I0.508 J-1.336
N18495 G1 X80.584 Y455.181
N18500 X80.599 Y455.182
N18505 G3 X80.638 Y455.489 I-0.016 J0.158
N18510 G1 X73.493 Y458.14
N18515 X73.451 Y458.148
N18520 X73.408 Y458.143
N18525 X73.37 Y458.124
N18530 X73.339 Y458.095
N18535 X73.319 Y458.056
N18540 X73.312 Y458.014
N18545 Y457.963
N18550 X73.318 Y457.922
N18555 X73.336 Y457.885
N18560 X73.365 Y457.856
N18565 X73.401 Y457.836
N18570 X78.879 Y455.883
N18575 G2 X79.29 Y455.549 I-0.497 J-1.034
N18580 X79.496 Y455.197 I-1.267 J-0.976
N18585 G1 X79.508 Y455.176 Z-1.498
N18590 X79.522 Y455.158 Z-1.493
N18595 X79.537 Y455.143 Z-1.484
N18600 X79.554 Y455.131 Z-1.471
N18605 X79.569 Y455.123 Z-1.456
N18610 X79.583 Y455.117 Z-1.438
N18615 X79.595 Y455.113 Z-1.418
N18620 X79.604 Y455.111 Z-1.396
N18625 X79.609 Z-1.373
N18630 X79.611 Y455.11 Z-1.35
N18635 G0 Z5.
N18640 X74.109 Y441.575
N18645 Z1.15
N18650 G1 X74.11 Y441.576 Z1.128 F700.
N18655 X74.113 Y441.58 Z1.107
N18660 X74.119 Y441.585 Z1.087
N18665 X74.125 Y441.593 Z1.068
N18670 X74.134 Y441.604 Z1.05
N18675 X74.144 Y441.616 Z1.035
N18680 X74.154 Y441.63 Z1.022
N18685 X74.166 Y441.646 Z1.012
N18690 X74.177 Y441.663 Z1.005
N18695 G3 X72.988 Y442.447 Z0.405 I-0.595 J0.392
N18700 X74.177 Y441.663 Z-0.194 I0.595 J-0.392
N18705 X72.988 Y442.447 Z-0.794 I-0.595 J0.392
N18710 X74.177 Y441.663 Z-1.394 I0.595 J-0.392
N18715 X74.294 Y442.016 Z-1.495 I-0.595 J0.392
N18720 G1 X74.295 Y442.035 Z-1.499
N18725 Y442.055 Z-1.5
N18730 G3 X73.33 I-0.483 J0.
N18735 G1 Y442.035
N18740 X73.337 Y441.993
N18745 X73.356 Y441.955
N18750 X73.387 Y441.926
N18755 X73.426 Y441.907
N18760 X73.468 Y441.902
N18765 X73.51 Y441.911
N18770 X75.526 Y442.673
N18775 G3 X75.439 Y442.909 I-0.044 J0.118
N18780 G1 X73.418 Y442.19
N18785 X73.382 Y442.17
N18790 X73.354 Y442.141
N18795 X73.336 Y442.105
N18800 X73.33 Y442.064
N18805 Y442.055
N18810 G2 X73.028 Y441.602 I-0.491 J0.
N18815 G3 X72.726 Y441.148 I0.189 J-0.453
N18820 G1 Y440.968
N18825 X93.472 Y448.809
N18830 Y451.352
N18835 X72.726 Y459.05
N18840 Y457.457
N18845 X78.527 Y455.361
N18850 X78.537 Y455.357
N18855 X78.562 Y455.347
N18860 X78.586 Y455.337
N18865 X78.611 Y455.325
N18870 X78.638 Y455.31
N18875 X78.669 Y455.292
N18880 X78.699 Y455.272
N18885 X78.729 Y455.25
N18890 X78.754 Y455.231
N18895 X78.772 Y455.215
N18900 X78.791 Y455.198
N18905 X78.809 Y455.18
N18910 X78.826 Y455.163
N18915 X78.84 Y455.147
N18920 X78.853 Y455.131
N18925 X78.866 Y455.115
N18930 X78.883 Y455.091
N18935 X78.905 Y455.06
N18940 X78.922 Y455.031
N18945 X78.936 Y455.007
N18950 X78.948 Y454.982
N18955 X78.96 Y454.958
N18960 X78.97 Y454.934
N18965 X78.979 Y454.909
N18970 X78.987 Y454.885
N18975 X78.995 Y454.86
N18980 X79.003 Y454.83
N18985 X79.011 Y454.793
N18990 X79.016 Y454.759
N18995 X79.02 Y454.729
N19000 X79.022 Y454.698
N19005 X79.023 Y454.668
N19010 X79.024 Y454.654
N19015 Y449.755
N19020 X79.986 Y450.082
N19025 Y453.872
N19030 X79.987 Y453.902
N19035 X79.989 Y453.927
N19040 X79.992 Y453.951
N19045 X79.996 Y453.976
N19050 X80. Y454.
N19055 X80.006 Y454.024
N19060 X80.012 Y454.049
N19065 X80.019 Y454.073
N19070 X80.028 Y454.1
N19075 X80.039 Y454.13
N19080 X80.051 Y454.16
N19085 X80.065 Y454.189
N19090 X80.078 Y454.214
N19095 X80.089 Y454.233
N19100 X80.101 Y454.252
N19105 X80.113 Y454.272
N19110 X80.127 Y454.291
N19115 X80.142 Y454.311
N19120 X80.158 Y454.331
N19125 X80.175 Y454.351
N19130 X80.194 Y454.371
N19135 X80.215 Y454.393
N19140 X80.236 Y454.412
N19145 X80.258 Y454.431
N19150 X80.281 Y454.449
N19155 X80.306 Y454.468
N19160 X80.328 Y454.482
N19165 X80.346 Y454.494
N19170 X80.364 Y454.504
N19175 X80.382 Y454.514
N19180 X80.401 Y454.524
N19185 X80.419 Y454.533
N19190 X80.437 Y454.541
N19195 X80.455 Y454.548
N19200 X80.476 Y454.557
N19205 X80.501 Y454.565
N19210 X80.525 Y454.573
N19215 X80.55 Y454.579
N19220 X80.574 Y454.585
N19225 X80.598 Y454.59
N19230 X80.623 Y454.594
N19235 X80.647 Y454.598
N19240 X80.672 Y454.6
N19245 X80.696 Y454.602
N19250 X80.721 Y454.603
N19255 X80.745
N19260 X80.77 Y454.602
N19265 X80.794 Y454.601
N19270 X80.819 Y454.598
N19275 X80.843 Y454.595
N19280 X80.868 Y454.591
N19285 X80.892 Y454.586
N19290 X80.916 Y454.581
N19295 X80.941 Y454.574
N19300 X80.967 Y454.566
N19305 X89.231 Y451.711
N19310 X91.436 Y450.949
N19315 X91.759 Y450.853
N19320 X91.762 Y450.852
N19325 X91.957 Y450.792
N19330 X91.963 Y450.79
N19335 X92.085 Y450.751
N19340 X92.103 Y450.744
N19345 X92.128 Y450.735
N19350 X92.152 Y450.724
N19355 X92.177 Y450.713
N19360 X92.201 Y450.7
N19365 X92.226 Y450.687
N19370 X92.244 Y450.676
N19375 X92.256 Y450.668
N19380 X92.273 Y450.657
N19385 X92.294 Y450.642
N19390 X92.316 Y450.625
N19395 X92.337 Y450.607
N19400 X92.36 Y450.587
N19405 X92.383 Y450.564
N19410 X92.404 Y450.542
N19415 X92.424 Y450.519
N19420 X92.441 Y450.498
N19425 X92.455 Y450.479
N19430 X92.471 Y450.457
