%
(LETTERPLATER_11_11)
(T1  D=1. CR=0. - ZMIN=-3. - FLAT END MILL)
N10 G90 G94 G17 G91.1
N15 G21
(POCKET1)
N20 T1 M6
N25 S10000 M3
N30 M8
N35 G54
N40 G0 X119.5 Y113.158
N45 G43 Z15. H1
N50 G0 Z2.5
N55 G1 Z1.675 F300.
N60 Y113.165 Z1.638 F700.
N65 Y113.186 Z1.606
N70 Y113.217 Z1.584
N75 Y113.254 Z1.575
N80 Y117.543 Z1.4
N85 X119.239 Z1.39
N90 X119.237 Y115.678 Z1.314
N95 X119.234 Y115.64 Z1.312
N100 X119.226 Y115.604 Z1.311
N105 X119.199 Y115.516 Z1.307
N110 X119.18 Y115.472 Z1.305
N115 X119.153 Y115.432 Z1.303
N120 X119.09 Y115.355 Z1.299
N125 X119.057 Y115.321 Z1.297
N130 X119.018 Y115.295 Z1.295
N135 X118.943 Y115.253 Z1.292
N140 X118.909 Y115.237 Z1.29
N145 X118.873 Y115.227 Z1.289
N150 X118.811 Y115.214 Z1.286
N155 X118.759 Y115.208 Z1.284
N160 X111.149 Z0.974
N165 X111.115 Y115.21 Z0.973
N170 X111.081 Y115.217 Z0.971
N175 X110.99 Y115.243 Z0.967
N180 X110.95 Y115.258 Z0.966
N185 X110.913 Y115.279 Z0.964
N190 X110.851 Y115.323 Z0.961
N195 X110.823 Y115.347 Z0.959
N200 X110.798 Y115.374 Z0.958
N205 X110.755 Y115.43 Z0.955
N210 X110.734 Y115.461 Z0.953
N215 X110.718 Y115.495 Z0.952
N220 X110.691 Y115.568 Z0.949
N225 X110.678 Y115.611 Z0.947
N230 X110.674 Y115.656 Z0.945
N235 X110.67 Y117.543 Z0.868
N240 X110.408 Z0.857
N245 Y112.457 Z0.65
N250 X110.67 Z0.64
N255 X110.674 Y114.344 Z0.563
N260 X110.678 Y114.389 Z0.561
N265 X110.691 Y114.432 Z0.559
N270 X110.718 Y114.505 Z0.556
N275 X110.738 Y114.545 Z0.554
N280 X110.763 Y114.581 Z0.552
N285 X110.828 Y114.655 Z0.548
N290 X110.86 Y114.686 Z0.547
N295 X110.897 Y114.711 Z0.545
N300 X110.969 Y114.749 Z0.541
N305 X111.009 Y114.766 Z0.54
N310 X111.051 Y114.777 Z0.538
N315 X111.142 Y114.79 Z0.534
N320 X111.179 Y114.793 Z0.533
N325 X118.76 Y114.792 Z0.224
N330 X118.821 Y114.784 Z0.221
N335 X118.902 Y114.764 Z0.218
N340 X118.937 Y114.752 Z0.216
N345 X118.97 Y114.735 Z0.215
N350 X119.027 Y114.7 Z0.212
N355 X119.061 Y114.675 Z0.211
N360 X119.09 Y114.645 Z0.209
N365 X119.153 Y114.568 Z0.205
N370 X119.18 Y114.528 Z0.203
N375 X119.199 Y114.484 Z0.201
N380 X119.226 Y114.396 Z0.197
N385 X119.234 Y114.36 Z0.196
N390 X119.237 Y114.322 Z0.194
N395 X119.239 Y112.457 Z0.118
N400 X119.5 Z0.107
N405 Y117.543 Z-0.1
N410 X119.239 Z-0.11
N415 X119.237 Y115.678 Z-0.186
N420 X119.234 Y115.64 Z-0.188
N425 X119.226 Y115.604 Z-0.189
N430 X119.199 Y115.516 Z-0.193
N435 X119.18 Y115.472 Z-0.195
N440 X119.153 Y115.432 Z-0.197
N445 X119.09 Y115.355 Z-0.201
N450 X119.057 Y115.321 Z-0.203
N455 X119.018 Y115.295 Z-0.205
N460 X118.943 Y115.253 Z-0.208
N465 X118.909 Y115.237 Z-0.21
N470 X118.873 Y115.227 Z-0.211
N475 X118.811 Y115.214 Z-0.214
N480 X118.759 Y115.208 Z-0.216
N485 X111.149 Z-0.526
N490 X111.115 Y115.21 Z-0.527
N495 X111.081 Y115.217 Z-0.529
N500 X110.99 Y115.243 Z-0.533
N505 X110.95 Y115.258 Z-0.534
N510 X110.913 Y115.279 Z-0.536
N515 X110.851 Y115.323 Z-0.539
N520 X110.823 Y115.347 Z-0.541
N525 X110.798 Y115.374 Z-0.542
N530 X110.755 Y115.43 Z-0.545
N535 X110.734 Y115.461 Z-0.547
N540 X110.718 Y115.495 Z-0.548
N545 X110.691 Y115.568 Z-0.551
N550 X110.678 Y115.611 Z-0.553
N555 X110.674 Y115.656 Z-0.555
N560 X110.67 Y117.543 Z-0.632
N565 X110.408 Z-0.643
N570 Y112.457 Z-0.85
N575 X110.67 Z-0.86
N580 X110.674 Y114.344 Z-0.937
N585 X110.678 Y114.389 Z-0.939
N590 X110.691 Y114.432 Z-0.941
N595 X110.718 Y114.505 Z-0.944
N600 X110.738 Y114.545 Z-0.946
N605 X110.763 Y114.581 Z-0.948
N610 X110.828 Y114.655 Z-0.952
N615 X110.86 Y114.686 Z-0.953
N620 X110.897 Y114.711 Z-0.955
N625 X110.969 Y114.749 Z-0.959
N630 X111.009 Y114.766 Z-0.96
N635 X111.051 Y114.777 Z-0.962
N640 X111.142 Y114.79 Z-0.966
N645 X111.179 Y114.793 Z-0.967
N650 X118.76 Y114.792 Z-1.276
N655 X118.821 Y114.784 Z-1.279
N660 X118.902 Y114.764 Z-1.282
N665 X118.937 Y114.752 Z-1.284
N670 X118.97 Y114.735 Z-1.285
N675 X119.027 Y114.7 Z-1.288
N680 X119.061 Y114.675 Z-1.289
N685 X119.09 Y114.645 Z-1.291
N690 X119.153 Y114.568 Z-1.295
N695 X119.18 Y114.528 Z-1.297
N700 X119.199 Y114.484 Z-1.299
N705 X119.226 Y114.396 Z-1.303
N710 X119.234 Y114.36 Z-1.304
N715 X119.237 Y114.322 Z-1.306
N720 X119.239 Y112.457 Z-1.382
N725 X119.5 Z-1.393
N730 Y115.096 Z-1.5
N735 Y117.543
N740 X119.239
N745 X119.237 Y115.678
N750 X119.234 Y115.64
N755 X119.226 Y115.604
N760 X119.199 Y115.516
N765 X119.18 Y115.472
N770 X119.153 Y115.432
N775 X119.09 Y115.355
N780 X119.057 Y115.321
N785 X119.018 Y115.295
N790 X118.943 Y115.253
N795 X118.909 Y115.237
N800 X118.873 Y115.227
N805 X118.811 Y115.214
N810 X118.759 Y115.208
N815 X111.149
N820 X111.115 Y115.21
N825 X111.081 Y115.217
N830 X110.99 Y115.243
N835 X110.95 Y115.258
N840 X110.913 Y115.279
N845 X110.851 Y115.323
N850 X110.823 Y115.347
N855 X110.798 Y115.374
N860 X110.755 Y115.43
N865 X110.734 Y115.461
N870 X110.718 Y115.495
N875 X110.691 Y115.568
N880 X110.678 Y115.611
N885 X110.674 Y115.656
N890 X110.67 Y117.543
N895 X110.408
N900 Y112.457
N905 X110.67
N910 X110.674 Y114.344
N915 X110.678 Y114.389
N920 X110.691 Y114.432
N925 X110.718 Y114.505
N930 X110.738 Y114.545
N935 X110.763 Y114.581
N940 X110.828 Y114.655
N945 X110.86 Y114.686
N950 X110.897 Y114.711
N955 X110.969 Y114.749
N960 X111.009 Y114.766
N965 X111.051 Y114.777
N970 X111.142 Y114.79
N975 X111.179 Y114.793
N980 X118.76 Y114.792
N985 X118.821 Y114.784
N990 X118.902 Y114.764
N995 X118.937 Y114.752
N1000 X118.97 Y114.735
N1005 X119.027 Y114.7
N1010 X119.061 Y114.675
N1015 X119.09 Y114.645
N1020 X119.153 Y114.568
N1025 X119.18 Y114.528
N1030 X119.199 Y114.484
N1035 X119.226 Y114.396
N1040 X119.234 Y114.36
N1045 X119.237 Y114.322
N1050 X119.239 Y112.457
N1055 X119.5
N1060 Y115.096
N1065 X119.497 Y115.12 Z-1.493
N1070 X119.488 Y115.144 Z-1.487
N1075 X119.465 Y115.172 Z-1.45
N1080 X119.454 Y115.18 Z-1.4
N1085 G0 Z5.
N1090 X117.168 Y114.792
N1095 Z0.175
N1100 G1 X117.175 Z0.138 F700.
N1105 X117.196 Z0.106
N1110 X117.227 Z0.084
N1115 X117.264 Z0.075
N1120 X118.76 Z0.014
N1125 X118.821 Y114.784 Z0.012
N1130 X118.902 Y114.764 Z0.008
N1135 X118.937 Y114.752 Z0.007
N1140 X118.97 Y114.735 Z0.005
N1145 X119.027 Y114.7 Z0.002
N1150 X119.061 Y114.675 Z0.001
N1155 X119.09 Y114.645 Z-0.001
N1160 X119.153 Y114.568 Z-0.005
N1165 X119.18 Y114.528 Z-0.007
N1170 X119.199 Y114.484 Z-0.009
N1175 X119.226 Y114.396 Z-0.013
N1180 X119.234 Y114.36 Z-0.014
N1185 X119.237 Y114.322 Z-0.016
N1190 X119.239 Y112.457 Z-0.092
N1195 X119.5 Z-0.102
N1200 Y117.543 Z-0.309
N1205 X119.239 Z-0.32
N1210 X119.237 Y115.678 Z-0.396
N1215 X119.234 Y115.64 Z-0.398
N1220 X119.226 Y115.604 Z-0.399
N1225 X119.199 Y115.516 Z-0.403
N1230 X119.18 Y115.472 Z-0.405
N1235 X119.153 Y115.432 Z-0.407
N1240 X119.09 Y115.355 Z-0.411
N1245 X119.057 Y115.321 Z-0.413
N1250 X119.018 Y115.295 Z-0.415
N1255 X118.943 Y115.253 Z-0.418
N1260 X118.909 Y115.237 Z-0.42
N1265 X118.873 Y115.227 Z-0.421
N1270 X118.811 Y115.214 Z-0.424
N1275 X118.759 Y115.208 Z-0.426
N1280 X111.149 Z-0.736
N1285 X111.115 Y115.21 Z-0.737
N1290 X111.081 Y115.217 Z-0.739
N1295 X110.99 Y115.243 Z-0.743
N1300 X110.95 Y115.258 Z-0.744
N1305 X110.913 Y115.279 Z-0.746
N1310 X110.851 Y115.323 Z-0.749
N1315 X110.823 Y115.347 Z-0.751
N1320 X110.798 Y115.374 Z-0.752
N1325 X110.755 Y115.43 Z-0.755
N1330 X110.734 Y115.461 Z-0.756
N1335 X110.718 Y115.495 Z-0.758
N1340 X110.691 Y115.568 Z-0.761
N1345 X110.678 Y115.611 Z-0.763
N1350 X110.674 Y115.656 Z-0.765
N1355 X110.67 Y117.543 Z-0.842
N1360 X110.408 Z-0.852
N1365 Y112.457 Z-1.059
N1370 X110.67 Z-1.07
N1375 X110.674 Y114.344 Z-1.147
N1380 X110.678 Y114.389 Z-1.149
N1385 X110.691 Y114.432 Z-1.151
N1390 X110.718 Y114.505 Z-1.154
N1395 X110.738 Y114.545 Z-1.156
N1400 X110.763 Y114.581 Z-1.157
N1405 X110.828 Y114.655 Z-1.161
N1410 X110.86 Y114.686 Z-1.163
N1415 X110.897 Y114.711 Z-1.165
N1420 X110.969 Y114.749 Z-1.168
N1425 X111.009 Y114.766 Z-1.17
N1430 X111.051 Y114.777 Z-1.172
N1435 X111.142 Y114.79 Z-1.176
N1440 X111.179 Y114.793 Z-1.177
N1445 X118.76 Y114.792 Z-1.486
N1450 X118.821 Y114.784 Z-1.488
N1455 X118.902 Y114.764 Z-1.492
N1460 X118.937 Y114.752 Z-1.493
N1465 X118.97 Y114.735 Z-1.495
N1470 X119.027 Y114.7 Z-1.498
N1475 X119.061 Y114.675 Z-1.499
N1480 X119.09 Y114.645 Z-1.501
N1485 X119.153 Y114.568 Z-1.505
N1490 X119.18 Y114.528 Z-1.507
N1495 X119.199 Y114.484 Z-1.509
N1500 X119.226 Y114.396 Z-1.513
N1505 X119.234 Y114.36 Z-1.514
N1510 X119.237 Y114.322 Z-1.516
N1515 X119.239 Y112.457 Z-1.592
N1520 X119.5 Z-1.602
N1525 Y117.543 Z-1.809
N1530 X119.239 Z-1.82
N1535 X119.237 Y115.678 Z-1.896
N1540 X119.234 Y115.64 Z-1.898
N1545 X119.226 Y115.604 Z-1.899
N1550 X119.199 Y115.516 Z-1.903
N1555 X119.18 Y115.472 Z-1.905
N1560 X119.153 Y115.432 Z-1.907
N1565 X119.09 Y115.355 Z-1.911
N1570 X119.057 Y115.321 Z-1.913
N1575 X119.018 Y115.295 Z-1.915
N1580 X118.943 Y115.253 Z-1.918
N1585 X118.909 Y115.237 Z-1.92
N1590 X118.873 Y115.227 Z-1.921
N1595 X118.811 Y115.214 Z-1.924
N1600 X118.759 Y115.208 Z-1.926
N1605 X111.149 Z-2.236
N1610 X111.115 Y115.21 Z-2.237
N1615 X111.081 Y115.217 Z-2.239
N1620 X110.99 Y115.243 Z-2.243
N1625 X110.95 Y115.258 Z-2.244
N1630 X110.913 Y115.279 Z-2.246
N1635 X110.851 Y115.323 Z-2.249
N1640 X110.823 Y115.347 Z-2.251
N1645 X110.798 Y115.374 Z-2.252
N1650 X110.755 Y115.43 Z-2.255
N1655 X110.734 Y115.461 Z-2.256
N1660 X110.718 Y115.495 Z-2.258
N1665 X110.691 Y115.568 Z-2.261
N1670 X110.678 Y115.611 Z-2.263
N1675 X110.674 Y115.656 Z-2.265
N1680 X110.67 Y117.543 Z-2.342
N1685 X110.408 Z-2.352
N1690 Y112.457 Z-2.559
N1695 X110.67 Z-2.57
N1700 X110.674 Y114.344 Z-2.647
N1705 X110.678 Y114.389 Z-2.649
N1710 X110.691 Y114.432 Z-2.651
N1715 X110.718 Y114.505 Z-2.654
N1720 X110.738 Y114.545 Z-2.656
N1725 X110.763 Y114.581 Z-2.657
N1730 X110.828 Y114.655 Z-2.661
N1735 X110.86 Y114.686 Z-2.663
N1740 X110.897 Y114.711 Z-2.665
N1745 X110.969 Y114.749 Z-2.668
N1750 X111.009 Y114.766 Z-2.67
N1755 X111.051 Y114.777 Z-2.672
N1760 X111.142 Y114.79 Z-2.676
N1765 X111.179 Y114.793 Z-2.677
N1770 X118.76 Y114.792 Z-2.986
N1775 X118.821 Y114.784 Z-2.988
N1780 X118.902 Y114.764 Z-2.992
N1785 X118.937 Y114.752 Z-2.993
N1790 X118.97 Y114.735 Z-2.995
N1795 X119.027 Y114.7 Z-2.998
N1800 X119.074 Y114.663 Z-3.
N1805 X119.09 Y114.645
N1810 X119.153 Y114.568
N1815 X119.18 Y114.528
N1820 X119.199 Y114.484
N1825 X119.226 Y114.396
N1830 X119.234 Y114.36
N1835 X119.237 Y114.322
N1840 X119.239 Y112.457
N1845 X119.5
N1850 Y117.543
N1855 X119.239
N1860 X119.237 Y115.678
N1865 X119.234 Y115.64
N1870 X119.226 Y115.604
N1875 X119.199 Y115.516
N1880 X119.18 Y115.472
N1885 X119.153 Y115.432
N1890 X119.09 Y115.355
N1895 X119.057 Y115.321
N1900 X119.018 Y115.295
N1905 X118.943 Y115.253
N1910 X118.909 Y115.237
N1915 X118.873 Y115.227
N1920 X118.811 Y115.214
N1925 X118.759 Y115.208
N1930 X111.149
N1935 X111.115 Y115.21
N1940 X111.081 Y115.217
N1945 X110.99 Y115.243
N1950 X110.95 Y115.258
N1955 X110.913 Y115.279
N1960 X110.851 Y115.323
N1965 X110.823 Y115.347
N1970 X110.798 Y115.374
N1975 X110.755 Y115.43
N1980 X110.734 Y115.461
N1985 X110.718 Y115.495
N1990 X110.691 Y115.568
N1995 X110.678 Y115.611
N2000 X110.674 Y115.656
N2005 X110.67 Y117.543
N2010 X110.408
N2015 Y112.457
N2020 X110.67
N2025 X110.674 Y114.344
N2030 X110.678 Y114.389
N2035 X110.691 Y114.432
N2040 X110.718 Y114.505
N2045 X110.738 Y114.545
N2050 X110.763 Y114.581
N2055 X110.828 Y114.655
N2060 X110.86 Y114.686
N2065 X110.897 Y114.711
N2070 X110.969 Y114.749
N2075 X111.009 Y114.766
N2080 X111.051 Y114.777
N2085 X111.142 Y114.79
N2090 X111.179 Y114.793
N2095 X118.76 Y114.792
N2100 X118.821 Y114.784
N2105 X118.902 Y114.764
N2110 X118.937 Y114.752
N2115 X118.97 Y114.735
N2120 X119.027 Y114.7
N2125 X119.074 Y114.663
N2130 X119.093 Y114.648 Z-2.993
N2135 X119.116 Y114.638 Z-2.987
N2140 X119.152 Y114.634 Z-2.95
N2145 X119.166 Y114.636 Z-2.9
N2150 G0 Z5.
N2155 X132.283 Y116.89
N2160 Z1.675
N2165 G1 X132.276 Y116.892 Z1.637 F700.
N2170 X132.257 Y116.899 Z1.605
N2175 X132.228 Y116.91 Z1.584
N2180 X132.193 Y116.923 Z1.575
N2185 X127.074 Y118.823 Z1.39
N2190 Y118.458 Z1.378
N2195 X129.605 Y117.541 Z1.286
N2200 X129.644 Y117.522 Z1.285
N2205 X129.68 Y117.498 Z1.283
N2210 X129.751 Y117.438 Z1.28
N2215 X129.785 Y117.403 Z1.279
N2220 X129.812 Y117.363 Z1.277
N2225 X129.859 Y117.274 Z1.274
N2230 X129.875 Y117.236 Z1.272
N2235 X129.885 Y117.197 Z1.271
N2240 X129.895 Y117.135 Z1.269
N2245 X129.898 Y117.095 Z1.267
N2250 Y115.119 Z1.2
N2255 X130.002 Y115.154 Z1.197
N2260 X130.004 Y116.757 Z1.142
N2265 X130.007 Y116.795 Z1.141
N2270 X130.016 Y116.833 Z1.14
N2275 X130.046 Y116.926 Z1.136
N2280 X130.065 Y116.97 Z1.135
N2285 X130.093 Y117.01 Z1.133
N2290 X130.155 Y117.084 Z1.13
N2295 X130.185 Y117.114 Z1.128
N2300 X130.219 Y117.138 Z1.127
N2305 X130.281 Y117.175 Z1.125
N2310 X130.319 Y117.193 Z1.123
N2315 X130.359 Y117.204 Z1.122
N2320 X130.451 Y117.223 Z1.119
N2325 X130.498 Y117.227 Z1.117
N2330 X130.545 Y117.223 Z1.115
N2335 X130.637 Y117.206 Z1.112
N2340 X130.674 Y117.197 Z1.111
N2345 X135.416 Y115.561 Z0.941
N2350 X135.659 Y115.485 Z0.932
N2355 X135.696 Y115.47 Z0.931
N2360 X135.731 Y115.449 Z0.929
N2365 X135.815 Y115.389 Z0.926
N2370 X135.849 Y115.359 Z0.924
N2375 X135.877 Y115.324 Z0.923
N2380 X135.919 Y115.262 Z0.92
N2385 X135.939 Y115.225 Z0.919
N2390 X135.953 Y115.184 Z0.917
N2395 X135.976 Y115.092 Z0.914
N2400 X135.984 Y115.045 Z0.913
N2405 X135.982 Y114.998 Z0.911
N2410 X135.969 Y114.905 Z0.908
N2415 X135.958 Y114.857 Z0.906
N2420 X135.937 Y114.812 Z0.905
N2425 X135.884 Y114.722 Z0.901
N2430 X135.858 Y114.685 Z0.899
N2435 X135.826 Y114.654 Z0.898
N2440 X135.769 Y114.608 Z0.895
N2445 X135.733 Y114.584 Z0.894
N2450 X135.695 Y114.566 Z0.893
N2455 X135.545 Y114.513 Z0.887
N2460 X135.539 Y114.511
N2465 X133.655 Y113.9 Z0.82
N2470 X127.074 Y111.56 Z0.583
N2475 Y111.187 Z0.57
N2480 X136.049 Y114.579 Z0.245
N2485 Y115.493 Z0.214
N2490 X127.074 Y118.823 Z-0.11
N2495 Y118.458 Z-0.122
N2500 X129.605 Y117.541 Z-0.214
N2505 X129.644 Y117.522 Z-0.215
N2510 X129.68 Y117.498 Z-0.217
N2515 X129.751 Y117.438 Z-0.22
N2520 X129.785 Y117.403 Z-0.221
N2525 X129.812 Y117.363 Z-0.223
N2530 X129.859 Y117.274 Z-0.226
N2535 X129.875 Y117.236 Z-0.228
N2540 X129.885 Y117.197 Z-0.229
N2545 X129.895 Y117.135 Z-0.231
N2550 X129.898 Y117.095 Z-0.233
N2555 Y115.119 Z-0.3
N2560 X130.002 Y115.154 Z-0.303
N2565 X130.004 Y116.757 Z-0.358
N2570 X130.007 Y116.795 Z-0.359
N2575 X130.016 Y116.833 Z-0.36
N2580 X130.046 Y116.926 Z-0.364
N2585 X130.065 Y116.97 Z-0.365
N2590 X130.093 Y117.01 Z-0.367
N2595 X130.155 Y117.084 Z-0.37
N2600 X130.185 Y117.114 Z-0.372
N2605 X130.219 Y117.138 Z-0.373
N2610 X130.281 Y117.175 Z-0.375
N2615 X130.319 Y117.193 Z-0.377
N2620 X130.359 Y117.204 Z-0.378
N2625 X130.451 Y117.223 Z-0.381
N2630 X130.498 Y117.227 Z-0.383
N2635 X130.545 Y117.223 Z-0.385
N2640 X130.637 Y117.206 Z-0.388
N2645 X130.674 Y117.197 Z-0.389
N2650 X135.416 Y115.561 Z-0.559
N2655 X135.659 Y115.485 Z-0.568
N2660 X135.696 Y115.47 Z-0.569
N2665 X135.731 Y115.449 Z-0.571
N2670 X135.815 Y115.389 Z-0.574
N2675 X135.849 Y115.359 Z-0.576
N2680 X135.877 Y115.324 Z-0.577
N2685 X135.919 Y115.262 Z-0.58
N2690 X135.939 Y115.225 Z-0.581
N2695 X135.953 Y115.184 Z-0.583
N2700 X135.976 Y115.092 Z-0.586
N2705 X135.984 Y115.045 Z-0.587
N2710 X135.982 Y114.998 Z-0.589
N2715 X135.969 Y114.905 Z-0.592
N2720 X135.958 Y114.857 Z-0.594
N2725 X135.937 Y114.812 Z-0.595
N2730 X135.884 Y114.722 Z-0.599
N2735 X135.858 Y114.685 Z-0.601
N2740 X135.826 Y114.654 Z-0.602
N2745 X135.769 Y114.608 Z-0.605
N2750 X135.733 Y114.584 Z-0.606
N2755 X135.695 Y114.566 Z-0.607
N2760 X135.545 Y114.513 Z-0.613
N2765 X135.539 Y114.511
N2770 X133.655 Y113.9 Z-0.68
N2775 X127.074 Y111.56 Z-0.917
N2780 Y111.187 Z-0.93
N2785 X136.049 Y114.579 Z-1.255
N2790 Y115.493 Z-1.286
N2795 X130.118 Y117.693 Z-1.5
N2800 X127.074 Y118.823
N2805 Y118.458
N2810 X129.605 Y117.541
N2815 X129.644 Y117.522
N2820 X129.68 Y117.498
N2825 X129.751 Y117.438
N2830 X129.785 Y117.403
N2835 X129.812 Y117.363
N2840 X129.859 Y117.274
N2845 X129.875 Y117.236
N2850 X129.885 Y117.197
N2855 X129.895 Y117.135
N2860 X129.898 Y117.095
N2865 Y115.119
N2870 X130.002 Y115.154
N2875 X130.004 Y116.757
N2880 X130.007 Y116.795
N2885 X130.016 Y116.833
N2890 X130.046 Y116.926
N2895 X130.065 Y116.97
N2900 X130.093 Y117.01
N2905 X130.155 Y117.084
N2910 X130.185 Y117.114
N2915 X130.219 Y117.138
N2920 X130.281 Y117.175
N2925 X130.319 Y117.193
N2930 X130.359 Y117.204
N2935 X130.451 Y117.223
N2940 X130.498 Y117.227
N2945 X130.545 Y117.223
N2950 X130.637 Y117.206
N2955 X130.674 Y117.197
N2960 X135.416 Y115.561
N2965 X135.659 Y115.485
N2970 X135.696 Y115.47
N2975 X135.731 Y115.449
N2980 X135.815 Y115.389
N2985 X135.849 Y115.359
N2990 X135.877 Y115.324
N2995 X135.919 Y115.262
N3000 X135.939 Y115.225
N3005 X135.953 Y115.184
N3010 X135.976 Y115.092
N3015 X135.984 Y115.045
N3020 X135.982 Y114.998
N3025 X135.969 Y114.905
N3030 X135.958 Y114.857
N3035 X135.937 Y114.812
N3040 X135.884 Y114.722
N3045 X135.858 Y114.685
N3050 X135.826 Y114.654
N3055 X135.769 Y114.608
N3060 X135.733 Y114.584
N3065 X135.695 Y114.566
N3070 X135.545 Y114.513
N3075 X135.539 Y114.511
N3080 X133.655 Y113.9
N3085 X127.074 Y111.56
N3090 Y111.187
N3095 X136.049 Y114.579
N3100 Y115.493
N3105 X130.118 Y117.693
N3110 X130.095 Y117.696
N3115 X130.073 Y117.688
N3120 X129.934 Y117.598
N3125 X129.911 Y117.59
N3130 X129.887 Y117.594
N3135 X129.081 Y117.941
N3140 X129.065 Y117.952
N3145 X129.057 Y117.97
N3150 X129.037 Y118.073
N3155 X129.028 Y118.092
N3160 X129.011 Y118.104
N3165 X127.074 Y118.823 Z-2.053
N3170 Y118.458 Z-2.151
N3175 X129.605 Y117.541 Z-2.872
N3180 X129.644 Y117.522 Z-2.884
N3185 X129.68 Y117.498 Z-2.896
N3190 X129.751 Y117.438 Z-2.921
N3195 X129.785 Y117.403 Z-2.934
N3200 X129.812 Y117.363 Z-2.947
N3205 X129.859 Y117.274 Z-2.974
N3210 X129.875 Y117.236 Z-2.985
N3215 X129.885 Y117.197 Z-2.996
N3220 X129.888 Y117.18 Z-3.
N3225 X129.895 Y117.135
N3230 X129.898 Y117.095
N3235 Y115.119
N3240 X130.002 Y115.154
N3245 X130.004 Y116.757
N3250 X130.007 Y116.795
N3255 X130.016 Y116.833
N3260 X130.046 Y116.926
N3265 X130.065 Y116.97
N3270 X130.093 Y117.01
N3275 X130.155 Y117.084
N3280 X130.185 Y117.114
N3285 X130.219 Y117.138
N3290 X130.281 Y117.175
N3295 X130.319 Y117.193
N3300 X130.359 Y117.204
N3305 X130.451 Y117.223
N3310 X130.498 Y117.227
N3315 X130.545 Y117.223
N3320 X130.637 Y117.206
N3325 X130.674 Y117.197
N3330 X135.416 Y115.561
N3335 X135.659 Y115.485
N3340 X135.696 Y115.47
N3345 X135.731 Y115.449
N3350 X135.815 Y115.389
N3355 X135.849 Y115.359
N3360 X135.877 Y115.324
N3365 X135.919 Y115.262
N3370 X135.939 Y115.225
N3375 X135.953 Y115.184
N3380 X135.976 Y115.092
N3385 X135.984 Y115.045
N3390 X135.982 Y114.998
N3395 X135.969 Y114.905
N3400 X135.958 Y114.857
N3405 X135.937 Y114.812
N3410 X135.884 Y114.722
N3415 X135.858 Y114.685
N3420 X135.826 Y114.654
N3425 X135.769 Y114.608
N3430 X135.733 Y114.584
N3435 X135.695 Y114.566
N3440 X135.545 Y114.513
N3445 X135.539 Y114.511
N3450 X133.655 Y113.9
N3455 X127.074 Y111.56
N3460 Y111.187
N3465 X136.049 Y114.579
N3470 Y115.493
N3475 X127.074 Y118.823
N3480 Y118.458
N3485 X129.605 Y117.541
N3490 X129.644 Y117.522
N3495 X129.68 Y117.498
N3500 X129.751 Y117.438
N3505 X129.785 Y117.403
N3510 X129.812 Y117.363
N3515 X129.859 Y117.274
N3520 X129.875 Y117.236
N3525 X129.885 Y117.197
N3530 X129.888 Y117.18
N3535 X129.895 Y117.156 Z-2.993
N3540 X129.907 Y117.135 Z-2.987
N3545 X129.934 Y117.111 Z-2.95
N3550 X129.946 Y117.104 Z-2.9
N3555 G0 Z5.
N3560 X129.898 Y131.797
N3565 Z1.675
N3570 G1 Y131.794 Z1.651 F700.
N3575 Y131.785 Z1.628
N3580 X129.918 Y131.792 Z1.601
N3585 X129.946 Y131.802 Z1.582
N3590 X129.979 Y131.813 Z1.575
N3595 X130. Y131.82 Z1.574
N3600 X130.004 Y133.428 Z1.52
N3605 X130.008 Y133.469 Z1.518
N3610 X130.018 Y133.509 Z1.517
N3615 X130.05 Y133.602 Z1.514
N3620 X130.069 Y133.644 Z1.512
N3625 X130.096 Y133.683 Z1.51
N3630 X130.154 Y133.75 Z1.507
N3635 X130.183 Y133.779 Z1.506
N3640 X130.216 Y133.803 Z1.505
N3645 X130.28 Y133.841 Z1.502
N3650 X130.317 Y133.858 Z1.501
N3655 X130.355 Y133.87 Z1.499
N3660 X130.441 Y133.888 Z1.496
N3665 X130.484 Y133.894 Z1.495
N3670 X130.527 Y133.892 Z1.493
N3675 X130.612 Y133.88 Z1.491
N3680 X130.66 Y133.868 Z1.489
N3685 X135.418 Y132.227 Z1.318
N3690 X135.686 Y132.139 Z1.309
N3695 X135.725 Y132.122 Z1.307
N3700 X135.761 Y132.098 Z1.306
N3705 X135.82 Y132.053 Z1.303
N3710 X135.847 Y132.028 Z1.302
N3715 X135.871 Y131.999 Z1.301
N3720 X135.914 Y131.937 Z1.298
N3725 X135.935 Y131.9 Z1.297
N3730 X135.95 Y131.86 Z1.295
N3735 X135.975 Y131.768 Z1.292
N3740 X135.983 Y131.723 Z1.291
N3745 X135.982 Y131.677 Z1.289
N3750 X135.974 Y131.592 Z1.286
N3755 X135.967 Y131.553 Z1.285
N3760 X135.953 Y131.515 Z1.283
N3765 X135.922 Y131.445 Z1.281
N3770 X135.903 Y131.41 Z1.279
N3775 X135.879 Y131.379 Z1.278
N3780 X135.824 Y131.319 Z1.275
N3785 X135.793 Y131.29 Z1.274
N3790 X135.757 Y131.267 Z1.272
N3795 X135.678 Y131.225 Z1.269
N3800 X135.637 Y131.208 Z1.268
N3805 X133.693 Y130.581 Z1.199
N3810 X127.074 Y128.226 Z0.961
N3815 Y127.854 Z0.948
N3820 X136.049 Y131.246 Z0.623
N3825 Y132.159 Z0.592
N3830 X127.074 Y135.489 Z0.267
N3835 Y135.125 Z0.255
N3840 X129.609 Y134.205 Z0.164
N3845 X129.648 Y134.187 Z0.162
N3850 X129.684 Y134.162 Z0.161
N3855 X129.75 Y134.106 Z0.158
N3860 X129.783 Y134.073 Z0.156
N3865 X129.809 Y134.035 Z0.155
N3870 X129.856 Y133.948 Z0.151
N3875 X129.875 Y133.905 Z0.15
N3880 X129.885 Y133.859 Z0.148
N3885 X129.896 Y133.766 Z0.145
N3890 X129.898 Y133.736 Z0.144
N3895 Y131.785 Z0.078
N3900 X130. Y131.82 Z0.074
N3905 X130.004 Y133.428 Z0.02
N3910 X130.008 Y133.469 Z0.018
N3915 X130.018 Y133.509 Z0.017
N3920 X130.05 Y133.602 Z0.014
N3925 X130.069 Y133.644 Z0.012
N3930 X130.096 Y133.683 Z0.01
N3935 X130.154 Y133.75 Z0.007
N3940 X130.183 Y133.779 Z0.006
N3945 X130.216 Y133.803 Z0.005
N3950 X130.28 Y133.841 Z0.002
N3955 X130.317 Y133.858 Z0.001
N3960 X130.355 Y133.87 Z-0.001
N3965 X130.441 Y133.888 Z-0.004
N3970 X130.484 Y133.894 Z-0.005
N3975 X130.527 Y133.892 Z-0.007
N3980 X130.612 Y133.88 Z-0.009
N3985 X130.66 Y133.868 Z-0.011
N3990 X135.418 Y132.227 Z-0.182
N3995 X135.686 Y132.139 Z-0.191
N4000 X135.725 Y132.122 Z-0.193
N4005 X135.761 Y132.098 Z-0.194
N4010 X135.82 Y132.053 Z-0.197
N4015 X135.847 Y132.028 Z-0.198
N4020 X135.871 Y131.999 Z-0.199
N4025 X135.914 Y131.937 Z-0.202
N4030 X135.935 Y131.9 Z-0.203
N4035 X135.95 Y131.86 Z-0.205
N4040 X135.975 Y131.768 Z-0.208
N4045 X135.983 Y131.723 Z-0.209
N4050 X135.982 Y131.677 Z-0.211
N4055 X135.974 Y131.592 Z-0.214
N4060 X135.967 Y131.553 Z-0.215
N4065 X135.953 Y131.515 Z-0.217
N4070 X135.922 Y131.445 Z-0.219
N4075 X135.903 Y131.41 Z-0.221
N4080 X135.879 Y131.379 Z-0.222
N4085 X135.824 Y131.319 Z-0.225
N4090 X135.793 Y131.29 Z-0.226
N4095 X135.757 Y131.267 Z-0.228
N4100 X135.678 Y131.225 Z-0.231
N4105 X135.637 Y131.208 Z-0.232
N4110 X133.693 Y130.581 Z-0.301
N4115 X127.074 Y128.226 Z-0.539
N4120 Y127.854 Z-0.552
N4125 X136.049 Y131.246 Z-0.877
N4130 Y132.159 Z-0.908
N4135 X127.074 Y135.489 Z-1.233
N4140 Y135.125 Z-1.245
N4145 X129.609 Y134.205 Z-1.336
N4150 X129.648 Y134.187 Z-1.338
N4155 X129.684 Y134.162 Z-1.339
N4160 X129.75 Y134.106 Z-1.342
N4165 X129.783 Y134.073 Z-1.344
N4170 X129.809 Y134.035 Z-1.345
N4175 X129.856 Y133.948 Z-1.349
N4180 X129.875 Y133.905 Z-1.35
N4185 X129.885 Y133.859 Z-1.352
N4190 X129.896 Y133.766 Z-1.355
N4195 X129.898 Y133.736 Z-1.356
N4200 Y131.785 Z-1.422
N4205 X130. Y131.82 Z-1.426
N4210 X130.004 Y133.428 Z-1.48
N4215 X130.008 Y133.469 Z-1.482
N4220 X130.018 Y133.509 Z-1.483
N4225 X130.05 Y133.602 Z-1.486
N4230 X130.069 Y133.644 Z-1.488
N4235 X130.096 Y133.683 Z-1.49
N4240 X130.154 Y133.75 Z-1.493
N4245 X130.183 Y133.779 Z-1.494
N4250 X130.216 Y133.803 Z-1.495
N4255 X130.28 Y133.841 Z-1.498
N4260 X130.338 Y133.866 Z-1.5
N4265 X130.355 Y133.87
N4270 X130.441 Y133.888
N4275 X130.484 Y133.894
N4280 X130.527 Y133.892
N4285 X130.612 Y133.88
N4290 X130.66 Y133.868
N4295 X135.418 Y132.227
N4300 X135.686 Y132.139
N4305 X135.725 Y132.122
N4310 X135.761 Y132.098
N4315 X135.82 Y132.053
N4320 X135.847 Y132.028
N4325 X135.871 Y131.999
N4330 X135.914 Y131.937
N4335 X135.935 Y131.9
N4340 X135.95 Y131.86
N4345 X135.975 Y131.768
N4350 X135.983 Y131.723
N4355 X135.982 Y131.677
N4360 X135.974 Y131.592
N4365 X135.967 Y131.553
N4370 X135.953 Y131.515
N4375 X135.922 Y131.445
N4380 X135.903 Y131.41
N4385 X135.879 Y131.379
N4390 X135.824 Y131.319
N4395 X135.793 Y131.29
N4400 X135.757 Y131.267
N4405 X135.678 Y131.225
N4410 X135.637 Y131.208
N4415 X133.693 Y130.581
N4420 X127.074 Y128.226
N4425 Y127.854
N4430 X136.049 Y131.246
N4435 Y132.159
N4440 X127.074 Y135.489
N4445 Y135.125
N4450 X129.609 Y134.205
N4455 X129.648 Y134.187
N4460 X129.684 Y134.162
N4465 X129.75 Y134.106
N4470 X129.783 Y134.073
N4475 X129.809 Y134.035
N4480 X129.856 Y133.948
N4485 X129.875 Y133.905
N4490 X129.885 Y133.859
N4495 X129.896 Y133.766
N4500 X129.898 Y133.736
N4505 Y131.785
N4510 X130. Y131.82
N4515 X130.004 Y133.428
N4520 X130.008 Y133.469
N4525 X130.018 Y133.509
N4530 X130.05 Y133.602
N4535 X130.069 Y133.644
N4540 X130.096 Y133.683
N4545 X130.154 Y133.75
N4550 X130.183 Y133.779
N4555 X130.216 Y133.803
N4560 X130.28 Y133.841
N4565 X130.338 Y133.866
N4570 X130.358 Y133.877
N4575 X130.371 Y133.896
N4580 X130.374 Y133.919
N4585 X130.366 Y133.94
N4590 X130.35 Y133.956
N4595 X130.144 Y134.081
N4600 X129.044 Y134.535
N4605 X128.905 Y134.546
N4610 X128.883 Y134.541
N4615 X128.867 Y134.524
N4620 X128.862 Y134.502
N4625 X128.87 Y134.48
N4630 X128.889 Y134.466
N4635 X129.609 Y134.205 Z-1.705
N4640 X129.648 Y134.187 Z-1.717
N4645 X129.684 Y134.162 Z-1.729
N4650 X129.75 Y134.106 Z-1.752
N4655 X129.783 Y134.073 Z-1.764
N4660 X129.809 Y134.035 Z-1.777
N4665 X129.856 Y133.948 Z-1.803
N4670 X129.875 Y133.905 Z-1.816
N4675 X129.885 Y133.859 Z-1.828
N4680 X129.896 Y133.766 Z-1.853
N4685 X129.898 Y133.736 Z-1.862
N4690 Y131.785 Z-2.384
N4695 X130. Y131.82 Z-2.413
N4700 X130.004 Y133.428 Z-2.844
N4705 X130.008 Y133.469 Z-2.855
N4710 X130.018 Y133.509 Z-2.866
N4715 X130.05 Y133.602 Z-2.892
N4720 X130.069 Y133.644 Z-2.905
N4725 X130.096 Y133.683 Z-2.917
N4730 X130.154 Y133.75 Z-2.941
N4735 X130.183 Y133.779 Z-2.952
N4740 X130.216 Y133.803 Z-2.963
N4745 X130.28 Y133.841 Z-2.983
N4750 X130.338 Y133.866 Z-3.
N4755 X130.355 Y133.87
N4760 X130.441 Y133.888
N4765 X130.484 Y133.894
N4770 X130.527 Y133.892
N4775 X130.612 Y133.88
N4780 X130.66 Y133.868
N4785 X135.418 Y132.227
N4790 X135.686 Y132.139
N4795 X135.725 Y132.122
N4800 X135.761 Y132.098
N4805 X135.82 Y132.053
N4810 X135.847 Y132.028
N4815 X135.871 Y131.999
N4820 X135.914 Y131.937
N4825 X135.935 Y131.9
N4830 X135.95 Y131.86
N4835 X135.975 Y131.768
N4840 X135.983 Y131.723
N4845 X135.982 Y131.677
N4850 X135.974 Y131.592
N4855 X135.967 Y131.553
N4860 X135.953 Y131.515
N4865 X135.922 Y131.445
N4870 X135.903 Y131.41
N4875 X135.879 Y131.379
N4880 X135.824 Y131.319
N4885 X135.793 Y131.29
N4890 X135.757 Y131.267
N4895 X135.678 Y131.225
N4900 X135.637 Y131.208
N4905 X133.693 Y130.581
N4910 X127.074 Y128.226
N4915 Y127.854
N4920 X136.049 Y131.246
N4925 Y132.159
N4930 X127.074 Y135.489
N4935 Y135.125
N4940 X129.609 Y134.205
N4945 X129.648 Y134.187
N4950 X129.684 Y134.162
N4955 X129.75 Y134.106
N4960 X129.783 Y134.073
N4965 X129.809 Y134.035
N4970 X129.856 Y133.948
N4975 X129.875 Y133.905
N4980 X129.885 Y133.859
N4985 X129.896 Y133.766
N4990 X129.898 Y133.736
N4995 Y131.785
N5000 X130. Y131.82
N5005 X130.004 Y133.428
N5010 X130.008 Y133.469
N5015 X130.018 Y133.509
N5020 X130.05 Y133.602
N5025 X130.069 Y133.644
N5030 X130.096 Y133.683
N5035 X130.154 Y133.75
N5040 X130.183 Y133.779
N5045 X130.216 Y133.803
N5050 X130.28 Y133.841
N5055 X130.338 Y133.866
N5060 X130.361 Y133.876 Z-2.993
N5065 X130.381 Y133.891 Z-2.987
N5070 X130.401 Y133.921 Z-2.95
N5075 X130.406 Y133.933 Z-2.9
N5080 G0 Z5.
N5085 X115.137 Y131.882
N5090 Z1.675
N5095 G1 Y131.875 Z1.637 F700.
N5100 Y131.854 Z1.605
N5105 Y131.822 Z1.583
N5110 X115.136 Y131.785 Z1.575
N5115 X115.135 Y129.699 Z1.513
N5120 X115.131 Y129.654 Z1.511
N5125 X115.119 Y129.61 Z1.51
N5130 X115.085 Y129.523 Z1.507
N5135 X115.066 Y129.483 Z1.506
N5140 X115.04 Y129.447 Z1.504
N5145 X114.984 Y129.384 Z1.502
N5150 X114.954 Y129.354 Z1.501
N5155 X114.919 Y129.331 Z1.499
N5160 X114.845 Y129.289 Z1.497
N5165 X114.805 Y129.271 Z1.496
N5170 X114.762 Y129.26 Z1.494
N5175 X114.669 Y129.245 Z1.491
N5180 X114.63 Y129.242 Z1.49
N5185 X111.148 Y129.243 Z1.386
N5190 X111.113 Y129.246 Z1.385
N5195 X111.079 Y129.253 Z1.384
N5200 X110.987 Y129.279 Z1.381
N5205 X110.945 Y129.295 Z1.38
N5210 X110.907 Y129.319 Z1.378
N5215 X110.84 Y129.368 Z1.376
N5220 X110.807 Y129.397 Z1.375
N5225 X110.78 Y129.431 Z1.373
N5230 X110.731 Y129.506 Z1.371
N5235 X110.709 Y129.546 Z1.369
N5240 X110.696 Y129.588 Z1.368
N5245 X110.676 Y129.674 Z1.365
N5250 X110.669 Y129.73 Z1.364
N5255 Y134.924 Z1.208
N5260 X110.408 Z1.2
N5265 Y128.828 Z1.018
N5270 X119.5 Z0.746
N5275 Y134.624 Z0.573
N5280 X119.239 Z0.565
N5285 X119.235 Y129.699 Z0.418
N5290 X119.231 Y129.653 Z0.416
N5295 X119.218 Y129.608 Z0.415
N5300 X119.182 Y129.517 Z0.412
N5305 X119.159 Y129.472 Z0.41
N5310 X119.128 Y129.433 Z0.409
N5315 X119.057 Y129.36 Z0.406
N5320 X119.019 Y129.328 Z0.404
N5325 X118.975 Y129.304 Z0.403
N5330 X118.887 Y129.267 Z0.4
N5335 X118.84 Y129.253 Z0.399
N5340 X118.791 Y129.248 Z0.397
N5345 X117.59 Y129.242 Z0.361
N5350 X115.862 Y129.245 Z0.31
N5355 X115.824 Y129.248 Z0.308
N5360 X115.787 Y129.257 Z0.307
N5365 X115.711 Y129.281 Z0.305
N5370 X115.67 Y129.299 Z0.303
N5375 X115.632 Y129.323 Z0.302
N5380 X115.554 Y129.385 Z0.299
N5385 X115.518 Y129.42 Z0.298
N5390 X115.49 Y129.461 Z0.296
N5395 X115.442 Y129.548 Z0.293
N5400 X115.426 Y129.585 Z0.292
N5405 X115.415 Y129.625 Z0.291
N5410 X115.404 Y129.686 Z0.289
N5415 X115.401 Y129.73 Z0.288
N5420 X115.4 Y134.18 Z0.154
N5425 X115.138 Z0.147
N5430 X115.135 Y129.699 Z0.013
N5435 X115.131 Y129.654 Z0.011
N5440 X115.119 Y129.61 Z0.01
N5445 X115.085 Y129.523 Z0.007
N5450 X115.066 Y129.483 Z0.006
N5455 X115.04 Y129.447 Z0.004
N5460 X114.984 Y129.384 Z0.002
N5465 X114.954 Y129.354 Z0.001
N5470 X114.919 Y129.331 Z-0.001
N5475 X114.845 Y129.289 Z-0.003
N5480 X114.805 Y129.271 Z-0.004
N5485 X114.762 Y129.26 Z-0.006
N5490 X114.669 Y129.245 Z-0.009
N5495 X114.63 Y129.242 Z-0.01
N5500 X111.148 Y129.243 Z-0.114
N5505 X111.113 Y129.246 Z-0.115
N5510 X111.079 Y129.253 Z-0.116
N5515 X110.987 Y129.279 Z-0.119
N5520 X110.945 Y129.295 Z-0.12
N5525 X110.907 Y129.319 Z-0.122
N5530 X110.84 Y129.368 Z-0.124
N5535 X110.807 Y129.397 Z-0.125
N5540 X110.78 Y129.431 Z-0.127
N5545 X110.731 Y129.506 Z-0.129
N5550 X110.709 Y129.546 Z-0.131
N5555 X110.696 Y129.588 Z-0.132
N5560 X110.676 Y129.674 Z-0.135
N5565 X110.669 Y129.73 Z-0.136
N5570 Y134.924 Z-0.292
N5575 X110.408 Z-0.3
N5580 Y128.828 Z-0.482
N5585 X119.5 Z-0.754
N5590 Y134.624 Z-0.927
N5595 X119.239 Z-0.935
N5600 X119.235 Y129.699 Z-1.082
N5605 X119.231 Y129.653 Z-1.084
N5610 X119.218 Y129.608 Z-1.085
N5615 X119.182 Y129.517 Z-1.088
N5620 X119.159 Y129.472 Z-1.09
N5625 X119.128 Y129.433 Z-1.091
N5630 X119.057 Y129.36 Z-1.094
N5635 X119.019 Y129.328 Z-1.096
N5640 X118.975 Y129.304 Z-1.097
N5645 X118.887 Y129.267 Z-1.1
N5650 X118.84 Y129.253 Z-1.101
N5655 X118.791 Y129.248 Z-1.103
N5660 X117.59 Y129.242 Z-1.139
N5665 X115.862 Y129.245 Z-1.19
N5670 X115.824 Y129.248 Z-1.192
N5675 X115.787 Y129.257 Z-1.193
N5680 X115.711 Y129.281 Z-1.195
N5685 X115.67 Y129.299 Z-1.197
N5690 X115.632 Y129.323 Z-1.198
N5695 X115.554 Y129.385 Z-1.201
N5700 X115.518 Y129.42 Z-1.202
N5705 X115.49 Y129.461 Z-1.204
N5710 X115.442 Y129.548 Z-1.207
N5715 X115.426 Y129.585 Z-1.208
N5720 X115.415 Y129.625 Z-1.209
N5725 X115.404 Y129.686 Z-1.211
N5730 X115.401 Y129.73 Z-1.212
N5735 X115.4 Y134.18 Z-1.346
N5740 X115.138 Z-1.353
N5745 X115.135 Y129.699 Z-1.487
N5750 X115.131 Y129.654 Z-1.489
N5755 X115.119 Y129.61 Z-1.49
N5760 X115.085 Y129.523 Z-1.493
N5765 X115.066 Y129.483 Z-1.494
N5770 X115.04 Y129.447 Z-1.496
N5775 X114.984 Y129.384 Z-1.498
N5780 X114.962 Y129.361 Z-1.499
N5785 X114.936 Y129.341 Z-1.5
N5790 X114.919 Y129.331
N5795 X114.845 Y129.289
N5800 X114.805 Y129.271
N5805 X114.762 Y129.26
N5810 X114.669 Y129.245
N5815 X114.63 Y129.242
N5820 X111.148 Y129.243
N5825 X111.113 Y129.246
N5830 X111.079 Y129.253
N5835 X110.987 Y129.279
N5840 X110.945 Y129.295
N5845 X110.907 Y129.319
N5850 X110.84 Y129.368
N5855 X110.807 Y129.397
N5860 X110.78 Y129.431
N5865 X110.731 Y129.506
N5870 X110.709 Y129.546
N5875 X110.696 Y129.588
N5880 X110.676 Y129.674
N5885 X110.669 Y129.73
N5890 Y134.924
N5895 X110.408
N5900 Y128.828
N5905 X119.5
N5910 Y134.624
N5915 X119.239
N5920 X119.235 Y129.699
N5925 X119.231 Y129.653
N5930 X119.218 Y129.608
N5935 X119.182 Y129.517
N5940 X119.159 Y129.472
N5945 X119.128 Y129.433
N5950 X119.057 Y129.36
N5955 X119.019 Y129.328
N5960 X118.975 Y129.304
N5965 X118.887 Y129.267
N5970 X118.84 Y129.253
N5975 X118.791 Y129.248
N5980 X117.59 Y129.242
N5985 X115.862 Y129.245
N5990 X115.824 Y129.248
N5995 X115.787 Y129.257
N6000 X115.711 Y129.281
N6005 X115.67 Y129.299
N6010 X115.632 Y129.323
N6015 X115.554 Y129.385
N6020 X115.518 Y129.42
N6025 X115.49 Y129.461
N6030 X115.442 Y129.548
N6035 X115.426 Y129.585
N6040 X115.415 Y129.625
N6045 X115.404 Y129.686
N6050 X115.401 Y129.73
N6055 X115.4 Y134.18
N6060 X115.138
N6065 X115.135 Y129.699
N6070 X115.131 Y129.654
N6075 X115.119 Y129.61
N6080 X115.085 Y129.523
N6085 X115.066 Y129.483
N6090 X115.04 Y129.447
N6095 X114.984 Y129.384
N6100 X114.962 Y129.361
N6105 X114.936 Y129.341
N6110 X114.919 Y129.321
N6115 X114.914 Y129.295
N6120 X114.923 Y129.271
N6125 X114.944 Y129.254
N6130 X114.97 Y129.25
N6135 X115.226 Y129.278
N6140 X115.248 Y129.286
N6145 X115.264 Y129.303
N6150 X115.271 Y129.326
N6155 X115.269 Y133.616
N6160 X115.275 Y133.637
N6165 X115.289 Y133.653
N6170 X115.38 Y133.71
N6175 X115.395 Y133.726
N6180 X115.4 Y133.747
N6185 Y134.18 Z-1.616
N6190 X115.138 Z-1.686
N6195 X115.135 Y129.699 Z-2.887
N6200 X115.131 Y129.654 Z-2.899
N6205 X115.119 Y129.61 Z-2.911
N6210 X115.085 Y129.523 Z-2.936
N6215 X115.066 Y129.483 Z-2.948
N6220 X115.04 Y129.447 Z-2.96
N6225 X114.984 Y129.384 Z-2.983
N6230 X114.962 Y129.361 Z-2.991
N6235 X114.936 Y129.341 Z-3.
N6240 X114.919 Y129.331
N6245 X114.845 Y129.289
N6250 X114.805 Y129.271
N6255 X114.762 Y129.26
N6260 X114.669 Y129.245
N6265 X114.63 Y129.242
N6270 X111.148 Y129.243
N6275 X111.113 Y129.246
N6280 X111.079 Y129.253
N6285 X110.987 Y129.279
N6290 X110.945 Y129.295
N6295 X110.907 Y129.319
N6300 X110.84 Y129.368
N6305 X110.807 Y129.397
N6310 X110.78 Y129.431
N6315 X110.731 Y129.506
N6320 X110.709 Y129.546
N6325 X110.696 Y129.588
N6330 X110.676 Y129.674
N6335 X110.669 Y129.73
N6340 Y134.924
N6345 X110.408
N6350 Y128.828
N6355 X119.5
N6360 Y134.624
N6365 X119.239
N6370 X119.235 Y129.699
N6375 X119.231 Y129.653
N6380 X119.218 Y129.608
N6385 X119.182 Y129.517
N6390 X119.159 Y129.472
N6395 X119.128 Y129.433
N6400 X119.057 Y129.36
N6405 X119.019 Y129.328
N6410 X118.975 Y129.304
N6415 X118.887 Y129.267
N6420 X118.84 Y129.253
N6425 X118.791 Y129.248
N6430 X117.59 Y129.242
N6435 X115.862 Y129.245
N6440 X115.824 Y129.248
N6445 X115.787 Y129.257
N6450 X115.711 Y129.281
N6455 X115.67 Y129.299
N6460 X115.632 Y129.323
N6465 X115.554 Y129.385
N6470 X115.518 Y129.42
N6475 X115.49 Y129.461
N6480 X115.442 Y129.548
N6485 X115.426 Y129.585
N6490 X115.415 Y129.625
N6495 X115.404 Y129.686
N6500 X115.401 Y129.73
N6505 X115.4 Y134.18
N6510 X115.138
N6515 X115.135 Y129.699
N6520 X115.131 Y129.654
N6525 X115.119 Y129.61
N6530 X115.085 Y129.523
N6535 X115.066 Y129.483
N6540 X115.04 Y129.447
N6545 X114.984 Y129.384
N6550 X114.962 Y129.361
N6555 X114.936 Y129.341
N6560 X114.918 Y129.325 Z-2.993
N6565 X114.903 Y129.304 Z-2.987
N6570 X114.893 Y129.269 Z-2.95
N6575 X114.892 Y129.256 Z-2.9
N6580 G0 Z5.
N6585 X110.743 Y145.894
N6590 Z1.675
N6595 G1 X110.736 Z1.638 F700.
N6600 X110.716 Z1.607
N6605 X110.686 Z1.585
N6610 X110.651 Z1.575
N6615 X110.408 Z1.556
N6620 Y145.495 Z1.524
N6625 X119.382 Z0.806
N6630 Y145.894 Z0.774
N6635 X110.408 Z0.056
N6640 Y145.495 Z0.024
N6645 X119.382 Z-0.694
N6650 Y145.894 Z-0.726
N6655 X110.408 Z-1.444
N6660 Y145.495 Z-1.476
N6665 X110.702 Z-1.5
N6670 X119.382
N6675 Y145.894
N6680 X110.408
N6685 Y145.495
N6690 X110.702
N6695 X110.727 Y145.498 Z-1.493
N6700 X110.75 Y145.507 Z-1.487
N6705 X110.779 Y145.53 Z-1.45
N6710 X110.786 Y145.541 Z-1.4
N6715 G0 Z5.
N6720 X111.142 Y145.894
N6725 Z0.175
N6730 G1 X111.135 Z0.138 F700.
N6735 X111.116 Z0.107
N6740 X111.086 Z0.085
N6745 X111.05 Z0.075
N6750 X110.408 Z0.024
N6755 Y145.495 Z-0.008
N6760 X119.382 Z-0.726
N6765 Y145.894 Z-0.758
N6770 X110.408 Z-1.476
N6775 Y145.495 Z-1.508
N6780 X119.382 Z-2.226
N6785 Y145.894 Z-2.258
N6790 X110.408 Z-2.976
N6795 Y145.599 Z-3.
N6800 Y145.495
N6805 X119.382
N6810 Y145.894
N6815 X110.408
N6820 Y145.599
N6825 Z-2.9
N6830 G0 Z5.
N6835 X113.26 Y149.332
N6840 Z1.675
N6845 G1 X113.266 Y149.328 Z1.638 F700.
N6850 X113.283 Y149.317 Z1.606
N6855 X113.309 Y149.301 Z1.584
N6860 X113.34 Y149.281 Z1.575
N6865 X114.454 Y148.572 Z1.503
N6870 X114.482 Y148.551 Z1.501
N6875 X114.508 Y148.526 Z1.499
N6880 X114.56 Y148.466 Z1.495
N6885 X114.585 Y148.432 Z1.493
N6890 X114.604 Y148.394 Z1.491
N6895 X114.637 Y148.313 Z1.486
N6900 X114.65 Y148.27 Z1.483
N6905 X114.655 Y148.225 Z1.481
N6910 X114.803 Z1.473
N6915 X114.839 Y148.82 Z1.441
N6920 X114.846 Y148.866 Z1.438
N6925 X115.09 Y149.833 Z1.384
N6930 X115.112 Y149.89 Z1.381
N6935 X115.367 Y150.368 Z1.351
N6940 X115.399 Y150.415 Z1.348
N6945 X115.508 Y150.54 Z1.339
N6950 X115.519 Y150.552 Z1.338
N6955 X115.803 Y150.839 Z1.316
N6960 X115.828 Y150.862 Z1.314
N6965 X115.857 Y150.881 Z1.313
N6970 X115.986 Y150.954 Z1.305
N6975 X115.999 Y150.961 Z1.304
N6980 X116.378 Y151.147 Z1.281
N6985 X116.413 Y151.161 Z1.279
N6990 X116.449 Y151.17 Z1.277
N6995 X116.994 Y151.257 Z1.247
N7000 X117.028 Y151.26 Z1.245
N7005 X117.062 Y151.259 Z1.243
N7010 X117.586 Y151.2 Z1.215
N7015 X117.619 Y151.194 Z1.213
N7020 X117.651 Y151.183 Z1.211
N7025 X117.76 Y151.139 Z1.204
N7030 X117.779 Y151.131 Z1.203
N7035 X118.163 Y150.938 Z1.18
N7040 X118.193 Y150.921 Z1.178
N7045 X118.22 Y150.899 Z1.176
N7050 X118.32 Y150.807 Z1.169
N7055 X118.333 Y150.794 Z1.168
N7060 X118.595 Y150.517 Z1.147
N7065 X118.623 Y150.481 Z1.145
N7070 X118.683 Y150.388 Z1.139
N7075 X118.693 Y150.37 Z1.138
N7080 X118.889 Y150. Z1.115
N7085 X118.905 Y149.963 Z1.113
N7090 X118.946 Y149.84 Z1.106
N7095 X118.952 Y149.82 Z1.105
N7100 X119.166 Y148.957 Z1.056
N7105 X119.172 Y148.92 Z1.054
N7110 X119.195 Y148.673 Z1.041
N7115 Y148.665 Z1.04
N7120 X119.221 Y148.225 Z1.016
N7125 X119.322 Z1.011
N7130 X119.231 Y149.127 Z0.962
N7135 X118.872 Y150.383 Z0.891
N7140 X118.577 Y150.888 Z0.859
N7145 X118.183 Y151.275 Z0.829
N7150 X117.672 Y151.514 Z0.799
N7155 X117.128 Y151.582 Z0.769
N7160 X116.205 Y151.455 Z0.718
N7165 X115.829 Y151.303 Z0.696
N7170 X115.493 Y151.068 Z0.674
N7175 X115.22 Y150.747 Z0.651
N7180 X115.042 Y150.411 Z0.631
N7185 X114.799 Y149.394 Z0.574
N7190 X114.786 Y149.354 Z0.572
N7195 X114.767 Y149.318 Z0.569
N7200 X114.717 Y149.238 Z0.564
N7205 X114.692 Y149.206 Z0.562
N7210 X114.662 Y149.178 Z0.56
N7215 X114.609 Y149.135 Z0.556
N7220 X114.58 Y149.114 Z0.554
N7225 X114.548 Y149.098 Z0.552
N7230 X114.48 Y149.07 Z0.548
N7235 X114.44 Y149.057 Z0.546
N7240 X114.398 Y149.051 Z0.544
N7245 X114.306 Y149.046 Z0.539
N7250 X114.258 Y149.048 Z0.536
N7255 X114.212 Y149.058 Z0.533
N7260 X114.119 Y149.089 Z0.528
N7265 X114.088 Y149.102 Z0.526
N7270 X114.06 Y149.119 Z0.525
N7275 X110.408 Y151.564 Z0.286
N7280 Y151.148 Z0.264
N7285 X114.454 Y148.572 Z0.003
N7290 X114.482 Y148.551 Z0.001
N7295 X114.508 Y148.526 Z-0.001
N7300 X114.56 Y148.466 Z-0.005
N7305 X114.585 Y148.432 Z-0.007
N7310 X114.604 Y148.394 Z-0.009
N7315 X114.637 Y148.313 Z-0.014
N7320 X114.65 Y148.27 Z-0.017
N7325 X114.655 Y148.225 Z-0.019
N7330 X114.803 Z-0.027
N7335 X114.839 Y148.82 Z-0.059
N7340 X114.846 Y148.866 Z-0.062
N7345 X115.09 Y149.833 Z-0.116
N7350 X115.112 Y149.89 Z-0.119
N7355 X115.367 Y150.368 Z-0.149
N7360 X115.399 Y150.415 Z-0.152
N7365 X115.508 Y150.54 Z-0.161
N7370 X115.519 Y150.552 Z-0.162
N7375 X115.803 Y150.839 Z-0.184
N7380 X115.828 Y150.862 Z-0.186
N7385 X115.857 Y150.881 Z-0.187
N7390 X115.986 Y150.954 Z-0.195
N7395 X115.999 Y150.961 Z-0.196
N7400 X116.378 Y151.147 Z-0.219
N7405 X116.413 Y151.161 Z-0.221
N7410 X116.449 Y151.17 Z-0.223
N7415 X116.994 Y151.257 Z-0.253
N7420 X117.028 Y151.26 Z-0.255
N7425 X117.062 Y151.259 Z-0.257
N7430 X117.586 Y151.2 Z-0.285
N7435 X117.619 Y151.194 Z-0.287
N7440 X117.651 Y151.183 Z-0.289
N7445 X117.76 Y151.139 Z-0.296
N7450 X117.779 Y151.131 Z-0.297
N7455 X118.163 Y150.938 Z-0.32
N7460 X118.193 Y150.921 Z-0.322
N7465 X118.22 Y150.899 Z-0.324
N7470 X118.32 Y150.807 Z-0.331
N7475 X118.333 Y150.794 Z-0.332
N7480 X118.595 Y150.517 Z-0.353
N7485 X118.623 Y150.481 Z-0.355
N7490 X118.683 Y150.388 Z-0.361
N7495 X118.693 Y150.37 Z-0.362
N7500 X118.889 Y150. Z-0.385
N7505 X118.905 Y149.963 Z-0.387
N7510 X118.946 Y149.84 Z-0.394
N7515 X118.952 Y149.82 Z-0.395
N7520 X119.166 Y148.957 Z-0.444
N7525 X119.172 Y148.92 Z-0.446
N7530 X119.195 Y148.673 Z-0.459
N7535 Y148.665 Z-0.46
N7540 X119.221 Y148.225 Z-0.484
N7545 X119.322 Z-0.489
N7550 X119.231 Y149.127 Z-0.538
N7555 X118.872 Y150.383 Z-0.609
N7560 X118.577 Y150.888 Z-0.641
N7565 X118.183 Y151.275 Z-0.671
N7570 X117.672 Y151.514 Z-0.701
N7575 X117.128 Y151.582 Z-0.731
N7580 X116.205 Y151.455 Z-0.782
N7585 X115.829 Y151.303 Z-0.804
N7590 X115.493 Y151.068 Z-0.826
N7595 X115.22 Y150.747 Z-0.849
N7600 X115.042 Y150.411 Z-0.869
N7605 X114.799 Y149.394 Z-0.926
N7610 X114.786 Y149.354 Z-0.928
N7615 X114.767 Y149.318 Z-0.931
N7620 X114.717 Y149.238 Z-0.936
N7625 X114.692 Y149.206 Z-0.938
N7630 X114.662 Y149.178 Z-0.94
N7635 X114.609 Y149.135 Z-0.944
N7640 X114.58 Y149.114 Z-0.946
N7645 X114.548 Y149.098 Z-0.948
N7650 X114.48 Y149.07 Z-0.952
N7655 X114.44 Y149.057 Z-0.954
N7660 X114.398 Y149.051 Z-0.956
N7665 X114.306 Y149.046 Z-0.961
N7670 X114.258 Y149.048 Z-0.964
N7675 X114.212 Y149.058 Z-0.967
N7680 X114.119 Y149.089 Z-0.972
N7685 X114.088 Y149.102 Z-0.974
N7690 X114.06 Y149.119 Z-0.975
N7695 X110.408 Y151.564 Z-1.214
N7700 Y151.148 Z-1.236
N7705 X114.454 Y148.572 Z-1.497
N7710 X114.501 Y148.533 Z-1.5
N7715 X114.508 Y148.526
N7720 X114.56 Y148.466
N7725 X114.585 Y148.432
N7730 X114.604 Y148.394
N7735 X114.637 Y148.313
N7740 X114.65 Y148.27
N7745 X114.655 Y148.225
N7750 X114.803
N7755 X114.839 Y148.82
N7760 X114.846 Y148.866
N7765 X115.09 Y149.833
N7770 X115.112 Y149.89
N7775 X115.367 Y150.368
N7780 X115.399 Y150.415
N7785 X115.508 Y150.54
N7790 X115.519 Y150.552
N7795 X115.803 Y150.839
N7800 X115.828 Y150.862
N7805 X115.857 Y150.881
N7810 X115.986 Y150.954
N7815 X115.999 Y150.961
N7820 X116.378 Y151.147
N7825 X116.413 Y151.161
N7830 X116.449 Y151.17
N7835 X116.994 Y151.257
N7840 X117.028 Y151.26
N7845 X117.062 Y151.259
N7850 X117.586 Y151.2
N7855 X117.619 Y151.194
N7860 X117.651 Y151.183
N7865 X117.76 Y151.139
N7870 X117.779 Y151.131
N7875 X118.163 Y150.938
N7880 X118.193 Y150.921
N7885 X118.22 Y150.899
N7890 X118.32 Y150.807
N7895 X118.333 Y150.794
N7900 X118.595 Y150.517
N7905 X118.623 Y150.481
N7910 X118.683 Y150.388
N7915 X118.693 Y150.37
N7920 X118.889 Y150.
N7925 X118.905 Y149.963
N7930 X118.946 Y149.84
N7935 X118.952 Y149.82
N7940 X119.166 Y148.957
N7945 X119.172 Y148.92
N7950 X119.195 Y148.673
N7955 Y148.665
N7960 X119.221 Y148.225
N7965 X119.322
N7970 X119.231 Y149.127
N7975 X118.872 Y150.383
N7980 X118.577 Y150.888
N7985 X118.183 Y151.275
N7990 X117.672 Y151.514
N7995 X117.128 Y151.582
N8000 X116.205 Y151.455
N8005 X115.829 Y151.303
N8010 X115.493 Y151.068
N8015 X115.22 Y150.747
N8020 X115.042 Y150.411
N8025 X114.799 Y149.394
N8030 X114.786 Y149.354
N8035 X114.767 Y149.318
N8040 X114.717 Y149.238
N8045 X114.692 Y149.206
N8050 X114.662 Y149.178
N8055 X114.609 Y149.135
N8060 X114.58 Y149.114
N8065 X114.548 Y149.098
N8070 X114.48 Y149.07
N8075 X114.44 Y149.057
N8080 X114.398 Y149.051
N8085 X114.306 Y149.046
N8090 X114.258 Y149.048
N8095 X114.212 Y149.058
N8100 X114.119 Y149.089
N8105 X114.088 Y149.102
N8110 X114.06 Y149.119
N8115 X110.408 Y151.564
N8120 Y151.148
N8125 X114.454 Y148.572
N8130 X114.501 Y148.533
N8135 X114.521 Y148.52
N8140 X114.545 Y148.519
N8145 X114.566 Y148.529
N8150 X114.58 Y148.549
N8155 X114.583 Y148.572
N8160 X114.574 Y148.594
N8165 X114.484 Y148.707
N8170 X110.939 Y150.959
N8175 X110.798 Y150.996
N8180 X110.775
N8185 X110.756 Y150.982
N8190 X110.746 Y150.961
N8195 X110.75 Y150.938
N8200 X110.765 Y150.92
N8205 X114.454 Y148.572 Z-2.672
N8210 X114.482 Y148.551 Z-2.681
N8215 X114.508 Y148.526 Z-2.691
N8220 X114.56 Y148.466 Z-2.712
N8225 X114.585 Y148.432 Z-2.723
N8230 X114.604 Y148.394 Z-2.735
N8235 X114.637 Y148.313 Z-2.758
N8240 X114.65 Y148.27 Z-2.77
N8245 X114.655 Y148.225 Z-2.782
N8250 X114.802 Z-2.822
N8255 X114.835 Y148.788 Z-2.973
N8260 X114.84 Y148.826 Z-2.983
N8265 X114.853 Y148.888 Z-3.
N8270 X114.879 Y149.01
N8275 X114.881 Y149.02
N8280 X115.091 Y149.838
N8285 X115.107 Y149.88
N8290 X115.156 Y149.988
N8295 X115.166 Y150.007
N8300 X115.399 Y150.415
N8305 X115.417 Y150.442
N8310 X115.438 Y150.466
N8315 X115.802 Y150.838
N8320 X115.848 Y150.875
N8325 X115.934 Y150.929
N8330 X115.957 Y150.942
N8335 X116.379 Y151.148
N8340 X116.413 Y151.161
N8345 X116.448 Y151.17
N8350 X116.963 Y151.253
N8355 X117.002 Y151.256
N8360 X117.095 Y151.257
N8365 X117.125 Y151.255
N8370 X117.587 Y151.2
N8375 X117.647 Y151.185
N8380 X117.758 Y151.142
N8385 X117.781 Y151.132
N8390 X118.164 Y150.938
N8395 X118.216 Y150.903
N8400 X118.321 Y150.81
N8405 X118.341 Y150.791
N8410 X118.62 Y150.482
N8415 X118.648 Y150.444
N8420 X118.723 Y150.321
N8425 X118.732 Y150.306
N8430 X118.89 Y149.997
N8435 X118.902 Y149.97
N8440 X118.959 Y149.816
N8445 X118.968 Y149.787
N8450 X119.166 Y148.955
N8455 X119.172 Y148.924
N8460 X119.198 Y148.677
N8465 X119.199 Y148.664
N8470 X119.223 Y148.225
N8475 X119.32
N8480 X119.231 Y149.127
N8485 X118.869 Y150.383
N8490 X118.564 Y150.902
N8495 X118.174 Y151.28
N8500 X118.149 Y151.295
N8505 X117.673 Y151.514
N8510 X117.128 Y151.582
N8515 X116.205 Y151.455
N8520 X115.829 Y151.303
N8525 X115.493 Y151.068
N8530 X115.22 Y150.747
N8535 X115.042 Y150.411
N8540 X114.799 Y149.394
N8545 X114.786 Y149.354
N8550 X114.767 Y149.318
N8555 X114.717 Y149.238
N8560 X114.692 Y149.206
N8565 X114.662 Y149.178
N8570 X114.609 Y149.135
N8575 X114.58 Y149.114
N8580 X114.548 Y149.098
N8585 X114.48 Y149.07
N8590 X114.44 Y149.057
N8595 X114.398 Y149.051
N8600 X114.306 Y149.046
N8605 X114.258 Y149.048
N8610 X114.212 Y149.058
N8615 X114.119 Y149.089
N8620 X114.088 Y149.102
N8625 X114.06 Y149.119
N8630 X110.408 Y151.564
N8635 Y151.148
N8640 X114.454 Y148.572
N8645 X114.482 Y148.551
N8650 X114.508 Y148.526
N8655 X114.56 Y148.466
N8660 X114.585 Y148.432
N8665 X114.604 Y148.394
N8670 X114.637 Y148.313
N8675 X114.65 Y148.27
N8680 X114.655 Y148.225
N8685 X114.802
N8690 X114.835 Y148.788
N8695 X114.84 Y148.826
N8700 X114.853 Y148.888
N8705 X114.855 Y148.913 Z-2.993
N8710 X114.851 Y148.937 Z-2.987
N8715 X114.834 Y148.97 Z-2.95
N8720 X114.825 Y148.98 Z-2.9
N8725 G0 Z5.
N8730 X117.982 Y162.577
N8735 Z1.675
N8740 G1 X117.975 Z1.637 F700.
N8745 X117.954 Z1.605
N8750 X117.922 Z1.583
N8755 X117.885 Z1.575
N8760 X115.863 Y162.578 Z1.515
N8765 X115.82 Y162.582 Z1.513
N8770 X115.779 Y162.593 Z1.512
N8775 X115.69 Y162.624 Z1.509
N8780 X115.648 Y162.644 Z1.508
N8785 X115.609 Y162.672 Z1.506
N8790 X115.539 Y162.733 Z1.504
N8795 X115.506 Y162.768 Z1.502
N8800 X115.48 Y162.809 Z1.501
N8805 X115.435 Y162.899 Z1.498
N8810 X115.42 Y162.936 Z1.496
N8815 X115.411 Y162.976 Z1.495
N8820 X115.403 Y163.038 Z1.493
N8825 X115.4 Y163.072 Z1.492
N8830 Y167.514 Z1.359
N8835 X115.139 Z1.352
N8840 X115.137 Y163.048 Z1.218
N8845 X115.135 Y163.016 Z1.217
N8850 X115.129 Y162.984 Z1.216
N8855 X115.109 Y162.909 Z1.214
N8860 X115.097 Y162.875 Z1.213
N8865 X115.08 Y162.843 Z1.212
N8870 X115.044 Y162.784 Z1.21
N8875 X115.022 Y162.754 Z1.208
N8880 X114.995 Y162.728 Z1.207
N8885 X114.934 Y162.674 Z1.205
N8890 X114.9 Y162.649 Z1.204
N8895 X114.861 Y162.63 Z1.202
N8900 X114.777 Y162.597 Z1.2
N8905 X114.733 Y162.585 Z1.198
N8910 X114.686 Y162.58 Z1.197
N8915 X111.123 Z1.09
N8920 X111.077 Y162.584 Z1.089
N8925 X111.032 Y162.597 Z1.088
N8930 X110.948 Y162.63 Z1.085
N8935 X110.909 Y162.649 Z1.084
N8940 X110.874 Y162.674 Z1.082
N8945 X110.813 Y162.727 Z1.08
N8950 X110.783 Y162.758 Z1.079
N8955 X110.759 Y162.794 Z1.077
N8960 X110.714 Y162.874 Z1.075
N8965 X110.695 Y162.917 Z1.073
N8970 X110.685 Y162.963 Z1.072
N8975 X110.671 Y163.063 Z1.069
N8980 X110.669 Y163.095 Z1.068
N8985 Y168.258 Z0.913
N8990 X110.408 Z0.905
N8995 Y162.161 Z0.723
N9000 X119.5 Z0.451
N9005 Y167.957 Z0.278
N9010 X119.239 Z0.27
N9015 X119.236 Y163.041 Z0.123
N9020 X119.233 Y163. Z0.122
N9025 X119.223 Y162.959 Z0.12
N9030 X119.191 Y162.867 Z0.118
N9035 X119.17 Y162.822 Z0.116
N9040 X119.14 Y162.782 Z0.115
N9045 X119.074 Y162.708 Z0.112
N9050 X119.042 Y162.678 Z0.11
N9055 X119.005 Y162.654 Z0.109
N9060 X118.938 Y162.619 Z0.107
N9065 X118.906 Y162.605 Z0.106
N9070 X118.873 Y162.595 Z0.105
N9075 X118.811 Y162.582 Z0.103
N9080 X118.759 Y162.576 Z0.101
N9085 X115.863 Y162.578 Z0.015
N9090 X115.82 Y162.582 Z0.013
N9095 X115.779 Y162.593 Z0.012
N9100 X115.69 Y162.624 Z0.009
N9105 X115.648 Y162.644 Z0.008
N9110 X115.609 Y162.672 Z0.006
N9115 X115.539 Y162.733 Z0.004
N9120 X115.506 Y162.768 Z0.002
N9125 X115.48 Y162.809 Z0.001
N9130 X115.435 Y162.899 Z-0.002
N9135 X115.42 Y162.936 Z-0.004
N9140 X115.411 Y162.976 Z-0.005
N9145 X115.403 Y163.038 Z-0.007
N9150 X115.4 Y163.072 Z-0.008
N9155 Y167.514 Z-0.141
N9160 X115.139 Z-0.148
N9165 X115.137 Y163.048 Z-0.282
N9170 X115.135 Y163.016 Z-0.283
N9175 X115.129 Y162.984 Z-0.284
N9180 X115.109 Y162.909 Z-0.286
N9185 X115.097 Y162.875 Z-0.287
N9190 X115.08 Y162.843 Z-0.288
N9195 X115.044 Y162.784 Z-0.29
N9200 X115.022 Y162.754 Z-0.292
N9205 X114.995 Y162.728 Z-0.293
N9210 X114.934 Y162.674 Z-0.295
N9215 X114.9 Y162.649 Z-0.296
N9220 X114.861 Y162.63 Z-0.298
N9225 X114.777 Y162.597 Z-0.3
N9230 X114.733 Y162.585 Z-0.302
N9235 X114.686 Y162.58 Z-0.303
N9240 X111.123 Z-0.41
N9245 X111.077 Y162.584 Z-0.411
N9250 X111.032 Y162.597 Z-0.412
N9255 X110.948 Y162.63 Z-0.415
N9260 X110.909 Y162.649 Z-0.416
N9265 X110.874 Y162.674 Z-0.418
N9270 X110.813 Y162.727 Z-0.42
N9275 X110.783 Y162.758 Z-0.421
N9280 X110.759 Y162.794 Z-0.423
N9285 X110.714 Y162.874 Z-0.425
N9290 X110.695 Y162.917 Z-0.427
N9295 X110.685 Y162.963 Z-0.428
N9300 X110.671 Y163.063 Z-0.431
N9305 X110.669 Y163.095 Z-0.432
N9310 Y168.258 Z-0.587
N9315 X110.408 Z-0.595
N9320 Y162.161 Z-0.777
N9325 X119.5 Z-1.049
N9330 Y167.957 Z-1.222
N9335 X119.239 Z-1.23
N9340 X119.236 Y163.041 Z-1.377
N9345 X119.233 Y163. Z-1.378
N9350 X119.223 Y162.959 Z-1.38
N9355 X119.191 Y162.867 Z-1.382
N9360 X119.17 Y162.822 Z-1.384
N9365 X119.14 Y162.782 Z-1.385
N9370 X119.074 Y162.708 Z-1.388
N9375 X119.042 Y162.678 Z-1.39
N9380 X119.005 Y162.654 Z-1.391
N9385 X118.938 Y162.619 Z-1.393
N9390 X118.906 Y162.605 Z-1.394
N9395 X118.873 Y162.595 Z-1.395
N9400 X118.811 Y162.582 Z-1.397
N9405 X118.759 Y162.576 Z-1.399
N9410 X115.863 Y162.578 Z-1.485
N9415 X115.82 Y162.582 Z-1.487
N9420 X115.779 Y162.593 Z-1.488
N9425 X115.69 Y162.624 Z-1.491
N9430 X115.648 Y162.644 Z-1.492
N9435 X115.609 Y162.672 Z-1.494
N9440 X115.539 Y162.733 Z-1.496
N9445 X115.506 Y162.768 Z-1.498
N9450 X115.48 Y162.809 Z-1.499
N9455 X115.471 Y162.828 Z-1.5
N9460 X115.435 Y162.899
N9465 X115.42 Y162.936
N9470 X115.411 Y162.976
N9475 X115.403 Y163.038
N9480 X115.4 Y163.072
N9485 Y167.514
N9490 X115.139
N9495 X115.137 Y163.048
N9500 X115.135 Y163.016
N9505 X115.129 Y162.984
N9510 X115.109 Y162.909
N9515 X115.097 Y162.875
N9520 X115.08 Y162.843
N9525 X115.044 Y162.784
N9530 X115.022 Y162.754
N9535 X114.995 Y162.728
N9540 X114.934 Y162.674
N9545 X114.9 Y162.649
N9550 X114.861 Y162.63
N9555 X114.777 Y162.597
N9560 X114.733 Y162.585
N9565 X114.686 Y162.58
N9570 X111.123
N9575 X111.077 Y162.584
N9580 X111.032 Y162.597
N9585 X110.948 Y162.63
N9590 X110.909 Y162.649
N9595 X110.874 Y162.674
N9600 X110.813 Y162.727
N9605 X110.783 Y162.758
N9610 X110.759 Y162.794
N9615 X110.714 Y162.874
N9620 X110.695 Y162.917
N9625 X110.685 Y162.963
N9630 X110.671 Y163.063
N9635 X110.669 Y163.095
N9640 Y168.258
N9645 X110.408
N9650 Y163.095
N9655 Y162.161
N9660 X119.5
N9665 Y167.957
N9670 X119.239
N9675 X119.236 Y163.041
N9680 X119.233 Y163.
N9685 X119.223 Y162.959
N9690 X119.191 Y162.867
N9695 X119.17 Y162.822
N9700 X119.14 Y162.782
N9705 X119.074 Y162.708
N9710 X119.042 Y162.678
N9715 X119.005 Y162.654
N9720 X118.938 Y162.619
N9725 X118.906 Y162.605
N9730 X118.873 Y162.595
N9735 X118.811 Y162.582
N9740 X118.759 Y162.576
N9745 X115.863 Y162.578
N9750 X115.82 Y162.582
N9755 X115.779 Y162.593
N9760 X115.69 Y162.624
N9765 X115.648 Y162.644
N9770 X115.609 Y162.672
N9775 X115.539 Y162.733
N9780 X115.506 Y162.768
N9785 X115.48 Y162.809
N9790 X115.471 Y162.828
N9795 X115.457 Y162.849 Z-1.493
N9800 X115.438 Y162.866 Z-1.487
N9805 X115.405 Y162.881 Z-1.45
N9810 X115.392 Y162.883 Z-1.4
N9815 G0 Z5.
N9820 X117.982 Y162.577
N9825 Z0.175
N9830 G1 X117.975 Z0.137 F700.
N9835 X117.954 Z0.105
N9840 X117.922 Z0.083
N9845 X117.885 Z0.075
N9850 X115.863 Y162.578 Z0.015
N9855 X115.82 Y162.582 Z0.013
N9860 X115.779 Y162.593 Z0.012
N9865 X115.69 Y162.624 Z0.009
N9870 X115.648 Y162.644 Z0.008
N9875 X115.609 Y162.672 Z0.006
N9880 X115.539 Y162.733 Z0.004
N9885 X115.506 Y162.768 Z0.002
N9890 X115.48 Y162.809 Z0.001
N9895 X115.435 Y162.899 Z-0.002
N9900 X115.42 Y162.936 Z-0.004
N9905 X115.411 Y162.976 Z-0.005
N9910 X115.403 Y163.038 Z-0.007
N9915 X115.4 Y163.072 Z-0.008
N9920 Y167.514 Z-0.141
N9925 X115.139 Z-0.148
N9930 X115.137 Y163.048 Z-0.282
N9935 X115.135 Y163.016 Z-0.283
N9940 X115.129 Y162.984 Z-0.284
N9945 X115.109 Y162.909 Z-0.286
N9950 X115.097 Y162.875 Z-0.287
N9955 X115.08 Y162.843 Z-0.288
N9960 X115.044 Y162.784 Z-0.29
N9965 X115.022 Y162.754 Z-0.292
N9970 X114.995 Y162.728 Z-0.293
N9975 X114.934 Y162.674 Z-0.295
N9980 X114.9 Y162.649 Z-0.296
N9985 X114.861 Y162.63 Z-0.298
N9990 X114.777 Y162.597 Z-0.3
N9995 X114.733 Y162.585 Z-0.302
N10000 X114.686 Y162.58 Z-0.303
N10005 X111.123 Z-0.41
N10010 X111.077 Y162.584 Z-0.411
N10015 X111.032 Y162.597 Z-0.412
N10020 X110.948 Y162.63 Z-0.415
N10025 X110.909 Y162.649 Z-0.416
N10030 X110.874 Y162.674 Z-0.418
N10035 X110.813 Y162.727 Z-0.42
N10040 X110.783 Y162.758 Z-0.421
N10045 X110.759 Y162.794 Z-0.423
N10050 X110.714 Y162.874 Z-0.425
N10055 X110.695 Y162.917 Z-0.427
N10060 X110.685 Y162.963 Z-0.428
N10065 X110.671 Y163.063 Z-0.431
N10070 X110.669 Y163.095 Z-0.432
N10075 Y168.258 Z-0.587
N10080 X110.408 Z-0.595
N10085 Y162.161 Z-0.777
N10090 X119.5 Z-1.049
N10095 Y167.957 Z-1.222
N10100 X119.239 Z-1.23
N10105 X119.236 Y163.041 Z-1.377
N10110 X119.233 Y163. Z-1.378
N10115 X119.223 Y162.959 Z-1.38
N10120 X119.191 Y162.867 Z-1.382
N10125 X119.17 Y162.822 Z-1.384
N10130 X119.14 Y162.782 Z-1.385
N10135 X119.074 Y162.708 Z-1.388
N10140 X119.042 Y162.678 Z-1.39
N10145 X119.005 Y162.654 Z-1.391
N10150 X118.938 Y162.619 Z-1.393
N10155 X118.906 Y162.605 Z-1.394
N10160 X118.873 Y162.595 Z-1.395
N10165 X118.811 Y162.582 Z-1.397
N10170 X118.759 Y162.576 Z-1.399
N10175 X115.863 Y162.578 Z-1.485
N10180 X115.82 Y162.582 Z-1.487
N10185 X115.779 Y162.593 Z-1.488
N10190 X115.69 Y162.624 Z-1.491
N10195 X115.648 Y162.644 Z-1.492
N10200 X115.609 Y162.672 Z-1.494
N10205 X115.539 Y162.733 Z-1.496
N10210 X115.506 Y162.768 Z-1.498
N10215 X115.48 Y162.809 Z-1.499
N10220 X115.435 Y162.899 Z-1.502
N10225 X115.42 Y162.936 Z-1.504
N10230 X115.411 Y162.976 Z-1.505
N10235 X115.403 Y163.038 Z-1.507
N10240 X115.4 Y163.072 Z-1.508
N10245 Y167.514 Z-1.641
N10250 X115.139 Z-1.648
N10255 X115.137 Y163.048 Z-1.782
N10260 X115.135 Y163.016 Z-1.783
N10265 X115.129 Y162.984 Z-1.784
N10270 X115.109 Y162.909 Z-1.786
N10275 X115.097 Y162.875 Z-1.787
N10280 X115.08 Y162.843 Z-1.788
N10285 X115.044 Y162.784 Z-1.79
N10290 X115.022 Y162.754 Z-1.792
N10295 X114.995 Y162.728 Z-1.793
N10300 X114.934 Y162.674 Z-1.795
N10305 X114.9 Y162.649 Z-1.796
N10310 X114.861 Y162.63 Z-1.798
N10315 X114.777 Y162.597 Z-1.8
N10320 X114.733 Y162.585 Z-1.802
N10325 X114.686 Y162.58 Z-1.803
N10330 X111.123 Z-1.91
N10335 X111.077 Y162.584 Z-1.911
N10340 X111.032 Y162.597 Z-1.912
N10345 X110.948 Y162.63 Z-1.915
N10350 X110.909 Y162.649 Z-1.916
N10355 X110.874 Y162.674 Z-1.918
N10360 X110.813 Y162.727 Z-1.92
N10365 X110.783 Y162.758 Z-1.921
N10370 X110.759 Y162.794 Z-1.923
N10375 X110.714 Y162.874 Z-1.925
N10380 X110.695 Y162.917 Z-1.927
N10385 X110.685 Y162.963 Z-1.928
N10390 X110.671 Y163.063 Z-1.931
N10395 X110.669 Y163.095 Z-1.932
N10400 Y168.258 Z-2.087
N10405 X110.408 Z-2.095
N10410 Y162.161 Z-2.277
N10415 X119.5 Z-2.549
N10420 Y167.957 Z-2.722
N10425 X119.239 Z-2.73
N10430 X119.236 Y163.041 Z-2.877
N10435 X119.233 Y163. Z-2.878
N10440 X119.223 Y162.959 Z-2.88
N10445 X119.191 Y162.867 Z-2.882
N10450 X119.17 Y162.822 Z-2.884
N10455 X119.14 Y162.782 Z-2.885
N10460 X119.074 Y162.708 Z-2.888
N10465 X119.042 Y162.678 Z-2.89
N10470 X119.005 Y162.654 Z-2.891
N10475 X118.938 Y162.619 Z-2.893
N10480 X118.906 Y162.605 Z-2.894
N10485 X118.873 Y162.595 Z-2.895
N10490 X118.811 Y162.582 Z-2.897
N10495 X118.759 Y162.576 Z-2.899
N10500 X115.863 Y162.578 Z-2.985
N10505 X115.82 Y162.582 Z-2.987
N10510 X115.779 Y162.593 Z-2.988
N10515 X115.69 Y162.624 Z-2.991
N10520 X115.648 Y162.644 Z-2.992
N10525 X115.609 Y162.672 Z-2.994
N10530 X115.539 Y162.733 Z-2.996
N10535 X115.506 Y162.768 Z-2.998
N10540 X115.48 Y162.809 Z-2.999
N10545 X115.471 Y162.828 Z-3.
N10550 X115.435 Y162.899
N10555 X115.42 Y162.936
N10560 X115.411 Y162.976
N10565 X115.403 Y163.038
N10570 X115.4 Y163.072
N10575 Y167.514
N10580 X115.139
N10585 X115.137 Y163.048
N10590 X115.135 Y163.016
N10595 X115.129 Y162.984
N10600 X115.109 Y162.909
N10605 X115.097 Y162.875
N10610 X115.08 Y162.843
N10615 X115.044 Y162.784
N10620 X115.022 Y162.754
N10625 X114.995 Y162.728
N10630 X114.934 Y162.674
N10635 X114.9 Y162.649
N10640 X114.861 Y162.63
N10645 X114.777 Y162.597
N10650 X114.733 Y162.585
N10655 X114.686 Y162.58
N10660 X111.123
N10665 X111.077 Y162.584
N10670 X111.032 Y162.597
N10675 X110.948 Y162.63
N10680 X110.909 Y162.649
N10685 X110.874 Y162.674
N10690 X110.813 Y162.727
N10695 X110.783 Y162.758
N10700 X110.759 Y162.794
N10705 X110.714 Y162.874
N10710 X110.695 Y162.917
N10715 X110.685 Y162.963
N10720 X110.671 Y163.063
N10725 X110.669 Y163.095
N10730 Y168.258
N10735 X110.408
N10740 Y163.095
N10745 Y162.161
N10750 X119.5
N10755 Y167.957
N10760 X119.239
N10765 X119.236 Y163.041
N10770 X119.233 Y163.
N10775 X119.223 Y162.959
N10780 X119.191 Y162.867
N10785 X119.17 Y162.822
N10790 X119.14 Y162.782
N10795 X119.074 Y162.708
N10800 X119.042 Y162.678
N10805 X119.005 Y162.654
N10810 X118.938 Y162.619
N10815 X118.906 Y162.605
N10820 X118.873 Y162.595
N10825 X118.811 Y162.582
N10830 X118.759 Y162.576
N10835 X115.863 Y162.578
N10840 X115.82 Y162.582
N10845 X115.779 Y162.593
N10850 X115.69 Y162.624
N10855 X115.648 Y162.644
N10860 X115.609 Y162.672
N10865 X115.539 Y162.733
N10870 X115.506 Y162.768
N10875 X115.48 Y162.809
N10880 X115.471 Y162.828
N10885 X115.457 Y162.849 Z-2.993
N10890 X115.438 Y162.866 Z-2.987
N10895 X115.405 Y162.881 Z-2.95
N10900 X115.392 Y162.883 Z-2.9
N10905 G0 Z5.
N10910 X112.76 Y178.828
N10915 Z1.675
N10920 G1 X112.767 Z1.637 F700.
N10925 X112.788 Z1.605
N10930 X112.819 Z1.583
N10935 X112.857 Z1.575
N10940 X119.5 Z1.376
N10945 Y184.624 Z1.203
N10950 X119.239 Z1.195
N10955 X119.237 Y179.713 Z1.048
N10960 X119.235 Y179.678 Z1.047
N10965 X119.227 Y179.643 Z1.046
N10970 X119.205 Y179.566 Z1.044
N10975 X119.189 Y179.524 Z1.042
N10980 X119.165 Y179.485 Z1.041
N10985 X119.105 Y179.406 Z1.038
N10990 X119.072 Y179.369 Z1.037
N10995 X119.032 Y179.34 Z1.035
N11000 X118.948 Y179.291 Z1.032
N11005 X118.912 Y179.273 Z1.031
N11010 X118.873 Y179.262 Z1.03
N11015 X118.811 Y179.249 Z1.028
N11020 X118.759 Y179.243 Z1.026
N11025 X115.863 Y179.245 Z0.94
N11030 X115.821 Y179.249 Z0.938
N11035 X115.781 Y179.259 Z0.937
N11040 X115.696 Y179.288 Z0.934
N11045 X115.656 Y179.306 Z0.933
N11050 X115.619 Y179.331 Z0.932
N11055 X115.552 Y179.386 Z0.929
N11060 X115.52 Y179.417 Z0.928
N11065 X115.494 Y179.454 Z0.927
N11070 X115.449 Y179.533 Z0.924
N11075 X115.43 Y179.573 Z0.923
N11080 X115.418 Y179.616 Z0.921
N11085 X115.404 Y179.701 Z0.919
N11090 X115.4 Y179.743 Z0.917
N11095 Y184.18 Z0.785
N11100 X115.138 Z0.777
N11105 X115.137 Y179.713 Z0.643
N11110 X115.134 Y179.676 Z0.642
N11115 X115.126 Y179.64 Z0.641
N11120 X115.101 Y179.558 Z0.638
N11125 X115.087 Y179.521 Z0.637
N11130 X115.067 Y179.486 Z0.636
N11135 X115.025 Y179.427 Z0.634
N11140 X115. Y179.397 Z0.633
N11145 X114.971 Y179.371 Z0.632
N11150 X114.904 Y179.321 Z0.629
N11155 X114.866 Y179.297 Z0.628
N11160 X114.823 Y179.28 Z0.626
N11165 X114.731 Y179.253 Z0.623
N11170 X114.696 Y179.246 Z0.622
N11175 X114.661 Y179.243 Z0.621
N11180 X111.148 Z0.516
N11185 X111.113 Y179.246 Z0.515
N11190 X111.079 Y179.253 Z0.514
N11195 X110.987 Y179.279 Z0.511
N11200 X110.945 Y179.295 Z0.51
N11205 X110.907 Y179.319 Z0.509
N11210 X110.84 Y179.368 Z0.506
N11215 X110.807 Y179.397 Z0.505
N11220 X110.78 Y179.431 Z0.503
N11225 X110.731 Y179.506 Z0.501
N11230 X110.711 Y179.542 Z0.5
N11235 X110.698 Y179.58 Z0.498
N11240 X110.679 Y179.648 Z0.496
N11245 X110.673 Y179.68 Z0.495
N11250 X110.671 Y179.713 Z0.494
N11255 X110.669 Y184.924 Z0.338
N11260 X110.408 Z0.331
N11265 Y178.828 Z0.148
N11270 X119.5 Z-0.124
N11275 Y184.624 Z-0.297
N11280 X119.239 Z-0.305
N11285 X119.237 Y179.713 Z-0.452
N11290 X119.235 Y179.678 Z-0.453
N11295 X119.227 Y179.643 Z-0.454
N11300 X119.205 Y179.566 Z-0.456
N11305 X119.189 Y179.524 Z-0.458
N11310 X119.165 Y179.485 Z-0.459
N11315 X119.105 Y179.406 Z-0.462
N11320 X119.072 Y179.369 Z-0.463
N11325 X119.032 Y179.34 Z-0.465
N11330 X118.948 Y179.291 Z-0.468
N11335 X118.912 Y179.273 Z-0.469
N11340 X118.873 Y179.262 Z-0.47
N11345 X118.811 Y179.249 Z-0.472
N11350 X118.759 Y179.243 Z-0.474
N11355 X115.863 Y179.245 Z-0.56
N11360 X115.821 Y179.249 Z-0.562
N11365 X115.781 Y179.259 Z-0.563
N11370 X115.696 Y179.288 Z-0.566
N11375 X115.656 Y179.306 Z-0.567
N11380 X115.619 Y179.331 Z-0.568
N11385 X115.552 Y179.386 Z-0.571
N11390 X115.52 Y179.417 Z-0.572
N11395 X115.494 Y179.454 Z-0.573
N11400 X115.449 Y179.533 Z-0.576
N11405 X115.43 Y179.573 Z-0.577
N11410 X115.418 Y179.616 Z-0.579
N11415 X115.404 Y179.701 Z-0.581
N11420 X115.4 Y179.743 Z-0.583
N11425 Y184.18 Z-0.715
N11430 X115.138 Z-0.723
N11435 X115.137 Y179.713 Z-0.857
N11440 X115.134 Y179.676 Z-0.858
N11445 X115.126 Y179.64 Z-0.859
N11450 X115.101 Y179.558 Z-0.862
N11455 X115.087 Y179.521 Z-0.863
N11460 X115.067 Y179.486 Z-0.864
N11465 X115.025 Y179.427 Z-0.866
N11470 X115. Y179.397 Z-0.867
N11475 X114.971 Y179.371 Z-0.868
N11480 X114.904 Y179.321 Z-0.871
N11485 X114.866 Y179.297 Z-0.872
N11490 X114.823 Y179.28 Z-0.874
N11495 X114.731 Y179.253 Z-0.877
N11500 X114.696 Y179.246 Z-0.878
N11505 X114.661 Y179.243 Z-0.879
N11510 X111.148 Z-0.984
N11515 X111.113 Y179.246 Z-0.985
N11520 X111.079 Y179.253 Z-0.986
N11525 X110.987 Y179.279 Z-0.989
N11530 X110.945 Y179.295 Z-0.99
N11535 X110.907 Y179.319 Z-0.991
N11540 X110.84 Y179.368 Z-0.994
N11545 X110.807 Y179.397 Z-0.995
N11550 X110.78 Y179.431 Z-0.997
N11555 X110.731 Y179.506 Z-0.999
N11560 X110.711 Y179.542 Z-1.
N11565 X110.698 Y179.58 Z-1.002
N11570 X110.679 Y179.648 Z-1.004
N11575 X110.673 Y179.68 Z-1.005
N11580 X110.671 Y179.713 Z-1.006
N11585 X110.669 Y184.924 Z-1.162
N11590 X110.408 Z-1.169
N11595 Y178.828 Z-1.352
N11600 X115.364 Z-1.5
N11605 X119.5
N11610 Y184.624
N11615 X119.239
N11620 X119.237 Y179.713
N11625 X119.235 Y179.678
N11630 X119.227 Y179.643
N11635 X119.205 Y179.566
N11640 X119.189 Y179.524
N11645 X119.165 Y179.485
N11650 X119.105 Y179.406
N11655 X119.072 Y179.369
N11660 X119.032 Y179.34
N11665 X118.948 Y179.291
N11670 X118.912 Y179.273
N11675 X118.873 Y179.262
N11680 X118.811 Y179.249
N11685 X118.759 Y179.243
N11690 X115.863 Y179.245
N11695 X115.821 Y179.249
N11700 X115.781 Y179.259
N11705 X115.696 Y179.288
N11710 X115.656 Y179.306
N11715 X115.619 Y179.331
N11720 X115.552 Y179.386
N11725 X115.52 Y179.417
N11730 X115.494 Y179.454
N11735 X115.449 Y179.533
N11740 X115.43 Y179.573
N11745 X115.418 Y179.616
N11750 X115.404 Y179.701
N11755 X115.4 Y179.743
N11760 Y184.18
N11765 X115.138
N11770 X115.137 Y179.713
N11775 X115.134 Y179.676
N11780 X115.126 Y179.64
N11785 X115.101 Y179.558
N11790 X115.087 Y179.521
N11795 X115.067 Y179.486
N11800 X115.025 Y179.427
N11805 X115. Y179.397
N11810 X114.971 Y179.371
N11815 X114.904 Y179.321
N11820 X114.866 Y179.297
N11825 X114.823 Y179.28
N11830 X114.731 Y179.253
N11835 X114.696 Y179.246
N11840 X114.661 Y179.243
N11845 X111.148
N11850 X111.113 Y179.246
N11855 X111.079 Y179.253
N11860 X110.987 Y179.279
N11865 X110.945 Y179.295
N11870 X110.907 Y179.319
N11875 X110.84 Y179.368
N11880 X110.807 Y179.397
N11885 X110.78 Y179.431
N11890 X110.731 Y179.506
N11895 X110.711 Y179.542
N11900 X110.698 Y179.58
N11905 X110.679 Y179.648
N11910 X110.673 Y179.68
N11915 X110.671 Y179.713
N11920 X110.669 Y184.924
N11925 X110.408
N11930 Y178.828
N11935 X115.364
N11940 X115.389 Y178.831 Z-1.493
N11945 X115.412 Y178.84 Z-1.487
N11950 X115.441 Y178.863 Z-1.45
N11955 X115.449 Y178.874 Z-1.4
N11960 G0 Z5.
N11965 X112.76 Y178.828
N11970 Z0.175
N11975 G1 X112.767 Z0.137 F700.
N11980 X112.788 Z0.105
N11985 X112.819 Z0.083
N11990 X112.857 Z0.075
N11995 X119.5 Z-0.124
N12000 Y184.624 Z-0.297
N12005 X119.239 Z-0.305
N12010 X119.237 Y179.713 Z-0.452
N12015 X119.235 Y179.678 Z-0.453
N12020 X119.227 Y179.643 Z-0.454
N12025 X119.205 Y179.566 Z-0.456
N12030 X119.189 Y179.524 Z-0.458
N12035 X119.165 Y179.485 Z-0.459
N12040 X119.105 Y179.406 Z-0.462
N12045 X119.072 Y179.369 Z-0.463
N12050 X119.032 Y179.34 Z-0.465
N12055 X118.948 Y179.291 Z-0.468
N12060 X118.912 Y179.273 Z-0.469
N12065 X118.873 Y179.262 Z-0.47
N12070 X118.811 Y179.249 Z-0.472
N12075 X118.759 Y179.243 Z-0.474
N12080 X115.863 Y179.245 Z-0.56
N12085 X115.821 Y179.249 Z-0.562
N12090 X115.781 Y179.259 Z-0.563
N12095 X115.696 Y179.288 Z-0.566
N12100 X115.656 Y179.306 Z-0.567
N12105 X115.619 Y179.331 Z-0.568
N12110 X115.552 Y179.386 Z-0.571
N12115 X115.52 Y179.417 Z-0.572
N12120 X115.494 Y179.454 Z-0.573
N12125 X115.449 Y179.533 Z-0.576
N12130 X115.43 Y179.573 Z-0.577
N12135 X115.418 Y179.616 Z-0.579
N12140 X115.404 Y179.701 Z-0.581
N12145 X115.4 Y179.743 Z-0.583
N12150 Y184.18 Z-0.715
N12155 X115.138 Z-0.723
N12160 X115.137 Y179.713 Z-0.857
N12165 X115.134 Y179.676 Z-0.858
N12170 X115.126 Y179.64 Z-0.859
N12175 X115.101 Y179.558 Z-0.862
N12180 X115.087 Y179.521 Z-0.863
N12185 X115.067 Y179.486 Z-0.864
N12190 X115.025 Y179.427 Z-0.866
N12195 X115. Y179.397 Z-0.867
N12200 X114.971 Y179.371 Z-0.868
N12205 X114.904 Y179.321 Z-0.871
N12210 X114.866 Y179.297 Z-0.872
N12215 X114.823 Y179.28 Z-0.874
N12220 X114.731 Y179.253 Z-0.877
N12225 X114.696 Y179.246 Z-0.878
N12230 X114.661 Y179.243 Z-0.879
N12235 X111.148 Z-0.984
N12240 X111.113 Y179.246 Z-0.985
N12245 X111.079 Y179.253 Z-0.986
N12250 X110.987 Y179.279 Z-0.989
N12255 X110.945 Y179.295 Z-0.99
N12260 X110.907 Y179.319 Z-0.991
N12265 X110.84 Y179.368 Z-0.994
N12270 X110.807 Y179.397 Z-0.995
N12275 X110.78 Y179.431 Z-0.997
N12280 X110.731 Y179.506 Z-0.999
N12285 X110.711 Y179.542 Z-1.
N12290 X110.698 Y179.58 Z-1.002
N12295 X110.679 Y179.648 Z-1.004
N12300 X110.673 Y179.68 Z-1.005
N12305 X110.671 Y179.713 Z-1.006
N12310 X110.669 Y184.924 Z-1.162
N12315 X110.408 Z-1.169
N12320 Y178.828 Z-1.352
N12325 X119.5 Z-1.624
N12330 Y184.624 Z-1.797
N12335 X119.239 Z-1.805
N12340 X119.237 Y179.713 Z-1.952
N12345 X119.235 Y179.678 Z-1.953
N12350 X119.227 Y179.643 Z-1.954
N12355 X119.205 Y179.566 Z-1.956
N12360 X119.189 Y179.524 Z-1.958
N12365 X119.165 Y179.485 Z-1.959
N12370 X119.105 Y179.406 Z-1.962
N12375 X119.072 Y179.369 Z-1.963
N12380 X119.032 Y179.34 Z-1.965
N12385 X118.948 Y179.291 Z-1.968
N12390 X118.912 Y179.273 Z-1.969
N12395 X118.873 Y179.262 Z-1.97
N12400 X118.811 Y179.249 Z-1.972
N12405 X118.759 Y179.243 Z-1.974
N12410 X115.863 Y179.245 Z-2.06
N12415 X115.821 Y179.249 Z-2.062
N12420 X115.781 Y179.259 Z-2.063
N12425 X115.696 Y179.288 Z-2.066
N12430 X115.656 Y179.306 Z-2.067
N12435 X115.619 Y179.331 Z-2.068
N12440 X115.552 Y179.386 Z-2.071
N12445 X115.52 Y179.417 Z-2.072
N12450 X115.494 Y179.454 Z-2.073
N12455 X115.449 Y179.533 Z-2.076
N12460 X115.43 Y179.573 Z-2.077
N12465 X115.418 Y179.616 Z-2.079
N12470 X115.404 Y179.701 Z-2.081
N12475 X115.4 Y179.743 Z-2.083
N12480 Y184.18 Z-2.215
N12485 X115.138 Z-2.223
N12490 X115.137 Y179.713 Z-2.357
N12495 X115.134 Y179.676 Z-2.358
N12500 X115.126 Y179.64 Z-2.359
N12505 X115.101 Y179.558 Z-2.362
N12510 X115.087 Y179.521 Z-2.363
N12515 X115.067 Y179.486 Z-2.364
N12520 X115.025 Y179.427 Z-2.366
N12525 X115. Y179.397 Z-2.367
N12530 X114.971 Y179.371 Z-2.368
N12535 X114.904 Y179.321 Z-2.371
N12540 X114.866 Y179.297 Z-2.372
N12545 X114.823 Y179.28 Z-2.374
N12550 X114.731 Y179.253 Z-2.377
N12555 X114.696 Y179.246 Z-2.378
N12560 X114.661 Y179.243 Z-2.379
N12565 X111.148 Z-2.484
N12570 X111.113 Y179.246 Z-2.485
N12575 X111.079 Y179.253 Z-2.486
N12580 X110.987 Y179.279 Z-2.489
N12585 X110.945 Y179.295 Z-2.49
N12590 X110.907 Y179.319 Z-2.491
N12595 X110.84 Y179.368 Z-2.494
N12600 X110.807 Y179.397 Z-2.495
N12605 X110.78 Y179.431 Z-2.497
N12610 X110.731 Y179.506 Z-2.499
N12615 X110.711 Y179.542 Z-2.5
N12620 X110.698 Y179.58 Z-2.502
N12625 X110.679 Y179.648 Z-2.504
N12630 X110.673 Y179.68 Z-2.505
N12635 X110.671 Y179.713 Z-2.506
N12640 X110.669 Y184.924 Z-2.662
N12645 X110.408 Z-2.669
N12650 Y178.828 Z-2.852
N12655 X115.364 Z-3.
N12660 X119.5
N12665 Y184.624
N12670 X119.239
N12675 X119.237 Y179.713
N12680 X119.235 Y179.678
N12685 X119.227 Y179.643
N12690 X119.205 Y179.566
N12695 X119.189 Y179.524
N12700 X119.165 Y179.485
N12705 X119.105 Y179.406
N12710 X119.072 Y179.369
N12715 X119.032 Y179.34
N12720 X118.948 Y179.291
N12725 X118.912 Y179.273
N12730 X118.873 Y179.262
N12735 X118.811 Y179.249
N12740 X118.759 Y179.243
N12745 X115.863 Y179.245
N12750 X115.821 Y179.249
N12755 X115.781 Y179.259
N12760 X115.696 Y179.288
N12765 X115.656 Y179.306
N12770 X115.619 Y179.331
N12775 X115.552 Y179.386
N12780 X115.52 Y179.417
N12785 X115.494 Y179.454
N12790 X115.449 Y179.533
N12795 X115.43 Y179.573
N12800 X115.418 Y179.616
N12805 X115.404 Y179.701
N12810 X115.4 Y179.743
N12815 Y184.18
N12820 X115.138
N12825 X115.137 Y179.713
N12830 X115.134 Y179.676
N12835 X115.126 Y179.64
N12840 X115.101 Y179.558
N12845 X115.087 Y179.521
N12850 X115.067 Y179.486
N12855 X115.025 Y179.427
N12860 X115. Y179.397
N12865 X114.971 Y179.371
N12870 X114.904 Y179.321
N12875 X114.866 Y179.297
N12880 X114.823 Y179.28
N12885 X114.731 Y179.253
N12890 X114.696 Y179.246
N12895 X114.661 Y179.243
N12900 X111.148
N12905 X111.113 Y179.246
N12910 X111.079 Y179.253
N12915 X110.987 Y179.279
N12920 X110.945 Y179.295
N12925 X110.907 Y179.319
N12930 X110.84 Y179.368
N12935 X110.807 Y179.397
N12940 X110.78 Y179.431
N12945 X110.731 Y179.506
N12950 X110.711 Y179.542
N12955 X110.698 Y179.58
N12960 X110.679 Y179.648
N12965 X110.673 Y179.68
N12970 X110.671 Y179.713
N12975 X110.669 Y184.924
N12980 X110.408
N12985 Y178.828
N12990 X115.364
N12995 X115.389 Y178.831 Z-2.993
N13000 X115.412 Y178.84 Z-2.987
N13005 X115.441 Y178.863 Z-2.95
N13010 X115.449 Y178.874 Z-2.9
N13015 G0 Z5.
N13020 X118.802 Y195.536
N13025 Z1.672
N13030 G1 X118.811 Y195.54 Z1.629 F700.
N13035 X118.835 Y195.551 Z1.595
N13040 X118.868 Y195.57 Z1.575
N13045 G3 X118.371 Y196.379 Z1.175 I-0.249 J0.405
N13050 X118.868 Y195.57 Z0.775 I0.249 J-0.405
N13055 X118.371 Y196.379 Z0.375 I-0.249 J0.405
N13060 X118.868 Y195.57 Z-0.024 I0.249 J-0.405
N13065 X118.371 Y196.379 Z-0.424 I-0.249 J0.405
N13070 X118.868 Y195.57 Z-0.824 I0.249 J-0.405
N13075 X118.371 Y196.379 Z-1.224 I-0.249 J0.405
N13080 X118.425 Y195.541 Z-1.5 I0.249 J-0.405
N13085 X118.934 Y195.735 I0.158 J0.351
N13090 X118.74 Y196.243 I-0.351 J0.158
N13095 G1 X118.718 Y196.254
N13100 G3 X118.486 Y196.132 I-0.068 J-0.152
N13105 G1 X118.478 Y196.094
N13110 G3 X118.639 Y195.887 I0.162 J-0.04
N13115 G1 X118.757
N13120 G3 X118.825 Y196.205 I0. J0.166
N13125 G1 X118.74 Y196.243
N13130 G2 X118.552 Y196.543 I0.131 J0.291
N13135 G3 X118.364 Y196.843 I-0.319 J0.009
N13140 G1 X111.493 Y199.926
N13145 X111.458 Y199.946
N13150 X111.426 Y199.971
N13155 X111.371 Y200.021
N13160 X111.341 Y200.054
N13165 X111.318 Y200.092
N13170 X111.271 Y200.185
N13175 X111.253 Y200.231
N13180 X111.245 Y200.279
N13185 X111.238 Y200.372
N13190 X111.239 Y200.415
N13195 X111.247 Y200.457
N13200 X111.268 Y200.534
N13205 X111.282 Y200.571
N13210 X111.301 Y200.605
N13215 X111.343 Y200.669
N13220 X111.366 Y200.697
N13225 X111.392 Y200.723
N13230 X111.445 Y200.766
N13235 X111.473 Y200.787
N13240 X111.505 Y200.803
N13245 X111.573 Y200.833
N13250 X111.613 Y200.846
N13255 X111.656 Y200.852
N13260 X111.779 Y200.86
N13265 X111.797 Y200.861
N13270 X119.382 Y200.82
N13275 Y201.177
N13280 X110.408
N13285 Y200.39
N13290 Y200.002
N13295 X117.835 Y196.719
N13300 X117.87 Y196.7
N13305 X117.902 Y196.676
N13310 X117.973 Y196.611
N13315 X118.006 Y196.575
N13320 X118.031 Y196.533
N13325 X118.073 Y196.446
N13330 X118.089 Y196.402
N13335 X118.097 Y196.356
N13340 X118.103 Y196.265
N13345 Y196.224
N13350 X118.095 Y196.184
N13355 X118.077 Y196.113
N13360 X118.061 Y196.071
N13365 X118.039 Y196.033
N13370 X117.978 Y195.947
N13375 X117.949 Y195.913
N13380 X117.914 Y195.884
N13385 X117.851 Y195.842
N13390 X117.814 Y195.821
N13395 X117.773 Y195.807
N13400 X117.681 Y195.784
N13405 X117.62 Y195.776
N13410 X110.408 Y195.767
N13415 Y195.495
N13420 X119.382
N13425 Y196.386
N13430 X118.364 Y196.843
N13435 X118.345 Y196.845
N13440 X118.327 Y196.837
N13445 X118.317 Y196.821
N13450 X118.316 Y196.802
N13455 X118.359 Y196.651
N13460 X118.629 Y195.947
N13465 X118.721 Y195.565
N13470 X118.734 Y195.541
N13475 X118.759 Y195.528
N13480 X118.787 Y195.53
N13485 G3 X118.453 Y196.419 Z-1.9 I-0.167 J0.445
N13490 X118.787 Y195.53 Z-2.3 I0.167 J-0.445
N13495 X118.453 Y196.419 Z-2.7 I-0.167 J0.445
N13500 X118.425 Y195.541 Z-3. I0.167 J-0.445
N13505 X118.934 Y195.735 I0.158 J0.351
N13510 X118.74 Y196.243 I-0.351 J0.158
N13515 G1 X118.718 Y196.254
N13520 G3 X118.486 Y196.132 I-0.068 J-0.152
N13525 G1 X118.478 Y196.094
N13530 G3 X118.639 Y195.887 I0.162 J-0.04
N13535 G1 X118.757
N13540 G3 X118.825 Y196.205 I0. J0.166
N13545 G1 X118.74 Y196.243
N13550 G2 X118.552 Y196.543 I0.131 J0.291
N13555 G3 X118.364 Y196.843 I-0.319 J0.009
N13560 G1 X111.493 Y199.926
N13565 X111.458 Y199.946
N13570 X111.426 Y199.971
N13575 X111.371 Y200.021
N13580 X111.341 Y200.054
N13585 X111.318 Y200.092
N13590 X111.271 Y200.185
N13595 X111.253 Y200.231
N13600 X111.245 Y200.279
N13605 X111.238 Y200.372
N13610 X111.239 Y200.415
N13615 X111.247 Y200.457
N13620 X111.268 Y200.534
N13625 X111.282 Y200.571
N13630 X111.301 Y200.605
N13635 X111.343 Y200.669
N13640 X111.366 Y200.697
N13645 X111.392 Y200.723
N13650 X111.445 Y200.766
N13655 X111.473 Y200.787
N13660 X111.505 Y200.803
N13665 X111.573 Y200.833
N13670 X111.613 Y200.846
N13675 X111.656 Y200.852
N13680 X111.779 Y200.86
N13685 X111.797 Y200.861
N13690 X119.382 Y200.82
N13695 Y201.177
N13700 X110.408
N13705 Y200.002
N13710 X117.835 Y196.719
N13715 X117.87 Y196.7
N13720 X117.902 Y196.676
N13725 X117.973 Y196.611
N13730 X118.006 Y196.575
N13735 X118.031 Y196.533
N13740 X118.073 Y196.446
N13745 X118.089 Y196.402
N13750 X118.097 Y196.356
N13755 X118.103 Y196.265
N13760 Y196.224
N13765 X118.095 Y196.184
N13770 X118.077 Y196.113
N13775 X118.061 Y196.071
N13780 X118.039 Y196.033
N13785 X117.978 Y195.947
N13790 X117.949 Y195.913
N13795 X117.914 Y195.884
N13800 X117.851 Y195.842
N13805 X117.814 Y195.821
N13810 X117.773 Y195.807
N13815 X117.681 Y195.784
N13820 X117.62 Y195.776
N13825 X110.408 Y195.767
N13830 Y195.495
N13835 X119.382
N13840 Y196.386
N13845 X118.364 Y196.843
N13850 X118.34 Y196.85 Z-2.993
N13855 X118.315 Y196.851 Z-2.987
N13860 X118.28 Y196.842 Z-2.95
N13865 X118.268 Y196.835 Z-2.9
N13870 G0 Z5.
N13875 X134.657 Y195.91
N13880 Z1.675
N13885 G1 X134.65 Z1.637 F700.
N13890 X134.629 Z1.605
N13895 X134.597 Z1.583
N13900 X134.56 Z1.575
N13905 X132.539 Y195.911 Z1.515
N13910 X132.502 Y195.913 Z1.513
N13915 X132.466 Y195.921 Z1.512
N13920 X132.378 Y195.948 Z1.51
N13925 X132.336 Y195.966 Z1.508
N13930 X132.297 Y195.99 Z1.507
N13935 X132.226 Y196.046 Z1.504
N13940 X132.191 Y196.079 Z1.503
N13945 X132.163 Y196.118 Z1.501
N13950 X132.113 Y196.206 Z1.498
N13955 X132.093 Y196.249 Z1.497
N13960 X132.082 Y196.295 Z1.495
N13965 X132.069 Y196.382 Z1.493
N13970 X132.067 Y196.418 Z1.492
N13975 Y200.847 Z1.359
N13980 X131.805 Z1.351
N13985 X131.804 Y196.384 Z1.218
N13990 X131.801 Y196.347 Z1.217
N13995 X131.793 Y196.311 Z1.216
N14000 X131.765 Y196.219 Z1.213
N14005 X131.749 Y196.178 Z1.212
N14010 X131.726 Y196.141 Z1.21
N14015 X131.679 Y196.08 Z1.208
N14020 X131.654 Y196.05 Z1.207
N14025 X131.624 Y196.025 Z1.206
N14030 X131.559 Y195.98 Z1.203
N14035 X131.524 Y195.959 Z1.202
N14040 X131.485 Y195.944 Z1.201
N14045 X131.402 Y195.92 Z1.198
N14050 X131.367 Y195.913 Z1.197
N14055 X131.332 Y195.91 Z1.196
N14060 X127.788 Y195.913 Z1.09
N14065 X127.74 Y195.918 Z1.089
N14070 X127.693 Y195.932 Z1.087
N14075 X127.6 Y195.971 Z1.084
N14080 X127.559 Y195.992 Z1.083
N14085 X127.523 Y196.021 Z1.081
N14090 X127.462 Y196.08 Z1.079
N14095 X127.431 Y196.116 Z1.077
N14100 X127.407 Y196.156 Z1.076
N14105 X127.365 Y196.249 Z1.073
N14110 X127.349 Y196.293 Z1.072
N14115 X127.342 Y196.34 Z1.07
N14120 X127.336 Y196.463 Z1.066
N14125 Y196.476
N14130 Y201.591 Z0.913
N14135 X127.074 Z0.905
N14140 Y195.495 Z0.723
N14145 X136.167 Z0.451
N14150 Y201.29 Z0.278
N14155 X135.905 Z0.27
N14160 X135.904 Y196.386 Z0.123
N14165 X135.902 Y196.35 Z0.122
N14170 X135.894 Y196.316 Z0.121
N14175 X135.868 Y196.225 Z0.118
N14180 X135.852 Y196.184 Z0.117
N14185 X135.829 Y196.147 Z0.115
N14190 X135.781 Y196.081 Z0.113
N14195 X135.755 Y196.052 Z0.112
N14200 X135.726 Y196.027 Z0.111
N14205 X135.665 Y195.983 Z0.108
N14210 X135.629 Y195.962 Z0.107
N14215 X135.589 Y195.946 Z0.106
N14220 X135.499 Y195.92 Z0.103
N14225 X135.464 Y195.913 Z0.102
N14230 X135.429 Y195.91 Z0.101
N14235 X132.539 Y195.911 Z0.015
N14240 X132.502 Y195.913 Z0.013
N14245 X132.466 Y195.921 Z0.012
N14250 X132.378 Y195.948 Z0.01
N14255 X132.336 Y195.966 Z0.008
N14260 X132.297 Y195.99 Z0.007
N14265 X132.226 Y196.046 Z0.004
N14270 X132.191 Y196.079 Z0.003
N14275 X132.163 Y196.118 Z0.001
N14280 X132.113 Y196.206 Z-0.002
N14285 X132.093 Y196.249 Z-0.003
N14290 X132.082 Y196.295 Z-0.005
N14295 X132.069 Y196.382 Z-0.007
N14300 X132.067 Y196.418 Z-0.008
N14305 Y200.847 Z-0.141
N14310 X131.805 Z-0.149
N14315 X131.804 Y196.384 Z-0.282
N14320 X131.801 Y196.347 Z-0.283
N14325 X131.793 Y196.311 Z-0.284
N14330 X131.765 Y196.219 Z-0.287
N14335 X131.749 Y196.178 Z-0.288
N14340 X131.726 Y196.141 Z-0.29
N14345 X131.679 Y196.08 Z-0.292
N14350 X131.654 Y196.05 Z-0.293
N14355 X131.624 Y196.025 Z-0.294
N14360 X131.559 Y195.98 Z-0.297
N14365 X131.524 Y195.959 Z-0.298
N14370 X131.485 Y195.944 Z-0.299
N14375 X131.402 Y195.92 Z-0.302
N14380 X131.367 Y195.913 Z-0.303
N14385 X131.332 Y195.91 Z-0.304
N14390 X127.788 Y195.913 Z-0.41
N14395 X127.74 Y195.918 Z-0.411
N14400 X127.693 Y195.932 Z-0.413
N14405 X127.6 Y195.971 Z-0.416
N14410 X127.559 Y195.992 Z-0.417
N14415 X127.523 Y196.021 Z-0.419
N14420 X127.462 Y196.08 Z-0.421
N14425 X127.431 Y196.116 Z-0.423
N14430 X127.407 Y196.156 Z-0.424
N14435 X127.365 Y196.249 Z-0.427
N14440 X127.349 Y196.293 Z-0.428
N14445 X127.342 Y196.34 Z-0.43
N14450 X127.336 Y196.463 Z-0.434
N14455 Y196.476
N14460 Y201.591 Z-0.587
N14465 X127.074 Z-0.595
N14470 Y195.495 Z-0.777
N14475 X136.167 Z-1.049
N14480 Y201.29 Z-1.222
N14485 X135.905 Z-1.23
N14490 X135.904 Y196.386 Z-1.377
N14495 X135.902 Y196.35 Z-1.378
N14500 X135.894 Y196.316 Z-1.379
N14505 X135.868 Y196.225 Z-1.382
N14510 X135.852 Y196.184 Z-1.383
N14515 X135.829 Y196.147 Z-1.385
N14520 X135.781 Y196.081 Z-1.387
N14525 X135.755 Y196.052 Z-1.388
N14530 X135.726 Y196.027 Z-1.389
N14535 X135.665 Y195.983 Z-1.392
N14540 X135.629 Y195.962 Z-1.393
N14545 X135.589 Y195.946 Z-1.394
N14550 X135.499 Y195.92 Z-1.397
N14555 X135.464 Y195.913 Z-1.398
N14560 X135.429 Y195.91 Z-1.399
N14565 X132.539 Y195.911 Z-1.485
N14570 X132.502 Y195.913 Z-1.487
N14575 X132.466 Y195.921 Z-1.488
N14580 X132.378 Y195.948 Z-1.49
N14585 X132.336 Y195.966 Z-1.492
N14590 X132.297 Y195.99 Z-1.493
N14595 X132.226 Y196.046 Z-1.496
N14600 X132.191 Y196.079 Z-1.497
N14605 X132.163 Y196.118 Z-1.499
N14610 X132.142 Y196.155 Z-1.5
N14615 X132.113 Y196.206
N14620 X132.093 Y196.249
N14625 X132.082 Y196.295
N14630 X132.069 Y196.382
N14635 X132.067 Y196.418
N14640 Y200.847
N14645 X131.805
N14650 X131.804 Y196.384
N14655 X131.801 Y196.347
N14660 X131.793 Y196.311
N14665 X131.765 Y196.219
N14670 X131.749 Y196.178
N14675 X131.726 Y196.141
N14680 X131.679 Y196.08
N14685 X131.654 Y196.05
N14690 X131.624 Y196.025
N14695 X131.559 Y195.98
N14700 X131.524 Y195.959
N14705 X131.485 Y195.944
N14710 X131.402 Y195.92
N14715 X131.367 Y195.913
N14720 X131.332 Y195.91
N14725 X127.788 Y195.913
N14730 X127.74 Y195.918
N14735 X127.693 Y195.932
N14740 X127.6 Y195.971
N14745 X127.559 Y195.992
N14750 X127.523 Y196.021
N14755 X127.462 Y196.08
N14760 X127.431 Y196.116
N14765 X127.407 Y196.156
N14770 X127.365 Y196.249
N14775 X127.349 Y196.293
N14780 X127.342 Y196.34
N14785 X127.336 Y196.463
N14790 Y196.476
N14795 Y201.591
N14800 X127.074
N14805 Y196.476
N14810 Y195.495
N14815 X136.167
N14820 Y201.29
N14825 X135.905
N14830 X135.904 Y196.386
N14835 X135.902 Y196.35
N14840 X135.894 Y196.316
N14845 X135.868 Y196.225
N14850 X135.852 Y196.184
N14855 X135.829 Y196.147
N14860 X135.781 Y196.081
N14865 X135.755 Y196.052
N14870 X135.726 Y196.027
N14875 X135.665 Y195.983
N14880 X135.629 Y195.962
N14885 X135.589 Y195.946
N14890 X135.499 Y195.92
N14895 X135.464 Y195.913
N14900 X135.429 Y195.91
N14905 X132.539 Y195.911
N14910 X132.502 Y195.913
N14915 X132.466 Y195.921
N14920 X132.378 Y195.948
N14925 X132.336 Y195.966
N14930 X132.297 Y195.99
N14935 X132.226 Y196.046
N14940 X132.191 Y196.079
N14945 X132.163 Y196.118
N14950 X132.142 Y196.155
N14955 X132.127 Y196.175 Z-1.493
N14960 X132.108 Y196.19 Z-1.487
N14965 X132.074 Y196.203 Z-1.45
N14970 X132.06 Y196.205 Z-1.4
N14975 G0 Z5.
N14980 X134.657 Y195.91
N14985 Z0.175
N14990 G1 X134.65 Z0.137 F700.
N14995 X134.629 Z0.105
N15000 X134.597 Z0.083
N15005 X134.56 Z0.075
N15010 X132.539 Y195.911 Z0.015
N15015 X132.502 Y195.913 Z0.013
N15020 X132.466 Y195.921 Z0.012
N15025 X132.378 Y195.948 Z0.01
N15030 X132.336 Y195.966 Z0.008
N15035 X132.297 Y195.99 Z0.007
N15040 X132.226 Y196.046 Z0.004
N15045 X132.191 Y196.079 Z0.003
N15050 X132.163 Y196.118 Z0.001
N15055 X132.113 Y196.206 Z-0.002
N15060 X132.093 Y196.249 Z-0.003
N15065 X132.082 Y196.295 Z-0.005
N15070 X132.069 Y196.382 Z-0.007
N15075 X132.067 Y196.418 Z-0.008
N15080 Y200.847 Z-0.141
N15085 X131.805 Z-0.149
N15090 X131.804 Y196.384 Z-0.282
N15095 X131.801 Y196.347 Z-0.283
N15100 X131.793 Y196.311 Z-0.284
N15105 X131.765 Y196.219 Z-0.287
N15110 X131.749 Y196.178 Z-0.288
N15115 X131.726 Y196.141 Z-0.29
N15120 X131.679 Y196.08 Z-0.292
N15125 X131.654 Y196.05 Z-0.293
N15130 X131.624 Y196.025 Z-0.294
N15135 X131.559 Y195.98 Z-0.297
N15140 X131.524 Y195.959 Z-0.298
N15145 X131.485 Y195.944 Z-0.299
N15150 X131.402 Y195.92 Z-0.302
N15155 X131.367 Y195.913 Z-0.303
N15160 X131.332 Y195.91 Z-0.304
N15165 X127.788 Y195.913 Z-0.41
N15170 X127.74 Y195.918 Z-0.411
N15175 X127.693 Y195.932 Z-0.413
N15180 X127.6 Y195.971 Z-0.416
N15185 X127.559 Y195.992 Z-0.417
N15190 X127.523 Y196.021 Z-0.419
N15195 X127.462 Y196.08 Z-0.421
N15200 X127.431 Y196.116 Z-0.423
N15205 X127.407 Y196.156 Z-0.424
N15210 X127.365 Y196.249 Z-0.427
N15215 X127.349 Y196.293 Z-0.428
N15220 X127.342 Y196.34 Z-0.43
N15225 X127.336 Y196.463 Z-0.434
N15230 Y196.476
N15235 Y201.591 Z-0.587
N15240 X127.074 Z-0.595
N15245 Y195.495 Z-0.777
N15250 X136.167 Z-1.049
N15255 Y201.29 Z-1.222
N15260 X135.905 Z-1.23
N15265 X135.904 Y196.386 Z-1.377
N15270 X135.902 Y196.35 Z-1.378
N15275 X135.894 Y196.316 Z-1.379
N15280 X135.868 Y196.225 Z-1.382
N15285 X135.852 Y196.184 Z-1.383
N15290 X135.829 Y196.147 Z-1.385
N15295 X135.781 Y196.081 Z-1.387
N15300 X135.755 Y196.052 Z-1.388
N15305 X135.726 Y196.027 Z-1.389
N15310 X135.665 Y195.983 Z-1.392
N15315 X135.629 Y195.962 Z-1.393
N15320 X135.589 Y195.946 Z-1.394
N15325 X135.499 Y195.92 Z-1.397
N15330 X135.464 Y195.913 Z-1.398
N15335 X135.429 Y195.91 Z-1.399
N15340 X132.539 Y195.911 Z-1.485
N15345 X132.502 Y195.913 Z-1.487
N15350 X132.466 Y195.921 Z-1.488
N15355 X132.378 Y195.948 Z-1.49
N15360 X132.336 Y195.966 Z-1.492
N15365 X132.297 Y195.99 Z-1.493
N15370 X132.226 Y196.046 Z-1.496
N15375 X132.191 Y196.079 Z-1.497
N15380 X132.163 Y196.118 Z-1.499
N15385 X132.113 Y196.206 Z-1.502
N15390 X132.093 Y196.249 Z-1.503
N15395 X132.082 Y196.295 Z-1.505
N15400 X132.069 Y196.382 Z-1.507
N15405 X132.067 Y196.418 Z-1.508
N15410 Y200.847 Z-1.641
N15415 X131.805 Z-1.649
N15420 X131.804 Y196.384 Z-1.782
N15425 X131.801 Y196.347 Z-1.783
N15430 X131.793 Y196.311 Z-1.784
N15435 X131.765 Y196.219 Z-1.787
N15440 X131.749 Y196.178 Z-1.788
N15445 X131.726 Y196.141 Z-1.79
N15450 X131.679 Y196.08 Z-1.792
N15455 X131.654 Y196.05 Z-1.793
N15460 X131.624 Y196.025 Z-1.794
N15465 X131.559 Y195.98 Z-1.797
N15470 X131.524 Y195.959 Z-1.798
N15475 X131.485 Y195.944 Z-1.799
N15480 X131.402 Y195.92 Z-1.802
N15485 X131.367 Y195.913 Z-1.803
N15490 X131.332 Y195.91 Z-1.804
N15495 X127.788 Y195.913 Z-1.91
N15500 X127.74 Y195.918 Z-1.911
N15505 X127.693 Y195.932 Z-1.913
N15510 X127.6 Y195.971 Z-1.916
N15515 X127.559 Y195.992 Z-1.917
N15520 X127.523 Y196.021 Z-1.919
N15525 X127.462 Y196.08 Z-1.921
N15530 X127.431 Y196.116 Z-1.923
N15535 X127.407 Y196.156 Z-1.924
N15540 X127.365 Y196.249 Z-1.927
N15545 X127.349 Y196.293 Z-1.928
N15550 X127.342 Y196.34 Z-1.93
N15555 X127.336 Y196.463 Z-1.934
N15560 Y196.476
N15565 Y201.591 Z-2.087
N15570 X127.074 Z-2.095
N15575 Y195.495 Z-2.277
N15580 X136.167 Z-2.549
N15585 Y201.29 Z-2.722
N15590 X135.905 Z-2.73
N15595 X135.904 Y196.386 Z-2.877
N15600 X135.902 Y196.35 Z-2.878
N15605 X135.894 Y196.316 Z-2.879
N15610 X135.868 Y196.225 Z-2.882
N15615 X135.852 Y196.184 Z-2.883
N15620 X135.829 Y196.147 Z-2.885
N15625 X135.781 Y196.081 Z-2.887
N15630 X135.755 Y196.052 Z-2.888
N15635 X135.726 Y196.027 Z-2.889
N15640 X135.665 Y195.983 Z-2.892
N15645 X135.629 Y195.962 Z-2.893
N15650 X135.589 Y195.946 Z-2.894
N15655 X135.499 Y195.92 Z-2.897
N15660 X135.464 Y195.913 Z-2.898
N15665 X135.429 Y195.91 Z-2.899
N15670 X132.539 Y195.911 Z-2.985
N15675 X132.502 Y195.913 Z-2.987
N15680 X132.466 Y195.921 Z-2.988
N15685 X132.378 Y195.948 Z-2.99
N15690 X132.336 Y195.966 Z-2.992
N15695 X132.297 Y195.99 Z-2.993
N15700 X132.226 Y196.046 Z-2.996
N15705 X132.191 Y196.079 Z-2.997
N15710 X132.163 Y196.118 Z-2.999
N15715 X132.142 Y196.155 Z-3.
N15720 X132.113 Y196.206
N15725 X132.093 Y196.249
N15730 X132.082 Y196.295
N15735 X132.069 Y196.382
N15740 X132.067 Y196.418
N15745 Y200.847
N15750 X131.805
N15755 X131.804 Y196.384
N15760 X131.801 Y196.347
N15765 X131.793 Y196.311
N15770 X131.765 Y196.219
N15775 X131.749 Y196.178
N15780 X131.726 Y196.141
N15785 X131.679 Y196.08
N15790 X131.654 Y196.05
N15795 X131.624 Y196.025
N15800 X131.559 Y195.98
N15805 X131.524 Y195.959
N15810 X131.485 Y195.944
N15815 X131.402 Y195.92
N15820 X131.367 Y195.913
N15825 X131.332 Y195.91
N15830 X127.788 Y195.913
N15835 X127.74 Y195.918
N15840 X127.693 Y195.932
N15845 X127.6 Y195.971
N15850 X127.559 Y195.992
N15855 X127.523 Y196.021
N15860 X127.462 Y196.08
N15865 X127.431 Y196.116
N15870 X127.407 Y196.156
N15875 X127.365 Y196.249
N15880 X127.349 Y196.293
N15885 X127.342 Y196.34
N15890 X127.336 Y196.463
N15895 Y196.476
N15900 Y201.591
N15905 X127.074
N15910 Y195.495
N15915 X136.167
N15920 Y201.29
N15925 X135.905
N15930 X135.904 Y196.386
N15935 X135.902 Y196.35
N15940 X135.894 Y196.316
N15945 X135.868 Y196.225
N15950 X135.852 Y196.184
N15955 X135.829 Y196.147
N15960 X135.781 Y196.081
N15965 X135.755 Y196.052
N15970 X135.726 Y196.027
N15975 X135.665 Y195.983
N15980 X135.629 Y195.962
N15985 X135.589 Y195.946
N15990 X135.499 Y195.92
N15995 X135.464 Y195.913
N16000 X135.429 Y195.91
N16005 X132.539 Y195.911
N16010 X132.502 Y195.913
N16015 X132.466 Y195.921
N16020 X132.378 Y195.948
N16025 X132.336 Y195.966
N16030 X132.297 Y195.99
N16035 X132.226 Y196.046
N16040 X132.191 Y196.079
N16045 X132.163 Y196.118
N16050 X132.142 Y196.155
N16055 X132.127 Y196.175 Z-2.993
N16060 X132.108 Y196.19 Z-2.987
N16065 X132.074 Y196.203 Z-2.95
N16070 X132.06 Y196.205 Z-2.9
N16075 G0 Z5.
N16080 X150.353 Y201.321
N16085 Z1.675
N16090 G1 X150.346 Y201.323 Z1.638 F700.
N16095 X150.327 Y201.33 Z1.606
N16100 X150.299 Y201.34 Z1.584
N16105 X150.265 Y201.352 Z1.575
N16110 X150.066 Y201.423 Z1.562
N16115 X149.179 Y201.573 Z1.507
N16120 X148.281 Y201.613 Z1.451
N16125 X147.383 Y201.569 Z1.396
N16130 X146.491 Y201.423 Z1.34
N16135 X145.682 Y201.16 Z1.288
N16140 X144.981 Y200.754 Z1.238
N16145 X144.401 Y200.164 Z1.187
N16150 X144.024 Y199.466 Z1.139
N16155 X143.805 Y198.623 Z1.085
N16160 X143.778 Y198.254 Z1.062
N16165 X144. Z1.049
N16170 X144.032 Y198.538 Z1.031
N16175 X144.044 Y198.589 Z1.028
N16180 X144.28 Y199.298 Z0.982
N16185 X144.293 Y199.329 Z0.98
N16190 X144.309 Y199.357 Z0.978
N16195 X144.72 Y199.975 Z0.932
N16200 X144.742 Y200.003 Z0.93
N16205 X144.768 Y200.028 Z0.928
N16210 X145.347 Y200.514 Z0.881
N16215 X145.397 Y200.547 Z0.878
N16220 X146.044 Y200.864 Z0.833
N16225 X146.088 Y200.881 Z0.83
N16230 X146.828 Y201.083 Z0.783
N16235 X146.872 Y201.091 Z0.78
N16240 X148.29 Y201.215 Z0.693
N16245 X148.335 Z0.69
N16250 X149.752 Y201.082 Z0.602
N16255 X149.801 Y201.073 Z0.599
N16260 X150.479 Y200.869 Z0.556
N16265 X150.526 Y200.85 Z0.553
N16270 X151.173 Y200.501 Z0.507
N16275 X151.2 Y200.484 Z0.506
N16280 X151.224 Y200.464 Z0.504
N16285 X151.749 Y199.977 Z0.46
N16290 X151.773 Y199.951 Z0.457
N16295 X151.793 Y199.922 Z0.455
N16300 X152.175 Y199.286 Z0.41
N16305 X152.19 Y199.258 Z0.408
N16310 X152.201 Y199.228 Z0.406
N16315 X152.41 Y198.519 Z0.36
N16320 X152.419 Y198.473 Z0.357
N16325 X152.441 Y198.254 Z0.344
N16330 X152.622 Z0.333
N16335 X152.594 Y198.62 Z0.31
N16340 X152.397 Y199.424 Z0.259
N16345 X152.048 Y200.125 Z0.211
N16350 X151.514 Y200.721 Z0.162
N16355 X150.851 Y201.144 Z0.113
N16360 X150.066 Y201.423 Z0.062
N16365 X149.179 Y201.573 Z0.007
N16370 X148.281 Y201.613 Z-0.049
N16375 X147.383 Y201.569 Z-0.104
N16380 X146.491 Y201.423 Z-0.16
N16385 X145.682 Y201.16 Z-0.212
N16390 X144.981 Y200.754 Z-0.262
N16395 X144.401 Y200.164 Z-0.313
N16400 X144.024 Y199.466 Z-0.361
N16405 X143.805 Y198.623 Z-0.415
N16410 X143.778 Y198.254 Z-0.438
N16415 X144. Z-0.451
N16420 X144.032 Y198.538 Z-0.469
N16425 X144.044 Y198.589 Z-0.472
N16430 X144.28 Y199.298 Z-0.518
N16435 X144.293 Y199.329 Z-0.52
N16440 X144.309 Y199.357 Z-0.522
N16445 X144.72 Y199.975 Z-0.568
N16450 X144.742 Y200.003 Z-0.57
N16455 X144.768 Y200.028 Z-0.572
N16460 X145.347 Y200.514 Z-0.619
N16465 X145.397 Y200.547 Z-0.622
N16470 X146.044 Y200.864 Z-0.667
N16475 X146.088 Y200.881 Z-0.67
N16480 X146.828 Y201.083 Z-0.717
N16485 X146.872 Y201.091 Z-0.72
N16490 X148.29 Y201.215 Z-0.807
N16495 X148.335 Z-0.81
N16500 X149.752 Y201.082 Z-0.898
N16505 X149.801 Y201.073 Z-0.901
N16510 X150.479 Y200.869 Z-0.944
N16515 X150.526 Y200.85 Z-0.947
N16520 X151.173 Y200.501 Z-0.993
N16525 X151.2 Y200.484 Z-0.994
N16530 X151.224 Y200.464 Z-0.996
N16535 X151.749 Y199.977 Z-1.04
N16540 X151.773 Y199.951 Z-1.043
N16545 X151.793 Y199.922 Z-1.045
N16550 X152.175 Y199.286 Z-1.09
N16555 X152.19 Y199.258 Z-1.092
N16560 X152.201 Y199.228 Z-1.094
N16565 X152.41 Y198.519 Z-1.14
N16570 X152.419 Y198.473 Z-1.143
N16575 X152.441 Y198.254 Z-1.156
N16580 X152.622 Z-1.167
N16585 X152.594 Y198.62 Z-1.19
N16590 X152.397 Y199.424 Z-1.241
N16595 X152.048 Y200.125 Z-1.289
N16600 X151.514 Y200.721 Z-1.338
N16605 X150.851 Y201.144 Z-1.387
N16610 X150.066 Y201.423 Z-1.438
N16615 X149.179 Y201.573 Z-1.493
N16620 X149.07 Y201.578 Z-1.5
N16625 X148.281 Y201.613
N16630 X147.383 Y201.569
N16635 X146.491 Y201.423
N16640 X145.682 Y201.16
N16645 X144.981 Y200.754
N16650 X144.401 Y200.164
N16655 X144.024 Y199.466
N16660 X143.805 Y198.623
N16665 X143.778 Y198.254
N16670 X144.
N16675 X144.032 Y198.538
N16680 X144.044 Y198.589
N16685 X144.28 Y199.298
N16690 X144.293 Y199.329
N16695 X144.309 Y199.357
N16700 X144.72 Y199.975
N16705 X144.742 Y200.003
N16710 X144.768 Y200.028
N16715 X145.347 Y200.514
N16720 X145.397 Y200.547
N16725 X146.044 Y200.864
N16730 X146.088 Y200.881
N16735 X146.828 Y201.083
N16740 X146.872 Y201.091
N16745 X148.29 Y201.215
N16750 X148.335
N16755 X149.752 Y201.082
N16760 X149.801 Y201.073
N16765 X150.479 Y200.869
N16770 X150.526 Y200.85
N16775 X151.173 Y200.501
N16780 X151.2 Y200.484
N16785 X151.224 Y200.464
N16790 X151.749 Y199.977
N16795 X151.773 Y199.951
N16800 X151.793 Y199.922
N16805 X152.175 Y199.286
N16810 X152.19 Y199.258
N16815 X152.201 Y199.228
N16820 X152.41 Y198.519
N16825 X152.419 Y198.473
N16830 X152.441 Y198.254
N16835 X152.622
N16840 X152.594 Y198.62
N16845 X152.397 Y199.424
N16850 X152.048 Y200.125
N16855 X151.514 Y200.721
N16860 X150.851 Y201.144
N16865 X150.066 Y201.423
N16870 X149.179 Y201.573
N16875 X149.07 Y201.578
N16880 X149.046 Y201.576 Z-1.493
N16885 X149.022 Y201.568 Z-1.487
N16890 X148.993 Y201.546 Z-1.45
N16895 X148.984 Y201.536 Z-1.4
N16900 G0 Z5.
N16905 X150.352 Y201.317
N16910 Z0.175
N16915 G1 X150.346 Y201.32 Z0.138 F700.
N16920 X150.327 Y201.326 Z0.106
N16925 X150.298 Y201.336 Z0.084
N16930 X150.264 Y201.348 Z0.075
N16935 X150.036 Y201.428 Z0.06
N16940 X149.179 Y201.573 Z0.007
N16945 X148.281 Y201.613 Z-0.049
N16950 X147.383 Y201.569 Z-0.104
N16955 X146.491 Y201.423 Z-0.16
N16960 X145.685 Y201.161 Z-0.212
N16965 X144.961 Y200.736 Z-0.263
N16970 X144.401 Y200.163 Z-0.313
N16975 X144.025 Y199.466 Z-0.361
N16980 X143.805 Y198.623 Z-0.415
N16985 X143.778 Y198.254 Z-0.438
N16990 X144. Z-0.451
N16995 X144.032 Y198.538 Z-0.469
N17000 X144.044 Y198.589 Z-0.472
N17005 X144.28 Y199.298 Z-0.518
N17010 X144.292 Y199.329 Z-0.52
N17015 X144.309 Y199.357 Z-0.522
N17020 X144.721 Y199.975 Z-0.568
N17025 X144.743 Y200.003 Z-0.57
N17030 X144.768 Y200.028 Z-0.572
N17035 X145.347 Y200.514 Z-0.619
N17040 X145.399 Y200.548 Z-0.623
N17045 X146.077 Y200.875 Z-0.669
N17050 X146.12 Y200.891 Z-0.672
N17055 X146.829 Y201.084 Z-0.717
N17060 X146.872 Y201.092 Z-0.72
N17065 X148.29 Y201.215 Z-0.807
N17070 X148.335 Z-0.81
N17075 X149.752 Y201.083 Z-0.898
N17080 X149.801 Y201.073 Z-0.901
N17085 X150.479 Y200.869 Z-0.944
N17090 X150.526 Y200.85 Z-0.947
N17095 X151.173 Y200.501 Z-0.993
N17100 X151.2 Y200.485 Z-0.994
N17105 X151.224 Y200.464 Z-0.996
N17110 X151.748 Y199.977 Z-1.04
N17115 X151.772 Y199.952 Z-1.043
N17120 X151.792 Y199.923 Z-1.045
N17125 X152.175 Y199.286 Z-1.09
N17130 X152.19 Y199.258 Z-1.092
N17135 X152.201 Y199.228 Z-1.094
N17140 X152.41 Y198.519 Z-1.14
N17145 X152.419 Y198.473 Z-1.143
N17150 X152.441 Y198.254 Z-1.156
N17155 X152.622 Z-1.167
N17160 X152.594 Y198.62 Z-1.19
N17165 X152.397 Y199.424 Z-1.241
N17170 X152.048 Y200.125 Z-1.289
N17175 X151.514 Y200.721 Z-1.338
N17180 X150.852 Y201.143 Z-1.387
N17185 X150.036 Y201.428 Z-1.44
N17190 X149.179 Y201.573 Z-1.493
N17195 X148.281 Y201.613 Z-1.549
N17200 X147.383 Y201.569 Z-1.604
N17205 X146.491 Y201.423 Z-1.66
N17210 X145.685 Y201.161 Z-1.712
N17215 X144.961 Y200.736 Z-1.763
N17220 X144.401 Y200.163 Z-1.813
N17225 X144.025 Y199.466 Z-1.861
N17230 X143.805 Y198.623 Z-1.915
N17235 X143.778 Y198.254 Z-1.938
N17240 X144. Z-1.951
N17245 X144.032 Y198.538 Z-1.969
N17250 X144.044 Y198.589 Z-1.972
N17255 X144.28 Y199.298 Z-2.018
N17260 X144.292 Y199.329 Z-2.02
N17265 X144.309 Y199.357 Z-2.022
N17270 X144.721 Y199.975 Z-2.068
N17275 X144.743 Y200.003 Z-2.07
N17280 X144.768 Y200.028 Z-2.072
N17285 X145.347 Y200.514 Z-2.119
N17290 X145.399 Y200.548 Z-2.123
N17295 X146.077 Y200.875 Z-2.169
N17300 X146.12 Y200.891 Z-2.172
N17305 X146.829 Y201.084 Z-2.217
N17310 X146.872 Y201.092 Z-2.22
N17315 X148.29 Y201.215 Z-2.307
N17320 X148.335 Z-2.31
N17325 X149.752 Y201.083 Z-2.398
N17330 X149.801 Y201.073 Z-2.401
N17335 X150.479 Y200.869 Z-2.444
N17340 X150.526 Y200.85 Z-2.447
N17345 X151.173 Y200.501 Z-2.493
N17350 X151.2 Y200.485 Z-2.494
N17355 X151.224 Y200.464 Z-2.496
N17360 X151.748 Y199.977 Z-2.54
N17365 X151.772 Y199.952 Z-2.543
N17370 X151.792 Y199.923 Z-2.545
N17375 X152.175 Y199.286 Z-2.59
N17380 X152.19 Y199.258 Z-2.592
N17385 X152.201 Y199.228 Z-2.594
N17390 X152.41 Y198.519 Z-2.64
N17395 X152.419 Y198.473 Z-2.643
N17400 X152.441 Y198.254 Z-2.656
N17405 X152.622 Z-2.667
N17410 X152.594 Y198.62 Z-2.69
N17415 X152.397 Y199.424 Z-2.741
N17420 X152.048 Y200.125 Z-2.789
N17425 X151.514 Y200.721 Z-2.838
N17430 X150.852 Y201.143 Z-2.887
N17435 X150.036 Y201.428 Z-2.94
N17440 X149.179 Y201.573 Z-2.993
N17445 X149.07 Y201.578 Z-3.
N17450 X148.281 Y201.613
N17455 X147.383 Y201.569
N17460 X146.491 Y201.423
N17465 X145.987 Y201.259
N17470 X145.685 Y201.161
N17475 X144.961 Y200.736
N17480 X144.401 Y200.163
N17485 X144.025 Y199.466
N17490 X143.805 Y198.623
N17495 X143.778 Y198.254
N17500 X144.
N17505 X144.032 Y198.538
N17510 X144.044 Y198.589
N17515 X144.28 Y199.298
N17520 X144.292 Y199.329
N17525 X144.309 Y199.357
N17530 X144.721 Y199.975
N17535 X144.743 Y200.003
N17540 X144.768 Y200.028
N17545 X145.347 Y200.514
N17550 X145.399 Y200.548
N17555 X146.077 Y200.875
N17560 X146.12 Y200.891
N17565 X146.829 Y201.084
N17570 X146.872 Y201.092
N17575 X148.29 Y201.215
N17580 X148.335
N17585 X149.752 Y201.083
N17590 X149.801 Y201.073
N17595 X150.479 Y200.869
N17600 X150.526 Y200.85
N17605 X151.173 Y200.501
N17610 X151.2 Y200.485
N17615 X151.224 Y200.464
N17620 X151.748 Y199.977
N17625 X151.772 Y199.952
N17630 X151.792 Y199.923
N17635 X152.175 Y199.286
N17640 X152.19 Y199.258
N17645 X152.201 Y199.228
N17650 X152.41 Y198.519
N17655 X152.419 Y198.473
N17660 X152.441 Y198.254
N17665 X152.622
N17670 X152.594 Y198.62
N17675 X152.397 Y199.424
N17680 X152.048 Y200.125
N17685 X151.514 Y200.721
N17690 X150.852 Y201.143
N17695 X150.036 Y201.428
N17700 X149.179 Y201.573
N17705 X149.07 Y201.578
N17710 X149.046 Y201.576 Z-2.993
N17715 X149.022 Y201.568 Z-2.987
N17720 X148.993 Y201.546 Z-2.95
N17725 X148.984 Y201.536 Z-2.9
N17730 G0 Z5.
N17735 X144.893 Y195.924
N17740 Z1.675
N17745 G1 X144.886 Z1.638 F700.
N17750 X144.866 Z1.607
N17755 X144.837 Z1.585
N17760 X144.801 Z1.575
N17765 X143.741 Z1.49
N17770 Y195.495 Z1.456
N17775 X152.715 Z0.74
N17780 Y195.924 Z0.706
N17785 X143.741 Z-0.01
N17790 Y195.495 Z-0.044
N17795 X152.715 Z-0.76
N17800 Y195.924 Z-0.794
N17805 X143.86 Z-1.5
N17810 X143.741
N17815 Y195.495
N17820 X152.715
N17825 Y195.924
N17830 X143.86
N17835 X143.839 Y195.918
N17840 X143.825 Y195.901
N17845 X143.821 Y195.879
N17850 X143.829 Y195.859
N17855 X143.847 Y195.846
N17860 X143.98 Y195.801
N17865 X147.642 Y195.714
N17870 X147.663 Y195.709
N17875 X147.68 Y195.694
N17880 X147.816 Y195.514
N17885 X147.834 Y195.5
N17890 X147.856 Y195.495
N17895 X152.715 Z-2.802
N17900 Y195.924 Z-2.917
N17905 X152.406 Z-3.
N17910 X143.741
N17915 Y195.495
N17920 X152.715
N17925 Y195.924
N17930 X152.406
N17935 X152.381 Y195.921 Z-2.993
N17940 X152.358 Y195.911 Z-2.987
N17945 X152.33 Y195.889 Z-2.95
N17950 X152.322 Y195.878 Z-2.9
N17955 G0 Z5.
N17960 X146.348 Y179.064
N17965 Z1.675
N17970 G1 X146.356 Z1.638 F700.
N17975 X146.376 Z1.606
N17980 X146.407 Z1.584
N17985 X146.444 Z1.575
N17990 X152.834 Z1.327
N17995 Y184.653 Z1.111
N18000 X152.572 Z1.101
N18005 X152.567 Y179.93 Z0.918
N18010 X152.563 Y179.883 Z0.916
N18015 X152.55 Y179.838 Z0.914
N18020 X152.515 Y179.752 Z0.91
N18025 X152.493 Y179.71 Z0.908
N18030 X152.464 Y179.672 Z0.907
N18035 X152.396 Y179.601 Z0.903
N18040 X152.358 Y179.569 Z0.901
N18045 X152.315 Y179.545 Z0.899
N18050 X152.224 Y179.505 Z0.895
N18055 X152.177 Y179.49 Z0.893
N18060 X152.127 Y179.484 Z0.891
N18065 X151.612 Y179.479 Z0.871
N18070 X148.873 Y179.483 Z0.765
N18075 X148.832 Y179.486 Z0.764
N18080 X148.792 Y179.496 Z0.762
N18085 X148.721 Y179.521 Z0.759
N18090 X148.682 Y179.538 Z0.757
N18095 X148.646 Y179.562 Z0.756
N18100 X148.571 Y179.622 Z0.752
N18105 X148.537 Y179.655 Z0.75
N18110 X148.509 Y179.695 Z0.748
N18115 X148.462 Y179.78 Z0.744
N18120 X148.446 Y179.815 Z0.743
N18125 X148.435 Y179.853 Z0.741
N18130 X148.424 Y179.91 Z0.739
N18135 X148.419 Y179.959 Z0.737
N18140 X148.418 Y184.476 Z0.562
N18145 X148.161 Z0.552
N18150 X148.153 Y179.934 Z0.376
N18155 X148.149 Y179.893 Z0.375
