%
(LETTERPLATEN_13_13_LOWER_11_ROWS)
(T1  D=1.5 CR=0. - ZMIN=-3. - FLAT END MILL)
N10 G90 G94 G17 G91.1
N15 G21
(POCKET2 2)
N20 T1 M6
N25 S10000 M3
N30 M8
N35 G54
N40 G0 X258.835 Y210.842
N45 G43 Z15. H1
N50 G0 Z2.5
N55 G1 Z0.25 F300.
N60 Y210.841 Z0.229 F700.
N65 X258.834 Y210.836 Z0.208
N70 Y210.829 Z0.189
N75 X258.833 Y210.819 Z0.17
N80 Y210.807 Z0.153
N85 X258.832 Y210.792 Z0.138
N90 Y210.775 Z0.125
N95 X258.833 Y210.754 Z0.113
N100 X258.834 Y210.731 Z0.105
N105 G3 X260.255 Y210.835 Z-0.495 I0.711 J0.052
N110 X259.737 Y211.469 Z-0.728 I-0.711 J-0.052
N115 X259.353 Y210.097 Z-1.328 I-0.192 J-0.686
N120 X259.947 Y210.195 Z-1.495 I0.192 J0.686
N125 G1 X259.963 Y210.206 Z-1.499
N130 X259.979 Y210.218 Z-1.5
N135 G3 X260.095 Y211.105 I-0.385 J0.502
N140 X259.209 Y211.221 I-0.502 J-0.385
N145 G2 X258.82 Y211.007 I-0.898 J1.171
N150 X258.173 Y210.891 I-0.655 J1.781
N155 G1 X251.846 Y210.902
N160 G2 X251.259 Y211.117 I0.127 J1.258
N165 X250.817 Y211.56 I0.961 J1.402
N170 G3 X250.386 Y211.562 I-0.216 J-0.147
N175 G2 X249.893 Y211.088 I-1.43 J0.993
N180 X249.239 Y210.89 I-0.677 J1.059
N185 G1 X241.373 Y210.9
N190 G2 X240.855 Y211.044 I0.084 J1.31
N195 X240.424 Y211.366 I0.755 J1.462
N200 G3 X240.085 Y211.229 I-0.142 J-0.137
N205 G1 Y210.908
N210 G3 X240.33 Y210.663 I0.245 J0.
N215 G1 X259.465
N220 G3 X259.709 Y210.908 I0. J0.245
N225 G1 Y211.229
N230 G3 X259.371 Y211.366 I-0.197 J0.
N235 G1 X259.292 Y211.291
N240 X259.209 Y211.221
N245 G2 X258.459 Y211.305 I-0.331 J0.432
N250 G3 X257.776 Y211.625 I-0.683 J-0.569
N255 G1 X252.007
N260 X251.993
N265 X251.969 Y211.626
N270 X251.944 Y211.627
N275 X251.92 Y211.63
N280 X251.895 Y211.633
N285 X251.871 Y211.637
N290 X251.847 Y211.642
N295 X251.822 Y211.648
N300 X251.8 Y211.654
N305 X251.78 Y211.66
N310 X251.76 Y211.667
N315 X251.74 Y211.674
N320 X251.715 Y211.684
N325 X251.686 Y211.697
N330 X251.657 Y211.712
N335 X251.629 Y211.728
N340 X251.604 Y211.743
N345 X251.583 Y211.756
N350 X251.563 Y211.771
N355 X251.542 Y211.787
N360 X251.521 Y211.804
N365 X251.501 Y211.822
N370 X251.48 Y211.842
N375 X251.46 Y211.863
N380 X251.442 Y211.883
N385 X251.426 Y211.901
N390 X251.411 Y211.92
N395 X251.397 Y211.94
N400 X251.383 Y211.96
N405 X251.37 Y211.98
N410 X251.358 Y212.
N415 X251.347 Y212.02
N420 X251.337 Y212.039
N425 X251.327 Y212.059
N430 X251.318 Y212.081
N435 X251.308 Y212.106
N440 X251.299 Y212.13
N445 X251.291 Y212.155
N450 X251.284 Y212.179
N455 X251.278 Y212.204
N460 X251.272 Y212.228
N465 X251.268 Y212.253
N470 X251.264 Y212.277
N475 X251.261 Y212.302
N480 X251.259 Y212.326
N485 X251.258 Y212.351
N490 Y212.369
N495 Y222.638
N500 X249.944
N505 Y212.369
N510 X249.943 Y212.35
N515 X249.942 Y212.326
N520 X249.94 Y212.301
N525 X249.937 Y212.277
N530 X249.933 Y212.25
N535 X249.928 Y212.221
N540 X249.921 Y212.192
N545 X249.913 Y212.163
N550 X249.906 Y212.138
N555 X249.899 Y212.119
N560 X249.891 Y212.099
N565 X249.883 Y212.079
N570 X249.873 Y212.057
N575 X249.861 Y212.033
N580 X249.848 Y212.008
N585 X249.834 Y211.984
N590 X249.818 Y211.959
N595 X249.801 Y211.935
N600 X249.783 Y211.91
N605 X249.762 Y211.886
N610 X249.742 Y211.862
N615 X249.72 Y211.84
N620 X249.703 Y211.824
N625 X249.691 Y211.813
N630 X249.673 Y211.798
N635 X249.648 Y211.778
N640 X249.624 Y211.76
N645 X249.599 Y211.744
N650 X249.575 Y211.729
N655 X249.55 Y211.715
N660 X249.522 Y211.7
N665 X249.489 Y211.685
N670 X249.456 Y211.672
N675 X249.424 Y211.661
N680 X249.391 Y211.651
N685 X249.359 Y211.643
N690 X249.33 Y211.637
N695 X249.306 Y211.633
N700 X249.281 Y211.63
N705 X249.257 Y211.627
N710 X249.226 Y211.626
N715 X249.177 Y211.625
N720 X249.17
N725 X241.444
N730 X241.42 Y211.626
N735 X241.396 Y211.627
N740 X241.371 Y211.63
N745 X241.347 Y211.633
N750 X241.322 Y211.637
N755 X241.298 Y211.642
N760 X241.273 Y211.647
N765 X241.249 Y211.654
N770 X241.222 Y211.662
N775 X241.193 Y211.673
N780 X241.161 Y211.686
N785 X241.126 Y211.701
N790 X241.101 Y211.714
N795 X241.084 Y211.724
N800 X241.067 Y211.734
N805 X241.05 Y211.744
N810 X241.032 Y211.756
N815 X241.014 Y211.769
N820 X240.996 Y211.782
N825 X240.978 Y211.797
N830 X240.96 Y211.812
N835 X240.942 Y211.828
N840 X240.925 Y211.846
N845 X240.907 Y211.864
N850 X240.891 Y211.882
N855 X240.877 Y211.898
N860 X240.864 Y211.914
N865 X240.852 Y211.931
N870 X240.835 Y211.955
N875 X240.814 Y211.988
N880 X240.795 Y212.02
N885 X240.779 Y212.053
N890 X240.766 Y212.081
N895 X240.756 Y212.106
N900 X240.747 Y212.13
N905 X240.739 Y212.155
N910 X240.732 Y212.179
N915 X240.726 Y212.204
N920 X240.721 Y212.228
N925 X240.716 Y212.253
N930 X240.712 Y212.277
N935 X240.71 Y212.302
N940 X240.708 Y212.326
N945 X240.706 Y212.351
N950 Y212.369
N955 Y224.298
N960 X239.392
N965 Y209.97
N970 X260.403
N975 Y223.627
N980 X259.089
N985 Y212.369
N990 Y212.35
N995 X259.087 Y212.326
N1000 X259.085 Y212.301
N1005 X259.082 Y212.277
N1010 X259.079 Y212.252
N1015 X259.074 Y212.228
N1020 X259.069 Y212.203
N1025 X259.063 Y212.179
N1030 X259.056 Y212.154
N1035 X259.048 Y212.13
N1040 X259.039 Y212.106
N1045 X259.029 Y212.081
N1050 X259.018 Y212.057
N1055 X259.007 Y212.035
N1060 X258.995 Y212.012
N1065 X258.982 Y211.989
N1070 X258.966 Y211.964
N1075 X258.949 Y211.938
N1080 X258.929 Y211.913
N1085 X258.908 Y211.887
N1090 X258.89 Y211.866
N1095 X258.875 Y211.85
N1100 X258.86 Y211.836
N1105 X258.846 Y211.822
N1110 X258.824 Y211.803
N1115 X258.795 Y211.779
N1120 X258.77 Y211.761
N1125 X258.749 Y211.747
N1130 X258.729 Y211.734
N1135 X258.709 Y211.722
N1140 X258.688 Y211.711
N1145 X258.668 Y211.701
N1150 X258.647 Y211.691
N1155 X258.627 Y211.682
N1160 X258.609 Y211.675
N1165 X258.592 Y211.669
N1170 X258.572 Y211.662
N1175 X258.548 Y211.654
N1180 X258.523 Y211.648
N1185 X258.499 Y211.642
N1190 X258.474 Y211.637
N1195 X258.45 Y211.633
N1200 X258.425 Y211.63
N1205 X258.401 Y211.627
N1210 X258.365 Y211.625
N1215 X258.17
N1220 X258.168
N1225 X257.776
N1230 X257.756 Y211.619
N1235 X257.742 Y211.603
N1240 X257.739 Y211.582
N1245 X257.749 Y211.563
N1250 X257.857 Y211.446
N1255 X257.86 Y211.443
N1260 X258.962 Y210.503
N1265 X258.972 Y210.487
N1270 X258.971 Y210.467
N1275 X258.952 Y210.413
N1280 X258.95 Y210.398
N1285 X258.955 Y210.383
N1290 X258.966 Y210.367 Z-1.501
N1295 X258.978 Y210.352 Z-1.505
N1300 G3 X260.112 Y211.215 Z-2.105 I0.567 J0.432
N1305 X259.737 Y211.469 Z-2.228 I-0.567 J-0.432
N1310 X259.353 Y210.097 Z-2.828 I-0.192 J-0.686
N1315 X259.947 Y210.195 Z-2.995 I0.192 J0.686
N1320 G1 X259.963 Y210.206 Z-2.999
N1325 X259.979 Y210.218 Z-3.
N1330 G3 X260.095 Y211.105 I-0.385 J0.502
N1335 X259.209 Y211.221 I-0.502 J-0.385
N1340 G2 X258.82 Y211.007 I-0.898 J1.171
N1345 X258.173 Y210.891 I-0.655 J1.781
N1350 G1 X251.846 Y210.902
N1355 G2 X251.259 Y211.117 I0.127 J1.258
N1360 X250.817 Y211.56 I0.961 J1.402
N1365 G3 X250.386 Y211.562 I-0.216 J-0.147
N1370 G2 X249.893 Y211.088 I-1.43 J0.993
N1375 X249.239 Y210.89 I-0.677 J1.059
N1380 G1 X241.373 Y210.9
N1385 G2 X240.855 Y211.044 I0.084 J1.31
N1390 X240.424 Y211.366 I0.755 J1.462
N1395 G3 X240.085 Y211.229 I-0.142 J-0.137
N1400 G1 Y210.908
N1405 G3 X240.33 Y210.663 I0.245 J0.
N1410 G1 X259.465
N1415 G3 X259.709 Y210.908 I0. J0.245
N1420 G1 Y211.229
N1425 G3 X259.371 Y211.366 I-0.197 J0.
N1430 G1 X259.292 Y211.291
N1435 X259.209 Y211.221
N1440 G2 X258.459 Y211.305 I-0.331 J0.432
N1445 G3 X257.776 Y211.625 I-0.683 J-0.569
N1450 G1 X252.007
N1455 X251.993
N1460 X251.969 Y211.626
N1465 X251.944 Y211.627
N1470 X251.92 Y211.63
N1475 X251.895 Y211.633
N1480 X251.871 Y211.637
N1485 X251.847 Y211.642
N1490 X251.822 Y211.648
N1495 X251.8 Y211.654
N1500 X251.78 Y211.66
N1505 X251.76 Y211.667
N1510 X251.74 Y211.674
N1515 X251.715 Y211.684
N1520 X251.686 Y211.697
N1525 X251.657 Y211.712
N1530 X251.629 Y211.728
N1535 X251.604 Y211.743
N1540 X251.583 Y211.756
N1545 X251.563 Y211.771
N1550 X251.542 Y211.787
N1555 X251.521 Y211.804
N1560 X251.501 Y211.822
N1565 X251.48 Y211.842
N1570 X251.46 Y211.863
N1575 X251.442 Y211.883
N1580 X251.426 Y211.901
N1585 X251.411 Y211.92
N1590 X251.397 Y211.94
N1595 X251.383 Y211.96
N1600 X251.37 Y211.98
N1605 X251.358 Y212.
N1610 X251.347 Y212.02
N1615 X251.337 Y212.039
N1620 X251.327 Y212.059
N1625 X251.318 Y212.081
N1630 X251.308 Y212.106
N1635 X251.299 Y212.13
N1640 X251.291 Y212.155
N1645 X251.284 Y212.179
N1650 X251.278 Y212.204
N1655 X251.272 Y212.228
N1660 X251.268 Y212.253
N1665 X251.264 Y212.277
N1670 X251.261 Y212.302
N1675 X251.259 Y212.326
N1680 X251.258 Y212.351
N1685 Y212.369
N1690 Y222.638
N1695 X249.944
N1700 Y212.369
N1705 X249.943 Y212.35
N1710 X249.942 Y212.326
N1715 X249.94 Y212.301
N1720 X249.937 Y212.277
N1725 X249.933 Y212.25
N1730 X249.928 Y212.221
N1735 X249.921 Y212.192
N1740 X249.913 Y212.163
N1745 X249.906 Y212.138
N1750 X249.899 Y212.119
N1755 X249.891 Y212.099
N1760 X249.883 Y212.079
N1765 X249.873 Y212.057
N1770 X249.861 Y212.033
N1775 X249.848 Y212.008
N1780 X249.834 Y211.984
N1785 X249.818 Y211.959
N1790 X249.801 Y211.935
N1795 X249.783 Y211.91
N1800 X249.762 Y211.886
N1805 X249.742 Y211.862
N1810 X249.72 Y211.84
N1815 X249.703 Y211.824
N1820 X249.691 Y211.813
N1825 X249.673 Y211.798
N1830 X249.648 Y211.778
N1835 X249.624 Y211.76
N1840 X249.599 Y211.744
N1845 X249.575 Y211.729
N1850 X249.55 Y211.715
N1855 X249.522 Y211.7
N1860 X249.489 Y211.685
N1865 X249.456 Y211.672
N1870 X249.424 Y211.661
N1875 X249.391 Y211.651
N1880 X249.359 Y211.643
N1885 X249.33 Y211.637
N1890 X249.306 Y211.633
N1895 X249.281 Y211.63
N1900 X249.257 Y211.627
N1905 X249.226 Y211.626
N1910 X249.177 Y211.625
N1915 X249.17
N1920 X241.444
N1925 X241.42 Y211.626
N1930 X241.396 Y211.627
N1935 X241.371 Y211.63
N1940 X241.347 Y211.633
N1945 X241.322 Y211.637
N1950 X241.298 Y211.642
N1955 X241.273 Y211.647
N1960 X241.249 Y211.654
N1965 X241.222 Y211.662
N1970 X241.193 Y211.673
N1975 X241.161 Y211.686
N1980 X241.126 Y211.701
N1985 X241.101 Y211.714
N1990 X241.084 Y211.724
N1995 X241.067 Y211.734
N2000 X241.05 Y211.744
N2005 X241.032 Y211.756
N2010 X241.014 Y211.769
N2015 X240.996 Y211.782
N2020 X240.978 Y211.797
N2025 X240.96 Y211.812
N2030 X240.942 Y211.828
N2035 X240.925 Y211.846
N2040 X240.907 Y211.864
N2045 X240.891 Y211.882
N2050 X240.877 Y211.898
N2055 X240.864 Y211.914
N2060 X240.852 Y211.931
N2065 X240.835 Y211.955
N2070 X240.814 Y211.988
N2075 X240.795 Y212.02
N2080 X240.779 Y212.053
N2085 X240.766 Y212.081
N2090 X240.756 Y212.106
N2095 X240.747 Y212.13
N2100 X240.739 Y212.155
N2105 X240.732 Y212.179
N2110 X240.726 Y212.204
N2115 X240.721 Y212.228
N2120 X240.716 Y212.253
N2125 X240.712 Y212.277
N2130 X240.71 Y212.302
N2135 X240.708 Y212.326
N2140 X240.706 Y212.351
N2145 Y212.369
N2150 Y224.298
N2155 X239.392
N2160 Y209.97
N2165 X260.403
N2170 Y223.627
N2175 X259.089
N2180 Y212.369
N2185 Y212.35
N2190 X259.087 Y212.326
N2195 X259.085 Y212.301
N2200 X259.082 Y212.277
N2205 X259.079 Y212.252
N2210 X259.074 Y212.228
N2215 X259.069 Y212.203
N2220 X259.063 Y212.179
N2225 X259.056 Y212.154
N2230 X259.048 Y212.13
N2235 X259.039 Y212.106
N2240 X259.029 Y212.081
N2245 X259.018 Y212.057
N2250 X259.007 Y212.035
N2255 X258.995 Y212.012
N2260 X258.982 Y211.989
N2265 X258.966 Y211.964
N2270 X258.949 Y211.938
N2275 X258.929 Y211.913
N2280 X258.908 Y211.887
N2285 X258.89 Y211.866
N2290 X258.875 Y211.85
N2295 X258.86 Y211.836
N2300 X258.846 Y211.822
N2305 X258.824 Y211.803
N2310 X258.795 Y211.779
N2315 X258.77 Y211.761
N2320 X258.749 Y211.747
N2325 X258.729 Y211.734
N2330 X258.709 Y211.722
N2335 X258.688 Y211.711
N2340 X258.668 Y211.701
N2345 X258.647 Y211.691
N2350 X258.627 Y211.682
N2355 X258.609 Y211.675
N2360 X258.592 Y211.669
N2365 X258.572 Y211.662
N2370 X258.548 Y211.654
N2375 X258.523 Y211.648
N2380 X258.499 Y211.642
N2385 X258.474 Y211.637
N2390 X258.45 Y211.633
N2395 X258.425 Y211.63
N2400 X258.401 Y211.627
N2405 X258.365 Y211.625
N2410 X258.17
N2415 X258.168
N2420 X257.776
N2425 X257.752 Y211.623 Z-2.998
N2430 X257.73 Y211.618 Z-2.993
N2435 X257.71 Y211.609 Z-2.984
N2440 X257.693 Y211.599 Z-2.971
N2445 X257.678 Y211.589 Z-2.956
N2450 X257.667 Y211.578 Z-2.938
N2455 X257.659 Y211.569 Z-2.918
N2460 X257.654 Y211.562 Z-2.896
N2465 X257.65 Y211.557 Z-2.873
N2470 X257.649 Y211.556 Z-2.85
N2475 G0 Z5.
N2480 X259.641 Y182.883
N2485 Z0.25
N2490 G1 X259.643 Z0.229 F700.
N2495 X259.647 Y182.884 Z0.208
N2500 X259.654 Y182.886 Z0.189
N2505 X259.664 Y182.889 Z0.17
N2510 X259.675 Y182.893 Z0.153
N2515 X259.689 Y182.897 Z0.138
N2520 X259.705 Y182.903 Z0.125
N2525 X259.725 Y182.911 Z0.113
N2530 X259.746 Y182.92 Z0.105
N2535 G3 X259.163 Y184.22 Z-0.495 I-0.291 J0.65
N2540 X259.746 Y182.92 Z-1.094 I0.291 J-0.65
N2545 X259.87 Y184.149 Z-1.495 I-0.291 J0.65
N2550 G1 X259.854 Y184.16 Z-1.499
N2555 X259.838 Y184.171 Z-1.5
N2560 G3 X258.857 Y183.954 I-0.382 J-0.599
N2565 X259.074 Y182.973 I0.599 J-0.382
N2570 G2 X259.396 Y182.701 I-0.852 J-1.335
N2575 G3 X259.735 Y182.832 I0.144 J0.131
N2580 G1 Y183.835
N2585 G3 X259.396 Y183.966 I-0.195 J0.
N2590 G2 X258.838 Y183.58 I-1.113 J1.011
N2595 X258.173 Y183.451 I-0.673 J1.693
N2600 G1 X241.341 Y183.464
N2605 G2 X240.821 Y183.624 I0.083 J1.195
N2610 X240.399 Y183.966 I0.894 J1.535
N2615 G3 X240.06 Y183.835 I-0.144 J-0.131
N2620 G1 Y182.832
N2625 G3 X240.399 Y182.701 I0.195 J0.
N2630 G2 X240.838 Y183.049 I1.279 J-1.164
N2635 X241.375 Y183.206 I0.619 J-1.113
N2640 G1 X258.275 Y183.213
N2645 G2 X258.889 Y183.075 I-0.013 J-1.486
N2650 G1 X258.983 Y183.027
N2655 X259.074 Y182.973
N2660 G2 X259.265 Y182.256 I-0.296 J-0.463
N2665 G3 X259.089 Y181.535 I1.385 J-0.721
N2670 G1 Y177.296
N2675 X260.403
N2680 Y189.371
N2685 X259.089
N2690 Y184.933
N2695 Y184.926
N2700 X259.088 Y184.877
N2705 X259.086 Y184.846
N2710 X259.083 Y184.821
N2715 X259.08 Y184.797
N2720 X259.076 Y184.772
N2725 X259.071 Y184.748
N2730 X259.065 Y184.723
N2735 X259.058 Y184.699
N2740 X259.051 Y184.674
N2745 X259.042 Y184.65
N2750 X259.032 Y184.625
N2755 X259.022 Y184.601
N2760 X259.01 Y184.576
N2765 X258.997 Y184.552
N2770 X258.983 Y184.526
N2775 X258.969 Y184.505
N2780 X258.957 Y184.486
N2785 X258.941 Y184.464
N2790 X258.919 Y184.436
N2795 X258.896 Y184.409
N2800 X258.871 Y184.382
N2805 X258.848 Y184.36
N2810 X258.828 Y184.343
N2815 X258.809 Y184.327
N2820 X258.79 Y184.311
N2825 X258.768 Y184.296
N2830 X258.743 Y184.279
N2835 X258.719 Y184.264
N2840 X258.694 Y184.25
N2845 X258.67 Y184.238
N2850 X258.645 Y184.226
N2855 X258.621 Y184.216
N2860 X258.596 Y184.206
N2865 X258.571 Y184.198
N2870 X258.544 Y184.189
N2875 X258.517 Y184.182
N2880 X258.49 Y184.176
N2885 X258.465 Y184.172
N2890 X258.443 Y184.168
N2895 X258.421 Y184.165
N2900 X258.4 Y184.163
N2905 X258.365 Y184.162
N2910 X258.17 Y184.161
N2915 X258.168
N2920 X241.444
N2925 X241.418 Y184.162
N2930 X241.39 Y184.164
N2935 X241.361 Y184.167
N2940 X241.333 Y184.171
N2945 X241.308 Y184.175
N2950 X241.288 Y184.18
N2955 X241.267 Y184.185
N2960 X241.247 Y184.191
N2965 X241.224 Y184.197
N2970 X241.2 Y184.206
N2975 X241.176 Y184.215
N2980 X241.151 Y184.226
N2985 X241.127 Y184.237
N2990 X241.102 Y184.25
N2995 X241.078 Y184.263
N3000 X241.053 Y184.278
N3005 X241.028 Y184.295
N3010 X241.002 Y184.314
N3015 X240.976 Y184.335
N3020 X240.95 Y184.357
N3025 X240.924 Y184.382
N3030 X240.899 Y184.408
N3035 X240.876 Y184.435
N3040 X240.856 Y184.462
N3045 X240.838 Y184.486
N3050 X240.823 Y184.508
N3055 X240.809 Y184.531
N3060 X240.797 Y184.553
N3065 X240.785 Y184.577
N3070 X240.773 Y184.601
N3075 X240.762 Y184.626
N3080 X240.753 Y184.65
N3085 X240.744 Y184.675
N3090 X240.737 Y184.699
N3095 X240.73 Y184.724
N3100 X240.724 Y184.748
N3105 X240.719 Y184.772
N3110 X240.715 Y184.797
N3115 X240.711 Y184.821
N3120 X240.709 Y184.846
N3125 X240.707 Y184.877
N3130 X240.706 Y184.926
N3135 Y184.933
N3140 Y189.371
N3145 X239.392
N3150 Y177.296
N3155 X240.706
N3160 Y181.755
N3165 Y181.765
N3170 X240.707 Y181.79
N3175 X240.708 Y181.814
N3180 X240.711 Y181.838
N3185 X240.714 Y181.863
N3190 X240.718 Y181.887
N3195 X240.722 Y181.912
N3200 X240.728 Y181.936
N3205 X240.735 Y181.961
N3210 X240.742 Y181.985
N3215 X240.75 Y182.01
N3220 X240.76 Y182.034
N3225 X240.768 Y182.055
N3230 X240.777 Y182.074
N3235 X240.785 Y182.092
N3240 X240.795 Y182.11
N3245 X240.805 Y182.128
N3250 X240.816 Y182.146
N3255 X240.827 Y182.165
N3260 X240.839 Y182.183
N3265 X240.855 Y182.205
N3270 X240.874 Y182.23
N3275 X240.893 Y182.252
N3280 X240.911 Y182.272
N3285 X240.931 Y182.292
N3290 X240.952 Y182.312
N3295 X240.972 Y182.329
N3300 X240.992 Y182.345
N3305 X241.012 Y182.36
N3310 X241.031 Y182.374
N3315 X241.054 Y182.389
N3320 X241.079 Y182.404
N3325 X241.104 Y182.418
N3330 X241.13 Y182.431
N3335 X241.154 Y182.443
N3340 X241.178 Y182.453
N3345 X241.201 Y182.462
N3350 X241.225 Y182.47
N3355 X241.249 Y182.477
N3360 X241.273 Y182.483
N3365 X241.298 Y182.489
N3370 X241.322 Y182.494
N3375 X241.347 Y182.498
N3380 X241.371 Y182.501
N3385 X241.396 Y182.504
N3390 X241.42 Y182.505
N3395 X241.444 Y182.506
N3400 X258.266
N3405 X258.269
N3410 X258.367 Y182.505
N3415 X258.401 Y182.504
N3420 X258.425 Y182.501
N3425 X258.45 Y182.498
N3430 X258.474 Y182.494
N3435 X258.499 Y182.489
N3440 X258.523 Y182.483
N3445 X258.548 Y182.476
N3450 X258.572 Y182.469
N3455 X258.601 Y182.458
N3460 X258.635 Y182.445
N3465 X258.668 Y182.43
N3470 X258.7 Y182.413
N3475 X258.732 Y182.394
N3480 X258.764 Y182.374
N3485 X258.788 Y182.357
N3490 X258.804 Y182.344
N3495 X258.82 Y182.331
N3500 X258.837 Y182.317
N3505 X258.854 Y182.301
N3510 X258.871 Y182.285
N3515 X258.887 Y182.268
N3520 X258.903 Y182.251
N3525 X258.919 Y182.231
N3530 X258.937 Y182.209
N3535 X258.953 Y182.187
N3540 X258.968 Y182.165
N3545 X258.983 Y182.14
N3550 X258.998 Y182.113
N3555 X259.012 Y182.087
N3560 X259.025 Y182.06
N3565 X259.035 Y182.034
N3570 X259.045 Y182.01
N3575 X259.053 Y181.985
N3580 X259.06 Y181.961
N3585 X259.067 Y181.936
N3590 X259.072 Y181.912
N3595 X259.077 Y181.888
N3600 X259.081 Y181.863
N3605 X259.084 Y181.839
N3610 X259.087 Y181.814
N3615 X259.088 Y181.783
N3620 X259.089 Y181.709
N3625 Y181.706
N3630 Y181.535
N3635 X259.096 Y181.503
N3640 X259.117 Y181.477
N3645 X259.147 Y181.462
N3650 X259.181
N3655 X259.211 Y181.477
N3660 X259.232 Y181.503
N3665 X260.025 Y183.141
N3670 X260.032 Y183.152
N3675 X260.043 Y183.168 Z-1.501
N3680 X260.054 Y183.184 Z-1.505
N3685 G3 X258.856 Y183.956 Z-2.105 I-0.599 J0.386
N3690 X260.054 Y183.184 Z-2.705 I0.599 J-0.386
N3695 X259.87 Y184.149 Z-2.995 I-0.599 J0.386
N3700 G1 X259.854 Y184.16 Z-2.999
N3705 X259.838 Y184.171 Z-3.
N3710 G3 X258.857 Y183.954 I-0.382 J-0.599
N3715 X259.074 Y182.973 I0.599 J-0.382
N3720 G2 X259.396 Y182.701 I-0.852 J-1.335
N3725 G3 X259.735 Y182.832 I0.144 J0.131
N3730 G1 Y183.835
N3735 G3 X259.396 Y183.966 I-0.195 J0.
N3740 G2 X258.838 Y183.58 I-1.113 J1.011
N3745 X258.173 Y183.451 I-0.673 J1.693
N3750 G1 X241.341 Y183.464
N3755 G2 X240.821 Y183.624 I0.083 J1.195
N3760 X240.399 Y183.966 I0.894 J1.535
N3765 G3 X240.06 Y183.835 I-0.144 J-0.131
N3770 G1 Y182.832
N3775 G3 X240.399 Y182.701 I0.195 J0.
N3780 G2 X240.838 Y183.049 I1.279 J-1.164
N3785 X241.375 Y183.206 I0.619 J-1.113
N3790 G1 X258.275 Y183.213
N3795 G2 X258.889 Y183.075 I-0.013 J-1.486
N3800 G1 X258.983 Y183.027
N3805 X259.074 Y182.973
N3810 G2 X259.265 Y182.256 I-0.296 J-0.463
N3815 G3 X259.089 Y181.535 I1.385 J-0.721
N3820 G1 Y177.296
N3825 X260.403
N3830 Y189.371
N3835 X259.089
N3840 Y184.933
N3845 Y184.926
N3850 X259.088 Y184.877
N3855 X259.086 Y184.846
N3860 X259.083 Y184.821
N3865 X259.08 Y184.797
N3870 X259.076 Y184.772
N3875 X259.071 Y184.748
N3880 X259.065 Y184.723
N3885 X259.058 Y184.699
N3890 X259.051 Y184.674
N3895 X259.042 Y184.65
N3900 X259.032 Y184.625
N3905 X259.022 Y184.601
N3910 X259.01 Y184.576
N3915 X258.997 Y184.552
N3920 X258.983 Y184.526
N3925 X258.969 Y184.505
N3930 X258.957 Y184.486
N3935 X258.941 Y184.464
N3940 X258.919 Y184.436
N3945 X258.896 Y184.409
N3950 X258.871 Y184.382
N3955 X258.848 Y184.36
N3960 X258.828 Y184.343
N3965 X258.809 Y184.327
N3970 X258.79 Y184.311
N3975 X258.768 Y184.296
N3980 X258.743 Y184.279
N3985 X258.719 Y184.264
N3990 X258.694 Y184.25
N3995 X258.67 Y184.238
N4000 X258.645 Y184.226
N4005 X258.621 Y184.216
N4010 X258.596 Y184.206
N4015 X258.571 Y184.198
N4020 X258.544 Y184.189
N4025 X258.517 Y184.182
N4030 X258.49 Y184.176
N4035 X258.465 Y184.172
N4040 X258.443 Y184.168
N4045 X258.421 Y184.165
N4050 X258.4 Y184.163
N4055 X258.365 Y184.162
N4060 X258.17 Y184.161
N4065 X258.168
N4070 X241.444
N4075 X241.418 Y184.162
N4080 X241.39 Y184.164
N4085 X241.361 Y184.167
N4090 X241.333 Y184.171
N4095 X241.308 Y184.175
N4100 X241.288 Y184.18
N4105 X241.267 Y184.185
N4110 X241.247 Y184.191
N4115 X241.224 Y184.197
N4120 X241.2 Y184.206
N4125 X241.176 Y184.215
N4130 X241.151 Y184.226
N4135 X241.127 Y184.237
N4140 X241.102 Y184.25
N4145 X241.078 Y184.263
N4150 X241.053 Y184.278
N4155 X241.028 Y184.295
N4160 X241.002 Y184.314
N4165 X240.976 Y184.335
N4170 X240.95 Y184.357
N4175 X240.924 Y184.382
N4180 X240.899 Y184.408
N4185 X240.876 Y184.435
N4190 X240.856 Y184.462
N4195 X240.838 Y184.486
N4200 X240.823 Y184.508
N4205 X240.809 Y184.531
N4210 X240.797 Y184.553
N4215 X240.785 Y184.577
N4220 X240.773 Y184.601
N4225 X240.762 Y184.626
N4230 X240.753 Y184.65
N4235 X240.744 Y184.675
N4240 X240.737 Y184.699
N4245 X240.73 Y184.724
N4250 X240.724 Y184.748
N4255 X240.719 Y184.772
N4260 X240.715 Y184.797
N4265 X240.711 Y184.821
N4270 X240.709 Y184.846
N4275 X240.707 Y184.877
N4280 X240.706 Y184.926
N4285 Y184.933
N4290 Y189.371
N4295 X239.392
N4300 Y177.296
N4305 X240.706
N4310 Y181.755
N4315 Y181.765
N4320 X240.707 Y181.79
N4325 X240.708 Y181.814
N4330 X240.711 Y181.838
N4335 X240.714 Y181.863
N4340 X240.718 Y181.887
N4345 X240.722 Y181.912
N4350 X240.728 Y181.936
N4355 X240.735 Y181.961
N4360 X240.742 Y181.985
N4365 X240.75 Y182.01
N4370 X240.76 Y182.034
N4375 X240.768 Y182.055
N4380 X240.777 Y182.074
N4385 X240.785 Y182.092
N4390 X240.795 Y182.11
N4395 X240.805 Y182.128
N4400 X240.816 Y182.146
N4405 X240.827 Y182.165
N4410 X240.839 Y182.183
N4415 X240.855 Y182.205
N4420 X240.874 Y182.23
N4425 X240.893 Y182.252
N4430 X240.911 Y182.272
N4435 X240.931 Y182.292
N4440 X240.952 Y182.312
N4445 X240.972 Y182.329
N4450 X240.992 Y182.345
N4455 X241.012 Y182.36
N4460 X241.031 Y182.374
N4465 X241.054 Y182.389
N4470 X241.079 Y182.404
N4475 X241.104 Y182.418
N4480 X241.13 Y182.431
N4485 X241.154 Y182.443
N4490 X241.178 Y182.453
N4495 X241.201 Y182.462
N4500 X241.225 Y182.47
N4505 X241.249 Y182.477
N4510 X241.273 Y182.483
N4515 X241.298 Y182.489
N4520 X241.322 Y182.494
N4525 X241.347 Y182.498
N4530 X241.371 Y182.501
N4535 X241.396 Y182.504
N4540 X241.42 Y182.505
N4545 X241.444 Y182.506
N4550 X258.266
N4555 X258.269
N4560 X258.367 Y182.505
N4565 X258.401 Y182.504
N4570 X258.425 Y182.501
N4575 X258.45 Y182.498
N4580 X258.474 Y182.494
N4585 X258.499 Y182.489
N4590 X258.523 Y182.483
N4595 X258.548 Y182.476
N4600 X258.572 Y182.469
N4605 X258.601 Y182.458
N4610 X258.635 Y182.445
N4615 X258.668 Y182.43
N4620 X258.7 Y182.413
N4625 X258.732 Y182.394
N4630 X258.764 Y182.374
N4635 X258.788 Y182.357
N4640 X258.804 Y182.344
N4645 X258.82 Y182.331
N4650 X258.837 Y182.317
N4655 X258.854 Y182.301
N4660 X258.871 Y182.285
N4665 X258.887 Y182.268
N4670 X258.903 Y182.251
N4675 X258.919 Y182.231
N4680 X258.937 Y182.209
N4685 X258.953 Y182.187
N4690 X258.968 Y182.165
N4695 X258.983 Y182.14
N4700 X258.998 Y182.113
N4705 X259.012 Y182.087
N4710 X259.025 Y182.06
N4715 X259.035 Y182.034
N4720 X259.045 Y182.01
N4725 X259.053 Y181.985
N4730 X259.06 Y181.961
N4735 X259.067 Y181.936
N4740 X259.072 Y181.912
N4745 X259.077 Y181.888
N4750 X259.081 Y181.863
N4755 X259.084 Y181.839
N4760 X259.087 Y181.814
N4765 X259.088 Y181.783
N4770 X259.089 Y181.709
N4775 Y181.706
N4780 Y181.535
N4785 X259.091 Y181.512 Z-2.998
N4790 X259.096 Y181.49 Z-2.993
N4795 X259.104 Y181.47 Z-2.984
N4800 X259.114 Y181.452 Z-2.971
N4805 X259.125 Y181.438 Z-2.956
N4810 X259.135 Y181.427 Z-2.938
N4815 X259.145 Y181.419 Z-2.918
N4820 X259.152 Y181.413 Z-2.896
N4825 X259.156 Y181.41 Z-2.873
N4830 X259.158 Y181.409 Z-2.85
N4835 G0 Z5.
N4840 X259.643 Y149.562
N4845 Z0.25
N4850 G1 X259.644 Y149.563 Z0.229 F700.
N4855 X259.649 Y149.564 Z0.208
N4860 X259.656 Y149.565 Z0.189
N4865 X259.665 Y149.568 Z0.17
N4870 X259.677 Y149.571 Z0.153
N4875 X259.691 Y149.576 Z0.138
N4880 X259.707 Y149.581 Z0.125
N4885 X259.727 Y149.588 Z0.113
N4890 X259.749 Y149.597 Z0.105
N4895 G3 X259.202 Y150.913 Z-0.495 I-0.273 J0.658
N4900 X259.749 Y149.597 Z-1.094 I0.273 J-0.658
N4905 X259.907 Y150.822 Z-1.495 I-0.273 J0.658
N4910 G1 X259.891 Y150.833 Z-1.499
N4915 X259.875 Y150.844 Z-1.5
N4920 G3 X259.078 Y149.669 I-0.399 J-0.588
N4925 G2 X259.402 Y149.382 I-0.955 J-1.408
N4930 G3 X259.735 Y149.508 I0.143 J0.125
N4935 G1 Y150.514
N4940 G3 X259.403 Y150.64 I-0.19 J0.
N4945 G2 X258.844 Y150.247 I-1.111 J0.987
N4950 X258.173 Y150.117 I-0.679 J1.698
N4955 G1 X240.339 Y150.159
N4960 G3 Y149.863 I0. J-0.148
N4965 G1 X258.494 Y149.887
N4970 G2 X258.996 Y149.721 I-0.119 J-1.205
N4975 G1 X259.078 Y149.669
N4980 G2 X259.262 Y148.95 I-0.315 J-0.464
N4985 G3 X259.089 Y148.229 I1.412 J-0.721
N4990 G1 Y141.886
N4995 X260.403
N5000 Y158.126
N5005 X259.089
N5010 Y151.58
N5015 Y151.571
N5020 X259.088 Y151.547
N5025 X259.087 Y151.523
N5030 X259.085 Y151.498
N5035 X259.082 Y151.474
N5040 X259.078 Y151.449
N5045 X259.073 Y151.425
N5050 X259.068 Y151.4
N5055 X259.061 Y151.376
N5060 X259.054 Y151.352
N5065 X259.046 Y151.327
N5070 X259.037 Y151.303
N5075 X259.027 Y151.278
N5080 X259.016 Y151.254
N5085 X259.001 Y151.226
N5090 X258.984 Y151.195
N5095 X258.968 Y151.168
N5100 X258.952 Y151.145
N5105 X258.935 Y151.122
N5110 X258.917 Y151.1
N5115 X258.897 Y151.076
N5120 X258.873 Y151.051
N5125 X258.85 Y151.028
N5130 X258.826 Y151.007
N5135 X258.806 Y150.99
N5140 X258.788 Y150.977
N5145 X258.767 Y150.962
N5150 X258.743 Y150.945
N5155 X258.719 Y150.93
N5160 X258.694 Y150.917
N5165 X258.67 Y150.904
N5170 X258.645 Y150.892
N5175 X258.621 Y150.882
N5180 X258.596 Y150.873
N5185 X258.572 Y150.864
N5190 X258.547 Y150.857
N5195 X258.523 Y150.85
N5200 X258.498 Y150.844
N5205 X258.474 Y150.839
N5210 X258.449 Y150.835
N5215 X258.425 Y150.832
N5220 X258.401 Y150.83
N5225 X258.365 Y150.828
N5230 X258.17 Y150.827
N5235 X258.168
N5240 X239.392
N5245 Y149.195
N5250 X258.266
N5255 X258.269
N5260 X258.367 Y149.194
N5265 X258.401 Y149.192
N5270 X258.425 Y149.19
N5275 X258.449 Y149.187
N5280 X258.474 Y149.183
N5285 X258.498 Y149.178
N5290 X258.523 Y149.172
N5295 X258.547 Y149.165
N5300 X258.572 Y149.158
N5305 X258.596 Y149.149
N5310 X258.621 Y149.14
N5315 X258.645 Y149.13
N5320 X258.67 Y149.118
N5325 X258.694 Y149.105
N5330 X258.719 Y149.092
N5335 X258.746 Y149.075
N5340 X258.777 Y149.054
N5345 X258.805 Y149.032
N5350 X258.832 Y149.01
N5355 X258.858 Y148.986
N5360 X258.885 Y148.959
N5365 X258.908 Y148.933
N5370 X258.928 Y148.909
N5375 X258.948 Y148.883
N5380 X258.966 Y148.856
N5385 X258.982 Y148.831
N5390 X258.996 Y148.807
N5395 X259.008 Y148.783
N5400 X259.02 Y148.759
N5405 X259.03 Y148.735
N5410 X259.04 Y148.711
N5415 X259.049 Y148.688
N5420 X259.056 Y148.664
N5425 X259.063 Y148.64
N5430 X259.069 Y148.615
N5435 X259.075 Y148.591
N5440 X259.079 Y148.566
N5445 X259.083 Y148.542
N5450 X259.085 Y148.517
N5455 X259.087 Y148.493
N5460 X259.089 Y148.468
N5465 Y148.451
N5470 Y148.229
N5475 X259.096 Y148.197
N5480 X259.117 Y148.171
N5485 X259.147 Y148.156
N5490 X259.18
N5495 X259.21 Y148.17
N5500 X259.231 Y148.196
N5505 X260.033 Y149.809
N5510 X260.041 Y149.821
N5515 X260.052 Y149.837 Z-1.501
N5520 X260.063 Y149.853 Z-1.505
N5525 G3 X258.887 Y150.657 Z-2.105 I-0.588 J0.402
N5530 X260.063 Y149.853 Z-2.705 I0.588 J-0.402
N5535 X259.907 Y150.822 Z-2.995 I-0.588 J0.402
N5540 G1 X259.891 Y150.833 Z-2.999
N5545 X259.875 Y150.844 Z-3.
N5550 G3 X259.078 Y149.669 I-0.399 J-0.588
N5555 G2 X259.402 Y149.382 I-0.955 J-1.408
N5560 G3 X259.735 Y149.508 I0.143 J0.125
N5565 G1 Y150.514
N5570 G3 X259.403 Y150.64 I-0.19 J0.
N5575 G2 X258.844 Y150.247 I-1.111 J0.987
N5580 X258.173 Y150.117 I-0.679 J1.698
N5585 G1 X240.339 Y150.159
N5590 G3 Y149.863 I0. J-0.148
N5595 G1 X258.494 Y149.887
N5600 G2 X258.996 Y149.721 I-0.119 J-1.205
N5605 G1 X259.078 Y149.669
N5610 G2 X259.262 Y148.95 I-0.315 J-0.464
N5615 G3 X259.089 Y148.229 I1.412 J-0.721
N5620 G1 Y141.886
N5625 X260.403
N5630 Y158.126
N5635 X259.089
N5640 Y151.58
N5645 Y151.571
N5650 X259.088 Y151.547
N5655 X259.087 Y151.523
N5660 X259.085 Y151.498
N5665 X259.082 Y151.474
N5670 X259.078 Y151.449
N5675 X259.073 Y151.425
N5680 X259.068 Y151.4
N5685 X259.061 Y151.376
N5690 X259.054 Y151.352
N5695 X259.046 Y151.327
N5700 X259.037 Y151.303
N5705 X259.027 Y151.278
N5710 X259.016 Y151.254
N5715 X259.001 Y151.226
N5720 X258.984 Y151.195
N5725 X258.968 Y151.168
N5730 X258.952 Y151.145
N5735 X258.935 Y151.122
N5740 X258.917 Y151.1
N5745 X258.897 Y151.076
N5750 X258.873 Y151.051
N5755 X258.85 Y151.028
N5760 X258.826 Y151.007
N5765 X258.806 Y150.99
N5770 X258.788 Y150.977
N5775 X258.767 Y150.962
N5780 X258.743 Y150.945
N5785 X258.719 Y150.93
N5790 X258.694 Y150.917
N5795 X258.67 Y150.904
N5800 X258.645 Y150.892
N5805 X258.621 Y150.882
N5810 X258.596 Y150.873
N5815 X258.572 Y150.864
N5820 X258.547 Y150.857
N5825 X258.523 Y150.85
N5830 X258.498 Y150.844
N5835 X258.474 Y150.839
N5840 X258.449 Y150.835
N5845 X258.425 Y150.832
N5850 X258.401 Y150.83
N5855 X258.365 Y150.828
N5860 X258.17 Y150.827
N5865 X258.168
N5870 X239.392
N5875 Y149.195
N5880 X258.266
N5885 X258.269
N5890 X258.367 Y149.194
N5895 X258.401 Y149.192
N5900 X258.425 Y149.19
N5905 X258.449 Y149.187
N5910 X258.474 Y149.183
N5915 X258.498 Y149.178
N5920 X258.523 Y149.172
N5925 X258.547 Y149.165
N5930 X258.572 Y149.158
N5935 X258.596 Y149.149
N5940 X258.621 Y149.14
N5945 X258.645 Y149.13
N5950 X258.67 Y149.118
N5955 X258.694 Y149.105
N5960 X258.719 Y149.092
N5965 X258.746 Y149.075
N5970 X258.777 Y149.054
N5975 X258.805 Y149.032
N5980 X258.832 Y149.01
N5985 X258.858 Y148.986
N5990 X258.885 Y148.959
N5995 X258.908 Y148.933
N6000 X258.928 Y148.909
N6005 X258.948 Y148.883
N6010 X258.966 Y148.856
N6015 X258.982 Y148.831
N6020 X258.996 Y148.807
N6025 X259.008 Y148.783
N6030 X259.02 Y148.759
N6035 X259.03 Y148.735
N6040 X259.04 Y148.711
N6045 X259.049 Y148.688
N6050 X259.056 Y148.664
N6055 X259.063 Y148.64
N6060 X259.069 Y148.615
N6065 X259.075 Y148.591
N6070 X259.079 Y148.566
N6075 X259.083 Y148.542
N6080 X259.085 Y148.517
N6085 X259.087 Y148.493
N6090 X259.089 Y148.468
N6095 Y148.451
N6100 Y148.229
N6105 X259.091 Y148.206 Z-2.998
N6110 X259.096 Y148.183 Z-2.993
N6115 X259.104 Y148.163 Z-2.984
N6120 X259.114 Y148.146 Z-2.971
N6125 X259.125 Y148.132 Z-2.956
N6130 X259.135 Y148.12 Z-2.938
N6135 X259.145 Y148.112 Z-2.918
N6140 X259.152 Y148.107 Z-2.896
N6145 X259.156 Y148.104 Z-2.873
N6150 X259.158 Y148.103 Z-2.85
N6155 G0 Z5.
N6160 X256.9 Y123.052
N6165 Z0.25
N6170 G1 X256.899 Y123.051 Z0.229 F700.
N6175 X256.894 Y123.05 Z0.208
N6180 X256.888 Y123.048 Z0.189
N6185 X256.878 Y123.044 Z0.17
N6190 X256.867 Y123.04 Z0.153
N6195 X256.853 Y123.035 Z0.138
N6200 X256.837 Y123.028 Z0.125
N6205 X256.818 Y123.019 Z0.113
N6210 X256.797 Y123.009 Z0.105
N6215 G3 X257.443 Y121.739 Z-0.495 I0.323 J-0.635
N6220 X256.797 Y123.009 Z-1.094 I-0.323 J0.635
N6225 X256.733 Y121.776 Z-1.495 I0.323 J-0.635
N6230 G1 X256.75 Y121.765 Z-1.499
N6235 X256.767 Y121.756 Z-1.5
N6240 G3 X257.36 Y122.793 I0.297 J0.519
N6245 G1 X257.177 Y122.893
N6250 G3 X256.745 Y122.678 I-0.138 J-0.266
N6255 G1 X256.707 Y122.464
N6260 G3 X256.936 Y122.029 I0.397 J-0.069
N6265 G2 X258.465 Y121.011 I-2.436 J-5.317
N6270 X259.506 Y119.499 I-2.813 J-3.051
N6275 X260.061 Y116.909 I-7.32 J-2.923
N6280 X259.752 Y114.277 I-8.359 J-0.353
N6285 X258.799 Y112.354 I-5.639 J1.596
N6290 X257.081 Y111.067 I-3.065 J2.302
N6295 X255.18 Y110.761 I-1.708 J4.548
N6300 X253.346 Y111.348 I0.144 J3.608
N6305 X252.158 Y112.472 I2.527 J3.859
N6310 X251.326 Y113.88 I6.539 J4.816
N6315 G1 X248.9 Y121.246
N6320 G3 X247.755 Y122.895 I-3.947 J-1.517
N6325 X245.961 Y123.798 I-2.608 J-2.948
N6330 X243.991 Y123.913 I-1.363 J-6.441
N6335 X242.108 Y123.324 I0.435 J-4.701
N6340 X240.09 Y120.738 I2.095 J-3.715
N6345 X239.567 Y117.498 I14.694 J-4.031
N6350 X239.645 Y114.651 I17.996 J-0.937
N6355 X240.469 Y111.924 I7.602 J0.811
N6360 X241.497 Y110.49 I5.571 J2.907
N6365 X242.949 Y109.487 I3.156 J3.017
N6370 X243.393 Y109.721 I0.126 J0.298
N6375 G1 X243.419 Y109.851
N6380 G3 X243.244 Y110.186 I-0.295 J0.06
N6385 G2 X239.985 Y114.043 I2.251 J5.207
N6390 X239.91 Y119.091 I10.966 J2.688
N6395 X240.78 Y121.239 I6.538 J-1.398
N6400 X242.488 Y122.806 I3.687 J-2.306
N6405 X245.332 Y123.237 I2.07 J-4.051
N6410 X247.834 Y121.819 I-0.724 J-4.193
N6415 X248.257 Y121.276 I-5.463 J-4.699
N6420 X248.621 Y120.692 I-4.848 J-3.423
N6425 G1 X248.705 Y120.535
N6430 X248.743 Y120.455
N6435 X248.776 Y120.372
N6440 X251.259 Y112.716
N6445 G3 X252.76 Y110.927 I3.998 J1.83
N6450 X254.976 Y110.187 I2.387 J3.46
N6455 X256.968 Y110.39 I0.287 J7.057
N6460 X258.708 Y111.384 I-0.89 J3.575
N6465 X259.898 Y113.59 I-3.222 J3.164
N6470 X260.205 Y116.078 I-13.444 J2.918
N6475 X259.674 Y119.922 I-11.572 J0.362
N6480 X257.36 Y122.793 I-4.825 J-1.522
N6485 G2 X257.186 Y123.125 I0.173 J0.302
N6490 G3 X256.995 Y123.447 I-0.323 J0.027
N6495 G1 X256.941 Y123.472
N6500 X256.877 Y123.499
N6505 X256.552 Y123.624
N6510 X256.482 Y123.648
N6515 X256.173 Y121.869
N6520 X256.307 Y121.823
N6525 X256.312 Y121.822
N6530 X256.391 Y121.794
N6535 X256.406 Y121.788
N6540 X256.645 Y121.693
N6545 X256.657 Y121.687
N6550 X256.739 Y121.651
N6555 X256.747 Y121.648
N6560 X256.766 Y121.64
N6565 X256.853 Y121.598
N6570 X256.961 Y121.546
N6575 X256.978 Y121.537
N6580 X257.148 Y121.445
N6585 X257.17 Y121.433
N6590 X257.188 Y121.423
N6595 X257.251 Y121.385
N6600 X257.253 Y121.384
N6605 X257.386 Y121.302
N6610 X257.398 Y121.295
N6615 X257.437 Y121.269
N6620 X257.451 Y121.26
N6625 X257.466 Y121.25
N6630 X257.536 Y121.201
N6635 X257.569 Y121.179
N6640 X257.583 Y121.169
N6645 X257.714 Y121.071
N6650 X257.72 Y121.066
N6655 X257.766 Y121.03
N6660 X257.777 Y121.021
N6665 X257.931 Y120.891
N6670 X257.947 Y120.877
N6675 X258.132 Y120.702
N6680 X258.149 Y120.685
N6685 X258.287 Y120.537
N6690 X258.299 Y120.524
N6695 X258.382 Y120.426
N6700 X258.387 Y120.42
N6705 X258.466 Y120.322
N6710 X258.474 Y120.312
N6715 X258.565 Y120.191
N6720 X258.574 Y120.179
N6725 X258.672 Y120.037
N6730 X258.679 Y120.028
N6735 X258.715 Y119.972
N6740 X258.722 Y119.961
N6745 X258.824 Y119.789
N6750 X258.833 Y119.774
N6755 X258.872 Y119.7
N6760 X258.874 Y119.697
N6765 X258.938 Y119.575
N6770 X258.942 Y119.567
N6775 X258.994 Y119.461
N6780 X258.999 Y119.45
N6785 X259.028 Y119.385
N6790 X259.049 Y119.342
N6795 X259.058 Y119.32
N6800 X259.076 Y119.276
N6805 X259.1 Y119.22
N6810 X259.106 Y119.203
N6815 X259.204 Y118.94
N6820 X259.211 Y118.92
N6825 X259.27 Y118.729
N6830 X259.271 Y118.724
N6835 X259.3 Y118.626
N6840 X259.303 Y118.614
N6845 X259.327 Y118.52
N6850 X259.34 Y118.475
N6855 X259.345 Y118.455
N6860 X259.355 Y118.408
N6865 X259.378 Y118.312
N6870 X259.38 Y118.299
N6875 X259.433 Y118.03
N6880 X259.436 Y118.013
N6885 X259.468 Y117.793
N6890 Y117.789
N6895 X259.481 Y117.691
N6900 X259.483 Y117.681
N6905 X259.489 Y117.625
N6910 X259.493 Y117.593
N6915 X259.495 Y117.574
N6920 X259.503 Y117.479
N6925 X259.512 Y117.384
N6930 X259.514 Y117.37
N6935 X259.523 Y117.215
N6940 X259.529 Y117.129
N6945 X259.53 Y117.114
N6950 X259.534 Y116.967
N6955 Y116.963
N6960 X259.538 Y116.768
N6965 Y116.764
N6970 X259.539 Y116.666
N6975 Y116.656
N6980 X259.532 Y116.265
N6985 Y116.253
N6990 X259.517 Y115.96
N6995 Y115.953
N7000 X259.507 Y115.807
N7005 Y115.798
N7010 X259.485 Y115.554
N7015 X259.484 Y115.543
N7020 X259.467 Y115.4
N7025 X259.463 Y115.354
N7030 X259.461 Y115.339
N7035 X259.447 Y115.243
N7040 X259.435 Y115.146
N7045 X259.433 Y115.133
N7050 X259.4 Y114.94
N7055 X259.393 Y114.894
N7060 X259.39 Y114.876
N7065 X259.36 Y114.73
N7070 X259.359 Y114.723
N7075 X259.302 Y114.467
N7080 X259.301 Y114.461
N7085 X259.292 Y114.425
N7090 X259.288 Y114.409
N7095 X259.261 Y114.312
N7100 X259.214 Y114.143
N7105 X259.208 Y114.124
N7110 X259.173 Y114.017
N7115 X259.155 Y113.959
N7120 X259.148 Y113.94
N7125 X259.132 Y113.895
N7130 X259.109 Y113.83
N7135 X259.103 Y113.813
N7140 X258.997 Y113.55
N7145 X258.987 Y113.528
N7150 X258.882 Y113.306
N7155 X258.876 Y113.296
N7160 X258.859 Y113.263
N7165 X258.854 Y113.253
N7170 X258.789 Y113.136
N7175 X258.786 Y113.13
N7180 X258.715 Y113.009
N7185 X258.705 Y112.993
N7190 X258.654 Y112.915
N7195 X258.641 Y112.893
N7200 X258.633 Y112.881
N7205 X258.599 Y112.832
N7210 X258.594 Y112.825
N7215 X258.524 Y112.727
N7220 X258.52 Y112.721
N7225 X258.468 Y112.652
N7230 X258.456 Y112.637
N7235 X258.378 Y112.543
N7240 X258.355 Y112.514
N7245 X258.345 Y112.503
N7250 X258.302 Y112.454
N7255 X258.29 Y112.441
N7260 X258.144 Y112.29
N7265 X258.127 Y112.273
N7270 X258.078 Y112.229
N7275 X258.074 Y112.225
N7280 X257.928 Y112.095
N7285 X257.904 Y112.076
N7290 X257.73 Y111.946
N7295 X257.71 Y111.932
N7300 X257.627 Y111.877
N7305 X257.624 Y111.876
N7310 X257.581 Y111.848
N7315 X257.574 Y111.843
N7320 X257.446 Y111.765
N7325 X257.424 Y111.753
N7330 X257.342 Y111.71
N7335 X257.321 Y111.698
N7340 X257.311 Y111.693
N7345 X257.262 Y111.668
N7350 X257.249 Y111.662
N7355 X257.199 Y111.639
N7360 X257.186 Y111.632
N7365 X257.167 Y111.624
N7370 X257.096 Y111.593
N7375 X257.049 Y111.572
N7380 X257.029 Y111.564
N7385 X256.936 Y111.529
N7390 X256.922 Y111.523
N7395 X256.904 Y111.516
N7400 X256.856 Y111.499
N7405 X256.826 Y111.489
N7410 X256.811 Y111.484
N7415 X256.615 Y111.424
N7420 X256.604 Y111.42
N7425 X256.567 Y111.41
N7430 X256.553 Y111.407
N7435 X256.32 Y111.353
N7440 X256.299 Y111.349
N7445 X256.079 Y111.312
N7450 X256.065 Y111.31
N7455 X256.024 Y111.305
N7460 X256.023
N7465 X255.966 Y111.297
N7470 X255.952 Y111.296
N7475 X255.908 Y111.292
N7480 X255.864 Y111.287
N7485 X255.854 Y111.286
N7490 X255.805 Y111.281
N7495 X255.796
N7500 X255.748 Y111.278
N7505 X255.652 Y111.271
N7510 X255.636 Y111.27
N7515 X255.367 Y111.262
N7520 X255.344
N7525 X255.124 Y111.269
N7530 X255.099 Y111.271
N7535 X255.006 Y111.28
N7540 X254.962 Y111.284
N7545 X254.94 Y111.286
N7550 X254.891 Y111.292
N7555 X254.88 Y111.294
N7560 X254.684 Y111.326
N7565 X254.659 Y111.331
N7570 X254.593 Y111.347
N7575 X254.577 Y111.35
N7580 X254.552 Y111.356
N7585 X254.454 Y111.381
N7590 X254.443 Y111.385
N7595 X254.345 Y111.413
N7600 X254.33 Y111.418
N7605 X254.259 Y111.443
N7610 X254.238 Y111.45
N7615 X254.225 Y111.454
N7620 X254.176 Y111.472
N7625 X254.162 Y111.477
N7630 X254.016 Y111.537
N7635 X254.001 Y111.544
N7640 X253.952 Y111.567
N7645 X253.942 Y111.572
N7650 X253.795 Y111.645
N7655 X253.774 Y111.656
N7660 X253.677 Y111.713
N7665 X253.629 Y111.74
N7670 X253.61 Y111.752
N7675 X253.448 Y111.858
N7680 X253.436 Y111.866
N7685 X253.4 Y111.892
N7690 X253.39 Y111.899
N7695 X253.245 Y112.01
N7700 X253.23 Y112.023
N7705 X253.164 Y112.08
N7710 X253.137 Y112.101
N7715 X253.12 Y112.116
N7720 X253.087 Y112.147
N7725 X253.054 Y112.176
N7730 X253.041 Y112.189
N7735 X252.918 Y112.309
N7740 X252.914 Y112.313
N7745 X252.858 Y112.37
N7750 X252.843 Y112.386
N7755 X252.803 Y112.431
N7760 X252.742 Y112.498
N7765 X252.735 Y112.506
N7770 X252.7 Y112.546
N7775 X252.696 Y112.551
N7780 X252.598 Y112.669
N7785 X252.594 Y112.675
N7790 X252.564 Y112.712
N7795 X252.555 Y112.724
N7800 X252.411 Y112.92
N7805 X252.408 Y112.924
N7810 X252.386 Y112.955
N7815 X252.377 Y112.968
N7820 X252.335 Y113.032
N7825 X252.282 Y113.111
N7830 X252.274 Y113.123
N7835 X252.177 Y113.281
N7840 X252.174 Y113.286
N7845 X252.141 Y113.341
N7850 X252.136 Y113.351
N7855 X252.027 Y113.546
N7860 X252.022 Y113.555
N7865 X251.967 Y113.66
N7870 X251.966 Y113.663
N7875 X251.92 Y113.754
N7880 X251.917 Y113.759
N7885 X251.843 Y113.909
N7890 X251.838 Y113.921
N7895 X251.819 Y113.964
N7900 X251.764 Y114.082
N7905 X251.759 Y114.093
N7910 X251.661 Y114.324
N7915 X251.658 Y114.332
N7920 X251.569 Y114.556
N7925 X251.566 Y114.563
N7930 X251.525 Y114.673
N7935 X251.524 Y114.677
N7940 X251.454 Y114.873
N7945 X251.45 Y114.882
N7950 X251.353 Y115.176
N7955 X251.35 Y115.186
N7960 X250.941 Y116.554
N7965 X250.726 Y117.262
N7970 X250.46 Y118.116
N7975 X250.339 Y118.506
N7980 X250.153 Y119.091
N7985 X249.962 Y119.675
N7990 X249.793 Y120.18
N7995 X249.67 Y120.538
N8000 X249.529 Y120.937
N8005 X249.441 Y121.178
N8010 X249.35 Y121.419
N8015 X249.275 Y121.61
N8020 X249.215 Y121.758
N8025 X249.158 Y121.893
N8030 X249.117 Y121.986
N8035 X249.075 Y122.077
N8040 X249.031 Y122.167
N8045 X248.987 Y122.252
N8050 X248.962 Y122.294
N8055 X248.945 Y122.321
N8060 X248.793 Y122.539
N8065 X248.751 Y122.595
N8070 X248.59 Y122.799
N8075 X248.407 Y123.002
N8080 X248.362 Y123.049
N8085 X248.181 Y123.225
N8090 X247.969 Y123.405
N8095 X247.929 Y123.436
N8100 X247.716 Y123.591
N8105 X247.649 Y123.634
N8110 X247.509 Y123.722
N8115 X247.423 Y123.773
N8120 X247.239 Y123.869
N8125 X247.153 Y123.912
N8130 X246.969 Y123.993
N8135 X246.883 Y124.029
N8140 X246.641 Y124.116
N8145 X246.582 Y124.135
N8150 X246.336 Y124.207
N8155 X246.25 Y124.227
N8160 X246.061 Y124.27
N8165 X245.974 Y124.287
N8170 X245.695 Y124.333
N8175 X245.417 Y124.365
N8180 X245.329 Y124.372
N8185 X245.092 Y124.388
N8190 X245.003 Y124.391
N8195 X244.767 Y124.396
N8200 X244.703
N8205 X244.31 Y124.384
N8210 X244.187 Y124.376
N8215 X243.854 Y124.346
N8220 X243.768 Y124.336
N8225 X243.373 Y124.275
N8230 X242.992 Y124.189
N8235 X242.896 Y124.161
N8240 X242.638 Y124.082
N8245 X242.502 Y124.033
N8250 X242.305 Y123.955
N8255 X242.177 Y123.899
N8260 X241.957 Y123.79
N8265 X241.871 Y123.745
N8270 X241.641 Y123.606
N8275 X241.564 Y123.557
N8280 X241.296 Y123.362
N8285 X241.037 Y123.137
N8290 X240.929 Y123.029
N8295 X240.788 Y122.883
N8300 X240.698 Y122.779
N8305 X240.557 Y122.606
N8310 X240.47 Y122.488
N8315 X240.338 Y122.298
N8320 X240.266 Y122.187
N8325 X240.107 Y121.914
N8330 X240.081 Y121.868
N8335 X239.905 Y121.51
N8340 X239.862 Y121.409
N8345 X239.745 Y121.123
N8350 X239.703 Y121.011
N8355 X239.597 Y120.702
N8360 X239.562 Y120.59
N8365 X239.45 Y120.188
N8370 X239.417 Y120.051
N8375 X239.333 Y119.667
N8380 X239.32 Y119.602
N8385 X239.236 Y119.123
N8390 X239.221 Y119.009
N8395 X239.181 Y118.698
N8400 X239.132 Y118.217
N8405 X239.113 Y118.005
N8410 X239.086 Y117.523
N8415 X239.075 Y117.286
N8420 X239.064 Y116.659
N8425 X239.063 Y116.568
N8430 X239.076 Y115.955
N8435 X239.08 Y115.865
N8440 X239.086 Y115.755
N8445 X239.116 Y115.286
N8450 X239.134 Y115.087
N8455 X239.189 Y114.605
N8460 X239.21 Y114.442
N8465 X239.236 Y114.28
N8470 X239.306 Y113.887
N8475 X239.402 Y113.449
N8480 X239.431 Y113.336
N8485 X239.525 Y113.001
N8490 X239.544 Y112.935
N8495 X239.661 Y112.58
N8500 X239.693 Y112.493
N8505 X239.819 Y112.176
N8510 X239.875 Y112.05
N8515 X239.979 Y111.825
N8520 X240.041 Y111.701
N8525 X240.17 Y111.465
N8530 X240.219 Y111.378
N8535 X240.394 Y111.099
N8540 X240.455 Y111.012
N8545 X240.617 Y110.789
N8550 X240.697 Y110.689
N8555 X240.847 Y110.51
N8560 X240.936 Y110.411
N8565 X241.095 Y110.246
N8570 X241.177 Y110.165
N8575 X241.421 Y109.945
N8580 X241.7 Y109.725
N8585 X241.756 Y109.685
N8590 X242.019 Y109.507
N8595 X242.107 Y109.453
N8600 X242.325 Y109.325
N8605 X242.43 Y109.268
N8610 X242.651 Y109.158
N8615 X242.76 Y109.106
N8620 X243.053 Y108.981
N8625 X243.141 Y108.947
N8630 X243.469 Y108.83
N8635 X243.606 Y108.788
N8640 X243.636 Y108.779
N8645 X243.956 Y110.363
N8650 X243.865 Y110.394
N8655 X243.855 Y110.398
N8660 X243.635 Y110.481
N8665 X243.618 Y110.487
N8670 X243.374 Y110.593
N8675 X243.357 Y110.601
N8680 X243.272 Y110.643
N8685 X243.27 Y110.644
N8690 X243.135 Y110.71
N8695 X243.124 Y110.716
N8700 X243.051 Y110.756
N8705 X243.033 Y110.765
N8710 X243.015 Y110.775
N8715 X242.919 Y110.831
N8720 X242.869 Y110.86
N8725 X242.855 Y110.868
N8730 X242.76 Y110.928
N8735 X242.712 Y110.958
N8740 X242.699 Y110.967
N8745 X242.672 Y110.985
N8750 X242.655 Y110.996
N8755 X242.645 Y111.003
N8760 X242.601 Y111.033
N8765 X242.594 Y111.038
N8770 X242.498 Y111.107
N8775 X242.455 Y111.137
N8780 X242.443 Y111.147
N8785 X242.39 Y111.187
N8790 X242.38 Y111.195
N8795 X242.184 Y111.355
N8800 X242.168 Y111.37
N8805 X241.972 Y111.55
N8810 X241.961 Y111.56
N8815 X241.917 Y111.605
N8820 X241.909 Y111.613
N8825 X241.857 Y111.669
N8830 X241.819 Y111.708
N8835 X241.815 Y111.712
N8840 X241.757 Y111.775
N8845 X241.751 Y111.781
N8850 X241.72 Y111.816
N8855 X241.713 Y111.824
N8860 X241.631 Y111.921
N8865 X241.625 Y111.929
N8870 X241.534 Y112.042
N8875 X241.505 Y112.077
N8880 X241.497 Y112.087
N8885 X241.437 Y112.168
N8890 X241.432 Y112.175
N8895 X241.386 Y112.239
N8900 X241.382 Y112.245
N8905 X241.282 Y112.392
N8910 X241.276 Y112.401
N8915 X241.244 Y112.45
N8920 X241.239 Y112.459
N8925 X241.121 Y112.654
N8930 X241.112 Y112.67
N8935 X241.006 Y112.865
N8940 X241.005 Y112.867
N8945 X240.979 Y112.916
N8950 X240.973 Y112.929
N8955 X240.93 Y113.018
N8960 X240.927 Y113.023
N8965 X240.855 Y113.179
N8970 X240.849 Y113.192
N8975 X240.767 Y113.388
N8980 X240.763 Y113.397
N8985 X240.725 Y113.495
N8990 X240.722 Y113.502
N8995 X240.651 Y113.697
N9000 X240.645 Y113.713
N9005 X240.615 Y113.81
N9010 X240.552 Y114.004
N9015 X240.546 Y114.023
N9020 X240.513 Y114.15
N9025 X240.495 Y114.21
N9030 X240.49 Y114.229
N9035 X240.473 Y114.301
N9040 X240.444 Y114.421
N9045 X240.441 Y114.431
N9050 X240.372 Y114.749
N9055 X240.369 Y114.766
N9060 X240.307 Y115.133
N9065 X240.305 Y115.146
N9070 X240.292 Y115.243
N9075 X240.291 Y115.247
N9080 X240.255 Y115.541
N9085 X240.254 Y115.554
N9090 X240.239 Y115.721
N9095 X240.236 Y115.742
N9100 Y115.751
N9105 X240.219 Y115.947
N9110 X240.218 Y115.959
N9115 X240.203 Y116.252
N9120 X240.199 Y116.325
N9125 Y116.334
N9130 X240.195 Y116.456
N9135 Y116.461
N9140 X240.19 Y116.754
N9145 Y116.757
N9150 X240.189 Y116.855
N9155 Y116.865
N9160 X240.197 Y117.305
N9165 X240.198 Y117.317
N9170 X240.217 Y117.708
N9175 X240.218 Y117.718
N9180 X240.229 Y117.864
N9185 Y117.871
N9190 X240.238 Y117.967
N9195 X240.246 Y118.063
N9200 X240.247 Y118.068
N9205 X240.256 Y118.166
N9210 X240.257 Y118.175
N9215 X240.281 Y118.37
N9220 Y118.374
N9225 X240.294 Y118.472
N9230 X240.295 Y118.476
N9235 X240.308 Y118.574
N9240 X240.31 Y118.583
N9245 X240.334 Y118.727
N9250 X240.348 Y118.822
N9255 X240.351 Y118.838
N9260 X240.38 Y118.985
N9265 X240.381 Y118.991
N9270 X240.444 Y119.284
N9275 X240.449 Y119.303
N9280 X240.528 Y119.596
N9285 X240.531 Y119.609
N9290 X240.561 Y119.707
N9295 X240.563 Y119.712
N9300 X240.581 Y119.769
N9305 X240.596 Y119.817
N9310 X240.602 Y119.836
N9315 X240.666 Y120.016
N9320 X240.669 Y120.024
N9325 X240.706 Y120.122
N9330 X240.709 Y120.13
N9335 X240.749 Y120.228
N9340 X240.75 Y120.231
N9345 X240.791 Y120.329
N9350 X240.798 Y120.342
N9355 X240.889 Y120.538
N9360 X240.897 Y120.555
N9365 X240.955 Y120.665
N9370 X240.957 Y120.667
N9375 X241.016 Y120.778
N9380 X241.024 Y120.792
N9385 X241.067 Y120.864
N9390 X241.091 Y120.906
N9395 X241.102 Y120.923
N9400 X241.202 Y121.075
N9405 X241.207 Y121.082
N9410 X241.274 Y121.179
N9415 X241.288 Y121.197
N9420 X241.297 Y121.209
N9425 X241.305 Y121.22
N9430 X241.313 Y121.231
N9435 X241.341 Y121.269
N9440 X241.348 Y121.277
N9445 X241.424 Y121.372
N9450 X241.463 Y121.42
N9455 X241.479 Y121.44
N9460 X241.545 Y121.512
N9465 X241.549 Y121.517
N9470 X241.66 Y121.634
N9475 X241.675 Y121.649
N9480 X241.773 Y121.742
N9485 X241.778 Y121.747
N9490 X241.876 Y121.836
N9495 X241.895 Y121.853
N9500 X242.009 Y121.944
N9505 X242.012 Y121.946
N9510 X242.093 Y122.01
N9515 X242.106 Y122.02
N9520 X242.179 Y122.072
N9525 X242.194 Y122.082
N9530 X242.265 Y122.128
N9535 X242.312 Y122.159
N9540 X242.321 Y122.165
N9545 X242.37 Y122.195
N9550 X242.38 Y122.201
N9555 X242.415 Y122.222
N9560 X242.46 Y122.249
N9565 X242.479 Y122.26
N9570 X242.64 Y122.343
N9575 X242.654 Y122.35
N9580 X242.681 Y122.363
N9585 X242.707 Y122.376
N9590 X242.719 Y122.382
N9595 X242.752 Y122.397
N9600 X242.763 Y122.402
N9605 X242.809 Y122.422
N9610 X242.855 Y122.443
N9615 X242.875 Y122.451
N9620 X242.973 Y122.489
N9625 X243.016 Y122.506
N9630 X243.034 Y122.513
N9635 X243.081 Y122.529
N9640 X243.087 Y122.532
N9645 X243.185 Y122.564
N9650 X243.191 Y122.566
N9655 X243.338 Y122.611
N9660 X243.356 Y122.617
N9665 X243.405 Y122.629
N9670 X243.413 Y122.631
N9675 X243.645 Y122.685
N9680 X243.65 Y122.686
N9685 X243.662 Y122.689
N9690 X243.681 Y122.692
N9695 X243.926 Y122.733
N9700 X243.936 Y122.735
N9705 X243.985 Y122.741
N9710 X243.994 Y122.743
N9715 X244.141 Y122.759
N9720 X244.153 Y122.76
N9725 X244.348 Y122.776
N9730 X244.36
N9735 X244.458 Y122.781
N9740 X244.469
N9745 X244.701 Y122.786
N9750 X244.719
N9755 X244.878 Y122.781
N9760 X244.89
N9765 X245.001 Y122.774
N9770 X245.012 Y122.773
N9775 X245.098 Y122.765
N9780 X245.109 Y122.764
N9785 X245.206 Y122.752
N9790 X245.218 Y122.75
N9795 X245.316 Y122.735
N9800 X245.323 Y122.734
N9805 X245.421 Y122.717
N9810 X245.441 Y122.713
N9815 X245.6 Y122.676
N9820 X245.616 Y122.672
N9825 X245.751 Y122.634
N9830 X245.764 Y122.63
N9835 X245.862 Y122.599
N9840 X245.876 Y122.594
N9845 X245.974 Y122.558
N9850 X245.985 Y122.554
N9855 X246.114 Y122.502
N9860 X246.132 Y122.494
N9865 X246.18 Y122.472
N9870 X246.184 Y122.47
N9875 X246.299 Y122.415
N9880 X246.312 Y122.409
N9885 X246.409 Y122.358
N9890 X246.421 Y122.352
N9895 X246.47 Y122.324
N9900 X246.478 Y122.319
N9905 X246.567 Y122.266
N9910 X246.572 Y122.263
N9915 X246.629 Y122.228
N9920 X246.642 Y122.219
N9925 X246.74 Y122.153
N9930 X246.75 Y122.146
N9935 X246.879 Y122.052
N9940 X246.888 Y122.046
N9945 X246.921 Y122.021
N9950 X246.931 Y122.013
N9955 X247.061 Y121.905
N9960 X247.076 Y121.893
N9965 X247.174 Y121.804
N9970 X247.181 Y121.797
N9975 X247.279 Y121.703
N9980 X247.285 Y121.697
N9985 X247.36 Y121.621
N9990 X247.369 Y121.612
N9995 X247.459 Y121.514
N10000 X247.468 Y121.504
N10005 X247.596 Y121.355
N10010 X247.607 Y121.343
N10015 X247.72 Y121.198
N10020 X247.73 Y121.186
N10025 X247.856 Y121.011
N10030 X247.863 Y121.002
N10035 X247.943 Y120.883
N10040 X247.949 Y120.874
N10045 X248.02 Y120.763
N10050 X248.022 Y120.759
N10055 X248.074 Y120.675
N10060 X248.08 Y120.665
N10065 X248.137 Y120.568
N10070 X248.139 Y120.564
N10075 X248.194 Y120.466
N10080 X248.197 Y120.461
N10085 X248.277 Y120.314
N10090 X248.29 Y120.288
N10095 X248.301 Y120.263
N10100 X248.311 Y120.239
N10105 X248.32 Y120.215
N10110 X248.325 Y120.2
N10115 X250.687 Y112.82
N10120 X250.82 Y112.515
N10125 X250.862 Y112.427
N10130 X250.998 Y112.161
N10135 X251.029 Y112.104
N10140 X251.201 Y111.812
N10145 X251.242 Y111.75
N10150 X251.397 Y111.524
N10155 X251.432 Y111.476
N10160 X251.626 Y111.232
N10165 X251.704 Y111.145
N10170 X251.885 Y110.952
N10175 X251.911 Y110.926
N10180 X252.164 Y110.699
N10185 X252.2 Y110.67
N10190 X252.449 Y110.483
N10195 X252.46 Y110.476
N10200 X252.747 Y110.297
N10205 X252.789 Y110.274
N10210 X253.048 Y110.143
N10215 X253.131 Y110.106
N10220 X253.399 Y109.999
N10225 X253.447 Y109.981
N10230 X253.764 Y109.884
N10235 X253.829 Y109.868
N10240 X254.137 Y109.799
N10245 X254.16 Y109.794
N10250 X254.499 Y109.743
N10255 X254.585 Y109.734
N10260 X254.869 Y109.71
N10265 X254.956 Y109.705
N10270 X255.307 Y109.696
N10275 X255.719 Y109.707
N10280 X255.818 Y109.713
N10285 X256.128 Y109.739
N10290 X256.226 Y109.75
N10295 X256.545 Y109.797
N10300 X256.63 Y109.811
N10305 X256.961 Y109.883
N10310 X257.065 Y109.91
N10315 X257.3 Y109.979
N10320 X257.408 Y110.014
N10325 X257.619 Y110.093
N10330 X257.725 Y110.136
N10335 X258.004 Y110.267
N10340 X258.027 Y110.278
N10345 X258.305 Y110.438
N10350 X258.384 Y110.491
N10355 X258.57 Y110.621
N10360 X258.652 Y110.685
N10365 X258.822 Y110.826
N10370 X258.909 Y110.906
N10375 X259.052 Y111.046
N10380 X259.134 Y111.133
N10385 X259.276 Y111.298
N10390 X259.346 Y111.384
N10395 X259.537 Y111.646
N10400 X259.716 Y111.936
N10405 X259.774 Y112.045
N10410 X259.885 Y112.259
N10415 X259.935 Y112.366
N10420 X260.046 Y112.622
N10425 X260.083 Y112.713
N10430 X260.21 Y113.063
N10435 X260.324 Y113.45
N10440 X260.358 Y113.579
N10445 X260.443 Y113.943
N10450 X260.451 Y113.981
N10455 X260.534 Y114.433
N10460 X260.546 Y114.515
N10465 X260.584 Y114.801
N10470 X260.632 Y115.233
N10475 X260.649 Y115.42
N10480 X260.684 Y115.998
N10485 X260.687 Y116.063
N10490 X260.699 Y116.711
N10495 X260.686 Y117.296
N10500 X260.679 Y117.421
N10505 X260.645 Y117.877
N10510 X260.628 Y118.052
N10515 X260.561 Y118.567
N10520 X260.555 Y118.607
N10525 X260.53 Y118.746
N10530 X260.482 Y118.997
N10535 X260.461 Y119.099
N10540 X260.387 Y119.409
N10545 X260.37 Y119.473
N10550 X260.269 Y119.817
N10555 X260.236 Y119.914
N10560 X260.143 Y120.176
N10565 X260.114 Y120.252
N10570 X259.999 Y120.525
N10575 X259.975 Y120.581
N10580 X259.829 Y120.878
N10585 X259.774 Y120.978
N10590 X259.659 Y121.177
N10595 X259.597 Y121.277
N10600 X259.473 Y121.465
N10605 X259.412 Y121.553
N10610 X259.264 Y121.748
N10615 X259.22 Y121.805
N10620 X259.013 Y122.046
N10625 X258.878 Y122.184
N10630 X258.787 Y122.276
N10635 X258.699 Y122.359
N10640 X258.522 Y122.515
N10645 X258.461 Y122.566
N10650 X258.261 Y122.723
N10655 X258.182 Y122.782
N10660 X257.962 Y122.932
N10665 X257.864 Y122.994
N10670 X257.617 Y123.141
N10675 X257.504 Y123.202
N10680 X257.303 Y123.306
N10685 X257.203 Y123.354
N10690 X256.995 Y123.447
N10695 X256.969 Y123.454
N10700 X256.942 Y123.45
N10705 X256.917 Y123.437
N10710 X256.9 Y123.416
N10715 X256.525 Y122.767
N10720 X256.523 Y122.763
N10725 X256.513 Y122.747 Z-1.501
N10730 X256.503 Y122.73 Z-1.505
N10735 G3 X256.767 Y121.756 Z-1.806 I0.617 J-0.356
N10740 X257.474 Y122.993 Z-2.406 I0.354 J0.619
N10745 X256.837 Y123.028 Z-2.583 I-0.354 J-0.619
N10750 X256.733 Y121.776 Z-2.995 I0.283 J-0.654
N10755 G1 X256.75 Y121.765 Z-2.999
N10760 X256.767 Y121.756 Z-3.
N10765 G3 X257.36 Y122.793 I0.297 J0.519
N10770 G1 X257.177 Y122.893
N10775 G3 X256.745 Y122.678 I-0.138 J-0.266
N10780 G1 X256.707 Y122.464
N10785 G3 X256.936 Y122.029 I0.397 J-0.069
N10790 G2 X258.465 Y121.011 I-2.436 J-5.317
N10795 X259.506 Y119.499 I-2.813 J-3.051
N10800 X260.061 Y116.909 I-7.32 J-2.923
N10805 X259.752 Y114.277 I-8.359 J-0.353
N10810 X258.799 Y112.354 I-5.639 J1.596
N10815 X257.081 Y111.067 I-3.065 J2.302
N10820 X255.18 Y110.761 I-1.708 J4.548
N10825 X253.346 Y111.348 I0.144 J3.608
N10830 X252.158 Y112.472 I2.527 J3.859
N10835 X251.326 Y113.88 I6.539 J4.816
N10840 G1 X248.9 Y121.246
N10845 G3 X247.755 Y122.895 I-3.947 J-1.517
N10850 X245.961 Y123.798 I-2.608 J-2.948
N10855 X243.991 Y123.913 I-1.363 J-6.441
N10860 X242.108 Y123.324 I0.435 J-4.701
N10865 X240.09 Y120.738 I2.095 J-3.715
N10870 X239.567 Y117.498 I14.694 J-4.031
N10875 X239.645 Y114.651 I17.996 J-0.937
N10880 X240.469 Y111.924 I7.602 J0.811
N10885 X241.497 Y110.49 I5.571 J2.907
N10890 X242.949 Y109.487 I3.156 J3.017
N10895 X243.393 Y109.721 I0.126 J0.298
N10900 G1 X243.419 Y109.851
N10905 G3 X243.244 Y110.186 I-0.295 J0.06
N10910 G2 X239.985 Y114.043 I2.251 J5.207
N10915 X239.91 Y119.091 I10.966 J2.688
N10920 X240.78 Y121.239 I6.538 J-1.398
N10925 X242.488 Y122.806 I3.687 J-2.306
N10930 X245.332 Y123.237 I2.07 J-4.051
N10935 X247.834 Y121.819 I-0.724 J-4.193
N10940 X248.257 Y121.276 I-5.463 J-4.699
N10945 X248.621 Y120.692 I-4.848 J-3.423
N10950 G1 X248.705 Y120.535
N10955 X248.743 Y120.455
N10960 X248.776 Y120.372
N10965 X251.259 Y112.716
N10970 G3 X252.76 Y110.927 I3.998 J1.83
N10975 X254.976 Y110.187 I2.387 J3.46
N10980 X256.968 Y110.39 I0.287 J7.057
N10985 X258.708 Y111.384 I-0.89 J3.575
N10990 X259.898 Y113.59 I-3.222 J3.164
N10995 X260.205 Y116.078 I-13.444 J2.918
N11000 X259.674 Y119.922 I-11.572 J0.362
N11005 X257.36 Y122.793 I-4.825 J-1.522
N11010 G2 X257.186 Y123.125 I0.173 J0.302
N11015 G3 X256.995 Y123.447 I-0.323 J0.027
N11020 G1 X256.941 Y123.472
N11025 X256.877 Y123.499
N11030 X256.552 Y123.624
N11035 X256.482 Y123.648
N11040 X256.173 Y121.869
N11045 X256.307 Y121.823
N11050 X256.312 Y121.822
N11055 X256.391 Y121.794
N11060 X256.406 Y121.788
N11065 X256.645 Y121.693
N11070 X256.657 Y121.687
N11075 X256.739 Y121.651
N11080 X256.747 Y121.648
N11085 X256.766 Y121.64
N11090 X256.853 Y121.598
N11095 X256.961 Y121.546
N11100 X256.978 Y121.537
N11105 X257.148 Y121.445
N11110 X257.17 Y121.433
N11115 X257.188 Y121.423
N11120 X257.251 Y121.385
N11125 X257.253 Y121.384
N11130 X257.386 Y121.302
N11135 X257.398 Y121.295
N11140 X257.437 Y121.269
N11145 X257.451 Y121.26
N11150 X257.466 Y121.25
N11155 X257.536 Y121.201
N11160 X257.569 Y121.179
N11165 X257.583 Y121.169
N11170 X257.714 Y121.071
N11175 X257.72 Y121.066
N11180 X257.766 Y121.03
N11185 X257.777 Y121.021
N11190 X257.931 Y120.891
N11195 X257.947 Y120.877
N11200 X258.132 Y120.702
N11205 X258.149 Y120.685
N11210 X258.287 Y120.537
N11215 X258.299 Y120.524
N11220 X258.382 Y120.426
N11225 X258.387 Y120.42
N11230 X258.466 Y120.322
N11235 X258.474 Y120.312
N11240 X258.565 Y120.191
N11245 X258.574 Y120.179
N11250 X258.672 Y120.037
N11255 X258.679 Y120.028
N11260 X258.715 Y119.972
N11265 X258.722 Y119.961
N11270 X258.824 Y119.789
N11275 X258.833 Y119.774
N11280 X258.872 Y119.7
N11285 X258.874 Y119.697
N11290 X258.938 Y119.575
N11295 X258.942 Y119.567
N11300 X258.994 Y119.461
N11305 X258.999 Y119.45
N11310 X259.028 Y119.385
N11315 X259.049 Y119.342
N11320 X259.058 Y119.32
N11325 X259.076 Y119.276
N11330 X259.1 Y119.22
N11335 X259.106 Y119.203
N11340 X259.204 Y118.94
N11345 X259.211 Y118.92
N11350 X259.27 Y118.729
N11355 X259.271 Y118.724
N11360 X259.3 Y118.626
N11365 X259.303 Y118.614
N11370 X259.327 Y118.52
N11375 X259.34 Y118.475
N11380 X259.345 Y118.455
N11385 X259.355 Y118.408
N11390 X259.378 Y118.312
N11395 X259.38 Y118.299
N11400 X259.433 Y118.03
N11405 X259.436 Y118.013
N11410 X259.468 Y117.793
N11415 Y117.789
N11420 X259.481 Y117.691
N11425 X259.483 Y117.681
N11430 X259.489 Y117.625
N11435 X259.493 Y117.593
N11440 X259.495 Y117.574
N11445 X259.503 Y117.479
N11450 X259.512 Y117.384
N11455 X259.514 Y117.37
N11460 X259.523 Y117.215
N11465 X259.529 Y117.129
N11470 X259.53 Y117.114
N11475 X259.534 Y116.967
N11480 Y116.963
N11485 X259.538 Y116.768
N11490 Y116.764
N11495 X259.539 Y116.666
N11500 Y116.656
N11505 X259.532 Y116.265
N11510 Y116.253
N11515 X259.517 Y115.96
N11520 Y115.953
N11525 X259.507 Y115.807
N11530 Y115.798
N11535 X259.485 Y115.554
N11540 X259.484 Y115.543
N11545 X259.467 Y115.4
N11550 X259.463 Y115.354
N11555 X259.461 Y115.339
N11560 X259.447 Y115.243
N11565 X259.435 Y115.146
N11570 X259.433 Y115.133
N11575 X259.4 Y114.94
N11580 X259.393 Y114.894
N11585 X259.39 Y114.876
N11590 X259.36 Y114.73
N11595 X259.359 Y114.723
N11600 X259.302 Y114.467
N11605 X259.301 Y114.461
N11610 X259.292 Y114.425
N11615 X259.288 Y114.409
N11620 X259.261 Y114.312
N11625 X259.214 Y114.143
N11630 X259.208 Y114.124
N11635 X259.173 Y114.017
N11640 X259.155 Y113.959
N11645 X259.148 Y113.94
N11650 X259.132 Y113.895
N11655 X259.109 Y113.83
N11660 X259.103 Y113.813
N11665 X258.997 Y113.55
N11670 X258.987 Y113.528
N11675 X258.882 Y113.306
N11680 X258.876 Y113.296
N11685 X258.859 Y113.263
N11690 X258.854 Y113.253
N11695 X258.789 Y113.136
N11700 X258.786 Y113.13
N11705 X258.715 Y113.009
N11710 X258.705 Y112.993
N11715 X258.654 Y112.915
N11720 X258.641 Y112.893
N11725 X258.633 Y112.881
N11730 X258.599 Y112.832
N11735 X258.594 Y112.825
N11740 X258.524 Y112.727
N11745 X258.52 Y112.721
N11750 X258.468 Y112.652
N11755 X258.456 Y112.637
N11760 X258.378 Y112.543
N11765 X258.355 Y112.514
N11770 X258.345 Y112.503
N11775 X258.302 Y112.454
N11780 X258.29 Y112.441
N11785 X258.144 Y112.29
N11790 X258.127 Y112.273
N11795 X258.078 Y112.229
N11800 X258.074 Y112.225
N11805 X257.928 Y112.095
N11810 X257.904 Y112.076
N11815 X257.73 Y111.946
N11820 X257.71 Y111.932
N11825 X257.627 Y111.877
N11830 X257.624 Y111.876
N11835 X257.581 Y111.848
N11840 X257.574 Y111.843
N11845 X257.446 Y111.765
N11850 X257.424 Y111.753
N11855 X257.342 Y111.71
N11860 X257.321 Y111.698
N11865 X257.311 Y111.693
N11870 X257.262 Y111.668
N11875 X257.249 Y111.662
N11880 X257.199 Y111.639
N11885 X257.186 Y111.632
N11890 X257.167 Y111.624
N11895 X257.096 Y111.593
N11900 X257.049 Y111.572
N11905 X257.029 Y111.564
N11910 X256.936 Y111.529
N11915 X256.922 Y111.523
N11920 X256.904 Y111.516
N11925 X256.856 Y111.499
N11930 X256.826 Y111.489
N11935 X256.811 Y111.484
N11940 X256.615 Y111.424
N11945 X256.604 Y111.42
N11950 X256.567 Y111.41
N11955 X256.553 Y111.407
N11960 X256.32 Y111.353
N11965 X256.299 Y111.349
N11970 X256.079 Y111.312
N11975 X256.065 Y111.31
N11980 X256.024 Y111.305
N11985 X256.023
N11990 X255.966 Y111.297
N11995 X255.952 Y111.296
N12000 X255.908 Y111.292
N12005 X255.864 Y111.287
N12010 X255.854 Y111.286
N12015 X255.805 Y111.281
N12020 X255.796
N12025 X255.748 Y111.278
N12030 X255.652 Y111.271
N12035 X255.636 Y111.27
N12040 X255.367 Y111.262
N12045 X255.344
N12050 X255.124 Y111.269
N12055 X255.099 Y111.271
N12060 X255.006 Y111.28
N12065 X254.962 Y111.284
N12070 X254.94 Y111.286
N12075 X254.891 Y111.292
N12080 X254.88 Y111.294
N12085 X254.684 Y111.326
N12090 X254.659 Y111.331
N12095 X254.593 Y111.347
N12100 X254.577 Y111.35
N12105 X254.552 Y111.356
N12110 X254.454 Y111.381
N12115 X254.443 Y111.385
N12120 X254.345 Y111.413
N12125 X254.33 Y111.418
N12130 X254.259 Y111.443
N12135 X254.238 Y111.45
N12140 X254.225 Y111.454
N12145 X254.176 Y111.472
N12150 X254.162 Y111.477
N12155 X254.016 Y111.537
N12160 X254.001 Y111.544
N12165 X253.952 Y111.567
N12170 X253.942 Y111.572
N12175 X253.795 Y111.645
N12180 X253.774 Y111.656
N12185 X253.677 Y111.713
N12190 X253.629 Y111.74
N12195 X253.61 Y111.752
N12200 X253.448 Y111.858
N12205 X253.436 Y111.866
N12210 X253.4 Y111.892
N12215 X253.39 Y111.899
N12220 X253.245 Y112.01
N12225 X253.23 Y112.023
N12230 X253.164 Y112.08
N12235 X253.137 Y112.101
N12240 X253.12 Y112.116
N12245 X253.087 Y112.147
N12250 X253.054 Y112.176
N12255 X253.041 Y112.189
N12260 X252.918 Y112.309
N12265 X252.914 Y112.313
N12270 X252.858 Y112.37
N12275 X252.843 Y112.386
N12280 X252.803 Y112.431
N12285 X252.742 Y112.498
N12290 X252.735 Y112.506
N12295 X252.7 Y112.546
N12300 X252.696 Y112.551
N12305 X252.598 Y112.669
N12310 X252.594 Y112.675
N12315 X252.564 Y112.712
N12320 X252.555 Y112.724
N12325 X252.411 Y112.92
N12330 X252.408 Y112.924
N12335 X252.386 Y112.955
N12340 X252.377 Y112.968
N12345 X252.335 Y113.032
N12350 X252.282 Y113.111
N12355 X252.274 Y113.123
N12360 X252.177 Y113.281
N12365 X252.174 Y113.286
N12370 X252.141 Y113.341
N12375 X252.136 Y113.351
N12380 X252.027 Y113.546
N12385 X252.022 Y113.555
N12390 X251.967 Y113.66
N12395 X251.966 Y113.663
N12400 X251.92 Y113.754
N12405 X251.917 Y113.759
N12410 X251.843 Y113.909
N12415 X251.838 Y113.921
N12420 X251.819 Y113.964
N12425 X251.764 Y114.082
N12430 X251.759 Y114.093
N12435 X251.661 Y114.324
N12440 X251.658 Y114.332
N12445 X251.569 Y114.556
N12450 X251.566 Y114.563
N12455 X251.525 Y114.673
N12460 X251.524 Y114.677
N12465 X251.454 Y114.873
N12470 X251.45 Y114.882
N12475 X251.353 Y115.176
N12480 X251.35 Y115.186
N12485 X250.941 Y116.554
N12490 X250.726 Y117.262
N12495 X250.46 Y118.116
N12500 X250.339 Y118.506
N12505 X250.153 Y119.091
N12510 X249.962 Y119.675
N12515 X249.793 Y120.18
N12520 X249.67 Y120.538
N12525 X249.529 Y120.937
N12530 X249.441 Y121.178
N12535 X249.35 Y121.419
N12540 X249.275 Y121.61
N12545 X249.215 Y121.758
N12550 X249.158 Y121.893
N12555 X249.117 Y121.986
N12560 X249.075 Y122.077
N12565 X249.031 Y122.167
N12570 X248.987 Y122.252
N12575 X248.962 Y122.294
N12580 X248.945 Y122.321
N12585 X248.793 Y122.539
N12590 X248.751 Y122.595
N12595 X248.59 Y122.799
N12600 X248.407 Y123.002
N12605 X248.362 Y123.049
N12610 X248.181 Y123.225
N12615 X247.969 Y123.405
N12620 X247.929 Y123.436
N12625 X247.716 Y123.591
N12630 X247.649 Y123.634
N12635 X247.509 Y123.722
N12640 X247.423 Y123.773
N12645 X247.239 Y123.869
N12650 X247.153 Y123.912
N12655 X246.969 Y123.993
N12660 X246.883 Y124.029
N12665 X246.641 Y124.116
N12670 X246.582 Y124.135
N12675 X246.336 Y124.207
N12680 X246.25 Y124.227
N12685 X246.061 Y124.27
N12690 X245.974 Y124.287
N12695 X245.695 Y124.333
N12700 X245.417 Y124.365
N12705 X245.329 Y124.372
N12710 X245.092 Y124.388
N12715 X245.003 Y124.391
N12720 X244.767 Y124.396
N12725 X244.703
N12730 X244.31 Y124.384
N12735 X244.187 Y124.376
N12740 X243.854 Y124.346
N12745 X243.768 Y124.336
N12750 X243.373 Y124.275
N12755 X242.992 Y124.189
N12760 X242.896 Y124.161
N12765 X242.638 Y124.082
N12770 X242.502 Y124.033
N12775 X242.305 Y123.955
N12780 X242.177 Y123.899
N12785 X241.957 Y123.79
N12790 X241.871 Y123.745
N12795 X241.641 Y123.606
N12800 X241.564 Y123.557
N12805 X241.296 Y123.362
N12810 X241.037 Y123.137
N12815 X240.929 Y123.029
N12820 X240.788 Y122.883
N12825 X240.698 Y122.779
N12830 X240.557 Y122.606
N12835 X240.47 Y122.488
N12840 X240.338 Y122.298
N12845 X240.266 Y122.187
N12850 X240.107 Y121.914
N12855 X240.081 Y121.868
N12860 X239.905 Y121.51
N12865 X239.862 Y121.409
N12870 X239.745 Y121.123
N12875 X239.703 Y121.011
N12880 X239.597 Y120.702
N12885 X239.562 Y120.59
N12890 X239.45 Y120.188
N12895 X239.417 Y120.051
N12900 X239.333 Y119.667
N12905 X239.32 Y119.602
N12910 X239.236 Y119.123
N12915 X239.221 Y119.009
N12920 X239.181 Y118.698
N12925 X239.132 Y118.217
N12930 X239.113 Y118.005
N12935 X239.086 Y117.523
N12940 X239.075 Y117.286
N12945 X239.064 Y116.659
N12950 X239.063 Y116.568
N12955 X239.076 Y115.955
N12960 X239.08 Y115.865
N12965 X239.086 Y115.755
N12970 X239.116 Y115.286
N12975 X239.134 Y115.087
N12980 X239.189 Y114.605
N12985 X239.21 Y114.442
N12990 X239.236 Y114.28
N12995 X239.306 Y113.887
N13000 X239.402 Y113.449
N13005 X239.431 Y113.336
N13010 X239.525 Y113.001
N13015 X239.544 Y112.935
N13020 X239.661 Y112.58
N13025 X239.693 Y112.493
N13030 X239.819 Y112.176
N13035 X239.875 Y112.05
N13040 X239.979 Y111.825
N13045 X240.041 Y111.701
N13050 X240.17 Y111.465
N13055 X240.219 Y111.378
N13060 X240.394 Y111.099
N13065 X240.455 Y111.012
N13070 X240.617 Y110.789
N13075 X240.697 Y110.689
N13080 X240.847 Y110.51
N13085 X240.936 Y110.411
N13090 X241.095 Y110.246
N13095 X241.177 Y110.165
N13100 X241.421 Y109.945
N13105 X241.7 Y109.725
N13110 X241.756 Y109.685
N13115 X242.019 Y109.507
N13120 X242.107 Y109.453
N13125 X242.325 Y109.325
N13130 X242.43 Y109.268
N13135 X242.651 Y109.158
N13140 X242.76 Y109.106
N13145 X243.053 Y108.981
N13150 X243.141 Y108.947
N13155 X243.469 Y108.83
N13160 X243.606 Y108.788
N13165 X243.636 Y108.779
N13170 X243.956 Y110.363
N13175 X243.865 Y110.394
N13180 X243.855 Y110.398
N13185 X243.635 Y110.481
N13190 X243.618 Y110.487
N13195 X243.374 Y110.593
N13200 X243.357 Y110.601
N13205 X243.272 Y110.643
N13210 X243.27 Y110.644
N13215 X243.135 Y110.71
N13220 X243.124 Y110.716
N13225 X243.051 Y110.756
N13230 X243.033 Y110.765
N13235 X243.015 Y110.775
N13240 X242.919 Y110.831
N13245 X242.869 Y110.86
N13250 X242.855 Y110.868
N13255 X242.76 Y110.928
N13260 X242.712 Y110.958
N13265 X242.699 Y110.967
N13270 X242.672 Y110.985
N13275 X242.655 Y110.996
N13280 X242.645 Y111.003
N13285 X242.601 Y111.033
N13290 X242.594 Y111.038
N13295 X242.498 Y111.107
N13300 X242.455 Y111.137
N13305 X242.443 Y111.147
N13310 X242.39 Y111.187
N13315 X242.38 Y111.195
N13320 X242.184 Y111.355
N13325 X242.168 Y111.37
N13330 X241.972 Y111.55
N13335 X241.961 Y111.56
N13340 X241.917 Y111.605
N13345 X241.909 Y111.613
N13350 X241.857 Y111.669
N13355 X241.819 Y111.708
N13360 X241.815 Y111.712
N13365 X241.757 Y111.775
N13370 X241.751 Y111.781
N13375 X241.72 Y111.816
N13380 X241.713 Y111.824
N13385 X241.631 Y111.921
N13390 X241.625 Y111.929
N13395 X241.534 Y112.042
N13400 X241.505 Y112.077
N13405 X241.497 Y112.087
N13410 X241.437 Y112.168
N13415 X241.432 Y112.175
N13420 X241.386 Y112.239
N13425 X241.382 Y112.245
N13430 X241.282 Y112.392
N13435 X241.276 Y112.401
N13440 X241.244 Y112.45
N13445 X241.239 Y112.459
N13450 X241.121 Y112.654
N13455 X241.112 Y112.67
N13460 X241.006 Y112.865
N13465 X241.005 Y112.867
N13470 X240.979 Y112.916
N13475 X240.973 Y112.929
N13480 X240.93 Y113.018
N13485 X240.927 Y113.023
N13490 X240.855 Y113.179
N13495 X240.849 Y113.192
N13500 X240.767 Y113.388
N13505 X240.763 Y113.397
N13510 X240.725 Y113.495
N13515 X240.722 Y113.502
N13520 X240.651 Y113.697
N13525 X240.645 Y113.713
N13530 X240.615 Y113.81
N13535 X240.552 Y114.004
N13540 X240.546 Y114.023
N13545 X240.513 Y114.15
N13550 X240.495 Y114.21
N13555 X240.49 Y114.229
N13560 X240.473 Y114.301
N13565 X240.444 Y114.421
N13570 X240.441 Y114.431
N13575 X240.372 Y114.749
N13580 X240.369 Y114.766
N13585 X240.307 Y115.133
N13590 X240.305 Y115.146
N13595 X240.292 Y115.243
N13600 X240.291 Y115.247
N13605 X240.255 Y115.541
N13610 X240.254 Y115.554
N13615 X240.239 Y115.721
N13620 X240.236 Y115.742
N13625 Y115.751
N13630 X240.219 Y115.947
N13635 X240.218 Y115.959
N13640 X240.203 Y116.252
N13645 X240.199 Y116.325
N13650 Y116.334
N13655 X240.195 Y116.456
N13660 Y116.461
N13665 X240.19 Y116.754
N13670 Y116.757
N13675 X240.189 Y116.855
N13680 Y116.865
N13685 X240.197 Y117.305
N13690 X240.198 Y117.317
N13695 X240.217 Y117.708
N13700 X240.218 Y117.718
N13705 X240.229 Y117.864
N13710 Y117.871
N13715 X240.238 Y117.967
N13720 X240.246 Y118.063
N13725 X240.247 Y118.068
N13730 X240.256 Y118.166
N13735 X240.257 Y118.175
N13740 X240.281 Y118.37
N13745 Y118.374
N13750 X240.294 Y118.472
N13755 X240.295 Y118.476
N13760 X240.308 Y118.574
N13765 X240.31 Y118.583
N13770 X240.334 Y118.727
N13775 X240.348 Y118.822
N13780 X240.351 Y118.838
N13785 X240.38 Y118.985
N13790 X240.381 Y118.991
N13795 X240.444 Y119.284
N13800 X240.449 Y119.303
N13805 X240.528 Y119.596
N13810 X240.531 Y119.609
N13815 X240.561 Y119.707
N13820 X240.563 Y119.712
N13825 X240.581 Y119.769
N13830 X240.596 Y119.817
N13835 X240.602 Y119.836
N13840 X240.666 Y120.016
N13845 X240.669 Y120.024
N13850 X240.706 Y120.122
N13855 X240.709 Y120.13
N13860 X240.749 Y120.228
N13865 X240.75 Y120.231
N13870 X240.791 Y120.329
N13875 X240.798 Y120.342
N13880 X240.889 Y120.538
N13885 X240.897 Y120.555
N13890 X240.955 Y120.665
N13895 X240.957 Y120.667
N13900 X241.016 Y120.778
N13905 X241.024 Y120.792
N13910 X241.067 Y120.864
N13915 X241.091 Y120.906
N13920 X241.102 Y120.923
N13925 X241.202 Y121.075
N13930 X241.207 Y121.082
N13935 X241.274 Y121.179
N13940 X241.288 Y121.197
N13945 X241.297 Y121.209
N13950 X241.305 Y121.22
N13955 X241.313 Y121.231
N13960 X241.341 Y121.269
N13965 X241.348 Y121.277
N13970 X241.424 Y121.372
N13975 X241.463 Y121.42
N13980 X241.479 Y121.44
N13985 X241.545 Y121.512
N13990 X241.549 Y121.517
N13995 X241.66 Y121.634
N14000 X241.675 Y121.649
N14005 X241.773 Y121.742
N14010 X241.778 Y121.747
N14015 X241.876 Y121.836
N14020 X241.895 Y121.853
N14025 X242.009 Y121.944
N14030 X242.012 Y121.946
N14035 X242.093 Y122.01
N14040 X242.106 Y122.02
N14045 X242.179 Y122.072
N14050 X242.194 Y122.082
N14055 X242.265 Y122.128
N14060 X242.312 Y122.159
N14065 X242.321 Y122.165
N14070 X242.37 Y122.195
N14075 X242.38 Y122.201
N14080 X242.415 Y122.222
N14085 X242.46 Y122.249
N14090 X242.479 Y122.26
N14095 X242.64 Y122.343
N14100 X242.654 Y122.35
N14105 X242.681 Y122.363
N14110 X242.707 Y122.376
N14115 X242.719 Y122.382
N14120 X242.752 Y122.397
N14125 X242.763 Y122.402
N14130 X242.809 Y122.422
N14135 X242.855 Y122.443
N14140 X242.875 Y122.451
N14145 X242.973 Y122.489
N14150 X243.016 Y122.506
N14155 X243.034 Y122.513
N14160 X243.081 Y122.529
N14165 X243.087 Y122.532
N14170 X243.185 Y122.564
N14175 X243.191 Y122.566
N14180 X243.338 Y122.611
N14185 X243.356 Y122.617
N14190 X243.405 Y122.629
N14195 X243.413 Y122.631
N14200 X243.645 Y122.685
N14205 X243.65 Y122.686
N14210 X243.662 Y122.689
N14215 X243.681 Y122.692
N14220 X243.926 Y122.733
N14225 X243.936 Y122.735
N14230 X243.985 Y122.741
N14235 X243.994 Y122.743
N14240 X244.141 Y122.759
N14245 X244.153 Y122.76
N14250 X244.348 Y122.776
N14255 X244.36
N14260 X244.458 Y122.781
N14265 X244.469
N14270 X244.701 Y122.786
N14275 X244.719
N14280 X244.878 Y122.781
N14285 X244.89
N14290 X245.001 Y122.774
N14295 X245.012 Y122.773
N14300 X245.098 Y122.765
N14305 X245.109 Y122.764
N14310 X245.206 Y122.752
N14315 X245.218 Y122.75
N14320 X245.316 Y122.735
N14325 X245.323 Y122.734
N14330 X245.421 Y122.717
N14335 X245.441 Y122.713
N14340 X245.6 Y122.676
N14345 X245.616 Y122.672
N14350 X245.751 Y122.634
N14355 X245.764 Y122.63
N14360 X245.862 Y122.599
N14365 X245.876 Y122.594
N14370 X245.974 Y122.558
N14375 X245.985 Y122.554
N14380 X246.114 Y122.502
N14385 X246.132 Y122.494
N14390 X246.18 Y122.472
N14395 X246.184 Y122.47
N14400 X246.299 Y122.415
N14405 X246.312 Y122.409
N14410 X246.409 Y122.358
N14415 X246.421 Y122.352
N14420 X246.47 Y122.324
N14425 X246.478 Y122.319
N14430 X246.567 Y122.266
N14435 X246.572 Y122.263
N14440 X246.629 Y122.228
N14445 X246.642 Y122.219
N14450 X246.74 Y122.153
N14455 X246.75 Y122.146
N14460 X246.879 Y122.052
N14465 X246.888 Y122.046
N14470 X246.921 Y122.021
N14475 X246.931 Y122.013
N14480 X247.061 Y121.905
N14485 X247.076 Y121.893
N14490 X247.174 Y121.804
N14495 X247.181 Y121.797
N14500 X247.279 Y121.703
N14505 X247.285 Y121.697
N14510 X247.36 Y121.621
N14515 X247.369 Y121.612
N14520 X247.459 Y121.514
N14525 X247.468 Y121.504
N14530 X247.596 Y121.355
N14535 X247.607 Y121.343
N14540 X247.72 Y121.198
N14545 X247.73 Y121.186
N14550 X247.856 Y121.011
N14555 X247.863 Y121.002
N14560 X247.943 Y120.883
N14565 X247.949 Y120.874
N14570 X248.02 Y120.763
N14575 X248.022 Y120.759
N14580 X248.074 Y120.675
N14585 X248.08 Y120.665
N14590 X248.137 Y120.568
N14595 X248.139 Y120.564
N14600 X248.194 Y120.466
N14605 X248.197 Y120.461
N14610 X248.277 Y120.314
N14615 X248.29 Y120.288
N14620 X248.301 Y120.263
N14625 X248.311 Y120.239
N14630 X248.32 Y120.215
N14635 X248.325 Y120.2
N14640 X250.687 Y112.82
N14645 X250.82 Y112.515
N14650 X250.862 Y112.427
N14655 X250.998 Y112.161
N14660 X251.029 Y112.104
N14665 X251.201 Y111.812
N14670 X251.242 Y111.75
N14675 X251.397 Y111.524
N14680 X251.432 Y111.476
N14685 X251.626 Y111.232
N14690 X251.704 Y111.145
N14695 X251.885 Y110.952
N14700 X251.911 Y110.926
N14705 X252.164 Y110.699
N14710 X252.2 Y110.67
N14715 X252.449 Y110.483
N14720 X252.46 Y110.476
N14725 X252.747 Y110.297
N14730 X252.789 Y110.274
N14735 X253.048 Y110.143
N14740 X253.131 Y110.106
N14745 X253.399 Y109.999
N14750 X253.447 Y109.981
N14755 X253.764 Y109.884
N14760 X253.829 Y109.868
N14765 X254.137 Y109.799
N14770 X254.16 Y109.794
N14775 X254.499 Y109.743
N14780 X254.585 Y109.734
N14785 X254.869 Y109.71
N14790 X254.956 Y109.705
N14795 X255.307 Y109.696
N14800 X255.719 Y109.707
N14805 X255.818 Y109.713
N14810 X256.128 Y109.739
N14815 X256.226 Y109.75
N14820 X256.545 Y109.797
N14825 X256.63 Y109.811
N14830 X256.961 Y109.883
N14835 X257.065 Y109.91
N14840 X257.3 Y109.979
N14845 X257.408 Y110.014
N14850 X257.619 Y110.093
N14855 X257.725 Y110.136
N14860 X258.004 Y110.267
N14865 X258.027 Y110.278
N14870 X258.305 Y110.438
N14875 X258.384 Y110.491
N14880 X258.57 Y110.621
N14885 X258.652 Y110.685
N14890 X258.822 Y110.826
N14895 X258.909 Y110.906
N14900 X259.052 Y111.046
N14905 X259.134 Y111.133
N14910 X259.276 Y111.298
N14915 X259.346 Y111.384
N14920 X259.537 Y111.646
N14925 X259.716 Y111.936
N14930 X259.774 Y112.045
N14935 X259.885 Y112.259
N14940 X259.935 Y112.366
N14945 X260.046 Y112.622
N14950 X260.083 Y112.713
N14955 X260.21 Y113.063
N14960 X260.324 Y113.45
N14965 X260.358 Y113.579
N14970 X260.443 Y113.943
N14975 X260.451 Y113.981
N14980 X260.534 Y114.433
N14985 X260.546 Y114.515
N14990 X260.584 Y114.801
N14995 X260.632 Y115.233
N15000 X260.649 Y115.42
N15005 X260.684 Y115.998
N15010 X260.687 Y116.063
N15015 X260.699 Y116.711
N15020 X260.686 Y117.296
N15025 X260.679 Y117.421
N15030 X260.645 Y117.877
N15035 X260.628 Y118.052
N15040 X260.561 Y118.567
N15045 X260.555 Y118.607
N15050 X260.53 Y118.746
N15055 X260.482 Y118.997
N15060 X260.461 Y119.099
N15065 X260.387 Y119.409
N15070 X260.37 Y119.473
N15075 X260.269 Y119.817
N15080 X260.236 Y119.914
N15085 X260.143 Y120.176
N15090 X260.114 Y120.252
N15095 X259.999 Y120.525
N15100 X259.975 Y120.581
N15105 X259.829 Y120.878
N15110 X259.774 Y120.978
N15115 X259.659 Y121.177
N15120 X259.597 Y121.277
N15125 X259.473 Y121.465
N15130 X259.412 Y121.553
N15135 X259.264 Y121.748
N15140 X259.22 Y121.805
N15145 X259.013 Y122.046
N15150 X258.878 Y122.184
N15155 X258.787 Y122.276
N15160 X258.699 Y122.359
N15165 X258.522 Y122.515
N15170 X258.461 Y122.566
N15175 X258.261 Y122.723
N15180 X258.182 Y122.782
N15185 X257.962 Y122.932
N15190 X257.864 Y122.994
N15195 X257.617 Y123.141
N15200 X257.504 Y123.202
N15205 X257.303 Y123.306
N15210 X257.203 Y123.354
N15215 X256.995 Y123.447
N15220 X256.973 Y123.455 Z-2.998
N15225 X256.951 Y123.459 Z-2.993
N15230 X256.929 Y123.46 Z-2.984
N15235 X256.909 Y123.458 Z-2.971
N15240 X256.892 Y123.454 Z-2.956
N15245 X256.877 Y123.449 Z-2.938
N15250 X256.866 Y123.444 Z-2.918
N15255 X256.858 Y123.44 Z-2.896
N15260 X256.854 Y123.437 Z-2.873
N15265 X256.852 Y123.436 Z-2.85
N15270 G0 Z5.
N15275 X225.507 Y110.826
N15280 Z0.25
N15285 G1 Y110.824 Z0.229 F700.
N15290 Y110.82 Z0.208
N15295 Y110.813 Z0.189
N15300 X225.506 Y110.803 Z0.17
N15305 Y110.79 Z0.153
N15310 Y110.776 Z0.138
N15315 Y110.759 Z0.125
N15320 X225.507 Y110.738 Z0.113
N15325 X225.509 Y110.715 Z0.105
N15330 G3 X226.928 Y110.851 Z-0.495 I0.709 J0.068
N15335 X225.509 Y110.715 Z-1.094 I-0.709 J-0.068
N15340 X226.634 Y110.204 Z-1.495 I0.709 J0.068
N15345 G1 X226.649 Y110.215 Z-1.499
N15350 X226.665 Y110.227 Z-1.5
N15355 G3 X225.871 Y111.215 I-0.397 J0.494
N15360 G1 X225.786 Y111.15
N15365 X225.697 Y111.091
N15370 G2 X225.29 Y110.932 I-0.626 J1.005
N15375 G1 X225.153 Y110.908
N15380 X225.083 Y110.899
N15385 X225.014 Y110.896
N15390 X218.544 Y110.898
N15395 G2 X217.939 Y111.109 I0.101 J1.261
N15400 X217.483 Y111.56 I0.956 J1.421
N15405 G3 X217.052 Y111.559 I-0.216 J-0.148
N15410 G2 X216.61 Y111.121 I-1.378 J0.945
N15415 X216.028 Y110.903 I-0.743 J1.097
N15420 G1 X208.082 Y110.898
N15425 G2 X207.539 Y111.035 I0.013 J1.198
N15430 X207.089 Y111.367 I0.846 J1.615
N15435 G3 X206.752 Y111.229 I-0.14 J-0.139
N15440 G1 Y110.908
N15445 G3 X206.997 Y110.663 I0.245 J0.
N15450 G1 X226.131
N15455 G3 X226.376 Y110.908 I0. J0.245
N15460 G1 Y111.229
N15465 G3 X226.037 Y111.366 I-0.197 J0.
N15470 G1 X225.956 Y111.288
N15475 X225.871 Y111.215
N15480 G2 X225.107 Y111.295 I-0.341 J0.425
N15485 G3 X224.414 Y111.625 I-0.694 J-0.566
N15490 G1 X218.657
N15495 X218.627 Y111.626
N15500 X218.602 Y111.628
N15505 X218.578 Y111.631
N15510 X218.553 Y111.635
N15515 X218.529 Y111.639
N15520 X218.504 Y111.644
N15525 X218.48 Y111.65
N15530 X218.455 Y111.657
N15535 X218.431 Y111.665
N15540 X218.407 Y111.674
N15545 X218.383 Y111.684
N15550 X218.358 Y111.695
N15555 X218.334 Y111.706
N15560 X218.31 Y111.719
N15565 X218.285 Y111.734
N15570 X218.26 Y111.75
N15575 X218.233 Y111.768
N15580 X218.205 Y111.79
N15585 X218.176 Y111.814
N15590 X218.148 Y111.841
N15595 X218.123 Y111.867
N15600 X218.101 Y111.891
N15605 X218.081 Y111.916
N15610 X218.062 Y111.942
N15615 X218.045 Y111.967
N15620 X218.03 Y111.991
N15625 X218.016 Y112.015
N15630 X218.004 Y112.039
N15635 X217.992 Y112.063
N15640 X217.982 Y112.087
N15645 X217.972 Y112.111
N15650 X217.963 Y112.135
N15655 X217.956 Y112.16
N15660 X217.949 Y112.184
N15665 X217.943 Y112.209
N15670 X217.938 Y112.233
N15675 X217.933 Y112.257
N15680 X217.93 Y112.282
N15685 X217.927 Y112.306
N15690 X217.925 Y112.331
N15695 X217.924 Y112.359
N15700 Y122.638
N15705 X216.611
N15710 Y112.359
N15715 X216.61 Y112.331
N15720 X216.608 Y112.306
N15725 X216.605 Y112.282
N15730 X216.602 Y112.257
N15735 X216.597 Y112.233
N15740 X216.592 Y112.209
N15745 X216.586 Y112.184
N15750 X216.579 Y112.16
N15755 X216.572 Y112.138
N15760 X216.566 Y112.119
N15765 X216.558 Y112.099
N15770 X216.55 Y112.079
N15775 X216.541 Y112.06
N15780 X216.532 Y112.04
N15785 X216.522 Y112.021
N15790 X216.511 Y112.001
N15795 X216.499 Y111.981
N15800 X216.487 Y111.962
N15805 X216.474 Y111.944
N15810 X216.463 Y111.927
N15815 X216.45 Y111.911
N15820 X216.437 Y111.895
N15825 X216.423 Y111.878
N15830 X216.408 Y111.862
N15835 X216.387 Y111.841
N15840 X216.36 Y111.815
N15845 X216.332 Y111.791
N15850 X216.301 Y111.768
N15855 X216.271 Y111.747
N15860 X216.243 Y111.73
N15865 X216.214 Y111.714
N15870 X216.186 Y111.699
N15875 X216.159 Y111.687
N15880 X216.135 Y111.677
N15885 X216.11 Y111.668
N15890 X216.086 Y111.659
N15895 X216.061 Y111.652
N15900 X216.037 Y111.646
N15905 X216.013 Y111.64
N15910 X215.988 Y111.636
N15915 X215.964 Y111.632
N15920 X215.939 Y111.629
N15925 X215.915 Y111.627
N15930 X215.89 Y111.625
N15935 X215.869
N15940 X208.192
N15945 X208.188
N15950 X208.09 Y111.626
N15955 X208.053 Y111.628
N15960 X208.029 Y111.631
N15965 X208.005 Y111.634
N15970 X207.98 Y111.638
N15975 X207.956 Y111.644
N15980 X207.931 Y111.65
N15985 X207.907 Y111.657
N15990 X207.882 Y111.664
N15995 X207.859 Y111.673
N16000 X207.838 Y111.681
N16005 X207.816 Y111.69
N16010 X207.795 Y111.7
N16015 X207.773 Y111.711
N16020 X207.752 Y111.723
N16025 X207.724 Y111.74
N16030 X207.691 Y111.762
N16035 X207.662 Y111.783
N16040 X207.637 Y111.804
N16045 X207.612 Y111.826
N16050 X207.587 Y111.85
N16055 X207.565 Y111.874
N16060 X207.545 Y111.896
N16065 X207.527 Y111.918
N16070 X207.511 Y111.941
N16075 X207.497 Y111.962
N16080 X207.485 Y111.98
N16085 X207.473 Y112.
N16090 X207.462 Y112.019
N16095 X207.452 Y112.039
N16100 X207.442 Y112.059
N16105 X207.434 Y112.079
N16110 X207.425 Y112.098
N16115 X207.418 Y112.118
N16120 X207.411 Y112.138
N16125 X207.404 Y112.16
N16130 X207.397 Y112.184
N16135 X207.391 Y112.209
N16140 X207.386 Y112.233
N16145 X207.382 Y112.258
N16150 X207.378 Y112.282
N16155 X207.376 Y112.307
N16160 X207.374 Y112.331
N16165 X207.373 Y112.359
N16170 Y124.298
N16175 X206.059
N16180 Y109.97
N16185 X227.069
N16190 Y123.627
N16195 X225.755
N16200 Y112.359
N16205 X225.754 Y112.331
N16210 X225.752 Y112.307
N16215 X225.75 Y112.282
N16220 X225.746 Y112.258
N16225 X225.742 Y112.233
N16230 X225.737 Y112.209
N16235 X225.731 Y112.184
N16240 X225.724 Y112.16
N16245 X225.716 Y112.136
N16250 X225.707 Y112.111
N16255 X225.698 Y112.087
N16260 X225.687 Y112.062
N16265 X225.675 Y112.038
N16270 X225.662 Y112.013
N16275 X225.648 Y111.989
N16280 X225.633 Y111.964
N16285 X225.621 Y111.946
N16290 X225.613 Y111.935
N16295 X225.599 Y111.916
N16300 X225.579 Y111.891
N16305 X225.556 Y111.866
N16310 X225.532 Y111.841
N16315 X225.509 Y111.819
N16320 X225.486 Y111.799
N16325 X225.46 Y111.778
N16330 X225.429 Y111.756
N16335 X225.401 Y111.738
N16340 X225.377 Y111.723
N16345 X225.352 Y111.71
N16350 X225.328 Y111.698
N16355 X225.303 Y111.686
N16360 X225.279 Y111.676
N16365 X225.254 Y111.667
N16370 X225.23 Y111.659
N16375 X225.205 Y111.652
N16380 X225.181 Y111.646
N16385 X225.156 Y111.64
N16390 X225.132 Y111.636
N16395 X225.108 Y111.632
N16400 X225.083 Y111.629
N16405 X225.059 Y111.627
N16410 X225.034 Y111.625
N16415 X225.014
N16420 X224.414
N16425 X224.393 Y111.619
N16430 X224.38 Y111.603
N16435 X224.377 Y111.582
N16440 X224.387 Y111.563
N16445 X224.495 Y111.447
N16450 X224.499 Y111.444
N16455 X225.643 Y110.49
N16460 X225.653 Y110.474
N16465 Y110.454
N16470 X225.634 Y110.4
N16475 X225.632 Y110.384
N16480 X225.638 Y110.37
N16485 X225.65 Y110.354 Z-1.501
N16490 X225.661 Y110.339 Z-1.505
N16495 G3 X226.776 Y111.227 Z-2.105 I0.557 J0.444
N16500 X225.661 Y110.339 Z-2.705 I-0.557 J-0.444
N16505 X226.634 Y110.204 Z-2.995 I0.557 J0.444
N16510 G1 X226.649 Y110.215 Z-2.999
N16515 X226.665 Y110.227 Z-3.
N16520 G3 X225.871 Y111.215 I-0.397 J0.494
N16525 G1 X225.786 Y111.15
N16530 X225.697 Y111.091
N16535 G2 X225.29 Y110.932 I-0.626 J1.005
N16540 G1 X225.153 Y110.908
N16545 X225.083 Y110.899
N16550 X225.014 Y110.896
N16555 X218.544 Y110.898
N16560 G2 X217.939 Y111.109 I0.101 J1.261
N16565 X217.483 Y111.56 I0.956 J1.421
N16570 G3 X217.052 Y111.559 I-0.216 J-0.148
N16575 G2 X216.61 Y111.121 I-1.378 J0.945
N16580 X216.028 Y110.903 I-0.743 J1.097
N16585 G1 X208.082 Y110.898
N16590 G2 X207.539 Y111.035 I0.013 J1.198
N16595 X207.089 Y111.367 I0.846 J1.615
N16600 G3 X206.752 Y111.229 I-0.14 J-0.139
N16605 G1 Y110.908
N16610 G3 X206.997 Y110.663 I0.245 J0.
N16615 G1 X226.131
N16620 G3 X226.376 Y110.908 I0. J0.245
N16625 G1 Y111.229
N16630 G3 X226.037 Y111.366 I-0.197 J0.
N16635 G1 X225.956 Y111.288
N16640 X225.871 Y111.215
N16645 G2 X225.107 Y111.295 I-0.341 J0.425
N16650 G3 X224.414 Y111.625 I-0.694 J-0.566
N16655 G1 X218.657
N16660 X218.627 Y111.626
N16665 X218.602 Y111.628
N16670 X218.578 Y111.631
N16675 X218.553 Y111.635
N16680 X218.529 Y111.639
N16685 X218.504 Y111.644
N16690 X218.48 Y111.65
N16695 X218.455 Y111.657
N16700 X218.431 Y111.665
N16705 X218.407 Y111.674
N16710 X218.383 Y111.684
N16715 X218.358 Y111.695
N16720 X218.334 Y111.706
N16725 X218.31 Y111.719
N16730 X218.285 Y111.734
N16735 X218.26 Y111.75
N16740 X218.233 Y111.768
N16745 X218.205 Y111.79
N16750 X218.176 Y111.814
N16755 X218.148 Y111.841
N16760 X218.123 Y111.867
N16765 X218.101 Y111.891
N16770 X218.081 Y111.916
N16775 X218.062 Y111.942
N16780 X218.045 Y111.967
N16785 X218.03 Y111.991
N16790 X218.016 Y112.015
N16795 X218.004 Y112.039
N16800 X217.992 Y112.063
N16805 X217.982 Y112.087
N16810 X217.972 Y112.111
N16815 X217.963 Y112.135
N16820 X217.956 Y112.16
N16825 X217.949 Y112.184
N16830 X217.943 Y112.209
N16835 X217.938 Y112.233
N16840 X217.933 Y112.257
N16845 X217.93 Y112.282
N16850 X217.927 Y112.306
N16855 X217.925 Y112.331
N16860 X217.924 Y112.359
N16865 Y122.638
N16870 X216.611
N16875 Y112.359
N16880 X216.61 Y112.331
N16885 X216.608 Y112.306
N16890 X216.605 Y112.282
N16895 X216.602 Y112.257
N16900 X216.597 Y112.233
N16905 X216.592 Y112.209
N16910 X216.586 Y112.184
N16915 X216.579 Y112.16
N16920 X216.572 Y112.138
N16925 X216.566 Y112.119
N16930 X216.558 Y112.099
N16935 X216.55 Y112.079
N16940 X216.541 Y112.06
N16945 X216.532 Y112.04
N16950 X216.522 Y112.021
N16955 X216.511 Y112.001
N16960 X216.499 Y111.981
N16965 X216.487 Y111.962
N16970 X216.474 Y111.944
N16975 X216.463 Y111.927
N16980 X216.45 Y111.911
N16985 X216.437 Y111.895
N16990 X216.423 Y111.878
N16995 X216.408 Y111.862
N17000 X216.387 Y111.841
N17005 X216.36 Y111.815
N17010 X216.332 Y111.791
N17015 X216.301 Y111.768
N17020 X216.271 Y111.747
N17025 X216.243 Y111.73
N17030 X216.214 Y111.714
N17035 X216.186 Y111.699
N17040 X216.159 Y111.687
N17045 X216.135 Y111.677
N17050 X216.11 Y111.668
N17055 X216.086 Y111.659
N17060 X216.061 Y111.652
N17065 X216.037 Y111.646
N17070 X216.013 Y111.64
N17075 X215.988 Y111.636
N17080 X215.964 Y111.632
N17085 X215.939 Y111.629
N17090 X215.915 Y111.627
N17095 X215.89 Y111.625
N17100 X215.869
N17105 X208.192
N17110 X208.188
N17115 X208.09 Y111.626
N17120 X208.053 Y111.628
N17125 X208.029 Y111.631
N17130 X208.005 Y111.634
N17135 X207.98 Y111.638
N17140 X207.956 Y111.644
N17145 X207.931 Y111.65
N17150 X207.907 Y111.657
N17155 X207.882 Y111.664
N17160 X207.859 Y111.673
N17165 X207.838 Y111.681
N17170 X207.816 Y111.69
N17175 X207.795 Y111.7
N17180 X207.773 Y111.711
N17185 X207.752 Y111.723
N17190 X207.724 Y111.74
N17195 X207.691 Y111.762
N17200 X207.662 Y111.783
N17205 X207.637 Y111.804
N17210 X207.612 Y111.826
N17215 X207.587 Y111.85
N17220 X207.565 Y111.874
N17225 X207.545 Y111.896
N17230 X207.527 Y111.918
N17235 X207.511 Y111.941
N17240 X207.497 Y111.962
N17245 X207.485 Y111.98
N17250 X207.473 Y112.
N17255 X207.462 Y112.019
N17260 X207.452 Y112.039
N17265 X207.442 Y112.059
N17270 X207.434 Y112.079
N17275 X207.425 Y112.098
N17280 X207.418 Y112.118
N17285 X207.411 Y112.138
N17290 X207.404 Y112.16
N17295 X207.397 Y112.184
N17300 X207.391 Y112.209
N17305 X207.386 Y112.233
N17310 X207.382 Y112.258
N17315 X207.378 Y112.282
N17320 X207.376 Y112.307
N17325 X207.374 Y112.331
N17330 X207.373 Y112.359
N17335 Y124.298
N17340 X206.059
N17345 Y109.97
N17350 X227.069
N17355 Y123.627
N17360 X225.755
N17365 Y112.359
N17370 X225.754 Y112.331
N17375 X225.752 Y112.307
N17380 X225.75 Y112.282
N17385 X225.746 Y112.258
N17390 X225.742 Y112.233
N17395 X225.737 Y112.209
N17400 X225.731 Y112.184
N17405 X225.724 Y112.16
N17410 X225.716 Y112.136
N17415 X225.707 Y112.111
N17420 X225.698 Y112.087
N17425 X225.687 Y112.062
N17430 X225.675 Y112.038
N17435 X225.662 Y112.013
N17440 X225.648 Y111.989
N17445 X225.633 Y111.964
N17450 X225.621 Y111.946
N17455 X225.613 Y111.935
N17460 X225.599 Y111.916
N17465 X225.579 Y111.891
N17470 X225.556 Y111.866
N17475 X225.532 Y111.841
N17480 X225.509 Y111.819
N17485 X225.486 Y111.799
N17490 X225.46 Y111.778
N17495 X225.429 Y111.756
N17500 X225.401 Y111.738
N17505 X225.377 Y111.723
N17510 X225.352 Y111.71
N17515 X225.328 Y111.698
N17520 X225.303 Y111.686
N17525 X225.279 Y111.676
N17530 X225.254 Y111.667
N17535 X225.23 Y111.659
N17540 X225.205 Y111.652
N17545 X225.181 Y111.646
N17550 X225.156 Y111.64
N17555 X225.132 Y111.636
N17560 X225.108 Y111.632
N17565 X225.083 Y111.629
N17570 X225.059 Y111.627
N17575 X225.034 Y111.625
N17580 X225.014
N17585 X224.414
N17590 X224.39 Y111.623 Z-2.998
N17595 X224.368 Y111.618 Z-2.993
N17600 X224.348 Y111.61 Z-2.984
N17605 X224.33 Y111.6 Z-2.971
N17610 X224.316 Y111.589 Z-2.956
N17615 X224.305 Y111.578 Z-2.938
N17620 X224.297 Y111.569 Z-2.918
N17625 X224.292 Y111.562 Z-2.896
N17630 X224.288 Y111.557 Z-2.873
N17635 X224.287 Y111.556 Z-2.85
N17640 G0 Z5.
N17645 X207.481 Y84.276
N17650 Z0.25
N17655 G1 Y84.277 Z0.229 F700.
N17660 X207.478 Y84.281 Z0.208
N17665 X207.474 Y84.287 Z0.189
N17670 X207.469 Y84.296 Z0.17
N17675 X207.462 Y84.306 Z0.153
N17680 X207.454 Y84.318 Z0.138
N17685 X207.444 Y84.331 Z0.125
N17690 X207.431 Y84.348 Z0.113
N17695 X207.416 Y84.366 Z0.105
N17700 G3 X206.334 Y83.439 Z-0.495 I-0.541 J-0.464
N17705 X207.416 Y84.366 Z-1.094 I0.541 J0.464
N17710 X206.202 Y84.137 Z-1.495 I-0.541 J-0.464
N17715 G1 X206.196 Y84.119 Z-1.499
N17720 X206.19 Y84.1 Z-1.5
N17725 G3 X207.398 Y83.751 I0.604 J-0.174
N17730 G2 X207.619 Y84.182 I1.214 J-0.35
N17735 X208.074 Y84.535 I0.939 J-0.739
N17740 X208.61 Y84.746 I2.799 J-6.329
N17745 G1 X226.122 Y90.71
N17750 G3 X226.344 Y91.021 I-0.107 J0.311
N17755 G1 Y91.121
N17760 G3 X225.937 Y91.405 I-0.302 J0.
N17765 G1 X206.807 Y84.307
N17770 G3 X206.52 Y83.894 I0.153 J-0.413
N17775 G1 Y82.794
N17780 G3 X206.807 Y82.382 I0.44 J0.
N17785 G1 X225.937 Y75.274
N17790 G3 X226.344 Y75.557 I0.105 J0.283
N17795 G1 Y75.675
N17800 G3 X226.124 Y75.985 I-0.329 J0.
N17805 G1 X208.092 Y82.25
N17810 G2 X207.398 Y83.751 I0.521 J1.151
N17815 X207.875 Y84.071 I0.428 J-0.124
N17820 G3 X208.445 Y84.135 I0.143 J1.299
N17825 G1 X208.782 Y84.251
N17830 X226.805 Y90.458
N17835 Y92.219
N17840 X206.059 Y84.521
N17845 Y82.168
N17850 X226.805 Y74.46
N17855 Y76.234
N17860 X208.459 Y82.669
N17865 X208.457 Y82.67
N17870 X208.359 Y82.705
N17875 X208.331 Y82.716
N17880 X208.307 Y82.727
N17885 X208.284 Y82.739
N17890 X208.26 Y82.751
N17895 X208.237 Y82.765
N17900 X208.213 Y82.78
N17905 X208.188 Y82.798
N17910 X208.16 Y82.819
N17915 X208.134 Y82.841
N17920 X208.108 Y82.865
N17925 X208.084 Y82.888
N17930 X208.063 Y82.912
N17935 X208.043 Y82.936
N17940 X208.025 Y82.96
N17945 X208.008 Y82.983
N17950 X207.992 Y83.007
N17955 X207.976 Y83.034
N17960 X207.96 Y83.065
N17965 X207.944 Y83.097
N17970 X207.93 Y83.131
N17975 X207.918 Y83.164
N17980 X207.907 Y83.198
N17985 X207.9 Y83.227
N17990 X207.894 Y83.251
N17995 X207.889 Y83.276
N18000 X207.885 Y83.3
N18005 X207.882 Y83.325
N18010 X207.88 Y83.349
N18015 X207.879 Y83.374
N18020 X207.878 Y83.398
N18025 Y83.423
N18030 X207.879 Y83.447
N18035 X207.881 Y83.471
N18040 X207.884 Y83.496
N18045 X207.887 Y83.52
N18050 X207.891 Y83.545
N18055 X207.896 Y83.569
N18060 X207.902 Y83.594
N18065 X207.91 Y83.621
N18070 X207.92 Y83.652
N18075 X207.932 Y83.683
N18080 X207.945 Y83.714
N18085 X207.956 Y83.738
N18090 X207.965 Y83.756
N18095 X207.975 Y83.774
N18100 X207.986 Y83.793
N18105 X207.999 Y83.813
N18110 X208.014 Y83.835
N18115 X208.03 Y83.858
N18120 X208.048 Y83.88
N18125 X208.068 Y83.903
N18130 X208.09 Y83.928
N18135 X208.113 Y83.95
N18140 X208.136 Y83.97
N18145 X208.163 Y83.993
N18150 X208.195 Y84.017
N18155 X208.222 Y84.036
N18160 X208.244 Y84.049
N18165 X208.266 Y84.062
N18170 X208.288 Y84.073
N18175 X208.31 Y84.084
N18180 X208.332 Y84.094
N18185 X208.363 Y84.106
N18190 X208.445 Y84.135
N18195 X208.458 Y84.144
N18200 X208.463 Y84.159
N18205 X208.459 Y84.174
N18210 X208.447 Y84.184
N18215 X208.346 Y84.225
N18220 X208.341 Y84.226
N18225 X207.17 Y84.472
N18230 X207.155 Y84.479
N18235 X207.147 Y84.493
N18240 X207.131 Y84.554
N18245 X207.124 Y84.566
N18250 X207.112 Y84.574
N18255 X207.094 Y84.58 Z-1.501
N18260 X207.075 Y84.586 Z-1.505
N18265 G3 X206.675 Y83.218 Z-2.105 I-0.2 J-0.684
N18270 X207.075 Y84.586 Z-2.705 I0.2 J0.684
N18275 X206.202 Y84.137 Z-2.995 I-0.2 J-0.684
N18280 G1 X206.196 Y84.119 Z-2.999
N18285 X206.19 Y84.1 Z-3.
N18290 G3 X207.398 Y83.751 I0.604 J-0.174
N18295 G2 X207.619 Y84.182 I1.214 J-0.35
N18300 X208.074 Y84.535 I0.939 J-0.739
N18305 X208.61 Y84.746 I2.799 J-6.329
N18310 G1 X226.122 Y90.71
N18315 G3 X226.344 Y91.021 I-0.107 J0.311
N18320 G1 Y91.121
N18325 G3 X225.937 Y91.405 I-0.302 J0.
N18330 G1 X206.807 Y84.307
N18335 G3 X206.52 Y83.894 I0.153 J-0.413
N18340 G1 Y82.794
N18345 G3 X206.807 Y82.382 I0.44 J0.
N18350 G1 X225.937 Y75.274
N18355 G3 X226.344 Y75.557 I0.105 J0.283
N18360 G1 Y75.675
N18365 G3 X226.124 Y75.985 I-0.329 J0.
N18370 G1 X208.092 Y82.25
N18375 G2 X207.398 Y83.751 I0.521 J1.151
N18380 X207.875 Y84.071 I0.428 J-0.124
N18385 G3 X208.445 Y84.135 I0.143 J1.299
N18390 G1 X208.782 Y84.251
N18395 X226.805 Y90.458
N18400 Y92.219
N18405 X206.059 Y84.521
N18410 Y82.168
N18415 X226.805 Y74.46
N18420 Y76.234
N18425 X208.459 Y82.669
N18430 X208.457 Y82.67
N18435 X208.359 Y82.705
N18440 X208.331 Y82.716
N18445 X208.307 Y82.727
N18450 X208.284 Y82.739
N18455 X208.26 Y82.751
N18460 X208.237 Y82.765
N18465 X208.213 Y82.78
N18470 X208.188 Y82.798
N18475 X208.16 Y82.819
N18480 X208.134 Y82.841
N18485 X208.108 Y82.865
N18490 X208.084 Y82.888
N18495 X208.063 Y82.912
N18500 X208.043 Y82.936
N18505 X208.025 Y82.96
N18510 X208.008 Y82.983
N18515 X207.992 Y83.007
N18520 X207.976 Y83.034
N18525 X207.96 Y83.065
N18530 X207.944 Y83.097
N18535 X207.93 Y83.131
N18540 X207.918 Y83.164
N18545 X207.907 Y83.198
N18550 X207.9 Y83.227
N18555 X207.894 Y83.251
N18560 X207.889 Y83.276
N18565 X207.885 Y83.3
N18570 X207.882 Y83.325
N18575 X207.88 Y83.349
N18580 X207.879 Y83.374
N18585 X207.878 Y83.398
N18590 Y83.423
N18595 X207.879 Y83.447
N18600 X207.881 Y83.471
N18605 X207.884 Y83.496
N18610 X207.887 Y83.52
N18615 X207.891 Y83.545
N18620 X207.896 Y83.569
N18625 X207.902 Y83.594
N18630 X207.91 Y83.621
N18635 X207.92 Y83.652
N18640 X207.932 Y83.683
N18645 X207.945 Y83.714
N18650 X207.956 Y83.738
N18655 X207.965 Y83.756
N18660 X207.975 Y83.774
N18665 X207.986 Y83.793
N18670 X207.999 Y83.813
N18675 X208.014 Y83.835
N18680 X208.03 Y83.858
N18685 X208.048 Y83.88
N18690 X208.068 Y83.903
N18695 X208.09 Y83.928
N18700 X208.113 Y83.95
N18705 X208.136 Y83.97
N18710 X208.163 Y83.993
N18715 X208.195 Y84.017
N18720 X208.222 Y84.036
N18725 X208.244 Y84.049
N18730 X208.266 Y84.062
N18735 X208.288 Y84.073
N18740 X208.31 Y84.084
N18745 X208.332 Y84.094
N18750 X208.363 Y84.106
N18755 X208.445 Y84.135
N18760 X208.467 Y84.144 Z-2.998
N18765 X208.486 Y84.156 Z-2.993
N18770 X208.503 Y84.171 Z-2.984
N18775 X208.516 Y84.186 Z-2.971
N18780 X208.526 Y84.201 Z-2.956
N18785 X208.533 Y84.214 Z-2.938
N18790 X208.537 Y84.225 Z-2.918
N18795 X208.54 Y84.234 Z-2.896
N18800 X208.542 Y84.239 Z-2.873
N18805 Y84.241 Z-2.85
N18810 G0 Z5.
N18815 X206.949 Y52.702
N18820 Z0.25
N18825 G1 X206.954 Z0.213 F700.
N18830 X206.967 Z0.179
N18835 X206.989 Z0.149
N18840 X207.006 Y52.703 Z0.132
N18845 X207.026 Y52.705 Z0.119
N18850 X207.047 Y52.711 Z0.109
N18855 X207.068 Y52.72 Z0.103
N18860 X207.089 Y52.731 Z0.1
N18865 X207.119 Y52.755 Z0.099
N18870 X207.144 Y52.785 Z0.097
N18875 X207.161 Y52.82 Z0.096
N18880 G2 X209.748 Y55.523 Z-0.03 I4.563 J-1.778
N18885 X213.352 Y56.528 Z-0.153 I5.28 J-11.969
N18890 X215.684 Y56.73 Z-0.23 I3.581 J-27.723
N18895 X218.894 Y56.696 Z-0.336 I1.274 J-31.064
N18900 X222.055 Y56.136 Z-0.442 I-0.886 J-14.209
N18905 X224.291 Y54.963 Z-0.525 I-1.855 J-6.255
N18910 X225.714 Y52.877 Z-0.609 I-2.728 J-3.388
N18915 G3 X225.952 Y52.702 Z-0.62 I0.238 J0.075
N18920 G1 X226.038 Z-0.623
N18925 G3 X226.277 Y53.026 Z-0.638 I0. J0.25
N18930 X224.227 Y55.572 Z-0.748 I-4.273 J-1.342
N18935 X221.171 Y56.732 Z-0.856 I-5.192 J-9.077
N18940 X217.239 Y57.148 Z-0.986 I-4.039 J-19.359
N18945 X213.291 Y56.926 Z-1.116 I-0.174 J-31.999
N18950 X210.495 Y56.342 Z-1.21 I1.926 J-16.216
N18955 X208.011 Y54.931 Z-1.305 I1.866 J-6.179
N18960 X207.234 Y54.024 Z-1.344 I3.294 J-3.611
N18965 X206.746 Y52.934 Z-1.383 I3.017 J-2.003
N18970 X206.926 Y52.702 Z-1.394 I0.179 J-0.047
N18975 G1 X206.989 Z-1.397
N18980 X207.033 Y52.707 Z-1.398
N18985 X207.074 Y52.723 Z-1.399
N18990 X207.111 Y52.748 Z-1.401
N18995 X207.14 Y52.781 Z-1.402
N19000 X207.161 Y52.82 Z-1.404
N19005 G2 X208.952 Y55.079 Z-1.5 I4.563 J-1.778
N19010 X209.748 Y55.523 I2.773 J-4.037
N19015 X213.352 Y56.528 I5.28 J-11.969
N19020 X215.684 Y56.73 I3.581 J-27.723
N19025 X218.894 Y56.696 I1.274 J-31.064
N19030 X222.055 Y56.136 I-0.886 J-14.209
N19035 X224.291 Y54.963 I-1.855 J-6.255
N19040 X225.714 Y52.877 I-2.728 J-3.388
N19045 G3 X225.952 Y52.702 I0.238 J0.075
N19050 G1 X226.038
N19055 G3 X226.277 Y53.026 I0. J0.25
N19060 X224.227 Y55.572 I-4.273 J-1.342
N19065 X221.171 Y56.732 I-5.192 J-9.077
N19070 X217.239 Y57.148 I-4.039 J-19.359
N19075 X213.291 Y56.926 I-0.174 J-31.999
N19080 X210.495 Y56.342 I1.926 J-16.216
N19085 X208.011 Y54.931 I1.866 J-6.179
N19090 X207.234 Y54.024 I3.294 J-3.611
N19095 X206.746 Y52.934 I3.017 J-2.003
N19100 X206.926 Y52.702 I0.179 J-0.047
N19105 G1 X206.989
N19110 X207.033 Y52.707
N19115 X207.074 Y52.723
N19120 X207.111 Y52.748
N19125 X207.14 Y52.781
N19130 X207.161 Y52.82
N19135 G2 X208.952 Y55.079 I4.563 J-1.778
N19140 X209.501 Y55.074 I0.271 J-0.394
N19145 G3 X210.048 Y55.028 I0.312 J0.435
N19150 G1 X210.114 Y55.061
N19155 X210.122 Y55.064
N19160 X210.186 Y55.094
N19165 X210.194 Y55.097
N19170 X210.448 Y55.208
N19175 X210.46 Y55.213
N19180 X210.548 Y55.248
N19185 X210.55 Y55.249
N19190 X210.697 Y55.306
N19195 X210.703 Y55.308
N19200 X210.801 Y55.344
N19205 X210.804 Y55.345
N19210 X210.948 Y55.396
N19215 X210.956 Y55.399
N19220 X211.106 Y55.449
N19225 X211.112 Y55.45
N19230 X211.381 Y55.534
N19235 X211.392 Y55.538
N19240 X211.615 Y55.6
N19245 X211.618 Y55.601
N19250 X211.713 Y55.626
N19255 X211.72 Y55.628
N19260 X212.013 Y55.701
N19265 X212.023 Y55.703
N19270 X212.316 Y55.769
N19275 X212.324 Y55.77
N19280 X212.617 Y55.829
N19285 X212.62 Y55.83
N19290 X212.718 Y55.848
N19295 X212.725 Y55.849
N19300 X213.026 Y55.902
N19305 X213.034 Y55.903
N19310 X213.417 Y55.961
N19315 X213.425 Y55.962
N19320 X213.816 Y56.013
N19325 X213.822
N19330 X214.042 Y56.038
N19335 X214.047 Y56.039
N19340 X214.218 Y56.056
N19345 X214.222 Y56.057
N19350 X214.416 Y56.074
N19355 X214.611 Y56.093
N19360 X214.62 Y56.094
N19365 X214.837 Y56.11
N19370 X214.908 Y56.116
N19375 X214.917
N19380 X215.111 Y56.128
N19385 X215.207 Y56.135
N19390 X215.215 Y56.136
N19395 X215.41 Y56.146
N19400 X215.411
N19405 X215.606 Y56.155
N19410 X215.702 Y56.16
N19415 X215.707
N19420 X215.903 Y56.168
N19425 X215.909 Y56.169
N19430 X216.594 Y56.185
N19435 X216.602
N19440 X217.189 Y56.187
N19445 X217.192
N19450 X217.338 Y56.186
N19455 X217.345
N19460 X217.784 Y56.176
N19465 X217.882 Y56.174
N19470 X217.889
N19475 X218.033 Y56.168
N19480 X218.08 Y56.167
N19485 X218.09
N19490 X218.284 Y56.156
N19495 X218.478 Y56.148
N19500 X218.487 Y56.147
N19505 X218.682 Y56.134
N19510 X218.877 Y56.121
N19515 X218.886 Y56.12
N19520 X218.981 Y56.112
N19525 X219.117 Y56.102
N19530 X219.128 Y56.101
N19535 X219.427 Y56.07
N19540 X219.572 Y56.056
N19545 X219.586 Y56.054
N19550 X219.63 Y56.049
N19555 X219.674 Y56.044
N19560 X219.686 Y56.042
N19565 X220.224 Y55.968
N19570 X220.229 Y55.967
N19575 X220.278 Y55.96
N19580 X220.285 Y55.959
N19585 X220.617 Y55.902
N19590 X220.625 Y55.9
N19595 X220.705 Y55.884
N19600 X220.726 Y55.881
N19605 X220.737 Y55.879
N19610 X220.982 Y55.828
N19615 X220.99 Y55.826
N19620 X221.283 Y55.759
N19625 X221.294 Y55.756
N19630 X221.588 Y55.68
N19635 X221.598 Y55.677
N19640 X221.667 Y55.657
N19645 X221.687 Y55.651
N19650 X221.701 Y55.647
N19655 X221.797 Y55.618
N19660 X221.893 Y55.589
N19665 X221.905 Y55.586
N19670 X222.153 Y55.503
N19675 X222.158 Y55.501
N19680 X222.203 Y55.486
N19685 X222.213 Y55.482
N19690 X222.506 Y55.371
N19695 X222.517 Y55.366
N19700 X222.549 Y55.353
N19705 X222.556 Y55.35
N19710 X222.573 Y55.343
N19715 X222.697 Y55.288
N19720 X222.817 Y55.236
N19725 X222.831 Y55.23
N19730 X222.91 Y55.191
N19735 X222.973 Y55.162
N19740 X222.988 Y55.154
N19745 X223.035 Y55.129
N19750 X223.13 Y55.081
N19755 X223.143 Y55.074
N19760 X223.256 Y55.01
N19765 X223.309 Y54.982
