%
(12MM_FLIP_PINS_CLOCK_1.5MM)
(T2  D=6. CR=0. - ZMIN=-12. - FLAT END MILL)
N10 G90 G94 G17 G91.1
N15 G21
(WHEN USING FUSION 360 FOR PERSONAL USE, THE FEEDRATE OF)
(RAPID MOVES IS REDUCED TO MATCH THE FEEDRATE OF CUTTING)
(MOVES, WHICH CAN INCREASE MACHINING TIME. UNRESTRICTED RAPID)
(MOVES ARE AVAILABLE WITH A FUSION 360 SUBSCRIPTION.)
(POCKET2)
N20 (T2 M6)
(FLAT END MILL D=6. HBM 4 S 6MM)
N25 S15000 M3
N30 M8
N35 G0 X1.135 Y239.244
N40 Z15.
N45 G1 Z1.6 F12000.
N50 Z1.227 F1800.
N55 X1.149 Y239.256 Z1.081 F2700.
N60 X1.188 Y239.293 Z0.944
N65 X1.245 Y239.355 Z0.824
N70 X1.312 Y239.444 Z0.728
N75 X1.347 Y239.5 Z0.695
N80 X1.378 Y239.558 Z0.662
N85 X1.407 Y239.624 Z0.646
N90 X1.432 Y239.691 Z0.63
N95 G3 X-0.47 Y240.309 Z0.33 I-0.951 J0.309
N100 X1.432 Y239.691 Z0.03 I0.951 J-0.309
N105 X-0.47 Y240.309 Z-0.27 I-0.951 J0.309
N110 X0.324 Y239.013 Z-0.435 I0.951 J-0.309
N115 X1.481 Y240. Z-0.6 I0.156 J0.988
N120 X-1.481 I-1.481 J0. F12000.
N125 X1.481 I1.481 J0.
N130 G2 X2.529 Y241.992 I2.415 J0.
N135 G3 X2.462 Y244.241 I-0.757 J1.103
N140 G1 X2.082 Y244.47
N145 X1.927 Y244.525
N150 X1.06 Y244.817
N155 X0.001 Y244.932
N160 X-1.065 Y244.815
N165 X-2.083 Y244.469
N170 X-2.97 Y243.936
N175 X-3.759 Y243.193
N180 X-4.363 Y242.298
N185 X-4.748 Y241.33
N190 X-4.925 Y240.268
N195 X-4.862 Y239.184
N200 X-4.585 Y238.186
N205 X-4.087 Y237.241
N210 X-3.392 Y236.419
N215 X-2.549 Y235.778
N220 X-2.486 Y235.747
N225 X-1.594 Y235.335
N230 X-0.531 Y235.097
N235 X0.533
N240 X1.573 Y235.325
N245 X2.54 Y235.772
N250 X3.383 Y236.412
N255 X4.088 Y237.243
N260 X4.585 Y238.186
N265 X4.862 Y239.184
N270 X4.924 Y240.255
N275 X4.891 Y240.476
N280 X4.755 Y241.307
N285 X4.356 Y242.312
N290 X3.759 Y243.193
N295 X2.985 Y243.927
N300 X2.462 Y244.241
N305 G3 X1.029 Y243.782 Z-0.714 I-0.516 J-0.857 F2700.
N310 G1 X-0.437 Y240.398 Z-0.962
N315 G3 X1.398 Y239.603 Z-1.173 I0.918 J-0.397
N320 X1.481 Y240. Z-1.2 I-0.918 J0.397
N325 X-1.481 I-1.481 J0. F12000.
N330 X1.481 I1.481 J0.
N335 G2 X2.529 Y241.992 I2.415 J0.
N340 G3 X2.462 Y244.241 I-0.757 J1.103
N345 G1 X2.082 Y244.47
N350 X1.927 Y244.525
N355 X1.06 Y244.817
N360 X0.001 Y244.932
N365 X-1.065 Y244.815
N370 X-2.083 Y244.469
N375 X-2.97 Y243.936
N380 X-3.759 Y243.193
N385 X-4.363 Y242.298
N390 X-4.748 Y241.33
N395 X-4.925 Y240.268
N400 X-4.862 Y239.184
N405 X-4.585 Y238.186
N410 X-4.087 Y237.241
N415 X-3.392 Y236.419
N420 X-2.549 Y235.778
N425 X-2.486 Y235.747
N430 X-1.594 Y235.335
N435 X-0.531 Y235.097
N440 X0.533
N445 X1.573 Y235.325
N450 X2.54 Y235.772
N455 X3.383 Y236.412
N460 X4.088 Y237.243
N465 X4.585 Y238.186
N470 X4.862 Y239.184
N475 X4.924 Y240.255
N480 X4.891 Y240.476
N485 X4.755 Y241.307
N490 X4.356 Y242.312
N495 X3.759 Y243.193
N500 X2.985 Y243.927
N505 X2.462 Y244.241
N510 G3 X1.029 Y243.782 Z-1.314 I-0.516 J-0.857 F2700.
N515 G1 X-0.437 Y240.398 Z-1.562
N520 G3 X1.398 Y239.603 Z-1.773 I0.918 J-0.397
N525 X1.481 Y240. Z-1.8 I-0.918 J0.397
N530 X-1.481 I-1.481 J0. F12000.
N535 X1.481 I1.481 J0.
N540 G2 X2.529 Y241.992 I2.415 J0.
N545 G3 X2.462 Y244.241 I-0.757 J1.103
N550 G1 X2.082 Y244.47
N555 X1.927 Y244.525
N560 X1.06 Y244.817
N565 X0.001 Y244.932
N570 X-1.065 Y244.815
N575 X-2.083 Y244.469
N580 X-2.97 Y243.936
N585 X-3.759 Y243.193
N590 X-4.363 Y242.298
N595 X-4.748 Y241.33
N600 X-4.925 Y240.268
N605 X-4.862 Y239.184
N610 X-4.585 Y238.186
N615 X-4.087 Y237.241
N620 X-3.392 Y236.419
N625 X-2.549 Y235.778
N630 X-2.486 Y235.747
N635 X-1.594 Y235.335
N640 X-0.531 Y235.097
N645 X0.533
N650 X1.573 Y235.325
N655 X2.54 Y235.772
N660 X3.383 Y236.412
N665 X4.088 Y237.243
N670 X4.585 Y238.186
N675 X4.862 Y239.184
N680 X4.924 Y240.255
N685 X4.891 Y240.476
N690 X4.755 Y241.307
N695 X4.356 Y242.312
N700 X3.759 Y243.193
N705 X2.985 Y243.927
N710 X2.462 Y244.241
N715 G3 X1.029 Y243.782 Z-1.914 I-0.516 J-0.857 F2700.
N720 G1 X-0.437 Y240.398 Z-2.162
N725 G3 X1.398 Y239.603 Z-2.373 I0.918 J-0.397
N730 X1.481 Y240. Z-2.4 I-0.918 J0.397
N735 X-1.481 I-1.481 J0. F12000.
N740 X1.481 I1.481 J0.
N745 G2 X2.529 Y241.992 I2.415 J0.
N750 G3 X2.462 Y244.241 I-0.757 J1.103
N755 G1 X2.082 Y244.47
N760 X1.927 Y244.525
N765 X1.06 Y244.817
N770 X0.001 Y244.932
N775 X-1.065 Y244.815
N780 X-2.083 Y244.469
N785 X-2.97 Y243.936
N790 X-3.759 Y243.193
N795 X-4.363 Y242.298
N800 X-4.748 Y241.33
N805 X-4.925 Y240.268
N810 X-4.862 Y239.184
N815 X-4.585 Y238.186
N820 X-4.087 Y237.241
N825 X-3.392 Y236.419
N830 X-2.549 Y235.778
N835 X-2.486 Y235.747
N840 X-1.594 Y235.335
N845 X-0.531 Y235.097
N850 X0.533
N855 X1.573 Y235.325
N860 X2.54 Y235.772
N865 X3.383 Y236.412
N870 X4.088 Y237.243
N875 X4.585 Y238.186
N880 X4.862 Y239.184
N885 X4.924 Y240.255
N890 X4.891 Y240.476
N895 X4.755 Y241.307
N900 X4.356 Y242.312
N905 X3.759 Y243.193
N910 X2.985 Y243.927
N915 X2.462 Y244.241
N920 G3 X1.029 Y243.782 Z-2.514 I-0.516 J-0.857 F2700.
N925 G1 X-0.437 Y240.398 Z-2.762
N930 G3 X1.398 Y239.603 Z-2.973 I0.918 J-0.397
N935 X1.481 Y240. Z-3. I-0.918 J0.397
N940 X-1.481 I-1.481 J0. F12000.
N945 X1.481 I1.481 J0.
N950 G2 X2.529 Y241.992 I2.415 J0.
N955 G3 X2.462 Y244.241 I-0.757 J1.103
N960 G1 X2.082 Y244.47
N965 X1.927 Y244.525
N970 X1.06 Y244.817
N975 X0.001 Y244.932
N980 X-1.065 Y244.815
N985 X-2.083 Y244.469
N990 X-2.97 Y243.936
N995 X-3.759 Y243.193
N1000 X-4.363 Y242.298
N1005 X-4.748 Y241.33
N1010 X-4.925 Y240.268
N1015 X-4.862 Y239.184
N1020 X-4.585 Y238.186
N1025 X-4.087 Y237.241
N1030 X-3.392 Y236.419
N1035 X-2.549 Y235.778
N1040 X-2.486 Y235.747
N1045 X-1.594 Y235.335
N1050 X-0.531 Y235.097
N1055 X0.533
N1060 X1.573 Y235.325
N1065 X2.54 Y235.772
N1070 X3.383 Y236.412
N1075 X4.088 Y237.243
N1080 X4.585 Y238.186
N1085 X4.862 Y239.184
N1090 X4.924 Y240.255
N1095 X4.891 Y240.476
N1100 X4.755 Y241.307
N1105 X4.356 Y242.312
N1110 X3.759 Y243.193
N1115 X2.985 Y243.927
N1120 X2.462 Y244.241
N1125 G3 X1.029 Y243.782 Z-3.114 I-0.516 J-0.857 F2700.
N1130 G1 X-0.437 Y240.398 Z-3.362
N1135 G3 X1.398 Y239.603 Z-3.573 I0.918 J-0.397
N1140 X1.481 Y240. Z-3.6 I-0.918 J0.397
N1145 X-1.481 I-1.481 J0. F12000.
N1150 X1.481 I1.481 J0.
N1155 G2 X2.529 Y241.992 I2.415 J0.
N1160 G3 X2.462 Y244.241 I-0.757 J1.103
N1165 G1 X2.082 Y244.47
N1170 X1.927 Y244.525
N1175 X1.06 Y244.817
N1180 X0.001 Y244.932
N1185 X-1.065 Y244.815
N1190 X-2.083 Y244.469
N1195 X-2.97 Y243.936
N1200 X-3.759 Y243.193
N1205 X-4.363 Y242.298
N1210 X-4.748 Y241.33
N1215 X-4.925 Y240.268
N1220 X-4.862 Y239.184
N1225 X-4.585 Y238.186
N1230 X-4.087 Y237.241
N1235 X-3.392 Y236.419
N1240 X-2.549 Y235.778
N1245 X-2.486 Y235.747
N1250 X-1.594 Y235.335
N1255 X-0.531 Y235.097
N1260 X0.533
N1265 X1.573 Y235.325
N1270 X2.54 Y235.772
N1275 X3.383 Y236.412
N1280 X4.088 Y237.243
N1285 X4.585 Y238.186
N1290 X4.862 Y239.184
N1295 X4.924 Y240.255
N1300 X4.891 Y240.476
N1305 X4.755 Y241.307
N1310 X4.356 Y242.312
N1315 X3.759 Y243.193
N1320 X2.985 Y243.927
N1325 X2.462 Y244.241
N1330 G3 X1.029 Y243.782 Z-3.714 I-0.516 J-0.857 F2700.
N1335 G1 X-0.437 Y240.398 Z-3.962
N1340 G3 X1.398 Y239.603 Z-4.173 I0.918 J-0.397
N1345 X1.481 Y240. Z-4.2 I-0.918 J0.397
N1350 X-1.481 I-1.481 J0. F12000.
N1355 X1.481 I1.481 J0.
N1360 G2 X2.529 Y241.992 I2.415 J0.
N1365 G3 X2.462 Y244.241 I-0.757 J1.103
N1370 G1 X2.082 Y244.47
N1375 X1.927 Y244.525
N1380 X1.06 Y244.817
N1385 X0.001 Y244.932
N1390 X-1.065 Y244.815
N1395 X-2.083 Y244.469
N1400 X-2.97 Y243.936
N1405 X-3.759 Y243.193
N1410 X-4.363 Y242.298
N1415 X-4.748 Y241.33
N1420 X-4.925 Y240.268
N1425 X-4.862 Y239.184
N1430 X-4.585 Y238.186
N1435 X-4.087 Y237.241
N1440 X-3.392 Y236.419
N1445 X-2.549 Y235.778
N1450 X-2.486 Y235.747
N1455 X-1.594 Y235.335
N1460 X-0.531 Y235.097
N1465 X0.533
N1470 X1.573 Y235.325
N1475 X2.54 Y235.772
N1480 X3.383 Y236.412
N1485 X4.088 Y237.243
N1490 X4.585 Y238.186
N1495 X4.862 Y239.184
N1500 X4.924 Y240.255
N1505 X4.891 Y240.476
N1510 X4.755 Y241.307
N1515 X4.356 Y242.312
N1520 X3.759 Y243.193
N1525 X2.985 Y243.927
N1530 X2.462 Y244.241
N1535 G3 X1.029 Y243.782 Z-4.295 I-0.516 J-0.857 F2700.
N1540 G1 X-0.437 Y240.398 Z-4.501
N1545 G3 X1.398 Y239.603 Z-4.677 I0.918 J-0.397
N1550 X1.481 Y240. Z-4.7 I-0.918 J0.397
N1555 X-1.481 I-1.481 J0. F12000.
N1560 X1.481 I1.481 J0.
N1565 G2 X2.529 Y241.992 I2.415 J0.
N1570 G3 X2.462 Y244.241 I-0.757 J1.103
N1575 G1 X2.082 Y244.47
N1580 X1.927 Y244.525
N1585 X1.06 Y244.817
N1590 X0.001 Y244.932
N1595 X-1.065 Y244.815
N1600 X-2.083 Y244.469
N1605 X-2.97 Y243.936
N1610 X-3.759 Y243.193
N1615 X-4.363 Y242.298
N1620 X-4.748 Y241.33
N1625 X-4.925 Y240.268
N1630 X-4.862 Y239.184
N1635 X-4.585 Y238.186
N1640 X-4.087 Y237.241
N1645 X-3.392 Y236.419
N1650 X-2.549 Y235.778
N1655 X-2.486 Y235.747
N1660 X-1.594 Y235.335
N1665 X-0.531 Y235.097
N1670 X0.533
N1675 X1.573 Y235.325
N1680 X2.54 Y235.772
N1685 X3.383 Y236.412
N1690 X4.088 Y237.243
N1695 X4.585 Y238.186
N1700 X4.862 Y239.184
N1705 X4.924 Y240.255
N1710 X4.891 Y240.476
N1715 X4.755 Y241.307
N1720 X4.356 Y242.312
N1725 X3.759 Y243.193
N1730 X2.985 Y243.927
N1735 X2.462 Y244.241
N1740 G3 X2.023 Y244.08 I-0.155 J-0.257
N1745 G1 X0.908 Y240.769
N1750 G2 X0.529 Y240.572 I-0.287 J0.089
N1755 G1 X-0.061 Y240.763
N1760 X-0.122 Y240.775
N1765 X-0.184
N1770 X-0.245 Y240.763
N1775 G3 X0.245 Y239.239 Z-5.143 I0.245 J-0.762 F2700.
N1780 X0.791 Y239.881 Z-5.3 I-0.245 J0.762
N1785 G1 X0.811 Y240.01 F12000.
N1790 X0.774 Y240.243
N1795 X0.655 Y240.48
N1800 X0.478 Y240.657
N1805 X0.252 Y240.772
N1810 X-0.001 Y240.813
N1815 X-0.251 Y240.773
N1820 X-0.47 Y240.661
N1825 X-0.656 Y240.477
N1830 X-0.774 Y240.243
N1835 X-0.811 Y240.01
N1840 X-0.771 Y239.745
N1845 X-0.657 Y239.522
N1850 X-0.478 Y239.343
N1855 X-0.251 Y239.227
N1860 X-0.001 Y239.187
N1865 X0.252 Y239.228
N1870 X0.478 Y239.343
N1875 X0.654 Y239.519
N1880 X0.771 Y239.747
N1885 X0.791 Y239.881
N1890 G3 X0.689 Y240.154 I-0.297 J0.045
N1895 G1 X0.041 Y240.706
N1900 G3 X-0.245 Y240.763 I-0.194 J-0.228
N1905 X0.245 Y239.239 Z-5.743 I0.245 J-0.762 F2700.
N1910 X0.791 Y239.881 Z-5.9 I-0.245 J0.762
N1915 G1 X0.811 Y240.01 F12000.
N1920 X0.774 Y240.243
N1925 X0.655 Y240.48
N1930 X0.478 Y240.657
N1935 X0.252 Y240.772
N1940 X-0.001 Y240.813
N1945 X-0.251 Y240.773
N1950 X-0.47 Y240.661
N1955 X-0.656 Y240.477
N1960 X-0.774 Y240.243
N1965 X-0.811 Y240.01
N1970 X-0.771 Y239.745
N1975 X-0.657 Y239.522
N1980 X-0.478 Y239.343
N1985 X-0.251 Y239.227
N1990 X-0.001 Y239.187
N1995 X0.252 Y239.228
N2000 X0.478 Y239.343
N2005 X0.654 Y239.519
N2010 X0.771 Y239.747
N2015 X0.791 Y239.881
N2020 X0.792 Y239.917
N2025 X0.781 Y239.951
N2030 X0.762 Y239.981
N2035 X0.734 Y240.004
N2040 X0.701 Y240.018
N2045 X0.196 Y240.149
N2050 X0.163 Y240.163
N2055 X0.135 Y240.187
N2060 X0.115 Y240.218
N2065 X-0.095 Y240.695
N2070 X-0.114 Y240.726
N2075 X-0.141 Y240.749
N2080 X-0.174 Y240.764
N2085 X-0.21 Y240.769
N2090 X-0.245 Y240.763
N2095 G3 X0.245 Y239.239 Z-6.343 I0.245 J-0.762 F2700.
N2100 X0.791 Y239.881 Z-6.5 I-0.245 J0.762
N2105 G1 X0.811 Y240.01 F12000.
N2110 X0.774 Y240.243
N2115 X0.655 Y240.48
N2120 X0.478 Y240.657
N2125 X0.252 Y240.772
N2130 X-0.001 Y240.813
N2135 X-0.251 Y240.773
N2140 X-0.47 Y240.661
N2145 X-0.656 Y240.477
N2150 X-0.774 Y240.243
N2155 X-0.811 Y240.01
N2160 X-0.771 Y239.745
N2165 X-0.657 Y239.522
N2170 X-0.478 Y239.343
N2175 X-0.251 Y239.227
N2180 X-0.001 Y239.187
N2185 X0.252 Y239.228
N2190 X0.478 Y239.343
N2195 X0.654 Y239.519
N2200 X0.771 Y239.747
N2205 X0.791 Y239.881
N2210 X0.792 Y239.917
N2215 X0.781 Y239.951
N2220 X0.762 Y239.981
N2225 X0.734 Y240.004
N2230 X0.701 Y240.018
N2235 X0.196 Y240.149
N2240 X0.163 Y240.163
N2245 X0.135 Y240.187
N2250 X0.115 Y240.218
N2255 X-0.095 Y240.695
N2260 X-0.114 Y240.726
N2265 X-0.141 Y240.749
N2270 X-0.174 Y240.764
N2275 X-0.21 Y240.769
N2280 X-0.245 Y240.763
N2285 G3 X0.245 Y239.239 Z-6.943 I0.245 J-0.762 F2700.
N2290 X0.791 Y239.881 Z-7.1 I-0.245 J0.762
N2295 G1 X0.811 Y240.01 F12000.
N2300 X0.774 Y240.243
N2305 X0.655 Y240.48
N2310 X0.478 Y240.657
N2315 X0.252 Y240.772
N2320 X-0.001 Y240.813
N2325 X-0.251 Y240.773
N2330 X-0.47 Y240.661
N2335 X-0.656 Y240.477
N2340 X-0.774 Y240.243
N2345 X-0.811 Y240.01
N2350 X-0.771 Y239.745
N2355 X-0.657 Y239.522
N2360 X-0.478 Y239.343
N2365 X-0.251 Y239.227
N2370 X-0.001 Y239.187
N2375 X0.252 Y239.228
N2380 X0.478 Y239.343
N2385 X0.654 Y239.519
N2390 X0.771 Y239.747
N2395 X0.791 Y239.881
N2400 X0.792 Y239.917
N2405 X0.781 Y239.951
N2410 X0.762 Y239.981
N2415 X0.734 Y240.004
N2420 X0.701 Y240.018
N2425 X0.196 Y240.149
N2430 X0.163 Y240.163
N2435 X0.135 Y240.187
N2440 X0.115 Y240.218
N2445 X-0.095 Y240.695
N2450 X-0.114 Y240.726
N2455 X-0.141 Y240.749
N2460 X-0.174 Y240.764
N2465 X-0.21 Y240.769
N2470 X-0.245 Y240.763
N2475 G3 X0.245 Y239.239 Z-7.543 I0.245 J-0.762 F2700.
N2480 X0.791 Y239.881 Z-7.7 I-0.245 J0.762
N2485 G1 X0.811 Y240.01 F12000.
N2490 X0.774 Y240.243
N2495 X0.655 Y240.48
N2500 X0.478 Y240.657
N2505 X0.252 Y240.772
N2510 X-0.001 Y240.813
N2515 X-0.251 Y240.773
N2520 X-0.47 Y240.661
N2525 X-0.656 Y240.477
N2530 X-0.774 Y240.243
N2535 X-0.811 Y240.01
N2540 X-0.771 Y239.745
N2545 X-0.657 Y239.522
N2550 X-0.478 Y239.343
N2555 X-0.251 Y239.227
N2560 X-0.001 Y239.187
N2565 X0.252 Y239.228
N2570 X0.478 Y239.343
N2575 X0.654 Y239.519
N2580 X0.771 Y239.747
N2585 X0.791 Y239.881
N2590 X0.792 Y239.917
N2595 X0.781 Y239.951
N2600 X0.762 Y239.981
N2605 X0.734 Y240.004
N2610 X0.701 Y240.018
N2615 X0.196 Y240.149
N2620 X0.163 Y240.163
N2625 X0.135 Y240.187
N2630 X0.115 Y240.218
N2635 X-0.095 Y240.695
N2640 X-0.114 Y240.726
N2645 X-0.141 Y240.749
N2650 X-0.174 Y240.764
N2655 X-0.21 Y240.769
N2660 X-0.245 Y240.763
N2665 G3 X0.245 Y239.239 Z-8.143 I0.245 J-0.762 F2700.
N2670 X0.791 Y239.881 Z-8.3 I-0.245 J0.762
N2675 G1 X0.811 Y240.01 F12000.
N2680 X0.774 Y240.243
N2685 X0.655 Y240.48
N2690 X0.478 Y240.657
N2695 X0.252 Y240.772
N2700 X-0.001 Y240.813
N2705 X-0.251 Y240.773
N2710 X-0.47 Y240.661
N2715 X-0.656 Y240.477
N2720 X-0.774 Y240.243
N2725 X-0.811 Y240.01
N2730 X-0.771 Y239.745
N2735 X-0.657 Y239.522
N2740 X-0.478 Y239.343
N2745 X-0.251 Y239.227
N2750 X-0.001 Y239.187
N2755 X0.252 Y239.228
N2760 X0.478 Y239.343
N2765 X0.654 Y239.519
N2770 X0.771 Y239.747
N2775 X0.791 Y239.881
N2780 G3 X0.689 Y240.154 I-0.297 J0.045
N2785 G1 X0.041 Y240.706
N2790 G3 X-0.245 Y240.763 I-0.194 J-0.228
N2795 X0.245 Y239.239 Z-8.743 I0.245 J-0.762 F2700.
N2800 X0.791 Y239.881 Z-8.9 I-0.245 J0.762
N2805 G1 X0.811 Y240.01 F12000.
N2810 X0.774 Y240.243
N2815 X0.655 Y240.48
N2820 X0.478 Y240.657
N2825 X0.252 Y240.772
N2830 X-0.001 Y240.813
N2835 X-0.251 Y240.773
N2840 X-0.47 Y240.661
N2845 X-0.656 Y240.477
N2850 X-0.774 Y240.243
N2855 X-0.811 Y240.01
N2860 X-0.771 Y239.745
N2865 X-0.657 Y239.522
N2870 X-0.478 Y239.343
N2875 X-0.251 Y239.227
N2880 X-0.001 Y239.187
N2885 X0.252 Y239.228
N2890 X0.478 Y239.343
N2895 X0.654 Y239.519
N2900 X0.771 Y239.747
N2905 X0.791 Y239.881
N2910 X0.792 Y239.917
N2915 X0.781 Y239.951
N2920 X0.762 Y239.981
N2925 X0.734 Y240.004
N2930 X0.701 Y240.018
N2935 X0.196 Y240.149
N2940 X0.163 Y240.163
N2945 X0.135 Y240.187
N2950 X0.115 Y240.218
N2955 X-0.095 Y240.695
N2960 X-0.114 Y240.726
N2965 X-0.141 Y240.749
N2970 X-0.174 Y240.764
N2975 X-0.21 Y240.769
N2980 X-0.245 Y240.763
N2985 G3 X0.245 Y239.239 Z-9.343 I0.245 J-0.762 F2700.
N2990 X0.791 Y239.881 Z-9.5 I-0.245 J0.762
N2995 G1 X0.811 Y240.01 F12000.
N3000 X0.774 Y240.243
N3005 X0.655 Y240.48
N3010 X0.478 Y240.657
N3015 X0.252 Y240.772
N3020 X-0.001 Y240.813
N3025 X-0.251 Y240.773
N3030 X-0.47 Y240.661
N3035 X-0.656 Y240.477
N3040 X-0.774 Y240.243
N3045 X-0.811 Y240.01
N3050 X-0.771 Y239.745
N3055 X-0.657 Y239.522
N3060 X-0.478 Y239.343
N3065 X-0.251 Y239.227
N3070 X-0.001 Y239.187
N3075 X0.252 Y239.228
N3080 X0.478 Y239.343
N3085 X0.654 Y239.519
N3090 X0.771 Y239.747
N3095 X0.791 Y239.881
N3100 G3 X0.689 Y240.154 I-0.297 J0.045
N3105 G1 X0.041 Y240.706
N3110 G3 X-0.245 Y240.763 I-0.194 J-0.228
N3115 X0.245 Y239.239 Z-9.943 I0.245 J-0.762 F2700.
N3120 X0.791 Y239.881 Z-10.1 I-0.245 J0.762
N3125 G1 X0.811 Y240.01 F12000.
N3130 X0.774 Y240.243
N3135 X0.655 Y240.48
N3140 X0.478 Y240.657
N3145 X0.252 Y240.772
N3150 X-0.001 Y240.813
N3155 X-0.251 Y240.773
N3160 X-0.47 Y240.661
N3165 X-0.656 Y240.477
N3170 X-0.774 Y240.243
N3175 X-0.811 Y240.01
N3180 X-0.771 Y239.745
N3185 X-0.657 Y239.522
N3190 X-0.478 Y239.343
N3195 X-0.251 Y239.227
N3200 X-0.001 Y239.187
N3205 X0.252 Y239.228
N3210 X0.478 Y239.343
N3215 X0.654 Y239.519
N3220 X0.771 Y239.747
N3225 X0.791 Y239.881
N3230 X0.792 Y239.917
N3235 X0.781 Y239.951
N3240 X0.762 Y239.981
N3245 X0.734 Y240.004
N3250 X0.701 Y240.018
N3255 X0.196 Y240.149
N3260 X0.163 Y240.163
N3265 X0.135 Y240.187
N3270 X0.115 Y240.218
N3275 X-0.095 Y240.695
N3280 X-0.114 Y240.726
N3285 X-0.141 Y240.749
N3290 X-0.174 Y240.764
N3295 X-0.21 Y240.769
N3300 X-0.245 Y240.763
N3305 G3 X0.245 Y239.239 Z-10.543 I0.245 J-0.762 F2700.
N3310 X0.791 Y239.881 Z-10.7 I-0.245 J0.762
N3315 G1 X0.811 Y240.01 F12000.
N3320 X0.774 Y240.243
N3325 X0.655 Y240.48
N3330 X0.478 Y240.657
N3335 X0.252 Y240.772
N3340 X-0.001 Y240.813
N3345 X-0.251 Y240.773
N3350 X-0.47 Y240.661
N3355 X-0.656 Y240.477
N3360 X-0.774 Y240.243
N3365 X-0.811 Y240.01
N3370 X-0.771 Y239.745
N3375 X-0.657 Y239.522
N3380 X-0.478 Y239.343
N3385 X-0.251 Y239.227
N3390 X-0.001 Y239.187
N3395 X0.252 Y239.228
N3400 X0.478 Y239.343
N3405 X0.654 Y239.519
N3410 X0.771 Y239.747
N3415 X0.791 Y239.881
N3420 X0.792 Y239.917
N3425 X0.781 Y239.951
N3430 X0.762 Y239.981
N3435 X0.734 Y240.004
N3440 X0.701 Y240.018
N3445 X0.196 Y240.149
N3450 X0.163 Y240.163
N3455 X0.135 Y240.187
N3460 X0.115 Y240.218
N3465 X-0.095 Y240.695
N3470 X-0.114 Y240.726
N3475 X-0.141 Y240.749
N3480 X-0.174 Y240.764
N3485 X-0.21 Y240.769
N3490 X-0.245 Y240.763
N3495 G3 X0.245 Y239.239 Z-11.143 I0.245 J-0.762 F2700.
N3500 X0.791 Y239.881 Z-11.3 I-0.245 J0.762
N3505 G1 X0.811 Y240.01 F12000.
N3510 X0.774 Y240.243
N3515 X0.655 Y240.48
N3520 X0.478 Y240.657
N3525 X0.252 Y240.772
N3530 X-0.001 Y240.813
N3535 X-0.251 Y240.773
N3540 X-0.47 Y240.661
N3545 X-0.656 Y240.477
N3550 X-0.774 Y240.243
N3555 X-0.811 Y240.01
N3560 X-0.771 Y239.745
N3565 X-0.657 Y239.522
N3570 X-0.478 Y239.343
N3575 X-0.251 Y239.227
N3580 X-0.001 Y239.187
N3585 X0.252 Y239.228
N3590 X0.478 Y239.343
N3595 X0.654 Y239.519
N3600 X0.771 Y239.747
N3605 X0.791 Y239.881
N3610 G3 X0.441 Y240.221 I-0.297 J0.045
N3615 G1 X-0.49 Y240.051
N3620 G3 X-0.698 Y239.609 I0.054 J-0.295
N3625 X0.791 Y239.881 Z-11.65 I0.698 J0.392 F2700.
N3630 G1 X0.811 Y240.01 F12000.
N3635 X0.774 Y240.243
N3640 X0.655 Y240.48
N3645 X0.478 Y240.657
N3650 X0.252 Y240.772
N3655 X-0.001 Y240.813
N3660 X-0.251 Y240.773
N3665 X-0.47 Y240.661
N3670 X-0.656 Y240.477
N3675 X-0.774 Y240.243
N3680 X-0.811 Y240.01
N3685 X-0.771 Y239.745
N3690 X-0.657 Y239.522
N3695 X-0.478 Y239.343
N3700 X-0.251 Y239.227
N3705 X-0.001 Y239.187
N3710 X0.252 Y239.228
N3715 X0.478 Y239.343
N3720 X0.654 Y239.519
N3725 X0.771 Y239.747
N3730 X0.791 Y239.881
N3735 Y239.923
N3740 X0.777 Y239.963
N3745 X0.75 Y239.997
N3750 X0.714 Y240.02
N3755 X0.673 Y240.03
N3760 X0.631 Y240.026
N3765 X0.024 Y239.869
N3770 X-0.599 Y239.801
N3775 X-0.64 Y239.79
N3780 X-0.675 Y239.766
N3785 X-0.7 Y239.732
N3790 X-0.713 Y239.691
N3795 X-0.712 Y239.649
N3800 X-0.698 Y239.609
N3805 G3 X0.791 Y239.881 Z-12. I0.698 J0.392 F2700.
N3810 G1 X0.811 Y240.01 F12000.
N3815 X0.774 Y240.243
N3820 X0.655 Y240.48
N3825 X0.478 Y240.657
N3830 X0.252 Y240.772
N3835 X-0.001 Y240.813
N3840 X-0.251 Y240.773
N3845 X-0.47 Y240.661
N3850 X-0.656 Y240.477
N3855 X-0.774 Y240.243
N3860 X-0.811 Y240.01
N3865 X-0.771 Y239.745
N3870 X-0.657 Y239.522
N3875 X-0.478 Y239.343
N3880 X-0.251 Y239.227
N3885 X-0.001 Y239.187
N3890 X0.252 Y239.228
N3895 X0.478 Y239.343
N3900 X0.654 Y239.519
N3905 X0.771 Y239.747
N3910 X0.791 Y239.881
N3915 X0.798 Y239.947 Z-11.992
N3920 X0.797 Y240.014 Z-11.985
N3925 X0.789 Y240.077 Z-11.963
N3930 X0.774 Y240.139 Z-11.941
N3935 X0.756 Y240.192 Z-11.905
N3940 X0.732 Y240.244 Z-11.869
N3945 X0.682 Y240.325 Z-11.774
N3950 X0.637 Y240.38 Z-11.66
N3955 X0.605 Y240.411 Z-11.534
N3960 X0.594 Y240.421 Z-11.4
N3965 F10001 Z5.
N3970 X1.136 Y-0.754
N3975 F12000 Z1.227
N3980 X1.149 Y-0.742 Z1.081 F2700.
N3985 X1.188 Y-0.706 Z0.944
N3990 X1.245 Y-0.643 Z0.824
N3995 X1.313 Y-0.554 Z0.728
N4000 X1.347 Y-0.498 Z0.695
N4005 X1.378 Y-0.44 Z0.662
N4010 X1.408 Y-0.375 Z0.646
N4015 X1.432 Y-0.307 Z0.63
N4020 G3 X-0.47 Y0.311 Z0.33 I-0.951 J0.309
N4025 X1.432 Y-0.307 Z0.03 I0.951 J-0.309
N4030 X-0.47 Y0.311 Z-0.27 I-0.951 J0.309
N4035 X1.432 Y-0.307 Z-0.57 I0.951 J-0.309
N4040 X1.481 Y0.002 Z-0.6 I-0.951 J0.309
N4045 X-1.481 I-1.481 J0. F12000.
N4050 X1.481 I1.481 J0.
N4055 G2 X2.53 Y1.992 I2.412 J0.
N4060 G3 X2.464 Y4.24 I-0.756 J1.103
N4065 G1 X2.088 Y4.466
N4070 X1.566 Y4.647
N4075 X1.07 Y4.814
N4080 X1. Y4.824
N4085 X0. Y4.932
N4090 X-1.04 Y4.819
N4095 X-1.577 Y4.643
N4100 X-2.069 Y4.477
N4105 X-2.08 Y4.471
N4110 X-2.985 Y3.927
N4115 X-3.759 Y3.193
N4120 X-4.357 Y2.311
N4125 X-4.754 Y1.309
N4130 X-4.922 Y0.285
N4135 X-4.868 Y-0.782
N4140 X-4.769 Y-1.151
N4145 X-4.575 Y-1.837
N4150 X-4.07 Y-2.782
N4155 X-3.376 Y-3.593
N4160 X-2.543 Y-4.226
N4165 X-1.572 Y-4.675
N4170 X-0.533 Y-4.903
N4175 X0.533
N4180 X1.554 Y-4.679
N4185 X2.544 Y-4.225
N4190 X3.397 Y-3.574
N4195 X4.088 Y-2.757
N4200 X4.574 Y-1.841
N4205 X4.867 Y-0.798
N4210 X4.922 Y0.285
N4215 X4.753 Y1.32
N4220 X4.359 Y2.307
N4225 X4.349 Y2.324
N4230 X3.759 Y3.193
N4235 X2.986 Y3.926
N4240 X2.981 Y3.929
N4245 X2.464 Y4.24
N4250 G3 X1.031 Y3.781 Z-0.714 I-0.516 J-0.857 F2700.
N4255 G1 X-0.436 Y0.4 Z-0.962
N4260 G3 X1.399 Y-0.396 Z-1.173 I0.917 J-0.398
N4265 X1.481 Y0.002 Z-1.2 I-0.917 J0.398
N4270 X-1.481 I-1.481 J0. F12000.
N4275 X1.481 I1.481 J0.
N4280 G2 X2.53 Y1.992 I2.412 J0.
N4285 G3 X2.464 Y4.24 I-0.756 J1.103
N4290 G1 X2.088 Y4.466
N4295 X1.566 Y4.647
N4300 X1.07 Y4.814
N4305 X1. Y4.824
N4310 X0. Y4.932
N4315 X-1.04 Y4.819
N4320 X-1.577 Y4.643
N4325 X-2.069 Y4.477
N4330 X-2.08 Y4.471
N4335 X-2.985 Y3.927
N4340 X-3.759 Y3.193
N4345 X-4.357 Y2.311
N4350 X-4.754 Y1.309
N4355 X-4.922 Y0.285
N4360 X-4.868 Y-0.782
N4365 X-4.769 Y-1.151
N4370 X-4.575 Y-1.837
N4375 X-4.07 Y-2.782
N4380 X-3.376 Y-3.593
N4385 X-2.543 Y-4.226
N4390 X-1.572 Y-4.675
N4395 X-0.533 Y-4.903
N4400 X0.533
N4405 X1.554 Y-4.679
N4410 X2.544 Y-4.225
N4415 X3.397 Y-3.574
N4420 X4.088 Y-2.757
N4425 X4.574 Y-1.841
N4430 X4.867 Y-0.798
N4435 X4.922 Y0.285
N4440 X4.753 Y1.32
N4445 X4.359 Y2.307
N4450 X4.349 Y2.324
N4455 X3.759 Y3.193
N4460 X2.986 Y3.926
N4465 X2.981 Y3.929
N4470 X2.464 Y4.24
N4475 G3 X1.031 Y3.781 Z-1.314 I-0.516 J-0.857 F2700.
N4480 G1 X-0.436 Y0.4 Z-1.562
N4485 G3 X1.399 Y-0.396 Z-1.773 I0.917 J-0.398
N4490 X1.481 Y0.002 Z-1.8 I-0.917 J0.398
N4495 X-1.481 I-1.481 J0. F12000.
N4500 X1.481 I1.481 J0.
N4505 G2 X2.53 Y1.992 I2.412 J0.
N4510 G3 X2.464 Y4.24 I-0.756 J1.103
N4515 G1 X2.088 Y4.466
N4520 X1.566 Y4.647
N4525 X1.07 Y4.814
N4530 X1. Y4.824
N4535 X0. Y4.932
N4540 X-1.04 Y4.819
N4545 X-1.577 Y4.643
N4550 X-2.069 Y4.477
N4555 X-2.08 Y4.471
N4560 X-2.985 Y3.927
N4565 X-3.759 Y3.193
N4570 X-4.357 Y2.311
N4575 X-4.754 Y1.309
N4580 X-4.922 Y0.285
N4585 X-4.868 Y-0.782
N4590 X-4.769 Y-1.151
N4595 X-4.575 Y-1.837
N4600 X-4.07 Y-2.782
N4605 X-3.376 Y-3.593
N4610 X-2.543 Y-4.226
N4615 X-1.572 Y-4.675
N4620 X-0.533 Y-4.903
N4625 X0.533
N4630 X1.554 Y-4.679
N4635 X2.544 Y-4.225
N4640 X3.397 Y-3.574
N4645 X4.088 Y-2.757
N4650 X4.574 Y-1.841
N4655 X4.867 Y-0.798
N4660 X4.922 Y0.285
N4665 X4.753 Y1.32
N4670 X4.359 Y2.307
N4675 X4.349 Y2.324
N4680 X3.759 Y3.193
N4685 X2.986 Y3.926
N4690 X2.981 Y3.929
N4695 X2.464 Y4.24
N4700 G3 X1.031 Y3.781 Z-1.914 I-0.516 J-0.857 F2700.
N4705 G1 X-0.436 Y0.4 Z-2.162
N4710 G3 X1.399 Y-0.396 Z-2.373 I0.917 J-0.398
N4715 X1.481 Y0.002 Z-2.4 I-0.917 J0.398
N4720 X-1.481 I-1.481 J0. F12000.
N4725 X1.481 I1.481 J0.
N4730 G2 X2.53 Y1.992 I2.412 J0.
N4735 G3 X2.464 Y4.24 I-0.756 J1.103
N4740 G1 X2.088 Y4.466
N4745 X1.566 Y4.647
N4750 X1.07 Y4.814
N4755 X1. Y4.824
N4760 X0. Y4.932
N4765 X-1.04 Y4.819
N4770 X-1.577 Y4.643
N4775 X-2.069 Y4.477
N4780 X-2.08 Y4.471
N4785 X-2.985 Y3.927
N4790 X-3.759 Y3.193
N4795 X-4.357 Y2.311
N4800 X-4.754 Y1.309
N4805 X-4.922 Y0.285
N4810 X-4.868 Y-0.782
N4815 X-4.769 Y-1.151
N4820 X-4.575 Y-1.837
N4825 X-4.07 Y-2.782
N4830 X-3.376 Y-3.593
N4835 X-2.543 Y-4.226
N4840 X-1.572 Y-4.675
N4845 X-0.533 Y-4.903
N4850 X0.533
N4855 X1.554 Y-4.679
N4860 X2.544 Y-4.225
N4865 X3.397 Y-3.574
N4870 X4.088 Y-2.757
N4875 X4.574 Y-1.841
N4880 X4.867 Y-0.798
N4885 X4.922 Y0.285
N4890 X4.753 Y1.32
N4895 X4.359 Y2.307
N4900 X4.349 Y2.324
N4905 X3.759 Y3.193
N4910 X2.986 Y3.926
N4915 X2.981 Y3.929
N4920 X2.464 Y4.24
N4925 G3 X1.031 Y3.781 Z-2.514 I-0.516 J-0.857 F2700.
N4930 G1 X-0.436 Y0.4 Z-2.762
N4935 G3 X1.399 Y-0.396 Z-2.973 I0.917 J-0.398
N4940 X1.481 Y0.002 Z-3. I-0.917 J0.398
N4945 X-1.481 I-1.481 J0. F12000.
N4950 X1.481 I1.481 J0.
N4955 G2 X2.53 Y1.992 I2.412 J0.
N4960 G3 X2.464 Y4.24 I-0.756 J1.103
N4965 G1 X2.088 Y4.466
N4970 X1.566 Y4.647
N4975 X1.07 Y4.814
N4980 X1. Y4.824
N4985 X0. Y4.932
N4990 X-1.04 Y4.819
N4995 X-1.577 Y4.643
N5000 X-2.069 Y4.477
N5005 X-2.08 Y4.471
N5010 X-2.985 Y3.927
N5015 X-3.759 Y3.193
N5020 X-4.357 Y2.311
N5025 X-4.754 Y1.309
N5030 X-4.922 Y0.285
N5035 X-4.868 Y-0.782
N5040 X-4.769 Y-1.151
N5045 X-4.575 Y-1.837
N5050 X-4.07 Y-2.782
N5055 X-3.376 Y-3.593
N5060 X-2.543 Y-4.226
N5065 X-1.572 Y-4.675
N5070 X-0.533 Y-4.903
N5075 X0.533
N5080 X1.554 Y-4.679
N5085 X2.544 Y-4.225
N5090 X3.397 Y-3.574
N5095 X4.088 Y-2.757
N5100 X4.574 Y-1.841
N5105 X4.867 Y-0.798
N5110 X4.922 Y0.285
N5115 X4.753 Y1.32
N5120 X4.359 Y2.307
N5125 X4.349 Y2.324
N5130 X3.759 Y3.193
N5135 X2.986 Y3.926
N5140 X2.981 Y3.929
N5145 X2.464 Y4.24
N5150 G3 X1.031 Y3.781 Z-3.114 I-0.516 J-0.857 F2700.
N5155 G1 X-0.436 Y0.4 Z-3.362
N5160 G3 X1.399 Y-0.396 Z-3.573 I0.917 J-0.398
N5165 X1.481 Y0.002 Z-3.6 I-0.917 J0.398
N5170 X-1.481 I-1.481 J0. F12000.
N5175 X1.481 I1.481 J0.
N5180 G2 X2.53 Y1.992 I2.412 J0.
N5185 G3 X2.464 Y4.24 I-0.756 J1.103
N5190 G1 X2.088 Y4.466
N5195 X1.566 Y4.647
N5200 X1.07 Y4.814
N5205 X1. Y4.824
N5210 X0. Y4.932
N5215 X-1.04 Y4.819
N5220 X-1.577 Y4.643
N5225 X-2.069 Y4.477
N5230 X-2.08 Y4.471
N5235 X-2.985 Y3.927
N5240 X-3.759 Y3.193
N5245 X-4.357 Y2.311
N5250 X-4.754 Y1.309
N5255 X-4.922 Y0.285
N5260 X-4.868 Y-0.782
N5265 X-4.769 Y-1.151
N5270 X-4.575 Y-1.837
N5275 X-4.07 Y-2.782
N5280 X-3.376 Y-3.593
N5285 X-2.543 Y-4.226
N5290 X-1.572 Y-4.675
N5295 X-0.533 Y-4.903
N5300 X0.533
N5305 X1.554 Y-4.679
N5310 X2.544 Y-4.225
N5315 X3.397 Y-3.574
N5320 X4.088 Y-2.757
N5325 X4.574 Y-1.841
N5330 X4.867 Y-0.798
N5335 X4.922 Y0.285
N5340 X4.753 Y1.32
N5345 X4.359 Y2.307
N5350 X4.349 Y2.324
N5355 X3.759 Y3.193
N5360 X2.986 Y3.926
N5365 X2.981 Y3.929
N5370 X2.464 Y4.24
N5375 G3 X1.031 Y3.781 Z-3.714 I-0.516 J-0.857 F2700.
N5380 G1 X-0.436 Y0.4 Z-3.962
N5385 G3 X1.399 Y-0.396 Z-4.173 I0.917 J-0.398
N5390 X1.481 Y0.002 Z-4.2 I-0.917 J0.398
N5395 X-1.481 I-1.481 J0. F12000.
N5400 X1.481 I1.481 J0.
N5405 G2 X2.53 Y1.992 I2.412 J0.
N5410 G3 X2.464 Y4.24 I-0.756 J1.103
N5415 G1 X2.088 Y4.466
N5420 X1.566 Y4.647
N5425 X1.07 Y4.814
N5430 X1. Y4.824
N5435 X0. Y4.932
N5440 X-1.04 Y4.819
N5445 X-1.577 Y4.643
N5450 X-2.069 Y4.477
N5455 X-2.08 Y4.471
N5460 X-2.985 Y3.927
N5465 X-3.759 Y3.193
N5470 X-4.357 Y2.311
N5475 X-4.754 Y1.309
N5480 X-4.922 Y0.285
N5485 X-4.868 Y-0.782
N5490 X-4.769 Y-1.151
N5495 X-4.575 Y-1.837
N5500 X-4.07 Y-2.782
N5505 X-3.376 Y-3.593
N5510 X-2.543 Y-4.226
N5515 X-1.572 Y-4.675
N5520 X-0.533 Y-4.903
N5525 X0.533
N5530 X1.554 Y-4.679
N5535 X2.544 Y-4.225
N5540 X3.397 Y-3.574
N5545 X4.088 Y-2.757
N5550 X4.574 Y-1.841
N5555 X4.867 Y-0.798
N5560 X4.922 Y0.285
N5565 X4.753 Y1.32
N5570 X4.359 Y2.307
N5575 X4.349 Y2.324
N5580 X3.759 Y3.193
N5585 X2.986 Y3.926
N5590 X2.981 Y3.929
N5595 X2.464 Y4.24
N5600 G3 X1.031 Y3.781 Z-4.295 I-0.516 J-0.857 F2700.
N5605 G1 X-0.436 Y0.4 Z-4.501
N5610 G3 X1.399 Y-0.396 Z-4.677 I0.917 J-0.398
N5615 X1.481 Y0.002 Z-4.7 I-0.917 J0.398
N5620 X-1.481 I-1.481 J0. F12000.
N5625 X1.481 I1.481 J0.
N5630 G2 X2.53 Y1.992 I2.412 J0.
N5635 G3 X2.464 Y4.24 I-0.756 J1.103
N5640 G1 X2.088 Y4.466
N5645 X1.566 Y4.647
N5650 X1.07 Y4.814
N5655 X1. Y4.824
N5660 X0. Y4.932
N5665 X-1.04 Y4.819
N5670 X-1.577 Y4.643
N5675 X-2.069 Y4.477
N5680 X-2.08 Y4.471
N5685 X-2.985 Y3.927
N5690 X-3.759 Y3.193
N5695 X-4.357 Y2.311
N5700 X-4.754 Y1.309
N5705 X-4.922 Y0.285
N5710 X-4.868 Y-0.782
N5715 X-4.769 Y-1.151
N5720 X-4.575 Y-1.837
N5725 X-4.07 Y-2.782
N5730 X-3.376 Y-3.593
N5735 X-2.543 Y-4.226
N5740 X-1.572 Y-4.675
N5745 X-0.533 Y-4.903
N5750 X0.533
N5755 X1.554 Y-4.679
N5760 X2.544 Y-4.225
N5765 X3.397 Y-3.574
N5770 X4.088 Y-2.757
N5775 X4.574 Y-1.841
N5780 X4.867 Y-0.798
N5785 X4.922 Y0.285
N5790 X4.753 Y1.32
N5795 X4.359 Y2.307
N5800 X4.349 Y2.324
N5805 X3.759 Y3.193
N5810 X2.986 Y3.926
N5815 X2.981 Y3.929
N5820 X2.464 Y4.24
N5825 G3 X2.022 Y4.071 I-0.155 J-0.257
N5830 G1 X1.055 Y0.923
N5835 G2 X0.763 Y0.7 I-0.29 J0.077
N5840 G1 X-0.285 Y0.709
N5845 X-0.346 Y0.703
N5850 X-0.405 Y0.685
N5855 X-0.459 Y0.655
N5860 G3 X0.459 Y-0.656 Z-5.143 I0.459 J-0.655 F2700.
N5865 X0.791 Y0.119 Z-5.3 I-0.459 J0.655
N5870 G1 X0.771 Y0.253 F12000.
N5875 X0.654 Y0.481
N5880 X0.478 Y0.657
N5885 X0.252 Y0.772
N5890 X-0.001 Y0.813
N5895 X-0.251 Y0.773
N5900 X-0.478 Y0.657
N5905 X-0.657 Y0.478
N5910 X-0.771 Y0.255
N5915 X-0.811 Y-0.01
N5920 X-0.774 Y-0.243
N5925 X-0.655 Y-0.479
N5930 X-0.471 Y-0.661
N5935 X-0.251 Y-0.773
N5940 X-0.001 Y-0.813
N5945 X0.252 Y-0.772
N5950 X0.478 Y-0.657
N5955 X0.655 Y-0.48
N5960 X0.774 Y-0.243
N5965 X0.811 Y-0.01
N5970 X0.791 Y0.119
N5975 G3 X-0.791 Y-0.121 Z-5.6 I-0.791 J-0.12 F2700.
N5980 X0.791 Y0.119 Z-5.9 I0.791 J0.12
N5985 G1 X0.771 Y0.253 F12000.
N5990 X0.654 Y0.481
N5995 X0.478 Y0.657
N6000 X0.252 Y0.772
N6005 X-0.001 Y0.813
N6010 X-0.251 Y0.773
N6015 X-0.478 Y0.657
N6020 X-0.657 Y0.478
N6025 X-0.771 Y0.255
N6030 X-0.811 Y-0.01
N6035 X-0.774 Y-0.243
N6040 X-0.655 Y-0.479
N6045 X-0.471 Y-0.661
N6050 X-0.251 Y-0.773
N6055 X-0.001 Y-0.813
N6060 X0.252 Y-0.772
N6065 X0.478 Y-0.657
N6070 X0.655 Y-0.48
N6075 X0.774 Y-0.243
N6080 X0.811 Y-0.01
N6085 X0.791 Y0.119
N6090 G3 X-0.791 Y-0.121 Z-6.2 I-0.791 J-0.12 F2700.
N6095 X0.791 Y0.119 Z-6.5 I0.791 J0.12
N6100 G1 X0.771 Y0.253 F12000.
N6105 X0.654 Y0.481
N6110 X0.478 Y0.657
N6115 X0.252 Y0.772
N6120 X-0.001 Y0.813
N6125 X-0.251 Y0.773
N6130 X-0.478 Y0.657
N6135 X-0.657 Y0.478
N6140 X-0.771 Y0.255
N6145 X-0.811 Y-0.01
N6150 X-0.774 Y-0.243
N6155 X-0.655 Y-0.479
N6160 X-0.471 Y-0.661
N6165 X-0.251 Y-0.773
N6170 X-0.001 Y-0.813
N6175 X0.252 Y-0.772
N6180 X0.478 Y-0.657
N6185 X0.655 Y-0.48
N6190 X0.774 Y-0.243
N6195 X0.811 Y-0.01
N6200 X0.791 Y0.119
N6205 G3 X-0.791 Y-0.121 Z-6.8 I-0.791 J-0.12 F2700.
N6210 X0.791 Y0.119 Z-7.1 I0.791 J0.12
N6215 G1 X0.771 Y0.253 F12000.
N6220 X0.654 Y0.481
N6225 X0.478 Y0.657
N6230 X0.252 Y0.772
N6235 X-0.001 Y0.813
N6240 X-0.251 Y0.773
N6245 X-0.478 Y0.657
N6250 X-0.657 Y0.478
N6255 X-0.771 Y0.255
N6260 X-0.811 Y-0.01
N6265 X-0.774 Y-0.243
N6270 X-0.655 Y-0.479
N6275 X-0.471 Y-0.661
N6280 X-0.251 Y-0.773
N6285 X-0.001 Y-0.813
N6290 X0.252 Y-0.772
N6295 X0.478 Y-0.657
N6300 X0.655 Y-0.48
N6305 X0.774 Y-0.243
N6310 X0.811 Y-0.01
N6315 X0.791 Y0.119
N6320 G3 X-0.791 Y-0.121 Z-7.4 I-0.791 J-0.12 F2700.
N6325 X0.791 Y0.119 Z-7.7 I0.791 J0.12
N6330 G1 X0.771 Y0.253 F12000.
N6335 X0.654 Y0.481
N6340 X0.478 Y0.657
N6345 X0.252 Y0.772
N6350 X-0.001 Y0.813
N6355 X-0.251 Y0.773
N6360 X-0.478 Y0.657
N6365 X-0.657 Y0.478
N6370 X-0.771 Y0.255
N6375 X-0.811 Y-0.01
N6380 X-0.774 Y-0.243
N6385 X-0.655 Y-0.479
N6390 X-0.471 Y-0.661
N6395 X-0.251 Y-0.773
N6400 X-0.001 Y-0.813
N6405 X0.252 Y-0.772
N6410 X0.478 Y-0.657
N6415 X0.655 Y-0.48
N6420 X0.774 Y-0.243
N6425 X0.811 Y-0.01
N6430 X0.791 Y0.119
N6435 G3 X-0.791 Y-0.121 Z-8. I-0.791 J-0.12 F2700.
N6440 X0.791 Y0.119 Z-8.3 I0.791 J0.12
N6445 G1 X0.771 Y0.253 F12000.
N6450 X0.654 Y0.481
N6455 X0.478 Y0.657
N6460 X0.252 Y0.772
N6465 X-0.001 Y0.813
N6470 X-0.251 Y0.773
N6475 X-0.478 Y0.657
N6480 X-0.657 Y0.478
N6485 X-0.771 Y0.255
N6490 X-0.811 Y-0.01
N6495 X-0.774 Y-0.243
N6500 X-0.655 Y-0.479
N6505 X-0.471 Y-0.661
N6510 X-0.251 Y-0.773
N6515 X-0.001 Y-0.813
N6520 X0.252 Y-0.772
N6525 X0.478 Y-0.657
N6530 X0.655 Y-0.48
N6535 X0.774 Y-0.243
N6540 X0.811 Y-0.01
N6545 X0.791 Y0.119
N6550 G3 X-0.791 Y-0.121 Z-8.6 I-0.791 J-0.12 F2700.
N6555 X0.791 Y0.119 Z-8.9 I0.791 J0.12
N6560 G1 X0.771 Y0.253 F12000.
N6565 X0.654 Y0.481
N6570 X0.478 Y0.657
N6575 X0.252 Y0.772
N6580 X-0.001 Y0.813
N6585 X-0.251 Y0.773
N6590 X-0.478 Y0.657
N6595 X-0.657 Y0.478
N6600 X-0.771 Y0.255
N6605 X-0.811 Y-0.01
N6610 X-0.774 Y-0.243
N6615 X-0.655 Y-0.479
N6620 X-0.471 Y-0.661
N6625 X-0.251 Y-0.773
N6630 X-0.001 Y-0.813
N6635 X0.252 Y-0.772
N6640 X0.478 Y-0.657
N6645 X0.655 Y-0.48
N6650 X0.774 Y-0.243
N6655 X0.811 Y-0.01
N6660 X0.791 Y0.119
N6665 G3 X-0.791 Y-0.121 Z-9.2 I-0.791 J-0.12 F2700.
N6670 X0.791 Y0.119 Z-9.5 I0.791 J0.12
N6675 G1 X0.771 Y0.253 F12000.
N6680 X0.654 Y0.481
N6685 X0.478 Y0.657
N6690 X0.252 Y0.772
N6695 X-0.001 Y0.813
N6700 X-0.251 Y0.773
N6705 X-0.478 Y0.657
N6710 X-0.657 Y0.478
N6715 X-0.771 Y0.255
N6720 X-0.811 Y-0.01
N6725 X-0.774 Y-0.243
N6730 X-0.655 Y-0.479
N6735 X-0.471 Y-0.661
N6740 X-0.251 Y-0.773
N6745 X-0.001 Y-0.813
N6750 X0.252 Y-0.772
N6755 X0.478 Y-0.657
N6760 X0.655 Y-0.48
N6765 X0.774 Y-0.243
N6770 X0.811 Y-0.01
N6775 X0.791 Y0.119
N6780 G3 X-0.791 Y-0.121 Z-9.8 I-0.791 J-0.12 F2700.
N6785 X0.791 Y0.119 Z-10.1 I0.791 J0.12
N6790 G1 X0.771 Y0.253 F12000.
N6795 X0.654 Y0.481
N6800 X0.478 Y0.657
N6805 X0.252 Y0.772
N6810 X-0.001 Y0.813
N6815 X-0.251 Y0.773
N6820 X-0.478 Y0.657
N6825 X-0.657 Y0.478
N6830 X-0.771 Y0.255
N6835 X-0.811 Y-0.01
N6840 X-0.774 Y-0.243
N6845 X-0.655 Y-0.479
N6850 X-0.471 Y-0.661
N6855 X-0.251 Y-0.773
N6860 X-0.001 Y-0.813
N6865 X0.252 Y-0.772
N6870 X0.478 Y-0.657
N6875 X0.655 Y-0.48
N6880 X0.774 Y-0.243
N6885 X0.811 Y-0.01
N6890 X0.791 Y0.119
N6895 G3 X-0.791 Y-0.121 Z-10.4 I-0.791 J-0.12 F2700.
N6900 X0.791 Y0.119 Z-10.7 I0.791 J0.12
N6905 G1 X0.771 Y0.253 F12000.
N6910 X0.654 Y0.481
N6915 X0.478 Y0.657
N6920 X0.252 Y0.772
N6925 X-0.001 Y0.813
N6930 X-0.251 Y0.773
N6935 X-0.478 Y0.657
N6940 X-0.657 Y0.478
N6945 X-0.771 Y0.255
N6950 X-0.811 Y-0.01
N6955 X-0.774 Y-0.243
N6960 X-0.655 Y-0.479
N6965 X-0.471 Y-0.661
N6970 X-0.251 Y-0.773
N6975 X-0.001 Y-0.813
N6980 X0.252 Y-0.772
N6985 X0.478 Y-0.657
N6990 X0.655 Y-0.48
N6995 X0.774 Y-0.243
N7000 X0.811 Y-0.01
N7005 X0.791 Y0.119
N7010 G3 X-0.791 Y-0.121 Z-11. I-0.791 J-0.12 F2700.
N7015 X0.791 Y0.119 Z-11.3 I0.791 J0.12
N7020 G1 X0.771 Y0.253 F12000.
N7025 X0.654 Y0.481
N7030 X0.478 Y0.657
N7035 X0.252 Y0.772
N7040 X-0.001 Y0.813
N7045 X-0.251 Y0.773
N7050 X-0.478 Y0.657
N7055 X-0.657 Y0.478
N7060 X-0.771 Y0.255
N7065 X-0.811 Y-0.01
N7070 X-0.774 Y-0.243
N7075 X-0.655 Y-0.479
N7080 X-0.471 Y-0.661
N7085 X-0.251 Y-0.773
N7090 X-0.001 Y-0.813
N7095 X0.252 Y-0.772
N7100 X0.478 Y-0.657
N7105 X0.655 Y-0.48
N7110 X0.774 Y-0.243
N7115 X0.811 Y-0.01
N7120 X0.791 Y0.119
N7125 G3 X-0.791 Y-0.121 Z-11.475 I-0.791 J-0.12 F2700.
N7130 X0.791 Y0.119 Z-11.65 I0.791 J0.12
N7135 G1 X0.771 Y0.253 F12000.
N7140 X0.654 Y0.481
N7145 X0.478 Y0.657
N7150 X0.252 Y0.772
N7155 X-0.001 Y0.813
N7160 X-0.251 Y0.773
N7165 X-0.478 Y0.657
N7170 X-0.657 Y0.478
N7175 X-0.771 Y0.255
N7180 X-0.811 Y-0.01
N7185 X-0.774 Y-0.243
N7190 X-0.655 Y-0.479
N7195 X-0.471 Y-0.661
N7200 X-0.251 Y-0.773
N7205 X-0.001 Y-0.813
N7210 X0.252 Y-0.772
N7215 X0.478 Y-0.657
N7220 X0.655 Y-0.48
N7225 X0.774 Y-0.243
N7230 X0.811 Y-0.01
N7235 X0.791 Y0.119
N7240 G3 X-0.791 Y-0.121 Z-11.825 I-0.791 J-0.12 F2700.
N7245 X0.791 Y0.119 Z-12. I0.791 J0.12
N7250 G1 X0.771 Y0.253 F12000.
N7255 X0.654 Y0.481
N7260 X0.478 Y0.657
N7265 X0.252 Y0.772
N7270 X-0.001 Y0.813
N7275 X-0.251 Y0.773
N7280 X-0.478 Y0.657
N7285 X-0.657 Y0.478
N7290 X-0.771 Y0.255
N7295 X-0.811 Y-0.01
N7300 X-0.774 Y-0.243
N7305 X-0.655 Y-0.479
N7310 X-0.471 Y-0.661
N7315 X-0.251 Y-0.773
N7320 X-0.001 Y-0.813
N7325 X0.252 Y-0.772
N7330 X0.478 Y-0.657
N7335 X0.655 Y-0.48
N7340 X0.774 Y-0.243
N7345 X0.811 Y-0.01
N7350 X0.791 Y0.119
N7355 X0.778 Y0.184 Z-11.992
N7360 X0.757 Y0.248 Z-11.985
N7365 X0.731 Y0.305 Z-11.963
N7370 X0.699 Y0.36 Z-11.941
N7375 X0.665 Y0.406 Z-11.905
N7380 X0.627 Y0.448 Z-11.869
N7385 X0.556 Y0.511 Z-11.774
N7390 X0.496 Y0.55 Z-11.66
N7395 X0.457 Y0.571 Z-11.534
N7400 X0.443 Y0.577 Z-11.4
N7405 F10001 Z5.
N7410 X551.136 Y-0.754
N7415 F12000 Z1.227
N7420 X551.149 Y-0.742 Z1.081 F2700.
N7425 X551.188 Y-0.705 Z0.944
N7430 X551.245 Y-0.643 Z0.824
N7435 X551.313 Y-0.554 Z0.728
N7440 X551.347 Y-0.498 Z0.695
N7445 X551.378 Y-0.44 Z0.662
N7450 X551.408 Y-0.374 Z0.646
N7455 X551.432 Y-0.307 Z0.63
N7460 G3 X549.53 Y0.311 Z0.33 I-0.951 J0.309
N7465 X551.432 Y-0.307 Z0.03 I0.951 J-0.309
N7470 X549.53 Y0.311 Z-0.27 I-0.951 J0.309
N7475 X551.432 Y-0.307 Z-0.57 I0.951 J-0.309
N7480 X551.481 Y0.002 Z-0.6 I-0.951 J0.309
N7485 X548.519 I-1.481 J0. F12000.
N7490 X551.481 I1.481 J0.
N7495 G2 X552.53 Y1.992 I2.413 J0.
N7500 G3 X552.463 Y4.24 I-0.756 J1.103
N7505 G1 X552.071 Y4.476
N7510 X551.06 Y4.817
N7515 X550. Y4.932
N7520 X548.94 Y4.817
N7525 X547.929 Y4.476
N7530 X547.015 Y3.927
N7535 X546.243 Y3.196
N7540 X546.231 Y3.179
N7545 X545.642 Y2.31
N7550 X545.247 Y1.32
N7555 X545.078 Y0.285
N7560 X545.133 Y-0.788
N7565 X545.171 Y-0.936
N7570 X545.325 Y-1.492
N7575 X545.424 Y-1.838
N7580 X545.912 Y-2.757
N7585 X546.603 Y-3.574
N7590 X547.456 Y-4.225
N7595 X548.446 Y-4.679
N7600 X549.467 Y-4.903
N7605 X550.533
N7610 X551.572 Y-4.675
N7615 X552.539 Y-4.228
N7620 X552.559 Y-4.214
N7625 X553.376 Y-3.593
N7630 X554.07 Y-2.782
N7635 X554.575 Y-1.839
N7640 X554.867 Y-0.798
N7645 X554.922 Y0.285
N7650 X554.754 Y1.309
N7655 X554.359 Y2.307
N7660 X554.342 Y2.333
N7665 X553.759 Y3.193
N7670 X552.99 Y3.922
N7675 X552.954 Y3.945
N7680 X552.463 Y4.24
N7685 G3 X551.03 Y3.781 Z-0.714 I-0.516 J-0.857 F2700.
N7690 G1 X549.564 Y0.4 Z-0.962
N7695 G3 X551.399 Y-0.396 Z-1.173 I0.917 J-0.398
N7700 X551.481 Y0.002 Z-1.2 I-0.917 J0.398
N7705 X548.519 I-1.481 J0. F12000.
N7710 X551.481 I1.481 J0.
N7715 G2 X552.53 Y1.992 I2.413 J0.
N7720 G3 X552.463 Y4.24 I-0.756 J1.103
N7725 G1 X552.071 Y4.476
N7730 X551.06 Y4.817
N7735 X550. Y4.932
N7740 X548.94 Y4.817
N7745 X547.929 Y4.476
N7750 X547.015 Y3.927
N7755 X546.243 Y3.196
N7760 X546.231 Y3.179
N7765 X545.642 Y2.31
N7770 X545.247 Y1.32
N7775 X545.078 Y0.285
N7780 X545.133 Y-0.788
N7785 X545.171 Y-0.936
N7790 X545.325 Y-1.492
N7795 X545.424 Y-1.838
N7800 X545.912 Y-2.757
N7805 X546.603 Y-3.574
N7810 X547.456 Y-4.225
N7815 X548.446 Y-4.679
N7820 X549.467 Y-4.903
N7825 X550.533
N7830 X551.572 Y-4.675
N7835 X552.539 Y-4.228
N7840 X552.559 Y-4.214
N7845 X553.376 Y-3.593
N7850 X554.07 Y-2.782
N7855 X554.575 Y-1.839
N7860 X554.867 Y-0.798
N7865 X554.922 Y0.285
N7870 X554.754 Y1.309
N7875 X554.359 Y2.307
N7880 X554.342 Y2.333
N7885 X553.759 Y3.193
N7890 X552.99 Y3.922
N7895 X552.954 Y3.945
N7900 X552.463 Y4.24
N7905 G3 X551.03 Y3.781 Z-1.314 I-0.516 J-0.857 F2700.
N7910 G1 X549.564 Y0.4 Z-1.562
N7915 G3 X551.399 Y-0.396 Z-1.773 I0.917 J-0.398
N7920 X551.481 Y0.002 Z-1.8 I-0.917 J0.398
N7925 X548.519 I-1.481 J0. F12000.
N7930 X551.481 I1.481 J0.
N7935 G2 X552.53 Y1.992 I2.413 J0.
N7940 G3 X552.463 Y4.24 I-0.756 J1.103
N7945 G1 X552.071 Y4.476
N7950 X551.06 Y4.817
N7955 X550. Y4.932
N7960 X548.94 Y4.817
N7965 X547.929 Y4.476
N7970 X547.015 Y3.927
N7975 X546.243 Y3.196
N7980 X546.231 Y3.179
N7985 X545.642 Y2.31
N7990 X545.247 Y1.32
N7995 X545.078 Y0.285
N8000 X545.133 Y-0.788
N8005 X545.171 Y-0.936
N8010 X545.325 Y-1.492
N8015 X545.424 Y-1.838
N8020 X545.912 Y-2.757
N8025 X546.603 Y-3.574
N8030 X547.456 Y-4.225
N8035 X548.446 Y-4.679
N8040 X549.467 Y-4.903
N8045 X550.533
N8050 X551.572 Y-4.675
N8055 X552.539 Y-4.228
N8060 X552.559 Y-4.214
N8065 X553.376 Y-3.593
N8070 X554.07 Y-2.782
N8075 X554.575 Y-1.839
N8080 X554.867 Y-0.798
N8085 X554.922 Y0.285
N8090 X554.754 Y1.309
N8095 X554.359 Y2.307
N8100 X554.342 Y2.333
N8105 X553.759 Y3.193
N8110 X552.99 Y3.922
N8115 X552.954 Y3.945
N8120 X552.463 Y4.24
N8125 G3 X551.03 Y3.781 Z-1.914 I-0.516 J-0.857 F2700.
N8130 G1 X549.564 Y0.4 Z-2.162
N8135 G3 X551.399 Y-0.396 Z-2.373 I0.917 J-0.398
N8140 X551.481 Y0.002 Z-2.4 I-0.917 J0.398
N8145 X548.519 I-1.481 J0. F12000.
N8150 X551.481 I1.481 J0.
N8155 G2 X552.53 Y1.992 I2.413 J0.
N8160 G3 X552.463 Y4.24 I-0.756 J1.103
N8165 G1 X552.071 Y4.476
N8170 X551.06 Y4.817
N8175 X550. Y4.932
N8180 X548.94 Y4.817
N8185 X547.929 Y4.476
N8190 X547.015 Y3.927
N8195 X546.243 Y3.196
N8200 X546.231 Y3.179
N8205 X545.642 Y2.31
N8210 X545.247 Y1.32
N8215 X545.078 Y0.285
N8220 X545.133 Y-0.788
N8225 X545.171 Y-0.936
N8230 X545.325 Y-1.492
N8235 X545.424 Y-1.838
N8240 X545.912 Y-2.757
N8245 X546.603 Y-3.574
N8250 X547.456 Y-4.225
N8255 X548.446 Y-4.679
N8260 X549.467 Y-4.903
N8265 X550.533
N8270 X551.572 Y-4.675
N8275 X552.539 Y-4.228
N8280 X552.559 Y-4.214
N8285 X553.376 Y-3.593
N8290 X554.07 Y-2.782
N8295 X554.575 Y-1.839
N8300 X554.867 Y-0.798
N8305 X554.922 Y0.285
N8310 X554.754 Y1.309
N8315 X554.359 Y2.307
N8320 X554.342 Y2.333
N8325 X553.759 Y3.193
N8330 X552.99 Y3.922
N8335 X552.954 Y3.945
N8340 X552.463 Y4.24
N8345 G3 X551.03 Y3.781 Z-2.514 I-0.516 J-0.857 F2700.
N8350 G1 X549.564 Y0.4 Z-2.762
N8355 G3 X551.399 Y-0.396 Z-2.973 I0.917 J-0.398
N8360 X551.481 Y0.002 Z-3. I-0.917 J0.398
N8365 X548.519 I-1.481 J0. F12000.
N8370 X551.481 I1.481 J0.
N8375 G2 X552.53 Y1.992 I2.413 J0.
N8380 G3 X552.463 Y4.24 I-0.756 J1.103
N8385 G1 X552.071 Y4.476
N8390 X551.06 Y4.817
N8395 X550. Y4.932
N8400 X548.94 Y4.817
N8405 X547.929 Y4.476
N8410 X547.015 Y3.927
N8415 X546.243 Y3.196
N8420 X546.231 Y3.179
N8425 X545.642 Y2.31
N8430 X545.247 Y1.32
N8435 X545.078 Y0.285
N8440 X545.133 Y-0.788
N8445 X545.171 Y-0.936
N8450 X545.325 Y-1.492
N8455 X545.424 Y-1.838
N8460 X545.912 Y-2.757
N8465 X546.603 Y-3.574
N8470 X547.456 Y-4.225
N8475 X548.446 Y-4.679
N8480 X549.467 Y-4.903
N8485 X550.533
N8490 X551.572 Y-4.675
N8495 X552.539 Y-4.228
N8500 X552.559 Y-4.214
N8505 X553.376 Y-3.593
N8510 X554.07 Y-2.782
N8515 X554.575 Y-1.839
N8520 X554.867 Y-0.798
N8525 X554.922 Y0.285
N8530 X554.754 Y1.309
N8535 X554.359 Y2.307
N8540 X554.342 Y2.333
N8545 X553.759 Y3.193
N8550 X552.99 Y3.922
N8555 X552.954 Y3.945
N8560 X552.463 Y4.24
N8565 G3 X551.03 Y3.781 Z-3.114 I-0.516 J-0.857 F2700.
N8570 G1 X549.564 Y0.4 Z-3.362
N8575 G3 X551.399 Y-0.396 Z-3.573 I0.917 J-0.398
N8580 X551.481 Y0.002 Z-3.6 I-0.917 J0.398
N8585 X548.519 I-1.481 J0. F12000.
N8590 X551.481 I1.481 J0.
N8595 G2 X552.53 Y1.992 I2.413 J0.
N8600 G3 X552.463 Y4.24 I-0.756 J1.103
N8605 G1 X552.071 Y4.476
N8610 X551.06 Y4.817
N8615 X550. Y4.932
N8620 X548.94 Y4.817
N8625 X547.929 Y4.476
N8630 X547.015 Y3.927
N8635 X546.243 Y3.196
N8640 X546.231 Y3.179
N8645 X545.642 Y2.31
N8650 X545.247 Y1.32
N8655 X545.078 Y0.285
N8660 X545.133 Y-0.788
N8665 X545.171 Y-0.936
N8670 X545.325 Y-1.492
N8675 X545.424 Y-1.838
N8680 X545.912 Y-2.757
N8685 X546.603 Y-3.574
N8690 X547.456 Y-4.225
N8695 X548.446 Y-4.679
N8700 X549.467 Y-4.903
N8705 X550.533
N8710 X551.572 Y-4.675
N8715 X552.539 Y-4.228
N8720 X552.559 Y-4.214
N8725 X553.376 Y-3.593
N8730 X554.07 Y-2.782
N8735 X554.575 Y-1.839
N8740 X554.867 Y-0.798
N8745 X554.922 Y0.285
N8750 X554.754 Y1.309
N8755 X554.359 Y2.307
N8760 X554.342 Y2.333
N8765 X553.759 Y3.193
N8770 X552.99 Y3.922
N8775 X552.954 Y3.945
N8780 X552.463 Y4.24
N8785 G3 X551.03 Y3.781 Z-3.714 I-0.516 J-0.857 F2700.
N8790 G1 X549.564 Y0.4 Z-3.962
N8795 G3 X551.399 Y-0.396 Z-4.173 I0.917 J-0.398
N8800 X551.481 Y0.002 Z-4.2 I-0.917 J0.398
N8805 X548.519 I-1.481 J0. F12000.
N8810 X551.481 I1.481 J0.
N8815 G2 X552.53 Y1.992 I2.413 J0.
N8820 G3 X552.463 Y4.24 I-0.756 J1.103
N8825 G1 X552.071 Y4.476
N8830 X551.06 Y4.817
N8835 X550. Y4.932
N8840 X548.94 Y4.817
N8845 X547.929 Y4.476
N8850 X547.015 Y3.927
N8855 X546.243 Y3.196
N8860 X546.231 Y3.179
N8865 X545.642 Y2.31
N8870 X545.247 Y1.32
N8875 X545.078 Y0.285
N8880 X545.133 Y-0.788
N8885 X545.171 Y-0.936
N8890 X545.325 Y-1.492
N8895 X545.424 Y-1.838
N8900 X545.912 Y-2.757
N8905 X546.603 Y-3.574
N8910 X547.456 Y-4.225
N8915 X548.446 Y-4.679
N8920 X549.467 Y-4.903
N8925 X550.533
N8930 X551.572 Y-4.675
N8935 X552.539 Y-4.228
N8940 X552.559 Y-4.214
N8945 X553.376 Y-3.593
N8950 X554.07 Y-2.782
N8955 X554.575 Y-1.839
N8960 X554.867 Y-0.798
N8965 X554.922 Y0.285
N8970 X554.754 Y1.309
N8975 X554.359 Y2.307
N8980 X554.342 Y2.333
N8985 X553.759 Y3.193
N8990 X552.99 Y3.922
N8995 X552.954 Y3.945
N9000 X552.463 Y4.24
N9005 G3 X551.03 Y3.781 Z-4.295 I-0.516 J-0.857 F2700.
N9010 G1 X549.564 Y0.4 Z-4.501
N9015 G3 X551.399 Y-0.396 Z-4.677 I0.917 J-0.398
N9020 X551.481 Y0.002 Z-4.7 I-0.917 J0.398
N9025 X548.519 I-1.481 J0. F12000.
N9030 X551.481 I1.481 J0.
N9035 G2 X552.53 Y1.992 I2.413 J0.
N9040 G3 X552.463 Y4.24 I-0.756 J1.103
N9045 G1 X552.071 Y4.476
N9050 X551.06 Y4.817
N9055 X550. Y4.932
N9060 X548.94 Y4.817
N9065 X547.929 Y4.476
N9070 X547.015 Y3.927
N9075 X546.243 Y3.196
N9080 X546.231 Y3.179
N9085 X545.642 Y2.31
N9090 X545.247 Y1.32
N9095 X545.078 Y0.285
N9100 X545.133 Y-0.788
N9105 X545.171 Y-0.936
N9110 X545.325 Y-1.492
N9115 X545.424 Y-1.838
N9120 X545.912 Y-2.757
N9125 X546.603 Y-3.574
N9130 X547.456 Y-4.225
N9135 X548.446 Y-4.679
N9140 X549.467 Y-4.903
N9145 X550.533
N9150 X551.572 Y-4.675
N9155 X552.539 Y-4.228
N9160 X552.559 Y-4.214
N9165 X553.376 Y-3.593
N9170 X554.07 Y-2.782
N9175 X554.575 Y-1.839
N9180 X554.867 Y-0.798
N9185 X554.922 Y0.285
N9190 X554.754 Y1.309
N9195 X554.359 Y2.307
N9200 X554.342 Y2.333
N9205 X553.759 Y3.193
N9210 X552.99 Y3.922
N9215 X552.954 Y3.945
N9220 X552.463 Y4.24
N9225 G3 X552.022 Y4.071 I-0.155 J-0.257
N9230 G1 X551.055 Y0.923
N9235 G2 X550.763 Y0.7 I-0.29 J0.077
N9240 G1 X549.715 Y0.709
N9245 X549.654 Y0.703
N9250 X549.595 Y0.685
N9255 X549.541 Y0.655
N9260 G3 X550.459 Y-0.656 Z-5.143 I0.459 J-0.655 F2700.
N9265 X550.791 Y0.119 Z-5.3 I-0.459 J0.655
N9270 G1 X550.771 Y0.255 F12000.
N9275 X550.657 Y0.478
N9280 X550.478 Y0.657
N9285 X550.251 Y0.773
N9290 X550.001 Y0.813
N9295 X549.748 Y0.772
N9300 X549.522 Y0.657
N9305 X549.346 Y0.481
N9310 X549.229 Y0.253
N9315 X549.189 Y-0.01
N9320 X549.226 Y-0.243
N9325 X549.345 Y-0.48
N9330 X549.522 Y-0.657
N9335 X549.748 Y-0.772
N9340 X550.001 Y-0.813
N9345 X550.251 Y-0.773
N9350 X550.47 Y-0.661
N9355 X550.656 Y-0.477
N9360 X550.774 Y-0.243
N9365 X550.811 Y-0.01
N9370 X550.791 Y0.119
N9375 G3 X549.209 Y-0.12 Z-5.6 I-0.791 J-0.12 F2700.
N9380 X550.791 Y0.119 Z-5.9 I0.791 J0.12
N9385 G1 X550.771 Y0.255 F12000.
N9390 X550.657 Y0.478
N9395 X550.478 Y0.657
N9400 X550.251 Y0.773
N9405 X550.001 Y0.813
N9410 X549.748 Y0.772
N9415 X549.522 Y0.657
N9420 X549.346 Y0.481
N9425 X549.229 Y0.253
N9430 X549.189 Y-0.01
N9435 X549.226 Y-0.243
N9440 X549.345 Y-0.48
N9445 X549.522 Y-0.657
N9450 X549.748 Y-0.772
N9455 X550.001 Y-0.813
N9460 X550.251 Y-0.773
N9465 X550.47 Y-0.661
N9470 X550.656 Y-0.477
N9475 X550.774 Y-0.243
N9480 X550.811 Y-0.01
N9485 X550.791 Y0.119
N9490 G3 X549.209 Y-0.12 Z-6.2 I-0.791 J-0.12 F2700.
N9495 X550.791 Y0.119 Z-6.5 I0.791 J0.12
N9500 G1 X550.771 Y0.255 F12000.
N9505 X550.657 Y0.478
N9510 X550.478 Y0.657
N9515 X550.251 Y0.773
N9520 X550.001 Y0.813
N9525 X549.748 Y0.772
N9530 X549.522 Y0.657
N9535 X549.346 Y0.481
N9540 X549.229 Y0.253
N9545 X549.189 Y-0.01
N9550 X549.226 Y-0.243
N9555 X549.345 Y-0.48
N9560 X549.522 Y-0.657
N9565 X549.748 Y-0.772
N9570 X550.001 Y-0.813
N9575 X550.251 Y-0.773
N9580 X550.47 Y-0.661
N9585 X550.656 Y-0.477
N9590 X550.774 Y-0.243
N9595 X550.811 Y-0.01
N9600 X550.791 Y0.119
N9605 G3 X549.209 Y-0.12 Z-6.8 I-0.791 J-0.12 F2700.
N9610 X550.791 Y0.119 Z-7.1 I0.791 J0.12
N9615 G1 X550.771 Y0.255 F12000.
N9620 X550.657 Y0.478
N9625 X550.478 Y0.657
N9630 X550.251 Y0.773
N9635 X550.001 Y0.813
N9640 X549.748 Y0.772
N9645 X549.522 Y0.657
N9650 X549.346 Y0.481
N9655 X549.229 Y0.253
N9660 X549.189 Y-0.01
N9665 X549.226 Y-0.243
N9670 X549.345 Y-0.48
N9675 X549.522 Y-0.657
N9680 X549.748 Y-0.772
N9685 X550.001 Y-0.813
N9690 X550.251 Y-0.773
N9695 X550.47 Y-0.661
N9700 X550.656 Y-0.477
N9705 X550.774 Y-0.243
N9710 X550.811 Y-0.01
N9715 X550.791 Y0.119
N9720 G3 X549.209 Y-0.12 Z-7.4 I-0.791 J-0.12 F2700.
N9725 X550.791 Y0.119 Z-7.7 I0.791 J0.12
N9730 G1 X550.771 Y0.255 F12000.
N9735 X550.657 Y0.478
N9740 X550.478 Y0.657
N9745 X550.251 Y0.773
N9750 X550.001 Y0.813
N9755 X549.748 Y0.772
N9760 X549.522 Y0.657
N9765 X549.346 Y0.481
N9770 X549.229 Y0.253
N9775 X549.189 Y-0.01
N9780 X549.226 Y-0.243
N9785 X549.345 Y-0.48
N9790 X549.522 Y-0.657
N9795 X549.748 Y-0.772
N9800 X550.001 Y-0.813
N9805 X550.251 Y-0.773
N9810 X550.47 Y-0.661
N9815 X550.656 Y-0.477
N9820 X550.774 Y-0.243
N9825 X550.811 Y-0.01
N9830 X550.791 Y0.119
N9835 G3 X549.209 Y-0.12 Z-8. I-0.791 J-0.12 F2700.
N9840 X550.791 Y0.119 Z-8.3 I0.791 J0.12
N9845 G1 X550.771 Y0.255 F12000.
N9850 X550.657 Y0.478
N9855 X550.478 Y0.657
N9860 X550.251 Y0.773
N9865 X550.001 Y0.813
N9870 X549.748 Y0.772
N9875 X549.522 Y0.657
N9880 X549.346 Y0.481
N9885 X549.229 Y0.253
N9890 X549.189 Y-0.01
N9895 X549.226 Y-0.243
N9900 X549.345 Y-0.48
N9905 X549.522 Y-0.657
N9910 X549.748 Y-0.772
N9915 X550.001 Y-0.813
N9920 X550.251 Y-0.773
N9925 X550.47 Y-0.661
N9930 X550.656 Y-0.477
N9935 X550.774 Y-0.243
N9940 X550.811 Y-0.01
N9945 X550.791 Y0.119
N9950 G3 X549.209 Y-0.12 Z-8.6 I-0.791 J-0.12 F2700.
N9955 X550.791 Y0.119 Z-8.9 I0.791 J0.12
N9960 G1 X550.771 Y0.255 F12000.
N9965 X550.657 Y0.478
N9970 X550.478 Y0.657
N9975 X550.251 Y0.773
N9980 X550.001 Y0.813
N9985 X549.748 Y0.772
N9990 X549.522 Y0.657
N9995 X549.346 Y0.481
N10000 X549.229 Y0.253
N10005 X549.189 Y-0.01
N10010 X549.226 Y-0.243
N10015 X549.345 Y-0.48
N10020 X549.522 Y-0.657
N10025 X549.748 Y-0.772
N10030 X550.001 Y-0.813
N10035 X550.251 Y-0.773
N10040 X550.47 Y-0.661
N10045 X550.656 Y-0.477
N10050 X550.774 Y-0.243
N10055 X550.811 Y-0.01
N10060 X550.791 Y0.119
N10065 G3 X549.209 Y-0.12 Z-9.2 I-0.791 J-0.12 F2700.
N10070 X550.791 Y0.119 Z-9.5 I0.791 J0.12
N10075 G1 X550.771 Y0.255 F12000.
N10080 X550.657 Y0.478
N10085 X550.478 Y0.657
N10090 X550.251 Y0.773
N10095 X550.001 Y0.813
N10100 X549.748 Y0.772
N10105 X549.522 Y0.657
N10110 X549.346 Y0.481
N10115 X549.229 Y0.253
N10120 X549.189 Y-0.01
N10125 X549.226 Y-0.243
N10130 X549.345 Y-0.48
N10135 X549.522 Y-0.657
N10140 X549.748 Y-0.772
N10145 X550.001 Y-0.813
N10150 X550.251 Y-0.773
N10155 X550.47 Y-0.661
N10160 X550.656 Y-0.477
N10165 X550.774 Y-0.243
N10170 X550.811 Y-0.01
N10175 X550.791 Y0.119
N10180 G3 X549.209 Y-0.12 Z-9.8 I-0.791 J-0.12 F2700.
N10185 X550.791 Y0.119 Z-10.1 I0.791 J0.12
N10190 G1 X550.771 Y0.255 F12000.
N10195 X550.657 Y0.478
N10200 X550.478 Y0.657
N10205 X550.251 Y0.773
N10210 X550.001 Y0.813
N10215 X549.748 Y0.772
N10220 X549.522 Y0.657
N10225 X549.346 Y0.481
N10230 X549.229 Y0.253
N10235 X549.189 Y-0.01
N10240 X549.226 Y-0.243
N10245 X549.345 Y-0.48
N10250 X549.522 Y-0.657
N10255 X549.748 Y-0.772
N10260 X550.001 Y-0.813
N10265 X550.251 Y-0.773
N10270 X550.47 Y-0.661
N10275 X550.656 Y-0.477
N10280 X550.774 Y-0.243
N10285 X550.811 Y-0.01
N10290 X550.791 Y0.119
N10295 G3 X549.209 Y-0.12 Z-10.4 I-0.791 J-0.12 F2700.
N10300 X550.791 Y0.119 Z-10.7 I0.791 J0.12
N10305 G1 X550.771 Y0.255 F12000.
N10310 X550.657 Y0.478
N10315 X550.478 Y0.657
N10320 X550.251 Y0.773
N10325 X550.001 Y0.813
N10330 X549.748 Y0.772
N10335 X549.522 Y0.657
N10340 X549.346 Y0.481
N10345 X549.229 Y0.253
N10350 X549.189 Y-0.01
N10355 X549.226 Y-0.243
N10360 X549.345 Y-0.48
N10365 X549.522 Y-0.657
N10370 X549.748 Y-0.772
N10375 X550.001 Y-0.813
N10380 X550.251 Y-0.773
N10385 X550.47 Y-0.661
N10390 X550.656 Y-0.477
N10395 X550.774 Y-0.243
N10400 X550.811 Y-0.01
N10405 X550.791 Y0.119
N10410 G3 X549.209 Y-0.12 Z-11. I-0.791 J-0.12 F2700.
N10415 X550.791 Y0.119 Z-11.3 I0.791 J0.12
N10420 G1 X550.771 Y0.255 F12000.
N10425 X550.657 Y0.478
N10430 X550.478 Y0.657
N10435 X550.251 Y0.773
N10440 X550.001 Y0.813
N10445 X549.748 Y0.772
N10450 X549.522 Y0.657
N10455 X549.346 Y0.481
N10460 X549.229 Y0.253
N10465 X549.189 Y-0.01
N10470 X549.226 Y-0.243
N10475 X549.345 Y-0.48
N10480 X549.522 Y-0.657
N10485 X549.748 Y-0.772
N10490 X550.001 Y-0.813
N10495 X550.251 Y-0.773
N10500 X550.47 Y-0.661
N10505 X550.656 Y-0.477
N10510 X550.774 Y-0.243
N10515 X550.811 Y-0.01
N10520 X550.791 Y0.119
N10525 G3 X549.209 Y-0.12 Z-11.475 I-0.791 J-0.12 F2700.
N10530 X550.791 Y0.119 Z-11.65 I0.791 J0.12
N10535 G1 X550.771 Y0.255 F12000.
N10540 X550.657 Y0.478
N10545 X550.478 Y0.657
N10550 X550.251 Y0.773
N10555 X550.001 Y0.813
N10560 X549.748 Y0.772
N10565 X549.522 Y0.657
N10570 X549.346 Y0.481
N10575 X549.229 Y0.253
N10580 X549.189 Y-0.01
N10585 X549.226 Y-0.243
N10590 X549.345 Y-0.48
N10595 X549.522 Y-0.657
N10600 X549.748 Y-0.772
N10605 X550.001 Y-0.813
N10610 X550.251 Y-0.773
N10615 X550.47 Y-0.661
N10620 X550.656 Y-0.477
N10625 X550.774 Y-0.243
N10630 X550.811 Y-0.01
N10635 X550.791 Y0.119
N10640 G3 X549.209 Y-0.12 Z-11.825 I-0.791 J-0.12 F2700.
N10645 X550.791 Y0.119 Z-12. I0.791 J0.12
N10650 G1 X550.771 Y0.255 F12000.
N10655 X550.657 Y0.478
N10660 X550.478 Y0.657
N10665 X550.251 Y0.773
N10670 X550.001 Y0.813
N10675 X549.748 Y0.772
N10680 X549.522 Y0.657
N10685 X549.346 Y0.481
N10690 X549.229 Y0.253
N10695 X549.189 Y-0.01
N10700 X549.226 Y-0.243
N10705 X549.345 Y-0.48
N10710 X549.522 Y-0.657
N10715 X549.748 Y-0.772
N10720 X550.001 Y-0.813
N10725 X550.251 Y-0.773
N10730 X550.47 Y-0.661
N10735 X550.656 Y-0.477
N10740 X550.774 Y-0.243
N10745 X550.811 Y-0.01
N10750 X550.791 Y0.119
N10755 X550.778 Y0.184 Z-11.992
N10760 X550.757 Y0.248 Z-11.985
N10765 X550.731 Y0.306 Z-11.963
N10770 X550.699 Y0.36 Z-11.941
N10775 X550.665 Y0.406 Z-11.905
N10780 X550.627 Y0.449 Z-11.869
N10785 X550.556 Y0.511 Z-11.774
N10790 X550.496 Y0.55 Z-11.66
N10795 X550.457 Y0.571 Z-11.534
N10800 X550.443 Y0.577 Z-11.4
N10805 F10001 Z5.
N10810 X551.136 Y239.245
N10815 F12000 Z1.227
N10820 X551.149 Y239.257 Z1.081 F2700.
N10825 X551.188 Y239.293 Z0.944
N10830 X551.245 Y239.356 Z0.824
N10835 X551.312 Y239.445 Z0.728
N10840 X551.347 Y239.501 Z0.695
N10845 X551.378 Y239.559 Z0.662
N10850 X551.408 Y239.624 Z0.646
N10855 X551.432 Y239.692 Z0.63
N10860 G3 X551.481 Y240.001 Z0.6 I-0.951 J0.309
N10865 X549.481 Z0.3 I-1. J0.
N10870 X551.481 Z0. I1. J0.
N10875 X549.481 Z-0.3 I-1. J0.
N10880 X551.481 Z-0.6 I1. J0.
N10885 X548.519 I-1.481 J0. F12000.
N10890 X551.481 I1.481 J0.
N10895 G2 X552.529 Y241.992 I2.416 J0.
N10900 G3 X552.461 Y244.242 I-0.758 J1.103
N10905 G1 X552.083 Y244.469
N10910 X551.065 Y244.815
N10915 X549.999 Y244.932
N10920 X548.94 Y244.817
N10925 X547.929 Y244.476
N10930 X547.033 Y243.937
N10935 X546.366 Y243.312
N10940 X546.241 Y243.193
N10945 X545.644 Y242.312
N10950 X545.245 Y241.307
N10955 X545.075 Y240.269
N10960 X545.138 Y239.184
N10965 X545.327 Y238.502
N10970 X545.415 Y238.186
N10975 X545.912 Y237.243
N10980 X546.617 Y236.412
N10985 X547.46 Y235.772
N10990 X548.427 Y235.325
N10995 X549.467 Y235.097
N11000 X550.533
N11005 X551.594 Y235.335
N11010 X552.543 Y235.774
N11015 X553.392 Y236.419
N11020 X554.087 Y237.241
N11025 X554.585 Y238.186
N11030 X554.862 Y239.184
N11035 X554.924 Y240.255
N11040 X554.891 Y240.474
N11045 X554.749 Y241.329
N11050 X554.363 Y242.298
N11055 X553.77 Y243.177
N11060 X553.333 Y243.596
N11065 X552.972 Y243.934
N11070 X552.461 Y244.242
N11075 G3 X551.028 Y243.782 Z-0.714 I-0.516 J-0.857 F2700.
N11080 G1 X549.563 Y240.398 Z-0.962
N11085 G3 X551.399 Y239.603 Z-1.173 I0.918 J-0.397
N11090 X551.481 Y240.001 Z-1.2 I-0.918 J0.397
N11095 X548.519 I-1.481 J0. F12000.
N11100 X551.481 I1.481 J0.
N11105 G2 X552.529 Y241.992 I2.416 J0.
N11110 G3 X552.461 Y244.242 I-0.758 J1.103
N11115 G1 X552.083 Y244.469
N11120 X551.065 Y244.815
N11125 X549.999 Y244.932
N11130 X548.94 Y244.817
N11135 X547.929 Y244.476
N11140 X547.033 Y243.937
N11145 X546.366 Y243.312
N11150 X546.241 Y243.193
N11155 X545.644 Y242.312
N11160 X545.245 Y241.307
N11165 X545.075 Y240.269
N11170 X545.138 Y239.184
N11175 X545.327 Y238.502
N11180 X545.415 Y238.186
N11185 X545.912 Y237.243
N11190 X546.617 Y236.412
N11195 X547.46 Y235.772
N11200 X548.427 Y235.325
N11205 X549.467 Y235.097
N11210 X550.533
N11215 X551.594 Y235.335
N11220 X552.543 Y235.774
N11225 X553.392 Y236.419
N11230 X554.087 Y237.241
N11235 X554.585 Y238.186
N11240 X554.862 Y239.184
N11245 X554.924 Y240.255
N11250 X554.891 Y240.474
N11255 X554.749 Y241.329
N11260 X554.363 Y242.298
N11265 X553.77 Y243.177
N11270 X553.333 Y243.596
N11275 X552.972 Y243.934
N11280 X552.461 Y244.242
N11285 G3 X551.028 Y243.782 Z-1.314 I-0.516 J-0.857 F2700.
N11290 G1 X549.563 Y240.398 Z-1.562
N11295 G3 X551.399 Y239.603 Z-1.773 I0.918 J-0.397
N11300 X551.481 Y240.001 Z-1.8 I-0.918 J0.397
N11305 X548.519 I-1.481 J0. F12000.
N11310 X551.481 I1.481 J0.
N11315 G2 X552.529 Y241.992 I2.416 J0.
N11320 G3 X552.461 Y244.242 I-0.758 J1.103
N11325 G1 X552.083 Y244.469
N11330 X551.065 Y244.815
N11335 X549.999 Y244.932
N11340 X548.94 Y244.817
N11345 X547.929 Y244.476
N11350 X547.033 Y243.937
N11355 X546.366 Y243.312
N11360 X546.241 Y243.193
N11365 X545.644 Y242.312
N11370 X545.245 Y241.307
N11375 X545.075 Y240.269
N11380 X545.138 Y239.184
N11385 X545.327 Y238.502
N11390 X545.415 Y238.186
N11395 X545.912 Y237.243
N11400 X546.617 Y236.412
N11405 X547.46 Y235.772
N11410 X548.427 Y235.325
N11415 X549.467 Y235.097
N11420 X550.533
N11425 X551.594 Y235.335
N11430 X552.543 Y235.774
N11435 X553.392 Y236.419
N11440 X554.087 Y237.241
N11445 X554.585 Y238.186
N11450 X554.862 Y239.184
N11455 X554.924 Y240.255
N11460 X554.891 Y240.474
N11465 X554.749 Y241.329
N11470 X554.363 Y242.298
N11475 X553.77 Y243.177
N11480 X553.333 Y243.596
N11485 X552.972 Y243.934
N11490 X552.461 Y244.242
N11495 G3 X551.028 Y243.782 Z-1.914 I-0.516 J-0.857 F2700.
N11500 G1 X549.563 Y240.398 Z-2.162
N11505 G3 X551.399 Y239.603 Z-2.373 I0.918 J-0.397
N11510 X551.481 Y240.001 Z-2.4 I-0.918 J0.397
N11515 X548.519 I-1.481 J0. F12000.
N11520 X551.481 I1.481 J0.
N11525 G2 X552.529 Y241.992 I2.416 J0.
N11530 G3 X552.461 Y244.242 I-0.758 J1.103
N11535 G1 X552.083 Y244.469
N11540 X551.065 Y244.815
N11545 X549.999 Y244.932
N11550 X548.94 Y244.817
N11555 X547.929 Y244.476
N11560 X547.033 Y243.937
N11565 X546.366 Y243.312
N11570 X546.241 Y243.193
N11575 X545.644 Y242.312
N11580 X545.245 Y241.307
N11585 X545.075 Y240.269
N11590 X545.138 Y239.184
N11595 X545.327 Y238.502
N11600 X545.415 Y238.186
N11605 X545.912 Y237.243
N11610 X546.617 Y236.412
N11615 X547.46 Y235.772
N11620 X548.427 Y235.325
N11625 X549.467 Y235.097
N11630 X550.533
N11635 X551.594 Y235.335
N11640 X552.543 Y235.774
N11645 X553.392 Y236.419
N11650 X554.087 Y237.241
N11655 X554.585 Y238.186
N11660 X554.862 Y239.184
N11665 X554.924 Y240.255
N11670 X554.891 Y240.474
N11675 X554.749 Y241.329
N11680 X554.363 Y242.298
N11685 X553.77 Y243.177
N11690 X553.333 Y243.596
N11695 X552.972 Y243.934
N11700 X552.461 Y244.242
N11705 G3 X551.028 Y243.782 Z-2.514 I-0.516 J-0.857 F2700.
N11710 G1 X549.563 Y240.398 Z-2.762
N11715 G3 X551.399 Y239.603 Z-2.973 I0.918 J-0.397
N11720 X551.481 Y240.001 Z-3. I-0.918 J0.397
N11725 X548.519 I-1.481 J0. F12000.
N11730 X551.481 I1.481 J0.
N11735 G2 X552.529 Y241.992 I2.416 J0.
N11740 G3 X552.461 Y244.242 I-0.758 J1.103
N11745 G1 X552.083 Y244.469
N11750 X551.065 Y244.815
N11755 X549.999 Y244.932
N11760 X548.94 Y244.817
N11765 X547.929 Y244.476
N11770 X547.033 Y243.937
N11775 X546.366 Y243.312
N11780 X546.241 Y243.193
N11785 X545.644 Y242.312
N11790 X545.245 Y241.307
N11795 X545.075 Y240.269
N11800 X545.138 Y239.184
N11805 X545.327 Y238.502
N11810 X545.415 Y238.186
N11815 X545.912 Y237.243
N11820 X546.617 Y236.412
N11825 X547.46 Y235.772
N11830 X548.427 Y235.325
N11835 X549.467 Y235.097
N11840 X550.533
N11845 X551.594 Y235.335
N11850 X552.543 Y235.774
N11855 X553.392 Y236.419
N11860 X554.087 Y237.241
N11865 X554.585 Y238.186
N11870 X554.862 Y239.184
N11875 X554.924 Y240.255
N11880 X554.891 Y240.474
N11885 X554.749 Y241.329
N11890 X554.363 Y242.298
N11895 X553.77 Y243.177
N11900 X553.333 Y243.596
N11905 X552.972 Y243.934
N11910 X552.461 Y244.242
N11915 G3 X551.028 Y243.782 Z-3.114 I-0.516 J-0.857 F2700.
N11920 G1 X549.563 Y240.398 Z-3.362
N11925 G3 X551.399 Y239.603 Z-3.573 I0.918 J-0.397
N11930 X551.481 Y240.001 Z-3.6 I-0.918 J0.397
N11935 X548.519 I-1.481 J0. F12000.
N11940 X551.481 I1.481 J0.
N11945 G2 X552.529 Y241.992 I2.416 J0.
N11950 G3 X552.461 Y244.242 I-0.758 J1.103
N11955 G1 X552.083 Y244.469
N11960 X551.065 Y244.815
N11965 X549.999 Y244.932
N11970 X548.94 Y244.817
N11975 X547.929 Y244.476
N11980 X547.033 Y243.937
N11985 X546.366 Y243.312
N11990 X546.241 Y243.193
N11995 X545.644 Y242.312
N12000 X545.245 Y241.307
N12005 X545.075 Y240.269
N12010 X545.138 Y239.184
N12015 X545.327 Y238.502
N12020 X545.415 Y238.186
N12025 X545.912 Y237.243
N12030 X546.617 Y236.412
N12035 X547.46 Y235.772
N12040 X548.427 Y235.325
N12045 X549.467 Y235.097
N12050 X550.533
N12055 X551.594 Y235.335
N12060 X552.543 Y235.774
N12065 X553.392 Y236.419
N12070 X554.087 Y237.241
N12075 X554.585 Y238.186
N12080 X554.862 Y239.184
N12085 X554.924 Y240.255
N12090 X554.891 Y240.474
N12095 X554.749 Y241.329
N12100 X554.363 Y242.298
N12105 X553.77 Y243.177
N12110 X553.333 Y243.596
N12115 X552.972 Y243.934
N12120 X552.461 Y244.242
N12125 G3 X551.028 Y243.782 Z-3.714 I-0.516 J-0.857 F2700.
N12130 G1 X549.563 Y240.398 Z-3.962
N12135 G3 X551.399 Y239.603 Z-4.173 I0.918 J-0.397
N12140 X551.481 Y240.001 Z-4.2 I-0.918 J0.397
N12145 X548.519 I-1.481 J0. F12000.
N12150 X551.481 I1.481 J0.
N12155 G2 X552.529 Y241.992 I2.416 J0.
N12160 G3 X552.461 Y244.242 I-0.758 J1.103
N12165 G1 X552.083 Y244.469
N12170 X551.065 Y244.815
N12175 X549.999 Y244.932
N12180 X548.94 Y244.817
N12185 X547.929 Y244.476
N12190 X547.033 Y243.937
N12195 X546.366 Y243.312
N12200 X546.241 Y243.193
N12205 X545.644 Y242.312
N12210 X545.245 Y241.307
N12215 X545.075 Y240.269
N12220 X545.138 Y239.184
N12225 X545.327 Y238.502
N12230 X545.415 Y238.186
N12235 X545.912 Y237.243
N12240 X546.617 Y236.412
N12245 X547.46 Y235.772
N12250 X548.427 Y235.325
N12255 X549.467 Y235.097
N12260 X550.533
N12265 X551.594 Y235.335
N12270 X552.543 Y235.774
N12275 X553.392 Y236.419
N12280 X554.087 Y237.241
N12285 X554.585 Y238.186
N12290 X554.862 Y239.184
N12295 X554.924 Y240.255
N12300 X554.891 Y240.474
N12305 X554.749 Y241.329
N12310 X554.363 Y242.298
N12315 X553.77 Y243.177
N12320 X553.333 Y243.596
N12325 X552.972 Y243.934
N12330 X552.461 Y244.242
N12335 G3 X551.028 Y243.782 Z-4.295 I-0.516 J-0.857 F2700.
N12340 G1 X549.563 Y240.398 Z-4.501
N12345 G3 X551.399 Y239.603 Z-4.677 I0.918 J-0.397
N12350 X551.481 Y240.001 Z-4.7 I-0.918 J0.397
N12355 X548.519 I-1.481 J0. F12000.
N12360 X551.481 I1.481 J0.
N12365 G2 X552.529 Y241.992 I2.416 J0.
N12370 G3 X552.461 Y244.242 I-0.758 J1.103
N12375 G1 X552.083 Y244.469
N12380 X551.065 Y244.815
N12385 X549.999 Y244.932
N12390 X548.94 Y244.817
N12395 X547.929 Y244.476
N12400 X547.033 Y243.937
N12405 X546.366 Y243.312
N12410 X546.241 Y243.193
N12415 X545.644 Y242.312
N12420 X545.245 Y241.307
N12425 X545.075 Y240.269
N12430 X545.138 Y239.184
N12435 X545.327 Y238.502
N12440 X545.415 Y238.186
N12445 X545.912 Y237.243
N12450 X546.617 Y236.412
N12455 X547.46 Y235.772
N12460 X548.427 Y235.325
N12465 X549.467 Y235.097
N12470 X550.533
N12475 X551.594 Y235.335
N12480 X552.543 Y235.774
N12485 X553.392 Y236.419
N12490 X554.087 Y237.241
N12495 X554.585 Y238.186
N12500 X554.862 Y239.184
N12505 X554.924 Y240.255
N12510 X554.891 Y240.474
N12515 X554.749 Y241.329
N12520 X554.363 Y242.298
N12525 X553.77 Y243.177
N12530 X553.333 Y243.596
N12535 X552.972 Y243.934
N12540 X552.461 Y244.242
N12545 G3 X552.041 Y244.124 I-0.155 J-0.257
N12550 G1 X550.825 Y241.816
N12555 X550.799 Y241.776
N12560 X549.881 Y240.555
N12565 X549.851 Y240.527
N12570 X549.813 Y240.51
N12575 X549.772 Y240.506
N12580 X549.469 Y240.53
N12585 X549.428 Y240.527
N12590 X549.39 Y240.51
N12595 X549.36 Y240.481
N12600 G3 X550.64 Y239.52 Z-5.143 I0.64 J-0.48 F2700.
N12605 X550.715 Y240.36 Z-5.3 I-0.64 J0.48
N12610 G1 X550.655 Y240.479 F12000.
N12615 X550.471 Y240.661
N12620 X550.251 Y240.773
N12625 X550.001 Y240.813
N12630 X549.748 Y240.772
N12635 X549.522 Y240.657
N12640 X549.345 Y240.48
N12645 X549.226 Y240.243
N12650 X549.189 Y240.01
N12655 X549.229 Y239.747
N12660 X549.346 Y239.519
N12665 X549.522 Y239.343
N12670 X549.748 Y239.228
N12675 X550.001 Y239.187
N12680 X550.251 Y239.227
N12685 X550.478 Y239.343
N12690 X550.657 Y239.522
N12695 X550.771 Y239.745
N12700 X550.811 Y240.01
N12705 X550.774 Y240.243
N12710 X550.715 Y240.36
N12715 G3 X549.285 Y239.641 Z-5.6 I-0.715 J-0.36 F2700.
N12720 X550.715 Y240.36 Z-5.9 I0.715 J0.36
N12725 G1 X550.655 Y240.479 F12000.
N12730 X550.471 Y240.661
N12735 X550.251 Y240.773
N12740 X550.001 Y240.813
N12745 X549.748 Y240.772
N12750 X549.522 Y240.657
N12755 X549.345 Y240.48
N12760 X549.226 Y240.243
N12765 X549.189 Y240.01
N12770 X549.229 Y239.747
N12775 X549.346 Y239.519
N12780 X549.522 Y239.343
N12785 X549.748 Y239.228
N12790 X550.001 Y239.187
N12795 X550.251 Y239.227
N12800 X550.478 Y239.343
N12805 X550.657 Y239.522
N12810 X550.771 Y239.745
N12815 X550.811 Y240.01
N12820 X550.774 Y240.243
N12825 X550.715 Y240.36
N12830 G3 X549.285 Y239.641 Z-6.2 I-0.715 J-0.36 F2700.
N12835 X550.715 Y240.36 Z-6.5 I0.715 J0.36
N12840 G1 X550.655 Y240.479 F12000.
N12845 X550.471 Y240.661
N12850 X550.251 Y240.773
N12855 X550.001 Y240.813
N12860 X549.748 Y240.772
N12865 X549.522 Y240.657
N12870 X549.345 Y240.48
N12875 X549.226 Y240.243
N12880 X549.189 Y240.01
N12885 X549.229 Y239.747
N12890 X549.346 Y239.519
N12895 X549.522 Y239.343
N12900 X549.748 Y239.228
N12905 X550.001 Y239.187
N12910 X550.251 Y239.227
N12915 X550.478 Y239.343
N12920 X550.657 Y239.522
N12925 X550.771 Y239.745
N12930 X550.811 Y240.01
N12935 X550.774 Y240.243
N12940 X550.715 Y240.36
N12945 G3 X549.285 Y239.641 Z-6.8 I-0.715 J-0.36 F2700.
N12950 X550.715 Y240.36 Z-7.1 I0.715 J0.36
N12955 G1 X550.655 Y240.479 F12000.
N12960 X550.471 Y240.661
N12965 X550.251 Y240.773
N12970 X550.001 Y240.813
N12975 X549.748 Y240.772
N12980 X549.522 Y240.657
N12985 X549.345 Y240.48
N12990 X549.226 Y240.243
N12995 X549.189 Y240.01
N13000 X549.229 Y239.747
N13005 X549.346 Y239.519
N13010 X549.522 Y239.343
N13015 X549.748 Y239.228
N13020 X550.001 Y239.187
N13025 X550.251 Y239.227
N13030 X550.478 Y239.343
N13035 X550.657 Y239.522
N13040 X550.771 Y239.745
N13045 X550.811 Y240.01
N13050 X550.774 Y240.243
N13055 X550.715 Y240.36
N13060 G3 X549.285 Y239.641 Z-7.4 I-0.715 J-0.36 F2700.
N13065 X550.715 Y240.36 Z-7.7 I0.715 J0.36
N13070 G1 X550.655 Y240.479 F12000.
N13075 X550.471 Y240.661
N13080 X550.251 Y240.773
N13085 X550.001 Y240.813
N13090 X549.748 Y240.772
N13095 X549.522 Y240.657
N13100 X549.345 Y240.48
N13105 X549.226 Y240.243
N13110 X549.189 Y240.01
N13115 X549.229 Y239.747
N13120 X549.346 Y239.519
N13125 X549.522 Y239.343
N13130 X549.748 Y239.228
N13135 X550.001 Y239.187
N13140 X550.251 Y239.227
N13145 X550.478 Y239.343
N13150 X550.657 Y239.522
N13155 X550.771 Y239.745
N13160 X550.811 Y240.01
N13165 X550.774 Y240.243
N13170 X550.715 Y240.36
N13175 G3 X549.285 Y239.641 Z-8. I-0.715 J-0.36 F2700.
N13180 X550.715 Y240.36 Z-8.3 I0.715 J0.36
N13185 G1 X550.655 Y240.479 F12000.
N13190 X550.471 Y240.661
N13195 X550.251 Y240.773
N13200 X550.001 Y240.813
N13205 X549.748 Y240.772
N13210 X549.522 Y240.657
N13215 X549.345 Y240.48
N13220 X549.226 Y240.243
N13225 X549.189 Y240.01
N13230 X549.229 Y239.747
N13235 X549.346 Y239.519
N13240 X549.522 Y239.343
N13245 X549.748 Y239.228
N13250 X550.001 Y239.187
N13255 X550.251 Y239.227
N13260 X550.478 Y239.343
N13265 X550.657 Y239.522
N13270 X550.771 Y239.745
N13275 X550.811 Y240.01
N13280 X550.774 Y240.243
N13285 X550.715 Y240.36
N13290 G3 X549.285 Y239.641 Z-8.6 I-0.715 J-0.36 F2700.
N13295 X550.715 Y240.36 Z-8.9 I0.715 J0.36
N13300 G1 X550.655 Y240.479 F12000.
N13305 X550.471 Y240.661
N13310 X550.251 Y240.773
N13315 X550.001 Y240.813
N13320 X549.748 Y240.772
N13325 X549.522 Y240.657
N13330 X549.345 Y240.48
N13335 X549.226 Y240.243
N13340 X549.189 Y240.01
N13345 X549.229 Y239.747
N13350 X549.346 Y239.519
N13355 X549.522 Y239.343
N13360 X549.748 Y239.228
N13365 X550.001 Y239.187
N13370 X550.251 Y239.227
N13375 X550.478 Y239.343
N13380 X550.657 Y239.522
N13385 X550.771 Y239.745
N13390 X550.811 Y240.01
N13395 X550.774 Y240.243
N13400 X550.715 Y240.36
N13405 G3 X549.285 Y239.641 Z-9.2 I-0.715 J-0.36 F2700.
N13410 X550.715 Y240.36 Z-9.5 I0.715 J0.36
N13415 G1 X550.655 Y240.479 F12000.
N13420 X550.471 Y240.661
N13425 X550.251 Y240.773
N13430 X550.001 Y240.813
N13435 X549.748 Y240.772
N13440 X549.522 Y240.657
N13445 X549.345 Y240.48
N13450 X549.226 Y240.243
N13455 X549.189 Y240.01
N13460 X549.229 Y239.747
N13465 X549.346 Y239.519
N13470 X549.522 Y239.343
N13475 X549.748 Y239.228
N13480 X550.001 Y239.187
N13485 X550.251 Y239.227
N13490 X550.478 Y239.343
N13495 X550.657 Y239.522
N13500 X550.771 Y239.745
N13505 X550.811 Y240.01
N13510 X550.774 Y240.243
N13515 X550.715 Y240.36
N13520 G3 X549.285 Y239.641 Z-9.8 I-0.715 J-0.36 F2700.
N13525 X550.715 Y240.36 Z-10.1 I0.715 J0.36
N13530 G1 X550.655 Y240.479 F12000.
N13535 X550.471 Y240.661
N13540 X550.251 Y240.773
N13545 X550.001 Y240.813
N13550 X549.748 Y240.772
N13555 X549.522 Y240.657
N13560 X549.345 Y240.48
N13565 X549.226 Y240.243
N13570 X549.189 Y240.01
N13575 X549.229 Y239.747
N13580 X549.346 Y239.519
N13585 X549.522 Y239.343
N13590 X549.748 Y239.228
N13595 X550.001 Y239.187
N13600 X550.251 Y239.227
N13605 X550.478 Y239.343
N13610 X550.657 Y239.522
N13615 X550.771 Y239.745
N13620 X550.811 Y240.01
N13625 X550.774 Y240.243
N13630 X550.715 Y240.36
N13635 G3 X549.285 Y239.641 Z-10.4 I-0.715 J-0.36 F2700.
N13640 X550.715 Y240.36 Z-10.7 I0.715 J0.36
N13645 G1 X550.655 Y240.479 F12000.
N13650 X550.471 Y240.661
N13655 X550.251 Y240.773
N13660 X550.001 Y240.813
N13665 X549.748 Y240.772
N13670 X549.522 Y240.657
N13675 X549.345 Y240.48
N13680 X549.226 Y240.243
N13685 X549.189 Y240.01
N13690 X549.229 Y239.747
N13695 X549.346 Y239.519
N13700 X549.522 Y239.343
N13705 X549.748 Y239.228
N13710 X550.001 Y239.187
N13715 X550.251 Y239.227
N13720 X550.478 Y239.343
N13725 X550.657 Y239.522
N13730 X550.771 Y239.745
N13735 X550.811 Y240.01
N13740 X550.774 Y240.243
N13745 X550.715 Y240.36
N13750 G3 X549.285 Y239.641 Z-11. I-0.715 J-0.36 F2700.
N13755 X550.715 Y240.36 Z-11.3 I0.715 J0.36
N13760 G1 X550.655 Y240.479 F12000.
N13765 X550.471 Y240.661
N13770 X550.251 Y240.773
N13775 X550.001 Y240.813
N13780 X549.748 Y240.772
N13785 X549.522 Y240.657
N13790 X549.345 Y240.48
N13795 X549.226 Y240.243
N13800 X549.189 Y240.01
N13805 X549.229 Y239.747
N13810 X549.346 Y239.519
N13815 X549.522 Y239.343
N13820 X549.748 Y239.228
N13825 X550.001 Y239.187
N13830 X550.251 Y239.227
N13835 X550.478 Y239.343
N13840 X550.657 Y239.522
N13845 X550.771 Y239.745
N13850 X550.811 Y240.01
N13855 X550.774 Y240.243
N13860 X550.715 Y240.36
N13865 G3 X549.285 Y239.641 Z-11.475 I-0.715 J-0.36 F2700.
N13870 X550.715 Y240.36 Z-11.65 I0.715 J0.36
N13875 G1 X550.655 Y240.479 F12000.
N13880 X550.471 Y240.661
N13885 X550.251 Y240.773
N13890 X550.001 Y240.813
N13895 X549.748 Y240.772
N13900 X549.522 Y240.657
N13905 X549.345 Y240.48
N13910 X549.226 Y240.243
N13915 X549.189 Y240.01
N13920 X549.229 Y239.747
N13925 X549.346 Y239.519
N13930 X549.522 Y239.343
N13935 X549.748 Y239.228
N13940 X550.001 Y239.187
N13945 X550.251 Y239.227
N13950 X550.478 Y239.343
N13955 X550.657 Y239.522
N13960 X550.771 Y239.745
N13965 X550.811 Y240.01
N13970 X550.774 Y240.243
N13975 X550.715 Y240.36
N13980 G3 X549.285 Y239.641 Z-11.825 I-0.715 J-0.36 F2700.
N13985 X550.715 Y240.36 Z-12. I0.715 J0.36
N13990 G1 X550.655 Y240.479 F12000.
N13995 X550.471 Y240.661
N14000 X550.251 Y240.773
N14005 X550.001 Y240.813
N14010 X549.748 Y240.772
N14015 X549.522 Y240.657
N14020 X549.345 Y240.48
N14025 X549.226 Y240.243
N14030 X549.189 Y240.01
N14035 X549.229 Y239.747
N14040 X549.346 Y239.519
N14045 X549.522 Y239.343
N14050 X549.748 Y239.228
N14055 X550.001 Y239.187
N14060 X550.251 Y239.227
N14065 X550.478 Y239.343
N14070 X550.657 Y239.522
N14075 X550.771 Y239.745
N14080 X550.811 Y240.01
N14085 X550.774 Y240.243
N14090 X550.715 Y240.36
N14095 X550.682 Y240.418 Z-11.992
N14100 X550.642 Y240.472 Z-11.985
N14105 X550.6 Y240.519 Z-11.963
N14110 X550.552 Y240.561 Z-11.941
N14115 X550.506 Y240.594 Z-11.905
N14120 X550.457 Y240.623 Z-11.869
N14125 X550.37 Y240.66 Z-11.774
N14130 X550.301 Y240.678 Z-11.66
N14135 X550.257 Y240.686 Z-11.534
N14140 X550.242 Y240.688 Z-11.4
N14145 F10001 Z15.
N14150 M9
N14155 M30
%
