%
(LEDSCHOTTEN_13_13_DEEL1)
(T1  D=3.175 CR=0. - ZMIN=0. - FLAT END MILL)
N10 G90 G94 G17 G91.1
N15 G21
(2D POCKET3)
N20 T1 M6
N25 S10000 M3
N30 M8
N35 G54
N40 G0 X474.325 Y63.148
N45 G43 Z27. H1
N50 G0 Z17.
N55 G1 Z8.286 F1000.
N60 X474.324 Y63.14 Z8.222
N65 X474.321 Y63.12 Z8.162
N70 X474.315 Y63.086 Z8.108
N75 X474.308 Y63.041 Z8.062
N80 X474.3 Y62.988 Z8.028
N85 X474.29 Y62.928 Z8.007
N90 X474.28 Y62.865 Z8.
N95 X473.258 Y56.413
N100 X473.254 Y56.363
N105 Y42.333
N110 Y40.86
N115 G3 X473.454 Y40.66 I0.2 J0.
N120 G1 X475.879 Y40.653
N125 G3 X476.079 Y40.853 I0.001 J0.2
N130 G1 Y50.958
N135 S5000
N140 Y40.853 Z6. F333.33
N145 S10000
N150 Y50.958 F1000.
N155 X476.075 Y51.
N160 X476.062 Y51.04
N165 X473.637 Y56.445
N170 G3 X473.254 Y56.363 I-0.182 J-0.082
N175 G1 Y42.333
N180 Y40.86
N185 X473.258 Y40.811
N190 X473.507 Y39.243
N195 X473.518 Y39.173 Z6.008
N200 X473.528 Y39.107 Z6.031
N205 X473.538 Y39.047 Z6.069
N210 X473.546 Y38.998 Z6.12
N215 X473.552 Y38.96 Z6.18
N220 X473.555 Y38.937 Z6.247
N225 X473.556 Y38.929 Z6.318
N230 G0 Z27.
N235 X452.704 Y17.969
N240 Z17.
N245 G1 Z8.286 F1000.
N250 X452.711 Y17.968 Z8.222
N255 X452.732 Y17.965 Z8.162
N260 X452.766 Y17.96 Z8.108
N265 X452.81 Y17.953 Z8.062
N270 X452.864 Y17.944 Z8.028
N275 X452.923 Y17.935 Z8.007
N280 X452.986 Y17.925 Z8.
N285 X453.036 Y17.921
N290 X461.667
N295 X463.14
N300 G3 X463.34 Y18.12 I0. J0.2
N305 G1 X463.347 Y20.545
N310 G3 X463.147 Y20.746 I-0.2 J0.001
N315 G1 X447.631
N320 G3 X447.541 Y20.367 I0. J-0.2
N325 G1 X452.317 Y17.991
N330 X452.353 Y17.978
N335 X452.391 Y17.971
N340 X452.461 Y17.966 Z7.992
N345 X452.528 Y17.96 Z7.969
N350 X452.588 Y17.956 Z7.931
N355 X452.638 Y17.952 Z7.88
N360 X452.676 Y17.949 Z7.82
N365 X452.699 Y17.947 Z7.753
N370 X452.707 Y17.946 Z7.682
N375 Z6.318
N380 X452.715 Z6.247
N385 X452.738 Y17.944 Z6.18
N390 X452.776 Y17.941 Z6.12
N395 X452.826 Y17.937 Z6.069
N400 X452.886 Y17.932 Z6.031
N405 X452.953 Y17.927 Z6.008
N410 X453.024 Y17.921 Z6.
N415 X453.036
N420 X461.667
N425 X463.14
N430 G3 X463.34 Y18.12 I0. J0.2
N435 G1 X463.347 Y20.545
N440 G3 X463.147 Y20.746 I-0.2 J0.001
N445 G1 X447.631
N450 X447.581 Y20.742
N455 X446.013 Y20.494
N460 X445.943 Y20.482 Z6.008
N465 X445.877 Y20.472 Z6.031
N470 X445.817 Y20.463 Z6.069
N475 X445.768 Y20.455 Z6.12
N480 X445.73 Y20.449 Z6.18
N485 X445.707 Y20.445 Z6.247
N490 X445.699 Y20.444 Z6.318
N495 G0 Z27.
N500 X14.826 Y19.955
N505 Z17.
N510 G1 Z8.286 F1000.
N515 X14.819 Y19.956 Z8.222
N520 X14.798 Y19.959 Z8.162
N525 X14.764 Y19.964 Z8.108
N530 X14.72 Y19.972 Z8.062
N535 X14.666 Y19.98 Z8.028
N540 X14.606 Y19.989 Z8.007
N545 X14.544 Y19.999 Z8.
N550 X9.856 Y20.742
N555 X9.806 Y20.746
N560 X0.
N565 X-1.473
N570 G3 X-1.673 Y20.546 I0. J-0.2
N575 G1 Y18.121
N580 G3 X-1.473 Y17.921 I0.2 J0.
N585 G1 X8.333
N590 X9.806
N595 S5000
N600 X-1.473 Z6. F333.33
N605 S10000
N610 X8.333 F1000.
N615 X9.806
N620 G3 X10.006 Y18.121 I0. J0.2
N625 G1 Y20.546
N630 G3 X9.806 Y20.746 I-0.2 J0.
N635 G1 X0.
N640 X-1.473
N645 X-1.523 Y20.742
N650 X-3.091 Y20.494
N655 X-3.16 Y20.482 Z6.008
N660 X-3.227 Y20.472 Z6.031
N665 X-3.286 Y20.463 Z6.069
N670 X-3.336 Y20.455 Z6.12
N675 X-3.373 Y20.449 Z6.18
N680 X-3.396 Y20.445 Z6.247
N685 X-3.404 Y20.444 Z6.318
N690 G0 Z27.
N695 X59.128 Y19.678
N700 Z17.
N705 G1 Z8.286 F1000.
N710 X59.121 Y19.679 Z8.222
N715 X59.1 Y19.683 Z8.162
N720 X59.067 Y19.688 Z8.108
N725 X59.022 Y19.695 Z8.062
N730 X58.968 Y19.704 Z8.028
N735 X58.909 Y19.713 Z8.007
N740 X58.846 Y19.723 Z8.
N745 X52.413 Y20.742
N750 X52.363 Y20.746
N755 X38.333
N760 X36.86
N765 G3 X36.66 Y20.546 I0. J-0.2
N770 G1 X36.653 Y18.121
N775 G3 X36.853 Y17.921 I0.2 J-0.001
N780 G1 X46.958
N785 S5000
N790 X36.853 Z6. F333.33
N795 S10000
N800 X46.958 F1000.
N805 X47. Y17.925
N810 X47.04 Y17.938
N815 X52.445 Y20.363
N820 G3 X52.363 Y20.746 I-0.082 J0.182
N825 G1 X38.333
N830 X36.86
N835 X36.811 Y20.742
N840 X35.243 Y20.494
N845 X35.173 Y20.482 Z6.008
N850 X35.107 Y20.472 Z6.031
N855 X35.047 Y20.463 Z6.069
N860 X34.998 Y20.455 Z6.12
N865 X34.96 Y20.449 Z6.18
N870 X34.937 Y20.445 Z6.247
N875 X34.929 Y20.444 Z6.318
N880 G0 Z27.
N885 X16.791 Y17.921
N890 Z17.
N895 G1 Z14.807 F1000.
N900 S5000
N905 G18 G2 X17.027 Z14.5 I0.318 K0. F333.33
N910 G1 X36.746 Z9.216
N915 Y20.746 Z8.459
N920 X35.032 Z8.
N925 S10000
N930 X9.921 F1000.
N935 Y17.921
N940 X36.746
N945 Y20.746
N950 X35.032
N955 S5000
N960 X19.218 Z4. F333.33
N965 S10000
N970 X9.921 F1000.
N975 Y17.921
N980 X36.746
N985 Y20.746
N990 X19.218
N995 S5000
N1000 X9.921 Z1.648 F333.33
N1005 Y17.921 Z0.934
N1010 X13.612 Z0.
N1015 S10000
N1020 X36.746 F1000.
N1025 Y20.746
N1030 X19.218
N1035 X9.921
N1040 Y17.921
N1045 X13.612
N1050 X13.672 Y17.927 Z0.012
N1055 X13.73 Y17.944 Z0.024
N1060 X13.776 Y17.967 Z0.059
N1065 X13.818 Y17.997 Z0.093
N1070 X13.865 Y18.047 Z0.196
N1075 X13.879 Y18.067 Z0.317
N1080 G0 Z17.
N1085 X14.559 Y35.767
N1090 G1 Z14.807 F1000.
N1095 S5000
N1100 X14.544 Y35.741 Z14.672 F333.33
N1105 X14.505 Y35.667 Z14.563
N1110 X14.456 Y35.555 Z14.5
N1115 G17 G3 X17.26 Y34.445 Z13.23 I1.402 J-0.555
N1120 X14.456 Y35.555 Z11.961 I-1.402 J0.555
N1125 X17.26 Y34.445 Z10.691 I1.402 J-0.555
N1130 X14.456 Y35.555 Z9.422 I-1.402 J0.555
N1135 X17.26 Y34.445 Z8.152 I1.402 J-0.555
N1140 X17.366 Y35. Z8. I-1.402 J0.555
N1145 X15.604 I-0.881 J0.
N1150 S10000
N1155 X17.413 I0.904 J0. F1000.
N1160 X12.587 I-2.413 J0.
N1165 X17.413 I2.413 J0.
N1170 G1 X17.405 Y35.053
N1175 X17.385 Y35.102
N1180 X17.351 Y35.144
N1185 X17.308 Y35.175
N1190 X17.259 Y35.195
N1195 X14.74 Y35.791
N1200 X14.687 Y35.797
N1205 X14.635 Y35.788
N1210 X14.587 Y35.766
N1215 X14.546 Y35.732
N1220 X14.516 Y35.688
N1225 S5000
N1230 G3 X17.2 Y34.312 Z6.73 I1.342 J-0.688 F333.33
N1235 X14.516 Y35.688 Z5.461 I-1.342 J0.688
N1240 X17.2 Y34.312 Z4.191 I1.342 J-0.688
N1245 X17.366 Y35. Z4. I-1.342 J0.688
N1250 X15.604 I-0.881 J0.
N1255 S10000
N1260 X17.413 I0.904 J0. F1000.
N1265 X12.587 I-2.413 J0.
N1270 X17.413 I2.413 J0.
N1275 G1 X17.405 Y35.053
N1280 X17.385 Y35.102
N1285 X17.351 Y35.144
N1290 X17.308 Y35.175
N1295 X17.259 Y35.195
N1300 X14.74 Y35.791
N1305 X14.687 Y35.797
N1310 X14.635 Y35.788
N1315 X14.587 Y35.766
N1320 X14.546 Y35.732
N1325 X14.516 Y35.688
N1330 S5000
N1335 G3 X17.2 Y34.312 Z2.73 I1.342 J-0.688 F333.33
N1340 X14.516 Y35.688 Z1.461 I-1.342 J0.688
N1345 X17.2 Y34.312 Z0.191 I1.342 J-0.688
N1350 X17.366 Y35. Z0. I-1.342 J0.688
N1355 X15.604 I-0.881 J0.
N1360 S10000
N1365 X17.413 I0.904 J0. F1000.
N1370 X12.587 I-2.413 J0.
N1375 X17.413 I2.413 J0.
N1380 G1 X17.407 Y35.06 Z0.012
N1385 X17.39 Y35.119 Z0.024
N1390 X17.367 Y35.165 Z0.059
N1395 X17.336 Y35.206 Z0.093
N1400 X17.286 Y35.253 Z0.196
N1405 X17.267 Y35.267 Z0.317
N1410 G0 Z17.
N1415 X473.386 Y19.18
N1420 G1 Z14.807 F1000.
N1425 S5000
N1430 X473.412 Y19.165 Z14.672 F333.33
N1435 X473.486 Y19.126 Z14.563
N1440 X473.597 Y19.076 Z14.5
N1445 G3 X474.708 Y21.881 Z13.23 I0.555 J1.402
N1450 X473.597 Y19.076 Z11.961 I-0.555 J-1.402
N1455 X474.708 Y21.881 Z10.691 I0.555 J1.402
N1460 X473.597 Y19.076 Z9.422 I-0.555 J-1.402
N1465 X474.708 Y21.881 Z8.152 I0.555 J1.402
N1470 X474.152 Y21.987 Z8. I-0.555 J-1.402
N1475 Y19.349 I0. J-1.319
N1480 S10000
N1485 G1 X474.332 F1000.
N1490 G3 X474.651 Y19.668 I0. J0.319
N1495 G1 Y21.092
N1500 X474.645 Y21.13
N1505 X474.626 Y21.164
N1510 X474.597 Y21.189
N1515 X474.562 Y21.203
N1520 X474.523 Y21.204
N1525 X474.487 Y21.193
N1530 X474.456 Y21.169
N1535 X474.435 Y21.137
N1540 G2 X472.863 Y19.565 I-2.768 J1.196
N1545 G1 X472.831 Y19.544
N1550 X472.808 Y19.514
N1555 X472.796 Y19.477
N1560 X472.797 Y19.439
N1565 X472.811 Y19.403
N1570 X472.837 Y19.374
N1575 X472.87 Y19.355
N1580 X472.908 Y19.349
N1585 X474.152
N1590 G2 X475.086 Y18.879 I0. J-1.163
N1595 G3 X476.079 Y19.207 I0.442 J0.328
N1600 G1 Y40.746
N1605 X473.254
N1610 Y22.333
N1615 G2 X471.667 Y20.746 I-1.587 J0.
N1620 G1 X463.254
N1625 Y17.921
N1630 X476.079
N1635 Y19.207
N1640 X476.073 Y19.251
N1645 X476.055 Y19.292
N1650 X476.026 Y19.326
N1655 X475.988 Y19.35
N1660 X475.945 Y19.363
N1665 X475.901 Y19.364
N1670 X474.997 Y19.252
N1675 X473.849 Y19.35
N1680 X473.492 Y19.303
N1685 X473.458 Y19.29
N1690 X473.431 Y19.264
N1695 X473.417 Y19.23
N1700 X473.419 Y19.193
N1705 X473.436 Y19.16
N1710 X473.464 Y19.137
N1715 S5000
N1720 G3 X475.359 Y19.574 Z7.434 I0.688 J1.342 F333.33
N1725 X472.946 Y21.383 Z6.164 I-1.207 J0.905
N1730 X475.359 Y19.574 Z4.895 I1.207 J-0.905
N1735 X474.152 Y21.987 Z4. I-1.207 J0.905
N1740 Y19.349 I0. J-1.319
N1745 S10000
N1750 G1 X474.332 F1000.
N1755 G3 X474.651 Y19.668 I0. J0.319
N1760 G1 Y21.092
N1765 X474.645 Y21.13
N1770 X474.626 Y21.164
N1775 X474.597 Y21.189
N1780 X474.562 Y21.203
N1785 X474.523 Y21.204
N1790 X474.487 Y21.193
N1795 X474.456 Y21.169
N1800 X474.435 Y21.137
N1805 G2 X472.863 Y19.565 I-2.768 J1.196
N1810 G1 X472.831 Y19.544
N1815 X472.808 Y19.514
N1820 X472.796 Y19.477
N1825 X472.797 Y19.439
N1830 X472.811 Y19.403
N1835 X472.837 Y19.374
N1840 X472.87 Y19.355
N1845 X472.908 Y19.349
N1850 X474.152
N1855 G2 X475.086 Y18.879 I0. J-1.163
N1860 G3 X476.079 Y19.207 I0.442 J0.328
N1865 G1 Y40.746
N1870 X473.254
N1875 Y22.333
N1880 G2 X471.667 Y20.746 I-1.587 J0.
N1885 G1 X463.254
N1890 Y17.921
N1895 X476.079
N1900 Y19.207
N1905 X476.073 Y19.251
N1910 X476.055 Y19.292
N1915 X476.026 Y19.326
N1920 X475.988 Y19.35
N1925 X475.945 Y19.363
N1930 X475.901 Y19.364
N1935 X474.997 Y19.252
N1940 X473.849 Y19.35
N1945 X473.492 Y19.303
N1950 X473.458 Y19.29
N1955 X473.431 Y19.264
N1960 X473.417 Y19.23
N1965 X473.419 Y19.193
N1970 X473.436 Y19.16
N1975 X473.464 Y19.137
N1980 S5000
N1985 G3 X475.359 Y19.574 Z3.434 I0.688 J1.342 F333.33
N1990 X472.946 Y21.383 Z2.164 I-1.207 J0.905
N1995 X475.359 Y19.574 Z0.895 I1.207 J-0.905
N2000 X474.152 Y21.987 Z0. I-1.207 J0.905
N2005 Y19.349 I0. J-1.319
N2010 S10000
N2015 G1 X474.332 F1000.
N2020 G3 X474.651 Y19.668 I0. J0.319
N2025 G1 Y21.092
N2030 X474.645 Y21.13
N2035 X474.626 Y21.164
N2040 X474.597 Y21.189
N2045 X474.562 Y21.203
N2050 X474.523 Y21.204
N2055 X474.487 Y21.193
N2060 X474.456 Y21.169
N2065 X474.435 Y21.137
N2070 G2 X472.863 Y19.565 I-2.768 J1.196
N2075 G1 X472.831 Y19.544
N2080 X472.808 Y19.514
N2085 X472.796 Y19.477
N2090 X472.797 Y19.439
N2095 X472.811 Y19.403
N2100 X472.837 Y19.374
N2105 X472.87 Y19.355
N2110 X472.908 Y19.349
N2115 X474.152
N2120 G2 X475.086 Y18.879 I0. J-1.163
N2125 G3 X476.079 Y19.207 I0.442 J0.328
N2130 G1 Y40.746
N2135 X473.254
N2140 Y22.333
N2145 G2 X471.667 Y20.746 I-1.587 J0.
N2150 G1 X463.254
N2155 Y17.921
N2160 X476.079
N2165 Y19.207
N2170 X476.074 Y19.267 Z0.012
N2175 X476.057 Y19.325 Z0.024
N2180 X476.034 Y19.371 Z0.059
N2185 X476.003 Y19.413 Z0.093
N2190 X475.953 Y19.46 Z0.196
N2195 X475.934 Y19.474 Z0.317
N2200 G0 Z27.
(2D CONTOUR4)
N2205 S12000 M3
N2210 M8
N2215 G0 X261.627 Y149.682
N2220 Z27.
N2225 Z17.
N2230 G1 Z8.317 F333.33
N2235 G18 G2 X261.944 Z8. I0.317 K0. F1000.
N2240 G1 X262.262
N2245 G17 G3 X262.579 Y150. I0. J0.318
N2250 G1 Y162.167 F1100.
N2255 G3 X262.167 Y162.579 I-0.413 J0.
N2260 G1 X237.833
N2265 G3 X237.421 Y162.167 I0. J-0.412
N2270 G1 Y137.833
N2275 G3 X237.833 Y137.421 I0.412 J0.
N2280 G1 X262.167
N2285 G3 X262.579 Y137.833 I0. J0.412
N2290 G1 Y150.
N2295 G3 X262.262 Y150.318 I-0.318 J0. F1000.
N2300 G1 X261.944
N2305 G18 G3 X261.627 Z8.317 I0. K0.318
N2310 G1 Y149.682 F1100.
N2315 Z4.317 F333.33
N2320 G2 X261.944 Z4. I0.317 K0. F1000.
N2325 G1 X262.262
N2330 G17 G3 X262.579 Y150. I0. J0.318
N2335 G1 Y162.167 F1100.
N2340 G3 X262.167 Y162.579 I-0.413 J0.
N2345 G1 X237.833
N2350 G3 X237.421 Y162.167 I0. J-0.412
N2355 G1 Y137.833
N2360 G3 X237.833 Y137.421 I0.412 J0.
N2365 G1 X262.167
N2370 G3 X262.579 Y137.833 I0. J0.412
N2375 G1 Y150.
N2380 G3 X262.262 Y150.318 I-0.318 J0. F1000.
N2385 G1 X261.944
N2390 G18 G3 X261.627 Z4.317 I0. K0.318
N2395 G1 Y149.682 F1100.
N2400 Z1. F333.33
N2405 Z17. F1000.
N2410 Z1. F333.33
N2415 X261.944 F1000.
N2420 X262.262
N2425 G17 G3 X262.579 Y150. I0. J0.318
N2430 G1 Y152.337 F1100.
N2435 Z0. F333.33
N2440 Y162.167 F1100.
N2445 G3 X262.167 Y162.579 I-0.413 J0.
N2450 G1 X252.337
N2455 Z1.
N2460 X247.663
N2465 Z0. F333.33
N2470 X237.833 F1100.
N2475 G3 X237.421 Y162.167 I0. J-0.412
N2480 G1 Y152.337
N2485 Z1.
N2490 Y147.663
N2495 Z0. F333.33
N2500 Y137.833 F1100.
N2505 G3 X237.833 Y137.421 I0.412 J0.
N2510 G1 X247.663
N2515 Z1.
N2520 X252.337
N2525 Z0. F333.33
N2530 X262.167 F1100.
N2535 G3 X262.579 Y137.833 I0. J0.412
N2540 G1 Y147.663
N2545 Z1.
N2550 Y150.
N2555 G3 X262.262 Y150.318 I-0.318 J0. F1000.
N2560 G1 X261.627
N2565 G0 Z17.
N2570 X294.96 Y149.683
N2575 G1 Z8.317 F333.33
N2580 G18 G2 X295.277 Z8. I0.318 K0. F1000.
N2585 G1 X295.595
N2590 G17 G3 X295.913 Y150.001 I0. J0.318
N2595 G1 Y162.167 F1100.
N2600 G3 X295.5 Y162.579 I-0.413 J0.
N2605 G1 X271.167
N2610 G3 X270.754 Y162.167 I0. J-0.412
N2615 G1 Y137.833
N2620 G3 X271.167 Y137.421 I0.413 J0.
N2625 G1 X295.5
N2630 G3 X295.913 Y137.833 I0. J0.412
N2635 G1 Y150.001
N2640 G3 X295.595 Y150.318 I-0.318 J0. F1000.
N2645 G1 X295.277
N2650 G18 G3 X294.96 Z8.317 I0. K0.318
N2655 G1 Y149.683 F1100.
N2660 Z4.317 F333.33
N2665 G2 X295.277 Z4. I0.318 K0. F1000.
N2670 G1 X295.595
N2675 G17 G3 X295.913 Y150.001 I0. J0.318
N2680 G1 Y162.167 F1100.
N2685 G3 X295.5 Y162.579 I-0.413 J0.
N2690 G1 X271.167
N2695 G3 X270.754 Y162.167 I0. J-0.412
N2700 G1 Y137.833
N2705 G3 X271.167 Y137.421 I0.413 J0.
N2710 G1 X295.5
N2715 G3 X295.913 Y137.833 I0. J0.412
N2720 G1 Y150.001
N2725 G3 X295.595 Y150.318 I-0.318 J0. F1000.
N2730 G1 X295.277
N2735 G18 G3 X294.96 Z4.317 I0. K0.318
N2740 G1 Y149.683 F1100.
N2745 Z1. F333.33
N2750 Z17. F1000.
N2755 Z1. F333.33
N2760 X295.277 F1000.
N2765 X295.595
N2770 G17 G3 X295.913 Y150.001 I0. J0.318
N2775 G1 Y152.337 F1100.
N2780 Z0. F333.33
N2785 Y162.167 F1100.
N2790 G3 X295.5 Y162.579 I-0.413 J0.
N2795 G1 X285.671
N2800 Z1.
N2805 X280.996
N2810 Z0. F333.33
N2815 X271.167 F1100.
N2820 G3 X270.754 Y162.167 I0. J-0.412
N2825 G1 Y152.337
N2830 Z1.
N2835 Y147.663
N2840 Z0. F333.33
N2845 Y137.833 F1100.
N2850 G3 X271.167 Y137.421 I0.413 J0.
N2855 G1 X280.996
N2860 Z1.
N2865 X285.671
N2870 Z0. F333.33
N2875 X295.5 F1100.
N2880 G3 X295.913 Y137.833 I0. J0.412
N2885 G1 Y147.663
N2890 Z1.
N2895 Y150.001
N2900 G3 X295.595 Y150.318 I-0.318 J0. F1000.
N2905 G1 X294.96
N2910 G0 Z17.
N2915 X328.293 Y149.682
N2920 G1 Z8.317 F333.33
N2925 G18 G2 X328.611 Z8. I0.318 K0. F1000.
N2930 G1 X328.928
N2935 G17 G3 X329.246 Y149.999 I0. J0.317
N2940 G1 Y162.167 F1100.
N2945 G3 X328.833 Y162.579 I-0.413 J0.
N2950 G1 X304.5
N2955 G3 X304.087 Y162.167 I0. J-0.412
N2960 G1 Y137.833
N2965 G3 X304.5 Y137.421 I0.413 J0.
N2970 G1 X328.833
N2975 G3 X329.246 Y137.833 I0. J0.412
N2980 G1 Y149.999
N2985 G3 X328.928 Y150.317 I-0.318 J0. F1000.
N2990 G1 X328.611
N2995 G18 G3 X328.293 Z8.317 I0. K0.318
N3000 G1 Y149.682 F1100.
N3005 Z4.317 F333.33
N3010 G2 X328.611 Z4. I0.318 K0. F1000.
N3015 G1 X328.928
N3020 G17 G3 X329.246 Y149.999 I0. J0.317
N3025 G1 Y162.167 F1100.
N3030 G3 X328.833 Y162.579 I-0.413 J0.
N3035 G1 X304.5
N3040 G3 X304.087 Y162.167 I0. J-0.412
N3045 G1 Y137.833
N3050 G3 X304.5 Y137.421 I0.413 J0.
N3055 G1 X328.833
N3060 G3 X329.246 Y137.833 I0. J0.412
N3065 G1 Y149.999
N3070 G3 X328.928 Y150.317 I-0.318 J0. F1000.
N3075 G1 X328.611
N3080 G18 G3 X328.293 Z4.317 I0. K0.318
N3085 G1 Y149.682 F1100.
N3090 Z1. F333.33
N3095 Z17. F1000.
N3100 Z1. F333.33
N3105 X328.611 F1000.
N3110 X328.928
N3115 G17 G3 X329.246 Y149.999 I0. J0.317
N3120 G1 Y152.337 F1100.
N3125 Z0. F333.33
N3130 Y162.167 F1100.
N3135 G3 X328.833 Y162.579 I-0.413 J0.
N3140 G1 X319.004
N3145 Z1.
N3150 X314.329
N3155 Z0. F333.33
N3160 X304.5 F1100.
N3165 G3 X304.087 Y162.167 I0. J-0.412
N3170 G1 Y152.337
N3175 Z1.
N3180 Y147.663
N3185 Z0. F333.33
N3190 Y137.833 F1100.
N3195 G3 X304.5 Y137.421 I0.413 J0.
N3200 G1 X314.329
N3205 Z1.
N3210 X319.004
N3215 Z0. F333.33
N3220 X328.833 F1100.
N3225 G3 X329.246 Y137.833 I0. J0.412
N3230 G1 Y147.663
N3235 Z1.
N3240 Y149.999
N3245 G3 X328.928 Y150.317 I-0.318 J0. F1000.
N3250 G1 X328.293
N3255 G0 Z17.
N3260 X361.627 Y149.682
N3265 G1 Z8.317 F333.33
N3270 G18 G2 X361.944 Z8. I0.317 K0. F1000.
N3275 G1 X362.262
N3280 G17 G3 X362.579 Y150. I0. J0.318
N3285 G1 Y162.167 F1100.
N3290 G3 X362.167 Y162.579 I-0.413 J0.
N3295 G1 X337.833
N3300 G3 X337.421 Y162.167 I0. J-0.412
N3305 G1 Y137.833
N3310 G3 X337.833 Y137.421 I0.413 J0.
N3315 G1 X362.167
N3320 G3 X362.579 Y137.833 I0. J0.412
N3325 G1 Y150.
N3330 G3 X362.262 Y150.318 I-0.318 J0. F1000.
N3335 G1 X361.944
N3340 G18 G3 X361.627 Z8.317 I0. K0.318
N3345 G1 Y149.682 F1100.
N3350 Z4.317 F333.33
N3355 G2 X361.944 Z4. I0.317 K0. F1000.
N3360 G1 X362.262
N3365 G17 G3 X362.579 Y150. I0. J0.318
N3370 G1 Y162.167 F1100.
N3375 G3 X362.167 Y162.579 I-0.413 J0.
N3380 G1 X337.833
N3385 G3 X337.421 Y162.167 I0. J-0.412
N3390 G1 Y137.833
N3395 G3 X337.833 Y137.421 I0.413 J0.
N3400 G1 X362.167
N3405 G3 X362.579 Y137.833 I0. J0.412
N3410 G1 Y150.
N3415 G3 X362.262 Y150.318 I-0.318 J0. F1000.
N3420 G1 X361.944
N3425 G18 G3 X361.627 Z4.317 I0. K0.318
N3430 G1 Y149.682 F1100.
N3435 Z1. F333.33
N3440 Z17. F1000.
N3445 Z1. F333.33
N3450 X361.944 F1000.
N3455 X362.262
N3460 G17 G3 X362.579 Y150. I0. J0.318
N3465 G1 Y152.337 F1100.
N3470 Z0. F333.33
N3475 Y162.167 F1100.
N3480 G3 X362.167 Y162.579 I-0.413 J0.
N3485 G1 X352.337
N3490 Z1.
N3495 X347.663
N3500 Z0. F333.33
N3505 X337.833 F1100.
N3510 G3 X337.421 Y162.167 I0. J-0.412
N3515 G1 Y152.337
N3520 Z1.
N3525 Y147.663
N3530 Z0. F333.33
N3535 Y137.833 F1100.
N3540 G3 X337.833 Y137.421 I0.413 J0.
N3545 G1 X347.663
N3550 Z1.
N3555 X352.337
N3560 Z0. F333.33
N3565 X362.167 F1100.
N3570 G3 X362.579 Y137.833 I0. J0.412
N3575 G1 Y147.663
N3580 Z1.
N3585 Y150.
N3590 G3 X362.262 Y150.318 I-0.318 J0. F1000.
N3595 G1 X361.627
N3600 G0 Z17.
N3605 X394.96 Y149.682
N3610 G1 Z8.317 F333.33
N3615 G18 G2 X395.277 Z8. I0.318 K0. F1000.
N3620 G1 X395.595
N3625 G17 G3 X395.913 Y149.999 I0. J0.317
N3630 G1 Y162.167 F1100.
N3635 G3 X395.5 Y162.579 I-0.413 J0.
N3640 G1 X371.167
N3645 G3 X370.754 Y162.167 I0. J-0.412
N3650 G1 Y137.833
N3655 G3 X371.167 Y137.421 I0.413 J0.
N3660 G1 X395.5
N3665 G3 X395.913 Y137.833 I0. J0.412
N3670 G1 Y149.999
N3675 G3 X395.595 Y150.317 I-0.318 J0. F1000.
N3680 G1 X395.277
N3685 G18 G3 X394.96 Z8.317 I0. K0.318
N3690 G1 Y149.682 F1100.
N3695 Z4.317 F333.33
N3700 G2 X395.277 Z4. I0.318 K0. F1000.
N3705 G1 X395.595
N3710 G17 G3 X395.913 Y149.999 I0. J0.317
N3715 G1 Y162.167 F1100.
N3720 G3 X395.5 Y162.579 I-0.413 J0.
N3725 G1 X371.167
N3730 G3 X370.754 Y162.167 I0. J-0.412
N3735 G1 Y137.833
N3740 G3 X371.167 Y137.421 I0.413 J0.
N3745 G1 X395.5
N3750 G3 X395.913 Y137.833 I0. J0.412
N3755 G1 Y149.999
N3760 G3 X395.595 Y150.317 I-0.318 J0. F1000.
N3765 G1 X395.277
N3770 G18 G3 X394.96 Z4.317 I0. K0.318
N3775 G1 Y149.682 F1100.
N3780 Z1. F333.33
N3785 Z17. F1000.
N3790 Z1. F333.33
N3795 X395.277 F1000.
N3800 X395.595
N3805 G17 G3 X395.913 Y149.999 I0. J0.317
N3810 G1 Y152.337 F1100.
N3815 Z0. F333.33
N3820 Y162.167 F1100.
N3825 G3 X395.5 Y162.579 I-0.413 J0.
N3830 G1 X385.671
N3835 Z1.
N3840 X380.996
N3845 Z0. F333.33
N3850 X371.167 F1100.
N3855 G3 X370.754 Y162.167 I0. J-0.412
N3860 G1 Y152.337
N3865 Z1.
N3870 Y147.663
N3875 Z0. F333.33
N3880 Y137.833 F1100.
N3885 G3 X371.167 Y137.421 I0.413 J0.
N3890 G1 X380.996
N3895 Z1.
N3900 X385.671
N3905 Z0. F333.33
N3910 X395.5 F1100.
N3915 G3 X395.913 Y137.833 I0. J0.412
N3920 G1 Y147.663
N3925 Z1.
N3930 Y149.999
N3935 G3 X395.595 Y150.317 I-0.318 J0. F1000.
N3940 G1 X394.96
N3945 G0 Z17.
N3950 X428.293 Y149.683
N3955 G1 Z8.317 F333.33
N3960 G18 G2 X428.611 Z8. I0.318 K0. F1000.
N3965 G1 X428.928
N3970 G17 G3 X429.246 Y150.001 I0. J0.318
N3975 G1 Y162.167 F1100.
N3980 G3 X428.833 Y162.579 I-0.413 J0.
N3985 G1 X404.5
N3990 G3 X404.087 Y162.167 I0. J-0.412
N3995 G1 Y137.833
N4000 G3 X404.5 Y137.421 I0.413 J0.
N4005 G1 X428.833
N4010 G3 X429.246 Y137.833 I0. J0.412
N4015 G1 Y150.001
N4020 G3 X428.928 Y150.318 I-0.318 J0. F1000.
N4025 G1 X428.611
N4030 G18 G3 X428.293 Z8.317 I0. K0.318
N4035 G1 Y149.683 F1100.
N4040 Z4.317 F333.33
N4045 G2 X428.611 Z4. I0.318 K0. F1000.
N4050 G1 X428.928
N4055 G17 G3 X429.246 Y150.001 I0. J0.318
N4060 G1 Y162.167 F1100.
N4065 G3 X428.833 Y162.579 I-0.413 J0.
N4070 G1 X404.5
N4075 G3 X404.087 Y162.167 I0. J-0.412
N4080 G1 Y137.833
N4085 G3 X404.5 Y137.421 I0.413 J0.
N4090 G1 X428.833
N4095 G3 X429.246 Y137.833 I0. J0.412
N4100 G1 Y150.001
N4105 G3 X428.928 Y150.318 I-0.318 J0. F1000.
N4110 G1 X428.611
N4115 G18 G3 X428.293 Z4.317 I0. K0.318
N4120 G1 Y149.683 F1100.
N4125 Z1. F333.33
N4130 Z17. F1000.
N4135 Z1. F333.33
N4140 X428.611 F1000.
N4145 X428.928
N4150 G17 G3 X429.246 Y150.001 I0. J0.318
N4155 G1 Y152.337 F1100.
N4160 Z0. F333.33
N4165 Y162.167 F1100.
N4170 G3 X428.833 Y162.579 I-0.413 J0.
N4175 G1 X419.004
N4180 Z1.
N4185 X414.329
N4190 Z0. F333.33
N4195 X404.5 F1100.
N4200 G3 X404.087 Y162.167 I0. J-0.412
N4205 G1 Y152.337
N4210 Z1.
N4215 Y147.663
N4220 Z0. F333.33
N4225 Y137.833 F1100.
N4230 G3 X404.5 Y137.421 I0.413 J0.
N4235 G1 X414.329
N4240 Z1.
N4245 X419.004
N4250 Z0. F333.33
N4255 X428.833 F1100.
N4260 G3 X429.246 Y137.833 I0. J0.412
N4265 G1 Y147.663
N4270 Z1.
N4275 Y150.001
N4280 G3 X428.928 Y150.318 I-0.318 J0. F1000.
N4285 G1 X428.293
N4290 G0 Z17.
N4295 X461.627 Y149.682
N4300 G1 Z8.317 F333.33
N4305 G18 G2 X461.944 Z8. I0.317 K0. F1000.
N4310 G1 X462.262
N4315 G17 G3 X462.579 Y150. I0. J0.318
N4320 G1 Y162.167 F1100.
N4325 G3 X462.167 Y162.579 I-0.413 J0.
N4330 G1 X437.833
N4335 G3 X437.421 Y162.167 I0. J-0.412
N4340 G1 Y137.833
N4345 G3 X437.833 Y137.421 I0.413 J0.
N4350 G1 X462.167
N4355 G3 X462.579 Y137.833 I0. J0.412
N4360 G1 Y150.
N4365 G3 X462.262 Y150.318 I-0.318 J0. F1000.
N4370 G1 X461.944
N4375 G18 G3 X461.627 Z8.317 I0. K0.318
N4380 G1 Y149.682 F1100.
N4385 Z4.317 F333.33
N4390 G2 X461.944 Z4. I0.317 K0. F1000.
N4395 G1 X462.262
N4400 G17 G3 X462.579 Y150. I0. J0.318
N4405 G1 Y162.167 F1100.
N4410 G3 X462.167 Y162.579 I-0.413 J0.
N4415 G1 X437.833
N4420 G3 X437.421 Y162.167 I0. J-0.412
N4425 G1 Y137.833
N4430 G3 X437.833 Y137.421 I0.413 J0.
N4435 G1 X462.167
N4440 G3 X462.579 Y137.833 I0. J0.412
N4445 G1 Y150.
N4450 G3 X462.262 Y150.318 I-0.318 J0. F1000.
N4455 G1 X461.944
N4460 G18 G3 X461.627 Z4.317 I0. K0.318
N4465 G1 Y149.682 F1100.
N4470 Z1. F333.33
N4475 Z17. F1000.
N4480 Z1. F333.33
N4485 X461.944 F1000.
N4490 X462.262
N4495 G17 G3 X462.579 Y150. I0. J0.318
N4500 G1 Y152.337 F1100.
N4505 Z0. F333.33
N4510 Y162.167 F1100.
N4515 G3 X462.167 Y162.579 I-0.413 J0.
N4520 G1 X452.337
N4525 Z1.
N4530 X447.663
N4535 Z0. F333.33
N4540 X437.833 F1100.
N4545 G3 X437.421 Y162.167 I0. J-0.412
N4550 G1 Y152.337
N4555 Z1.
N4560 Y147.663
N4565 Z0. F333.33
N4570 Y137.833 F1100.
N4575 G3 X437.833 Y137.421 I0.413 J0.
N4580 G1 X447.663
N4585 Z1.
N4590 X452.337
N4595 Z0. F333.33
N4600 X462.167 F1100.
N4605 G3 X462.579 Y137.833 I0. J0.412
N4610 G1 Y147.663
N4615 Z1.
N4620 Y150.
N4625 G3 X462.262 Y150.318 I-0.318 J0. F1000.
N4630 G1 X461.627
N4635 G0 Z17.
N4640 X449.682 Y171.707
N4645 G1 Z8.317 F333.33
N4650 G19 G2 Y171.389 Z8. J-0.318 K0. F1000.
N4655 G1 Y171.072
N4660 G17 G3 X450. Y170.755 I0.318 J0.
N4665 G1 X462.167 F1100.
N4670 G3 X462.579 Y171.167 I0. J0.413
N4675 G1 Y195.5
N4680 G3 X462.167 Y195.913 I-0.413 J0.
N4685 G1 X437.833
N4690 G3 X437.421 Y195.5 I0. J-0.413
N4695 G1 Y171.167
N4700 G3 X437.833 Y170.755 I0.413 J0.
N4705 G1 X450.
N4710 G3 X450.317 Y171.072 I0. J0.318 F1000.
N4715 G1 Y171.389
N4720 G19 G3 Y171.707 Z8.317 J0. K0.318
N4725 G1 X449.682 F1100.
N4730 Z4.317 F333.33
N4735 G2 Y171.389 Z4. J-0.318 K0. F1000.
N4740 G1 Y171.072
N4745 G17 G3 X450. Y170.755 I0.318 J0.
N4750 G1 X462.167 F1100.
N4755 G3 X462.579 Y171.167 I0. J0.413
N4760 G1 Y195.5
N4765 G3 X462.167 Y195.913 I-0.413 J0.
N4770 G1 X437.833
N4775 G3 X437.421 Y195.5 I0. J-0.413
N4780 G1 Y171.167
N4785 G3 X437.833 Y170.755 I0.413 J0.
N4790 G1 X450.
N4795 G3 X450.317 Y171.072 I0. J0.318 F1000.
N4800 G1 Y171.389
N4805 G19 G3 Y171.707 Z4.317 J0. K0.318
N4810 G1 X449.682 F1100.
N4815 Z1. F333.33
N4820 Z17. F1000.
N4825 Z1. F333.33
N4830 Y171.389 F1000.
N4835 Y171.072
N4840 G17 G3 X450. Y170.755 I0.318 J0.
N4845 G1 X452.337 F1100.
N4850 Z0. F333.33
N4855 X462.167 F1100.
N4860 G3 X462.579 Y171.167 I0. J0.413
N4865 G1 Y180.995
N4870 Z1.
N4875 Y185.671
N4880 Z0. F333.33
N4885 Y195.5 F1100.
N4890 G3 X462.167 Y195.913 I-0.413 J0.
N4895 G1 X452.337
N4900 Z1.
N4905 X447.663
N4910 Z0. F333.33
N4915 X437.833 F1100.
N4920 G3 X437.421 Y195.5 I0. J-0.413
N4925 G1 Y185.671
N4930 Z1.
N4935 Y180.995
N4940 Z0. F333.33
N4945 Y171.167 F1100.
N4950 G3 X437.833 Y170.755 I0.413 J0.
N4955 G1 X447.663
N4960 Z1.
N4965 X450.
N4970 G3 X450.317 Y171.072 I0. J0.318 F1000.
N4975 G1 Y171.707
N4980 G0 Z17.
N4985 X428.293 Y183.016
N4990 G1 Z8.317 F333.33
N4995 G18 G2 X428.611 Z8. I0.318 K0. F1000.
N5000 G1 X428.928
N5005 G17 G3 X429.246 Y183.333 I0. J0.317
N5010 G1 Y195.5 F1100.
N5015 G3 X428.833 Y195.913 I-0.413 J0.
N5020 G1 X404.5
N5025 G3 X404.087 Y195.5 I0. J-0.413
N5030 G1 Y171.167
N5035 G3 X404.5 Y170.755 I0.413 J0.
N5040 G1 X428.833
N5045 G3 X429.246 Y171.167 I0. J0.413
N5050 G1 Y183.333
N5055 G3 X428.928 Y183.651 I-0.318 J0. F1000.
N5060 G1 X428.611
N5065 G18 G3 X428.293 Z8.317 I0. K0.318
N5070 G1 Y183.016 F1100.
N5075 Z4.317 F333.33
N5080 G2 X428.611 Z4. I0.318 K0. F1000.
N5085 G1 X428.928
N5090 G17 G3 X429.246 Y183.333 I0. J0.317
N5095 G1 Y195.5 F1100.
N5100 G3 X428.833 Y195.913 I-0.413 J0.
N5105 G1 X404.5
N5110 G3 X404.087 Y195.5 I0. J-0.413
N5115 G1 Y171.167
N5120 G3 X404.5 Y170.755 I0.413 J0.
N5125 G1 X428.833
N5130 G3 X429.246 Y171.167 I0. J0.413
N5135 G1 Y183.333
N5140 G3 X428.928 Y183.651 I-0.318 J0. F1000.
N5145 G1 X428.611
N5150 G18 G3 X428.293 Z4.317 I0. K0.318
N5155 G1 Y183.016 F1100.
N5160 Z1. F333.33
N5165 Z17. F1000.
N5170 Z1. F333.33
N5175 X428.611 F1000.
N5180 X428.928
N5185 G17 G3 X429.246 Y183.333 I0. J0.317
N5190 G1 Y185.671 F1100.
N5195 Z0. F333.33
N5200 Y195.5 F1100.
N5205 G3 X428.833 Y195.913 I-0.413 J0.
N5210 G1 X419.004
N5215 Z1.
N5220 X414.329
N5225 Z0. F333.33
N5230 X404.5 F1100.
N5235 G3 X404.087 Y195.5 I0. J-0.413
N5240 G1 Y185.671
N5245 Z1.
N5250 Y180.995
N5255 Z0. F333.33
N5260 Y171.167 F1100.
N5265 G3 X404.5 Y170.755 I0.413 J0.
N5270 G1 X414.329
N5275 Z1.
N5280 X419.004
N5285 Z0. F333.33
N5290 X428.833 F1100.
N5295 G3 X429.246 Y171.167 I0. J0.413
N5300 G1 Y180.995
N5305 Z1.
N5310 Y183.333
N5315 G3 X428.928 Y183.651 I-0.318 J0. F1000.
N5320 G1 X428.293
N5325 G0 Z17.
N5330 Y216.349
N5335 G1 Z8.317 F333.33
N5340 G18 G2 X428.611 Z8. I0.318 K0. F1000.
N5345 G1 X428.928
N5350 G17 G3 X429.246 Y216.667 I0. J0.318
N5355 G1 Y228.833 F1100.
N5360 G3 X428.833 Y229.245 I-0.413 J0.
N5365 G1 X404.5
N5370 G3 X404.087 Y228.833 I0. J-0.413
N5375 G1 Y204.5
N5380 G3 X404.5 Y204.087 I0.413 J0.
N5385 G1 X428.833
N5390 G3 X429.246 Y204.5 I0. J0.413
N5395 G1 Y216.667
N5400 G3 X428.928 Y216.984 I-0.318 J0. F1000.
N5405 G1 X428.611
N5410 G18 G3 X428.293 Z8.317 I0. K0.318
N5415 G1 Y216.349 F1100.
N5420 Z4.317 F333.33
N5425 G2 X428.611 Z4. I0.318 K0. F1000.
N5430 G1 X428.928
N5435 G17 G3 X429.246 Y216.667 I0. J0.318
N5440 G1 Y228.833 F1100.
N5445 G3 X428.833 Y229.245 I-0.413 J0.
N5450 G1 X404.5
N5455 G3 X404.087 Y228.833 I0. J-0.413
N5460 G1 Y204.5
N5465 G3 X404.5 Y204.087 I0.413 J0.
N5470 G1 X428.833
N5475 G3 X429.246 Y204.5 I0. J0.413
N5480 G1 Y216.667
N5485 G3 X428.928 Y216.984 I-0.318 J0. F1000.
N5490 G1 X428.611
N5495 G18 G3 X428.293 Z4.317 I0. K0.318
N5500 G1 Y216.349 F1100.
N5505 Z1. F333.33
N5510 Z17. F1000.
N5515 Z1. F333.33
N5520 X428.611 F1000.
N5525 X428.928
N5530 G17 G3 X429.246 Y216.667 I0. J0.318
N5535 G1 Y219.005 F1100.
N5540 Z0. F333.33
N5545 Y228.833 F1100.
N5550 G3 X428.833 Y229.245 I-0.413 J0.
N5555 G1 X419.004
N5560 Z1.
N5565 X414.329
N5570 Z0. F333.33
N5575 X404.5 F1100.
N5580 G3 X404.087 Y228.833 I0. J-0.413
N5585 G1 Y219.005
N5590 Z1.
N5595 Y214.329
N5600 Z0. F333.33
N5605 Y204.5 F1100.
N5610 G3 X404.5 Y204.087 I0.413 J0.
N5615 G1 X414.329
N5620 Z1.
N5625 X419.004
N5630 Z0. F333.33
N5635 X428.833 F1100.
N5640 G3 X429.246 Y204.5 I0. J0.413
N5645 G1 Y214.329
N5650 Z1.
N5655 Y216.667
N5660 G3 X428.928 Y216.984 I-0.318 J0. F1000.
N5665 G1 X428.293
N5670 G0 Z17.
N5675 X461.627 Y216.349
N5680 G1 Z8.317 F333.33
N5685 G18 G2 X461.944 Z8. I0.317 K0. F1000.
N5690 G1 X462.262
N5695 G17 G3 X462.579 Y216.667 I0. J0.318
N5700 G1 Y228.833 F1100.
N5705 G3 X462.167 Y229.245 I-0.413 J0.
N5710 G1 X437.833
N5715 G3 X437.421 Y228.833 I0. J-0.413
N5720 G1 Y204.5
N5725 G3 X437.833 Y204.087 I0.413 J0.
N5730 G1 X462.167
N5735 G3 X462.579 Y204.5 I0. J0.413
N5740 G1 Y216.667
N5745 G3 X462.262 Y216.984 I-0.318 J0. F1000.
N5750 G1 X461.944
N5755 G18 G3 X461.627 Z8.317 I0. K0.318
N5760 G1 Y216.349 F1100.
N5765 Z4.317 F333.33
N5770 G2 X461.944 Z4. I0.317 K0. F1000.
N5775 G1 X462.262
N5780 G17 G3 X462.579 Y216.667 I0. J0.318
N5785 G1 Y228.833 F1100.
N5790 G3 X462.167 Y229.245 I-0.413 J0.
N5795 G1 X437.833
N5800 G3 X437.421 Y228.833 I0. J-0.413
N5805 G1 Y204.5
N5810 G3 X437.833 Y204.087 I0.413 J0.
N5815 G1 X462.167
N5820 G3 X462.579 Y204.5 I0. J0.413
N5825 G1 Y216.667
N5830 G3 X462.262 Y216.984 I-0.318 J0. F1000.
N5835 G1 X461.944
N5840 G18 G3 X461.627 Z4.317 I0. K0.318
N5845 G1 Y216.349 F1100.
N5850 Z1. F333.33
N5855 Z17. F1000.
N5860 Z1. F333.33
N5865 X461.944 F1000.
N5870 X462.262
N5875 G17 G3 X462.579 Y216.667 I0. J0.318
N5880 G1 Y219.005 F1100.
N5885 Z0. F333.33
N5890 Y228.833 F1100.
N5895 G3 X462.167 Y229.245 I-0.413 J0.
N5900 G1 X452.337
N5905 Z1.
N5910 X447.663
N5915 Z0. F333.33
N5920 X437.833 F1100.
N5925 G3 X437.421 Y228.833 I0. J-0.413
N5930 G1 Y219.005
N5935 Z1.
N5940 Y214.329
N5945 Z0. F333.33
N5950 Y204.5 F1100.
N5955 G3 X437.833 Y204.087 I0.413 J0.
N5960 G1 X447.663
N5965 Z1.
N5970 X452.337
N5975 Z0. F333.33
N5980 X462.167 F1100.
N5985 G3 X462.579 Y204.5 I0. J0.413
N5990 G1 Y214.329
N5995 Z1.
N6000 Y216.667
N6005 G3 X462.262 Y216.984 I-0.318 J0. F1000.
N6010 G1 X461.627
N6015 G0 Z17.
N6020 X394.96 Y216.349
N6025 G1 Z8.317 F333.33
N6030 G18 G2 X395.277 Z8. I0.318 K0. F1000.
N6035 G1 X395.595
N6040 G17 G3 X395.913 Y216.667 I0. J0.318
N6045 G1 Y228.833 F1100.
N6050 G3 X395.5 Y229.245 I-0.413 J0.
N6055 G1 X371.167
N6060 G3 X370.754 Y228.833 I0. J-0.413
N6065 G1 Y204.5
N6070 G3 X371.167 Y204.087 I0.413 J0.
N6075 G1 X395.5
N6080 G3 X395.913 Y204.5 I0. J0.413
N6085 G1 Y216.667
N6090 G3 X395.595 Y216.984 I-0.318 J0. F1000.
N6095 G1 X395.277
N6100 G18 G3 X394.96 Z8.317 I0. K0.318
N6105 G1 Y216.349 F1100.
N6110 Z4.317 F333.33
N6115 G2 X395.277 Z4. I0.318 K0. F1000.
N6120 G1 X395.595
N6125 G17 G3 X395.913 Y216.667 I0. J0.318
N6130 G1 Y228.833 F1100.
N6135 G3 X395.5 Y229.245 I-0.413 J0.
N6140 G1 X371.167
N6145 G3 X370.754 Y228.833 I0. J-0.413
N6150 G1 Y204.5
N6155 G3 X371.167 Y204.087 I0.413 J0.
N6160 G1 X395.5
N6165 G3 X395.913 Y204.5 I0. J0.413
N6170 G1 Y216.667
N6175 G3 X395.595 Y216.984 I-0.318 J0. F1000.
N6180 G1 X395.277
N6185 G18 G3 X394.96 Z4.317 I0. K0.318
N6190 G1 Y216.349 F1100.
N6195 Z1. F333.33
N6200 Z17. F1000.
N6205 Z1. F333.33
N6210 X395.277 F1000.
N6215 X395.595
N6220 G17 G3 X395.913 Y216.667 I0. J0.318
N6225 G1 Y219.005 F1100.
N6230 Z0. F333.33
N6235 Y228.833 F1100.
N6240 G3 X395.5 Y229.245 I-0.413 J0.
N6245 G1 X385.671
N6250 Z1.
N6255 X380.996
N6260 Z0. F333.33
N6265 X371.167 F1100.
N6270 G3 X370.754 Y228.833 I0. J-0.413
N6275 G1 Y219.005
N6280 Z1.
N6285 Y214.329
N6290 Z0. F333.33
N6295 Y204.5 F1100.
N6300 G3 X371.167 Y204.087 I0.413 J0.
N6305 G1 X380.996
N6310 Z1.
N6315 X385.671
N6320 Z0. F333.33
N6325 X395.5 F1100.
N6330 G3 X395.913 Y204.5 I0. J0.413
N6335 G1 Y214.329
N6340 Z1.
N6345 Y216.667
N6350 G3 X395.595 Y216.984 I-0.318 J0. F1000.
N6355 G1 X394.96
N6360 G0 Z17.
N6365 Y183.016
N6370 G1 Z8.317 F333.33
N6375 G18 G2 X395.277 Z8. I0.318 K0. F1000.
N6380 G1 X395.595
N6385 G17 G3 X395.913 Y183.333 I0. J0.317
N6390 G1 Y195.5 F1100.
N6395 G3 X395.5 Y195.913 I-0.413 J0.
N6400 G1 X371.167
N6405 G3 X370.754 Y195.5 I0. J-0.413
N6410 G1 Y171.167
N6415 G3 X371.167 Y170.755 I0.413 J0.
N6420 G1 X395.5
N6425 G3 X395.913 Y171.167 I0. J0.413
N6430 G1 Y183.333
N6435 G3 X395.595 Y183.651 I-0.318 J0. F1000.
N6440 G1 X395.277
N6445 G18 G3 X394.96 Z8.317 I0. K0.318
N6450 G1 Y183.016 F1100.
N6455 Z4.317 F333.33
N6460 G2 X395.277 Z4. I0.318 K0. F1000.
N6465 G1 X395.595
N6470 G17 G3 X395.913 Y183.333 I0. J0.317
N6475 G1 Y195.5 F1100.
N6480 G3 X395.5 Y195.913 I-0.413 J0.
N6485 G1 X371.167
N6490 G3 X370.754 Y195.5 I0. J-0.413
N6495 G1 Y171.167
N6500 G3 X371.167 Y170.755 I0.413 J0.
N6505 G1 X395.5
N6510 G3 X395.913 Y171.167 I0. J0.413
N6515 G1 Y183.333
N6520 G3 X395.595 Y183.651 I-0.318 J0. F1000.
N6525 G1 X395.277
N6530 G18 G3 X394.96 Z4.317 I0. K0.318
N6535 G1 Y183.016 F1100.
N6540 Z1. F333.33
N6545 Z17. F1000.
N6550 Z1. F333.33
N6555 X395.277 F1000.
N6560 X395.595
N6565 G17 G3 X395.913 Y183.333 I0. J0.317
N6570 G1 Y185.671 F1100.
N6575 Z0. F333.33
N6580 Y195.5 F1100.
N6585 G3 X395.5 Y195.913 I-0.413 J0.
N6590 G1 X385.671
N6595 Z1.
N6600 X380.996
N6605 Z0. F333.33
N6610 X371.167 F1100.
N6615 G3 X370.754 Y195.5 I0. J-0.413
N6620 G1 Y185.671
N6625 Z1.
N6630 Y180.995
N6635 Z0. F333.33
N6640 Y171.167 F1100.
N6645 G3 X371.167 Y170.755 I0.413 J0.
N6650 G1 X380.996
N6655 Z1.
N6660 X385.671
N6665 Z0. F333.33
N6670 X395.5 F1100.
N6675 G3 X395.913 Y171.167 I0. J0.413
N6680 G1 Y180.995
N6685 Z1.
N6690 Y183.333
N6695 G3 X395.595 Y183.651 I-0.318 J0. F1000.
N6700 G1 X394.96
N6705 G0 Z17.
N6710 X349.682 Y171.707
N6715 G1 Z8.317 F333.33
N6720 G19 G2 Y171.389 Z8. J-0.318 K0. F1000.
N6725 G1 Y171.072
N6730 G17 G3 X350. Y170.755 I0.318 J0.
N6735 G1 X362.167 F1100.
N6740 G3 X362.579 Y171.167 I0. J0.413
N6745 G1 Y195.5
N6750 G3 X362.167 Y195.913 I-0.413 J0.
N6755 G1 X337.833
N6760 G3 X337.421 Y195.5 I0. J-0.413
N6765 G1 Y171.167
N6770 G3 X337.833 Y170.755 I0.413 J0.
N6775 G1 X350.
N6780 G3 X350.317 Y171.072 I0. J0.318 F1000.
N6785 G1 Y171.389
N6790 G19 G3 Y171.707 Z8.317 J0. K0.318
N6795 G1 X349.682 F1100.
N6800 Z4.317 F333.33
N6805 G2 Y171.389 Z4. J-0.318 K0. F1000.
N6810 G1 Y171.072
N6815 G17 G3 X350. Y170.755 I0.318 J0.
N6820 G1 X362.167 F1100.
N6825 G3 X362.579 Y171.167 I0. J0.413
N6830 G1 Y195.5
N6835 G3 X362.167 Y195.913 I-0.413 J0.
N6840 G1 X337.833
N6845 G3 X337.421 Y195.5 I0. J-0.413
N6850 G1 Y171.167
N6855 G3 X337.833 Y170.755 I0.413 J0.
N6860 G1 X350.
N6865 G3 X350.317 Y171.072 I0. J0.318 F1000.
N6870 G1 Y171.389
N6875 G19 G3 Y171.707 Z4.317 J0. K0.318
N6880 G1 X349.682 F1100.
N6885 Z1. F333.33
N6890 Z17. F1000.
N6895 Z1. F333.33
N6900 Y171.389 F1000.
N6905 Y171.072
N6910 G17 G3 X350. Y170.755 I0.318 J0.
N6915 G1 X352.337 F1100.
N6920 Z0. F333.33
N6925 X362.167 F1100.
N6930 G3 X362.579 Y171.167 I0. J0.413
N6935 G1 Y180.995
N6940 Z1.
N6945 Y185.671
N6950 Z0. F333.33
N6955 Y195.5 F1100.
N6960 G3 X362.167 Y195.913 I-0.413 J0.
N6965 G1 X352.337
N6970 Z1.
N6975 X347.663
N6980 Z0. F333.33
N6985 X337.833 F1100.
N6990 G3 X337.421 Y195.5 I0. J-0.413
N6995 G1 Y185.671
N7000 Z1.
N7005 Y180.995
N7010 Z0. F333.33
N7015 Y171.167 F1100.
N7020 G3 X337.833 Y170.755 I0.413 J0.
N7025 G1 X347.663
N7030 Z1.
N7035 X350.
N7040 G3 X350.317 Y171.072 I0. J0.318 F1000.
N7045 G1 Y171.707
N7050 G0 Z17.
N7055 X328.293 Y183.016
N7060 G1 Z8.317 F333.33
N7065 G18 G2 X328.611 Z8. I0.318 K0. F1000.
N7070 G1 X328.928
N7075 G17 G3 X329.246 Y183.333 I0. J0.317
N7080 G1 Y195.5 F1100.
N7085 G3 X328.833 Y195.913 I-0.413 J0.
N7090 G1 X304.5
N7095 G3 X304.087 Y195.5 I0. J-0.413
N7100 G1 Y171.167
N7105 G3 X304.5 Y170.755 I0.413 J0.
N7110 G1 X328.833
N7115 G3 X329.246 Y171.167 I0. J0.413
N7120 G1 Y183.333
N7125 G3 X328.928 Y183.651 I-0.318 J0. F1000.
N7130 G1 X328.611
N7135 G18 G3 X328.293 Z8.317 I0. K0.318
N7140 G1 Y183.016 F1100.
N7145 Z4.317 F333.33
N7150 G2 X328.611 Z4. I0.318 K0. F1000.
N7155 G1 X328.928
N7160 G17 G3 X329.246 Y183.333 I0. J0.317
N7165 G1 Y195.5 F1100.
N7170 G3 X328.833 Y195.913 I-0.413 J0.
N7175 G1 X304.5
N7180 G3 X304.087 Y195.5 I0. J-0.413
N7185 G1 Y171.167
N7190 G3 X304.5 Y170.755 I0.413 J0.
N7195 G1 X328.833
N7200 G3 X329.246 Y171.167 I0. J0.413
N7205 G1 Y183.333
N7210 G3 X328.928 Y183.651 I-0.318 J0. F1000.
N7215 G1 X328.611
N7220 G18 G3 X328.293 Z4.317 I0. K0.318
N7225 G1 Y183.016 F1100.
N7230 Z1. F333.33
N7235 Z17. F1000.
N7240 Z1. F333.33
N7245 X328.611 F1000.
N7250 X328.928
N7255 G17 G3 X329.246 Y183.333 I0. J0.317
N7260 G1 Y185.671 F1100.
N7265 Z0. F333.33
N7270 Y195.5 F1100.
N7275 G3 X328.833 Y195.913 I-0.413 J0.
N7280 G1 X319.004
N7285 Z1.
N7290 X314.329
N7295 Z0. F333.33
N7300 X304.5 F1100.
N7305 G3 X304.087 Y195.5 I0. J-0.413
N7310 G1 Y185.671
N7315 Z1.
N7320 Y180.995
N7325 Z0. F333.33
N7330 Y171.167 F1100.
N7335 G3 X304.5 Y170.755 I0.413 J0.
N7340 G1 X314.329
N7345 Z1.
N7350 X319.004
N7355 Z0. F333.33
N7360 X328.833 F1100.
N7365 G3 X329.246 Y171.167 I0. J0.413
N7370 G1 Y180.995
N7375 Z1.
N7380 Y183.333
N7385 G3 X328.928 Y183.651 I-0.318 J0. F1000.
N7390 G1 X328.293
N7395 G0 Z17.
N7400 Y216.349
N7405 G1 Z8.317 F333.33
N7410 G18 G2 X328.611 Z8. I0.318 K0. F1000.
N7415 G1 X328.928
N7420 G17 G3 X329.246 Y216.667 I0. J0.318
N7425 G1 Y228.833 F1100.
N7430 G3 X328.833 Y229.245 I-0.413 J0.
N7435 G1 X304.5
N7440 G3 X304.087 Y228.833 I0. J-0.413
N7445 G1 Y204.5
N7450 G3 X304.5 Y204.087 I0.413 J0.
N7455 G1 X328.833
N7460 G3 X329.246 Y204.5 I0. J0.413
N7465 G1 Y216.667
N7470 G3 X328.928 Y216.984 I-0.318 J0. F1000.
N7475 G1 X328.611
N7480 G18 G3 X328.293 Z8.317 I0. K0.318
N7485 G1 Y216.349 F1100.
N7490 Z4.317 F333.33
N7495 G2 X328.611 Z4. I0.318 K0. F1000.
N7500 G1 X328.928
N7505 G17 G3 X329.246 Y216.667 I0. J0.318
N7510 G1 Y228.833 F1100.
N7515 G3 X328.833 Y229.245 I-0.413 J0.
N7520 G1 X304.5
N7525 G3 X304.087 Y228.833 I0. J-0.413
N7530 G1 Y204.5
N7535 G3 X304.5 Y204.087 I0.413 J0.
N7540 G1 X328.833
N7545 G3 X329.246 Y204.5 I0. J0.413
N7550 G1 Y216.667
N7555 G3 X328.928 Y216.984 I-0.318 J0. F1000.
N7560 G1 X328.611
N7565 G18 G3 X328.293 Z4.317 I0. K0.318
N7570 G1 Y216.349 F1100.
N7575 Z1. F333.33
N7580 Z17. F1000.
N7585 Z1. F333.33
N7590 X328.611 F1000.
N7595 X328.928
N7600 G17 G3 X329.246 Y216.667 I0. J0.318
N7605 G1 Y219.005 F1100.
N7610 Z0. F333.33
N7615 Y228.833 F1100.
N7620 G3 X328.833 Y229.245 I-0.413 J0.
N7625 G1 X319.004
N7630 Z1.
N7635 X314.329
N7640 Z0. F333.33
N7645 X304.5 F1100.
N7650 G3 X304.087 Y228.833 I0. J-0.413
N7655 G1 Y219.005
N7660 Z1.
N7665 Y214.329
N7670 Z0. F333.33
N7675 Y204.5 F1100.
N7680 G3 X304.5 Y204.087 I0.413 J0.
N7685 G1 X314.329
N7690 Z1.
N7695 X319.004
N7700 Z0. F333.33
N7705 X328.833 F1100.
N7710 G3 X329.246 Y204.5 I0. J0.413
N7715 G1 Y214.329
N7720 Z1.
N7725 Y216.667
N7730 G3 X328.928 Y216.984 I-0.318 J0. F1000.
N7735 G1 X328.293
N7740 G0 Z17.
N7745 X349.682 Y205.04
N7750 G1 Z8.317 F333.33
N7755 G19 G2 Y204.723 Z8. J-0.317 K0. F1000.
N7760 G1 Y204.405
N7765 G17 G3 X350. Y204.087 I0.318 J0.
N7770 G1 X362.167 F1100.
N7775 G3 X362.579 Y204.5 I0. J0.413
N7780 G1 Y228.833
N7785 G3 X362.167 Y229.245 I-0.413 J0.
N7790 G1 X337.833
N7795 G3 X337.421 Y228.833 I0. J-0.413
N7800 G1 Y204.5
N7805 G3 X337.833 Y204.087 I0.413 J0.
N7810 G1 X350.
N7815 G3 X350.317 Y204.405 I0. J0.318 F1000.
N7820 G1 Y204.723
N7825 G19 G3 Y205.04 Z8.317 J0. K0.318
N7830 G1 X349.682 F1100.
N7835 Z4.317 F333.33
N7840 G2 Y204.723 Z4. J-0.317 K0. F1000.
N7845 G1 Y204.405
N7850 G17 G3 X350. Y204.087 I0.318 J0.
N7855 G1 X362.167 F1100.
N7860 G3 X362.579 Y204.5 I0. J0.413
N7865 G1 Y228.833
N7870 G3 X362.167 Y229.245 I-0.413 J0.
N7875 G1 X337.833
N7880 G3 X337.421 Y228.833 I0. J-0.413
N7885 G1 Y204.5
N7890 G3 X337.833 Y204.087 I0.413 J0.
N7895 G1 X350.
N7900 G3 X350.317 Y204.405 I0. J0.318 F1000.
N7905 G1 Y204.723
N7910 G19 G3 Y205.04 Z4.317 J0. K0.318
N7915 G1 X349.682 F1100.
N7920 Z1. F333.33
N7925 Z17. F1000.
N7930 Z1. F333.33
N7935 Y204.723 F1000.
N7940 Y204.405
N7945 G17 G3 X350. Y204.087 I0.318 J0.
N7950 G1 X352.337 F1100.
N7955 Z0. F333.33
N7960 X362.167 F1100.
N7965 G3 X362.579 Y204.5 I0. J0.413
N7970 G1 Y214.329
N7975 Z1.
N7980 Y219.005
N7985 Z0. F333.33
N7990 Y228.833 F1100.
N7995 G3 X362.167 Y229.245 I-0.413 J0.
N8000 G1 X352.337
N8005 Z1.
N8010 X347.663
N8015 Z0. F333.33
N8020 X337.833 F1100.
N8025 G3 X337.421 Y228.833 I0. J-0.413
N8030 G1 Y219.005
N8035 Z1.
N8040 Y214.329
N8045 Z0. F333.33
N8050 Y204.5 F1100.
N8055 G3 X337.833 Y204.087 I0.413 J0.
N8060 G1 X347.663
N8065 Z1.
N8070 X350.
N8075 G3 X350.317 Y204.405 I0. J0.318 F1000.
N8080 G1 Y205.04
N8085 G0 Z17.
N8090 X294.96 Y216.349
N8095 G1 Z8.317 F333.33
N8100 G18 G2 X295.277 Z8. I0.318 K0. F1000.
N8105 G1 X295.595
N8110 G17 G3 X295.913 Y216.667 I0. J0.318
N8115 G1 Y228.833 F1100.
N8120 G3 X295.5 Y229.245 I-0.413 J0.
N8125 G1 X271.167
N8130 G3 X270.754 Y228.833 I0. J-0.413
N8135 G1 Y204.5
N8140 G3 X271.167 Y204.087 I0.413 J0.
N8145 G1 X295.5
N8150 G3 X295.913 Y204.5 I0. J0.413
N8155 G1 Y216.667
N8160 G3 X295.595 Y216.984 I-0.318 J0. F1000.
N8165 G1 X295.277
N8170 G18 G3 X294.96 Z8.317 I0. K0.318
N8175 G1 Y216.349 F1100.
N8180 Z4.317 F333.33
N8185 G2 X295.277 Z4. I0.318 K0. F1000.
N8190 G1 X295.595
N8195 G17 G3 X295.913 Y216.667 I0. J0.318
N8200 G1 Y228.833 F1100.
N8205 G3 X295.5 Y229.245 I-0.413 J0.
N8210 G1 X271.167
N8215 G3 X270.754 Y228.833 I0. J-0.413
N8220 G1 Y204.5
N8225 G3 X271.167 Y204.087 I0.413 J0.
N8230 G1 X295.5
N8235 G3 X295.913 Y204.5 I0. J0.413
N8240 G1 Y216.667
N8245 G3 X295.595 Y216.984 I-0.318 J0. F1000.
N8250 G1 X295.277
N8255 G18 G3 X294.96 Z4.317 I0. K0.318
N8260 G1 Y216.349 F1100.
N8265 Z1. F333.33
N8270 Z17. F1000.
N8275 Z1. F333.33
N8280 X295.277 F1000.
N8285 X295.595
N8290 G17 G3 X295.913 Y216.667 I0. J0.318
N8295 G1 Y219.005 F1100.
N8300 Z0. F333.33
N8305 Y228.833 F1100.
N8310 G3 X295.5 Y229.245 I-0.413 J0.
N8315 G1 X285.671
N8320 Z1.
N8325 X280.996
N8330 Z0. F333.33
N8335 X271.167 F1100.
N8340 G3 X270.754 Y228.833 I0. J-0.413
N8345 G1 Y219.005
N8350 Z1.
N8355 Y214.329
N8360 Z0. F333.33
N8365 Y204.5 F1100.
N8370 G3 X271.167 Y204.087 I0.413 J0.
N8375 G1 X280.996
N8380 Z1.
N8385 X285.671
N8390 Z0. F333.33
N8395 X295.5 F1100.
N8400 G3 X295.913 Y204.5 I0. J0.413
N8405 G1 Y214.329
N8410 Z1.
N8415 Y216.667
N8420 G3 X295.595 Y216.984 I-0.318 J0. F1000.
N8425 G1 X294.96
N8430 G0 Z17.
N8435 Y183.016
N8440 G1 Z8.317 F333.33
N8445 G18 G2 X295.277 Z8. I0.318 K0. F1000.
N8450 G1 X295.595
N8455 G17 G3 X295.913 Y183.333 I0. J0.317
N8460 G1 Y195.5 F1100.
N8465 G3 X295.5 Y195.913 I-0.413 J0.
N8470 G1 X271.167
N8475 G3 X270.754 Y195.5 I0. J-0.413
N8480 G1 Y171.167
N8485 G3 X271.167 Y170.755 I0.413 J0.
N8490 G1 X295.5
N8495 G3 X295.913 Y171.167 I0. J0.413
N8500 G1 Y183.333
N8505 G3 X295.595 Y183.651 I-0.318 J0. F1000.
N8510 G1 X295.277
N8515 G18 G3 X294.96 Z8.317 I0. K0.318
N8520 G1 Y183.016 F1100.
N8525 Z4.317 F333.33
N8530 G2 X295.277 Z4. I0.318 K0. F1000.
N8535 G1 X295.595
N8540 G17 G3 X295.913 Y183.333 I0. J0.317
N8545 G1 Y195.5 F1100.
N8550 G3 X295.5 Y195.913 I-0.413 J0.
N8555 G1 X271.167
N8560 G3 X270.754 Y195.5 I0. J-0.413
N8565 G1 Y171.167
N8570 G3 X271.167 Y170.755 I0.413 J0.
N8575 G1 X295.5
N8580 G3 X295.913 Y171.167 I0. J0.413
N8585 G1 Y183.333
N8590 G3 X295.595 Y183.651 I-0.318 J0. F1000.
N8595 G1 X295.277
N8600 G18 G3 X294.96 Z4.317 I0. K0.318
N8605 G1 Y183.016 F1100.
N8610 Z1. F333.33
N8615 Z17. F1000.
N8620 Z1. F333.33
N8625 X295.277 F1000.
N8630 X295.595
N8635 G17 G3 X295.913 Y183.333 I0. J0.317
N8640 G1 Y185.671 F1100.
N8645 Z0. F333.33
N8650 Y195.5 F1100.
N8655 G3 X295.5 Y195.913 I-0.413 J0.
N8660 G1 X285.671
N8665 Z1.
N8670 X280.996
N8675 Z0. F333.33
N8680 X271.167 F1100.
N8685 G3 X270.754 Y195.5 I0. J-0.413
N8690 G1 Y185.671
N8695 Z1.
N8700 Y180.995
N8705 Z0. F333.33
N8710 Y171.167 F1100.
N8715 G3 X271.167 Y170.755 I0.413 J0.
N8720 G1 X280.996
N8725 Z1.
N8730 X285.671
N8735 Z0. F333.33
N8740 X295.5 F1100.
N8745 G3 X295.913 Y171.167 I0. J0.413
N8750 G1 Y180.995
N8755 Z1.
N8760 Y183.333
N8765 G3 X295.595 Y183.651 I-0.318 J0. F1000.
N8770 G1 X294.96
N8775 G0 Z17.
N8780 X249.682 Y171.707
N8785 G1 Z8.317 F333.33
N8790 G19 G2 Y171.389 Z8. J-0.318 K0. F1000.
N8795 G1 Y171.072
N8800 G17 G3 X249.999 Y170.755 I0.317 J0.
N8805 G1 X262.167 F1100.
N8810 G3 X262.579 Y171.167 I0. J0.413
N8815 G1 Y195.5
N8820 G3 X262.167 Y195.913 I-0.413 J0.
N8825 G1 X237.833
N8830 G3 X237.421 Y195.5 I0. J-0.413
N8835 G1 Y171.167
N8840 G3 X237.833 Y170.755 I0.412 J0.
N8845 G1 X249.999
N8850 G3 X250.317 Y171.072 I0. J0.318 F1000.
N8855 G1 Y171.389
N8860 G19 G3 Y171.707 Z8.317 J0. K0.318
N8865 G1 X249.682 F1100.
N8870 Z4.317 F333.33
N8875 G2 Y171.389 Z4. J-0.318 K0. F1000.
N8880 G1 Y171.072
N8885 G17 G3 X249.999 Y170.755 I0.317 J0.
N8890 G1 X262.167 F1100.
N8895 G3 X262.579 Y171.167 I0. J0.413
N8900 G1 Y195.5
N8905 G3 X262.167 Y195.913 I-0.413 J0.
N8910 G1 X237.833
N8915 G3 X237.421 Y195.5 I0. J-0.413
N8920 G1 Y171.167
N8925 G3 X237.833 Y170.755 I0.412 J0.
N8930 G1 X249.999
N8935 G3 X250.317 Y171.072 I0. J0.318 F1000.
N8940 G1 Y171.389
N8945 G19 G3 Y171.707 Z4.317 J0. K0.318
N8950 G1 X249.682 F1100.
N8955 Z1. F333.33
N8960 Z17. F1000.
N8965 Z1. F333.33
N8970 Y171.389 F1000.
N8975 Y171.072
N8980 G17 G3 X249.999 Y170.755 I0.317 J0.
N8985 G1 X252.337 F1100.
N8990 Z0. F333.33
N8995 X262.167 F1100.
N9000 G3 X262.579 Y171.167 I0. J0.413
N9005 G1 Y180.995
N9010 Z1.
N9015 Y185.671
N9020 Z0. F333.33
N9025 Y195.5 F1100.
N9030 G3 X262.167 Y195.913 I-0.413 J0.
N9035 G1 X252.337
N9040 Z1.
N9045 X247.663
N9050 Z0. F333.33
N9055 X237.833 F1100.
N9060 G3 X237.421 Y195.5 I0. J-0.413
N9065 G1 Y185.671
N9070 Z1.
N9075 Y180.995
N9080 Z0. F333.33
N9085 Y171.167 F1100.
N9090 G3 X237.833 Y170.755 I0.412 J0.
N9095 G1 X247.663
N9100 Z1.
N9105 X249.999
N9110 G3 X250.317 Y171.072 I0. J0.318 F1000.
N9115 G1 Y171.707
N9120 G0 Z17.
N9125 X228.293 Y183.016
N9130 G1 Z8.317 F333.33
N9135 G18 G2 X228.611 Z8. I0.318 K0. F1000.
N9140 G1 X228.928
N9145 G17 G3 X229.245 Y183.333 I0. J0.317
N9150 G1 Y195.5 F1100.
N9155 G3 X228.833 Y195.913 I-0.413 J0.
N9160 G1 X204.5
N9165 G3 X204.087 Y195.5 I0. J-0.413
N9170 G1 Y171.167
N9175 G3 X204.5 Y170.755 I0.413 J0.
N9180 G1 X228.833
N9185 G3 X229.245 Y171.167 I0. J0.413
N9190 G1 Y183.333
N9195 G3 X228.928 Y183.651 I-0.318 J0. F1000.
N9200 G1 X228.611
N9205 G18 G3 X228.293 Z8.317 I0. K0.318
N9210 G1 Y183.016 F1100.
N9215 Z4.317 F333.33
N9220 G2 X228.611 Z4. I0.318 K0. F1000.
N9225 G1 X228.928
N9230 G17 G3 X229.245 Y183.333 I0. J0.317
N9235 G1 Y195.5 F1100.
N9240 G3 X228.833 Y195.913 I-0.413 J0.
N9245 G1 X204.5
N9250 G3 X204.087 Y195.5 I0. J-0.413
N9255 G1 Y171.167
N9260 G3 X204.5 Y170.755 I0.413 J0.
N9265 G1 X228.833
N9270 G3 X229.245 Y171.167 I0. J0.413
N9275 G1 Y183.333
N9280 G3 X228.928 Y183.651 I-0.318 J0. F1000.
N9285 G1 X228.611
N9290 G18 G3 X228.293 Z4.317 I0. K0.318
N9295 G1 Y183.016 F1100.
N9300 Z1. F333.33
N9305 Z17. F1000.
N9310 Z1. F333.33
N9315 X228.611 F1000.
N9320 X228.928
N9325 G17 G3 X229.245 Y183.333 I0. J0.317
N9330 G1 Y185.671 F1100.
N9335 Z0. F333.33
N9340 Y195.5 F1100.
N9345 G3 X228.833 Y195.913 I-0.413 J0.
N9350 G1 X219.005
N9355 Z1.
N9360 X214.329
N9365 Z0. F333.33
N9370 X204.5 F1100.
N9375 G3 X204.087 Y195.5 I0. J-0.413
N9380 G1 Y185.671
N9385 Z1.
N9390 Y180.995
N9395 Z0. F333.33
N9400 Y171.167 F1100.
N9405 G3 X204.5 Y170.755 I0.413 J0.
N9410 G1 X214.329
N9415 Z1.
N9420 X219.005
N9425 Z0. F333.33
N9430 X228.833 F1100.
N9435 G3 X229.245 Y171.167 I0. J0.413
N9440 G1 Y180.995
N9445 Z1.
N9450 Y183.333
N9455 G3 X228.928 Y183.651 I-0.318 J0. F1000.
N9460 G1 X228.293
N9465 G0 Z17.
N9470 Y216.349
N9475 G1 Z8.317 F333.33
N9480 G18 G2 X228.611 Z8. I0.318 K0. F1000.
N9485 G1 X228.928
N9490 G17 G3 X229.245 Y216.667 I0. J0.318
N9495 G1 Y228.833 F1100.
N9500 G3 X228.833 Y229.245 I-0.413 J0.
N9505 G1 X204.5
N9510 G3 X204.087 Y228.833 I0. J-0.413
N9515 G1 Y204.5
N9520 G3 X204.5 Y204.087 I0.413 J0.
N9525 G1 X228.833
N9530 G3 X229.245 Y204.5 I0. J0.413
N9535 G1 Y216.667
N9540 G3 X228.928 Y216.984 I-0.318 J0. F1000.
N9545 G1 X228.611
N9550 G18 G3 X228.293 Z8.317 I0. K0.318
N9555 G1 Y216.349 F1100.
N9560 Z4.317 F333.33
N9565 G2 X228.611 Z4. I0.318 K0. F1000.
N9570 G1 X228.928
N9575 G17 G3 X229.245 Y216.667 I0. J0.318
N9580 G1 Y228.833 F1100.
N9585 G3 X228.833 Y229.245 I-0.413 J0.
N9590 G1 X204.5
N9595 G3 X204.087 Y228.833 I0. J-0.413
N9600 G1 Y204.5
N9605 G3 X204.5 Y204.087 I0.413 J0.
N9610 G1 X228.833
N9615 G3 X229.245 Y204.5 I0. J0.413
N9620 G1 Y216.667
N9625 G3 X228.928 Y216.984 I-0.318 J0. F1000.
N9630 G1 X228.611
N9635 G18 G3 X228.293 Z4.317 I0. K0.318
N9640 G1 Y216.349 F1100.
N9645 Z1. F333.33
N9650 Z17. F1000.
N9655 Z1. F333.33
N9660 X228.611 F1000.
N9665 X228.928
N9670 G17 G3 X229.245 Y216.667 I0. J0.318
N9675 G1 Y219.005 F1100.
N9680 Z0. F333.33
N9685 Y228.833 F1100.
N9690 G3 X228.833 Y229.245 I-0.413 J0.
N9695 G1 X219.005
N9700 Z1.
N9705 X214.329
N9710 Z0. F333.33
N9715 X204.5 F1100.
N9720 G3 X204.087 Y228.833 I0. J-0.413
N9725 G1 Y219.005
N9730 Z1.
N9735 Y214.329
N9740 Z0. F333.33
N9745 Y204.5 F1100.
N9750 G3 X204.5 Y204.087 I0.413 J0.
N9755 G1 X214.329
N9760 Z1.
N9765 X219.005
N9770 Z0. F333.33
N9775 X228.833 F1100.
N9780 G3 X229.245 Y204.5 I0. J0.413
N9785 G1 Y214.329
N9790 Z1.
N9795 Y216.667
N9800 G3 X228.928 Y216.984 I-0.318 J0. F1000.
N9805 G1 X228.293
N9810 G0 Z17.
N9815 X249.682 Y205.04
N9820 G1 Z8.317 F333.33
N9825 G19 G2 Y204.723 Z8. J-0.317 K0. F1000.
N9830 G1 Y204.405
N9835 G17 G3 X249.999 Y204.087 I0.317 J0.
N9840 G1 X262.167 F1100.
N9845 G3 X262.579 Y204.5 I0. J0.413
N9850 G1 Y228.833
N9855 G3 X262.167 Y229.245 I-0.413 J0.
N9860 G1 X237.833
N9865 G3 X237.421 Y228.833 I0. J-0.413
N9870 G1 Y204.5
N9875 G3 X237.833 Y204.087 I0.412 J0.
N9880 G1 X249.999
N9885 G3 X250.317 Y204.405 I0. J0.318 F1000.
N9890 G1 Y204.723
N9895 G19 G3 Y205.04 Z8.317 J0. K0.318
N9900 G1 X249.682 F1100.
N9905 Z4.317 F333.33
N9910 G2 Y204.723 Z4. J-0.317 K0. F1000.
N9915 G1 Y204.405
N9920 G17 G3 X249.999 Y204.087 I0.317 J0.
N9925 G1 X262.167 F1100.
N9930 G3 X262.579 Y204.5 I0. J0.413
N9935 G1 Y228.833
N9940 G3 X262.167 Y229.245 I-0.413 J0.
N9945 G1 X237.833
N9950 G3 X237.421 Y228.833 I0. J-0.413
N9955 G1 Y204.5
N9960 G3 X237.833 Y204.087 I0.412 J0.
N9965 G1 X249.999
N9970 G3 X250.317 Y204.405 I0. J0.318 F1000.
N9975 G1 Y204.723
N9980 G19 G3 Y205.04 Z4.317 J0. K0.318
N9985 G1 X249.682 F1100.
N9990 Z1. F333.33
N9995 Z17. F1000.
N10000 Z1. F333.33
N10005 Y204.723 F1000.
N10010 Y204.405
N10015 G17 G3 X249.999 Y204.087 I0.317 J0.
N10020 G1 X252.337 F1100.
N10025 Z0. F333.33
N10030 X262.167 F1100.
N10035 G3 X262.579 Y204.5 I0. J0.413
N10040 G1 Y214.329
N10045 Z1.
N10050 Y219.005
N10055 Z0. F333.33
N10060 Y228.833 F1100.
N10065 G3 X262.167 Y229.245 I-0.413 J0.
N10070 G1 X252.337
N10075 Z1.
N10080 X247.663
N10085 Z0. F333.33
N10090 X237.833 F1100.
N10095 G3 X237.421 Y228.833 I0. J-0.413
N10100 G1 Y219.005
N10105 Z1.
N10110 Y214.329
N10115 Z0. F333.33
N10120 Y204.5 F1100.
N10125 G3 X237.833 Y204.087 I0.412 J0.
N10130 G1 X247.663
N10135 Z1.
N10140 X249.999
N10145 G3 X250.317 Y204.405 I0. J0.318 F1000.
N10150 G1 Y205.04
N10155 G0 Z17.
N10160 X228.293 Y149.682
N10165 G1 Z8.317 F333.33
N10170 G18 G2 X228.611 Z8. I0.318 K0. F1000.
N10175 G1 X228.928
N10180 G17 G3 X229.245 Y149.999 I0. J0.317
N10185 G1 Y162.167 F1100.
N10190 G3 X228.833 Y162.579 I-0.413 J0.
N10195 G1 X204.5
N10200 G3 X204.087 Y162.167 I0. J-0.412
N10205 G1 Y137.833
N10210 G3 X204.5 Y137.421 I0.413 J0.
N10215 G1 X228.833
N10220 G3 X229.245 Y137.833 I0. J0.412
N10225 G1 Y149.999
N10230 G3 X228.928 Y150.317 I-0.318 J0. F1000.
N10235 G1 X228.611
N10240 G18 G3 X228.293 Z8.317 I0. K0.318
N10245 G1 Y149.682 F1100.
N10250 Z4.317 F333.33
N10255 G2 X228.611 Z4. I0.318 K0. F1000.
N10260 G1 X228.928
N10265 G17 G3 X229.245 Y149.999 I0. J0.317
N10270 G1 Y162.167 F1100.
N10275 G3 X228.833 Y162.579 I-0.413 J0.
N10280 G1 X204.5
N10285 G3 X204.087 Y162.167 I0. J-0.412
N10290 G1 Y137.833
N10295 G3 X204.5 Y137.421 I0.413 J0.
N10300 G1 X228.833
N10305 G3 X229.245 Y137.833 I0. J0.412
N10310 G1 Y149.999
N10315 G3 X228.928 Y150.317 I-0.318 J0. F1000.
N10320 G1 X228.611
N10325 G18 G3 X228.293 Z4.317 I0. K0.318
N10330 G1 Y149.682 F1100.
N10335 Z1. F333.33
N10340 Z17. F1000.
N10345 Z1. F333.33
N10350 X228.611 F1000.
N10355 X228.928
N10360 G17 G3 X229.245 Y149.999 I0. J0.317
N10365 G1 Y152.337 F1100.
N10370 Z0. F333.33
N10375 Y162.167 F1100.
N10380 G3 X228.833 Y162.579 I-0.413 J0.
N10385 G1 X219.005
N10390 Z1.
N10395 X214.329
N10400 Z0. F333.33
N10405 X204.5 F1100.
N10410 G3 X204.087 Y162.167 I0. J-0.412
N10415 G1 Y152.337
N10420 Z1.
N10425 Y147.663
N10430 Z0. F333.33
N10435 Y137.833 F1100.
N10440 G3 X204.5 Y137.421 I0.413 J0.
N10445 G1 X214.329
N10450 Z1.
N10455 X219.005
N10460 Z0. F333.33
N10465 X228.833 F1100.
N10470 G3 X229.245 Y137.833 I0. J0.412
N10475 G1 Y147.663
N10480 Z1.
N10485 Y149.999
N10490 G3 X228.928 Y150.317 I-0.318 J0. F1000.
N10495 G1 X228.293
N10500 G0 Z17.
N10505 Y116.349
N10510 G1 Z8.317 F333.33
N10515 G18 G2 X228.611 Z8. I0.318 K0. F1000.
N10520 G1 X228.928
N10525 G17 G3 X229.245 Y116.666 I0. J0.317
N10530 G1 Y128.833 F1100.
N10535 G3 X228.833 Y129.245 I-0.413 J0.
N10540 G1 X204.5
N10545 G3 X204.087 Y128.833 I0. J-0.413
N10550 G1 Y104.5
N10555 G3 X204.5 Y104.088 I0.413 J0.
N10560 G1 X228.833
N10565 G3 X229.245 Y104.5 I0. J0.412
N10570 G1 Y116.666
N10575 G3 X228.928 Y116.984 I-0.318 J0. F1000.
N10580 G1 X228.611
N10585 G18 G3 X228.293 Z8.317 I0. K0.318
N10590 G1 Y116.349 F1100.
N10595 Z4.317 F333.33
N10600 G2 X228.611 Z4. I0.318 K0. F1000.
N10605 G1 X228.928
N10610 G17 G3 X229.245 Y116.666 I0. J0.317
N10615 G1 Y128.833 F1100.
N10620 G3 X228.833 Y129.245 I-0.413 J0.
N10625 G1 X204.5
N10630 G3 X204.087 Y128.833 I0. J-0.413
N10635 G1 Y104.5
N10640 G3 X204.5 Y104.088 I0.413 J0.
N10645 G1 X228.833
N10650 G3 X229.245 Y104.5 I0. J0.412
N10655 G1 Y116.666
N10660 G3 X228.928 Y116.984 I-0.318 J0. F1000.
N10665 G1 X228.611
N10670 G18 G3 X228.293 Z4.317 I0. K0.318
N10675 G1 Y116.349 F1100.
N10680 Z1. F333.33
N10685 Z17. F1000.
N10690 Z1. F333.33
N10695 X228.611 F1000.
N10700 X228.928
N10705 G17 G3 X229.245 Y116.666 I0. J0.317
N10710 G1 Y119.005 F1100.
N10715 Z0. F333.33
N10720 Y128.833 F1100.
N10725 G3 X228.833 Y129.245 I-0.413 J0.
N10730 G1 X219.005
N10735 Z1.
N10740 X214.329
N10745 Z0. F333.33
N10750 X204.5 F1100.
N10755 G3 X204.087 Y128.833 I0. J-0.413
N10760 G1 Y119.005
N10765 Z1.
N10770 Y114.329
N10775 Z0. F333.33
N10780 Y104.5 F1100.
N10785 G3 X204.5 Y104.088 I0.413 J0.
N10790 G1 X214.329
N10795 Z1.
N10800 X219.005
N10805 Z0. F333.33
N10810 X228.833 F1100.
N10815 G3 X229.245 Y104.5 I0. J0.412
N10820 G1 Y114.329
N10825 Z1.
N10830 Y116.666
N10835 G3 X228.928 Y116.984 I-0.318 J0. F1000.
N10840 G1 X228.293
N10845 G0 Z17.
N10850 X249.682 Y105.04
N10855 G1 Z8.317 F333.33
N10860 G19 G2 Y104.723 Z8. J-0.317 K0. F1000.
N10865 G1 Y104.405
N10870 G17 G3 X249.999 Y104.088 I0.317 J0.
N10875 G1 X262.167 F1100.
N10880 G3 X262.579 Y104.5 I0. J0.412
N10885 G1 Y128.833
N10890 G3 X262.167 Y129.245 I-0.413 J0.
N10895 G1 X237.833
N10900 G3 X237.421 Y128.833 I0. J-0.413
N10905 G1 Y104.5
N10910 G3 X237.833 Y104.088 I0.412 J0.
N10915 G1 X249.999
N10920 G3 X250.317 Y104.405 I0. J0.317 F1000.
N10925 G1 Y104.723
N10930 G19 G3 Y105.04 Z8.317 J0. K0.318
N10935 G1 X249.682 F1100.
N10940 Z4.317 F333.33
N10945 G2 Y104.723 Z4. J-0.317 K0. F1000.
N10950 G1 Y104.405
N10955 G17 G3 X249.999 Y104.088 I0.317 J0.
N10960 G1 X262.167 F1100.
N10965 G3 X262.579 Y104.5 I0. J0.412
N10970 G1 Y128.833
N10975 G3 X262.167 Y129.245 I-0.413 J0.
N10980 G1 X237.833
N10985 G3 X237.421 Y128.833 I0. J-0.413
N10990 G1 Y104.5
N10995 G3 X237.833 Y104.088 I0.412 J0.
N11000 G1 X249.999
N11005 G3 X250.317 Y104.405 I0. J0.317 F1000.
N11010 G1 Y104.723
N11015 G19 G3 Y105.04 Z4.317 J0. K0.318
N11020 G1 X249.682 F1100.
N11025 Z1. F333.33
N11030 Z17. F1000.
N11035 Z1. F333.33
N11040 Y104.723 F1000.
N11045 Y104.405
N11050 G17 G3 X249.999 Y104.088 I0.317 J0.
N11055 G1 X252.337 F1100.
N11060 Z0. F333.33
N11065 X262.167 F1100.
N11070 G3 X262.579 Y104.5 I0. J0.412
N11075 G1 Y114.329
N11080 Z1.
N11085 Y119.005
N11090 Z0. F333.33
N11095 Y128.833 F1100.
N11100 G3 X262.167 Y129.245 I-0.413 J0.
N11105 G1 X252.337
N11110 Z1.
N11115 X247.663
N11120 Z0. F333.33
N11125 X237.833 F1100.
N11130 G3 X237.421 Y128.833 I0. J-0.413
N11135 G1 Y119.005
N11140 Z1.
N11145 Y114.329
N11150 Z0. F333.33
N11155 Y104.5 F1100.
N11160 G3 X237.833 Y104.088 I0.412 J0.
N11165 G1 X247.663
N11170 Z1.
N11175 X249.999
N11180 G3 X250.317 Y104.405 I0. J0.317 F1000.
N11185 G1 Y105.04
N11190 G0 Z17.
N11195 X249.682 Y71.707
N11200 G1 Z8.317 F333.33
N11205 G19 G2 Y71.389 Z8. J-0.318 K0. F1000.
N11210 G1 Y71.072
N11215 G17 G3 X250. Y70.754 I0.318 J0.
N11220 G1 X262.167 F1100.
N11225 G3 X262.579 Y71.167 I0. J0.412
N11230 G1 Y95.5
N11235 G3 X262.167 Y95.912 I-0.413 J0.
N11240 G1 X237.833
N11245 G3 X237.421 Y95.5 I0. J-0.412
N11250 G1 Y71.167
N11255 G3 X237.833 Y70.754 I0.412 J0.
N11260 G1 X250.
N11265 G3 X250.317 Y71.072 I0. J0.317 F1000.
N11270 G1 Y71.389
N11275 G19 G3 Y71.707 Z8.317 J0. K0.318
N11280 G1 X249.682 F1100.
N11285 Z4.317 F333.33
N11290 G2 Y71.389 Z4. J-0.318 K0. F1000.
N11295 G1 Y71.072
N11300 G17 G3 X250. Y70.754 I0.318 J0.
N11305 G1 X262.167 F1100.
N11310 G3 X262.579 Y71.167 I0. J0.412
N11315 G1 Y95.5
N11320 G3 X262.167 Y95.912 I-0.413 J0.
N11325 G1 X237.833
N11330 G3 X237.421 Y95.5 I0. J-0.412
N11335 G1 Y71.167
N11340 G3 X237.833 Y70.754 I0.412 J0.
N11345 G1 X250.
N11350 G3 X250.317 Y71.072 I0. J0.317 F1000.
N11355 G1 Y71.389
N11360 G19 G3 Y71.707 Z4.317 J0. K0.318
N11365 G1 X249.682 F1100.
N11370 Z1. F333.33
N11375 Z17. F1000.
N11380 Z1. F333.33
N11385 Y71.389 F1000.
N11390 Y71.072
N11395 G17 G3 X250. Y70.754 I0.318 J0.
N11400 G1 X252.337 F1100.
N11405 Z0. F333.33
N11410 X262.167 F1100.
N11415 G3 X262.579 Y71.167 I0. J0.412
N11420 G1 Y80.996
N11425 Z1.
N11430 Y85.671
N11435 Z0. F333.33
N11440 Y95.5 F1100.
N11445 G3 X262.167 Y95.912 I-0.413 J0.
N11450 G1 X252.337
N11455 Z1.
N11460 X247.663
N11465 Z0. F333.33
N11470 X237.833 F1100.
N11475 G3 X237.421 Y95.5 I0. J-0.412
N11480 G1 Y85.671
N11485 Z1.
N11490 Y80.996
N11495 Z0. F333.33
N11500 Y71.167 F1100.
N11505 G3 X237.833 Y70.754 I0.412 J0.
N11510 G1 X247.663
N11515 Z1.
N11520 X250.
N11525 G3 X250.317 Y71.072 I0. J0.317 F1000.
N11530 G1 Y71.707
N11535 G0 Z17.
N11540 X261.627 Y49.682
N11545 G1 Z8.317 F333.33
N11550 G18 G2 X261.944 Z8. I0.317 K0. F1000.
N11555 G1 X262.262
N11560 G17 G3 X262.579 Y50. I0. J0.318
N11565 G1 Y62.167 F1100.
N11570 G3 X262.167 Y62.579 I-0.413 J0.
N11575 G1 X237.833
N11580 G3 X237.421 Y62.167 I0. J-0.413
N11585 G1 Y37.833
N11590 G3 X237.833 Y37.421 I0.412 J0.
N11595 G1 X262.167
N11600 G3 X262.579 Y37.833 I0. J0.413
N11605 G1 Y50.
N11610 G3 X262.262 Y50.318 I-0.318 J0. F1000.
N11615 G1 X261.944
N11620 G18 G3 X261.627 Z8.317 I0. K0.318
N11625 G1 Y49.682 F1100.
N11630 Z4.317 F333.33
N11635 G2 X261.944 Z4. I0.317 K0. F1000.
N11640 G1 X262.262
N11645 G17 G3 X262.579 Y50. I0. J0.318
N11650 G1 Y62.167 F1100.
N11655 G3 X262.167 Y62.579 I-0.413 J0.
N11660 G1 X237.833
N11665 G3 X237.421 Y62.167 I0. J-0.413
N11670 G1 Y37.833
N11675 G3 X237.833 Y37.421 I0.412 J0.
N11680 G1 X262.167
N11685 G3 X262.579 Y37.833 I0. J0.413
N11690 G1 Y50.
N11695 G3 X262.262 Y50.318 I-0.318 J0. F1000.
N11700 G1 X261.944
N11705 G18 G3 X261.627 Z4.317 I0. K0.318
N11710 G1 Y49.682 F1100.
N11715 Z1. F333.33
N11720 Z17. F1000.
N11725 Z1. F333.33
N11730 X261.944 F1000.
N11735 X262.262
N11740 G17 G3 X262.579 Y50. I0. J0.318
N11745 G1 Y52.338 F1100.
N11750 Z0. F333.33
N11755 Y62.167 F1100.
N11760 G3 X262.167 Y62.579 I-0.413 J0.
N11765 G1 X252.337
N11770 Z1.
N11775 X247.663
N11780 Z0. F333.33
N11785 X237.833 F1100.
N11790 G3 X237.421 Y62.167 I0. J-0.413
N11795 G1 Y52.338
N11800 Z1.
N11805 Y47.662
N11810 Z0. F333.33
N11815 Y37.833 F1100.
N11820 G3 X237.833 Y37.421 I0.412 J0.
N11825 G1 X247.663
N11830 Z1.
N11835 X252.337
N11840 Z0. F333.33
N11845 X262.167 F1100.
N11850 G3 X262.579 Y37.833 I0. J0.413
N11855 G1 Y47.662
N11860 Z1.
N11865 Y50.
N11870 G3 X262.262 Y50.318 I-0.318 J0. F1000.
N11875 G1 X261.627
N11880 G0 Z17.
N11885 X294.96 Y49.683
N11890 G1 Z8.317 F333.33
N11895 G18 G2 X295.277 Z8. I0.318 K0. F1000.
N11900 G1 X295.595
N11905 G17 G3 X295.913 Y50. I0. J0.317
N11910 G1 Y62.167 F1100.
N11915 G3 X295.5 Y62.579 I-0.413 J0.
N11920 G1 X271.167
N11925 G3 X270.754 Y62.167 I0. J-0.413
N11930 G1 Y37.833
N11935 G3 X271.167 Y37.421 I0.413 J0.
N11940 G1 X295.5
N11945 G3 X295.913 Y37.833 I0. J0.413
N11950 G1 Y50.
N11955 G3 X295.595 Y50.318 I-0.318 J0. F1000.
N11960 G1 X295.277
N11965 G18 G3 X294.96 Z8.317 I0. K0.318
N11970 G1 Y49.683 F1100.
N11975 Z4.317 F333.33
N11980 G2 X295.277 Z4. I0.318 K0. F1000.
N11985 G1 X295.595
N11990 G17 G3 X295.913 Y50. I0. J0.317
N11995 G1 Y62.167 F1100.
N12000 G3 X295.5 Y62.579 I-0.413 J0.
N12005 G1 X271.167
N12010 G3 X270.754 Y62.167 I0. J-0.413
N12015 G1 Y37.833
N12020 G3 X271.167 Y37.421 I0.413 J0.
N12025 G1 X295.5
N12030 G3 X295.913 Y37.833 I0. J0.413
N12035 G1 Y50.
N12040 G3 X295.595 Y50.318 I-0.318 J0. F1000.
N12045 G1 X295.277
N12050 G18 G3 X294.96 Z4.317 I0. K0.318
N12055 G1 Y49.683 F1100.
N12060 Z1. F333.33
N12065 Z17. F1000.
N12070 Z1. F333.33
N12075 X295.277 F1000.
N12080 X295.595
N12085 G17 G3 X295.913 Y50. I0. J0.317
N12090 G1 Y52.338 F1100.
N12095 Z0. F333.33
N12100 Y62.167 F1100.
N12105 G3 X295.5 Y62.579 I-0.413 J0.
N12110 G1 X285.671
N12115 Z1.
N12120 X280.996
N12125 Z0. F333.33
N12130 X271.167 F1100.
N12135 G3 X270.754 Y62.167 I0. J-0.413
N12140 G1 Y52.338
N12145 Z1.
N12150 Y47.662
N12155 Z0. F333.33
N12160 Y37.833 F1100.
N12165 G3 X271.167 Y37.421 I0.413 J0.
N12170 G1 X280.996
N12175 Z1.
N12180 X285.671
N12185 Z0. F333.33
N12190 X295.5 F1100.
N12195 G3 X295.913 Y37.833 I0. J0.413
N12200 G1 Y47.662
N12205 Z1.
N12210 Y50.
N12215 G3 X295.595 Y50.318 I-0.318 J0. F1000.
N12220 G1 X294.96
N12225 G0 Z17.
N12230 X328.293 Y49.683
N12235 G1 Z8.317 F333.33
N12240 G18 G2 X328.611 Z8. I0.318 K0. F1000.
N12245 G1 X328.928
N12250 G17 G3 X329.246 Y50. I0. J0.317
N12255 G1 Y62.167 F1100.
N12260 G3 X328.833 Y62.579 I-0.413 J0.
N12265 G1 X304.5
N12270 G3 X304.087 Y62.167 I0. J-0.413
N12275 G1 Y37.833
N12280 G3 X304.5 Y37.421 I0.413 J0.
N12285 G1 X328.833
N12290 G3 X329.246 Y37.833 I0. J0.413
N12295 G1 Y50.
N12300 G3 X328.928 Y50.318 I-0.318 J0. F1000.
N12305 G1 X328.611
N12310 G18 G3 X328.293 Z8.317 I0. K0.318
N12315 G1 Y49.683 F1100.
N12320 Z4.317 F333.33
N12325 G2 X328.611 Z4. I0.318 K0. F1000.
N12330 G1 X328.928
N12335 G17 G3 X329.246 Y50. I0. J0.317
N12340 G1 Y62.167 F1100.
N12345 G3 X328.833 Y62.579 I-0.413 J0.
N12350 G1 X304.5
N12355 G3 X304.087 Y62.167 I0. J-0.413
N12360 G1 Y37.833
N12365 G3 X304.5 Y37.421 I0.413 J0.
N12370 G1 X328.833
N12375 G3 X329.246 Y37.833 I0. J0.413
N12380 G1 Y50.
N12385 G3 X328.928 Y50.318 I-0.318 J0. F1000.
N12390 G1 X328.611
N12395 G18 G3 X328.293 Z4.317 I0. K0.318
N12400 G1 Y49.683 F1100.
N12405 Z1. F333.33
N12410 Z17. F1000.
N12415 Z1. F333.33
N12420 X328.611 F1000.
N12425 X328.928
N12430 G17 G3 X329.246 Y50. I0. J0.317
N12435 G1 Y52.338 F1100.
N12440 Z0. F333.33
N12445 Y62.167 F1100.
N12450 G3 X328.833 Y62.579 I-0.413 J0.
N12455 G1 X319.004
N12460 Z1.
N12465 X314.329
N12470 Z0. F333.33
N12475 X304.5 F1100.
N12480 G3 X304.087 Y62.167 I0. J-0.413
N12485 G1 Y52.338
N12490 Z1.
N12495 Y47.662
N12500 Z0. F333.33
N12505 Y37.833 F1100.
N12510 G3 X304.5 Y37.421 I0.413 J0.
N12515 G1 X314.329
N12520 Z1.
N12525 X319.004
N12530 Z0. F333.33
N12535 X328.833 F1100.
N12540 G3 X329.246 Y37.833 I0. J0.413
N12545 G1 Y47.662
N12550 Z1.
N12555 Y50.
N12560 G3 X328.928 Y50.318 I-0.318 J0. F1000.
N12565 G1 X328.293
N12570 G0 Z17.
N12575 X361.627 Y49.682
N12580 G1 Z8.317 F333.33
N12585 G18 G2 X361.944 Z8. I0.317 K0. F1000.
N12590 G1 X362.262
N12595 G17 G3 X362.579 Y50. I0. J0.318
N12600 G1 Y62.167 F1100.
N12605 G3 X362.167 Y62.579 I-0.413 J0.
N12610 G1 X337.833
N12615 G3 X337.421 Y62.167 I0. J-0.413
N12620 G1 Y37.833
N12625 G3 X337.833 Y37.421 I0.413 J0.
N12630 G1 X362.167
N12635 G3 X362.579 Y37.833 I0. J0.413
N12640 G1 Y50.
N12645 G3 X362.262 Y50.318 I-0.318 J0. F1000.
N12650 G1 X361.944
N12655 G18 G3 X361.627 Z8.317 I0. K0.318
N12660 G1 Y49.682 F1100.
N12665 Z4.317 F333.33
N12670 G2 X361.944 Z4. I0.317 K0. F1000.
N12675 G1 X362.262
N12680 G17 G3 X362.579 Y50. I0. J0.318
N12685 G1 Y62.167 F1100.
N12690 G3 X362.167 Y62.579 I-0.413 J0.
N12695 G1 X337.833
N12700 G3 X337.421 Y62.167 I0. J-0.413
N12705 G1 Y37.833
N12710 G3 X337.833 Y37.421 I0.413 J0.
N12715 G1 X362.167
N12720 G3 X362.579 Y37.833 I0. J0.413
N12725 G1 Y50.
N12730 G3 X362.262 Y50.318 I-0.318 J0. F1000.
N12735 G1 X361.944
N12740 G18 G3 X361.627 Z4.317 I0. K0.318
N12745 G1 Y49.682 F1100.
N12750 Z1. F333.33
N12755 Z17. F1000.
N12760 Z1. F333.33
N12765 X361.944 F1000.
N12770 X362.262
N12775 G17 G3 X362.579 Y50. I0. J0.318
N12780 G1 Y52.338 F1100.
N12785 Z0. F333.33
N12790 Y62.167 F1100.
N12795 G3 X362.167 Y62.579 I-0.413 J0.
N12800 G1 X352.337
N12805 Z1.
N12810 X347.663
N12815 Z0. F333.33
N12820 X337.833 F1100.
N12825 G3 X337.421 Y62.167 I0. J-0.413
N12830 G1 Y52.338
N12835 Z1.
N12840 Y47.662
N12845 Z0. F333.33
N12850 Y37.833 F1100.
N12855 G3 X337.833 Y37.421 I0.413 J0.
N12860 G1 X347.663
N12865 Z1.
N12870 X352.337
N12875 Z0. F333.33
N12880 X362.167 F1100.
N12885 G3 X362.579 Y37.833 I0. J0.413
N12890 G1 Y47.662
N12895 Z1.
N12900 Y50.
N12905 G3 X362.262 Y50.318 I-0.318 J0. F1000.
N12910 G1 X361.627
N12915 G0 Z17.
N12920 X394.96 Y49.683
N12925 G1 Z8.317 F333.33
N12930 G18 G2 X395.277 Z8. I0.318 K0. F1000.
N12935 G1 X395.595
N12940 G17 G3 X395.913 Y50. I0. J0.317
N12945 G1 Y62.167 F1100.
N12950 G3 X395.5 Y62.579 I-0.413 J0.
N12955 G1 X371.167
N12960 G3 X370.754 Y62.167 I0. J-0.413
N12965 G1 Y37.833
N12970 G3 X371.167 Y37.421 I0.413 J0.
N12975 G1 X395.5
N12980 G3 X395.913 Y37.833 I0. J0.413
N12985 G1 Y50.
N12990 G3 X395.595 Y50.318 I-0.318 J0. F1000.
N12995 G1 X395.277
N13000 G18 G3 X394.96 Z8.317 I0. K0.318
N13005 G1 Y49.683 F1100.
N13010 Z4.317 F333.33
N13015 G2 X395.277 Z4. I0.318 K0. F1000.
N13020 G1 X395.595
N13025 G17 G3 X395.913 Y50. I0. J0.317
N13030 G1 Y62.167 F1100.
N13035 G3 X395.5 Y62.579 I-0.413 J0.
N13040 G1 X371.167
N13045 G3 X370.754 Y62.167 I0. J-0.413
N13050 G1 Y37.833
N13055 G3 X371.167 Y37.421 I0.413 J0.
N13060 G1 X395.5
N13065 G3 X395.913 Y37.833 I0. J0.413
N13070 G1 Y50.
N13075 G3 X395.595 Y50.318 I-0.318 J0. F1000.
N13080 G1 X395.277
N13085 G18 G3 X394.96 Z4.317 I0. K0.318
N13090 G1 Y49.683 F1100.
N13095 Z1. F333.33
N13100 Z17. F1000.
N13105 Z1. F333.33
N13110 X395.277 F1000.
N13115 X395.595
N13120 G17 G3 X395.913 Y50. I0. J0.317
N13125 G1 Y52.338 F1100.
N13130 Z0. F333.33
N13135 Y62.167 F1100.
N13140 G3 X395.5 Y62.579 I-0.413 J0.
N13145 G1 X385.671
N13150 Z1.
N13155 X380.996
N13160 Z0. F333.33
N13165 X371.167 F1100.
N13170 G3 X370.754 Y62.167 I0. J-0.413
N13175 G1 Y52.338
N13180 Z1.
N13185 Y47.662
N13190 Z0. F333.33
N13195 Y37.833 F1100.
N13200 G3 X371.167 Y37.421 I0.413 J0.
N13205 G1 X380.996
N13210 Z1.
N13215 X385.671
N13220 Z0. F333.33
N13225 X395.5 F1100.
N13230 G3 X395.913 Y37.833 I0. J0.413
N13235 G1 Y47.662
N13240 Z1.
N13245 Y50.
N13250 G3 X395.595 Y50.318 I-0.318 J0. F1000.
N13255 G1 X394.96
N13260 G0 Z17.
N13265 X428.293 Y49.682
N13270 G1 Z8.317 F333.33
N13275 G18 G2 X428.611 Z8. I0.318 K0. F1000.
N13280 G1 X428.928
N13285 G17 G3 X429.246 Y50. I0. J0.318
N13290 G1 Y62.167 F1100.
N13295 G3 X428.833 Y62.579 I-0.413 J0.
N13300 G1 X404.5
N13305 G3 X404.087 Y62.167 I0. J-0.413
N13310 G1 Y37.833
N13315 G3 X404.5 Y37.421 I0.413 J0.
N13320 G1 X428.833
N13325 G3 X429.246 Y37.833 I0. J0.413
N13330 G1 Y50.
N13335 G3 X428.928 Y50.317 I-0.318 J0. F1000.
N13340 G1 X428.611
N13345 G18 G3 X428.293 Z8.317 I0. K0.318
N13350 G1 Y49.682 F1100.
N13355 Z4.317 F333.33
N13360 G2 X428.611 Z4. I0.318 K0. F1000.
N13365 G1 X428.928
N13370 G17 G3 X429.246 Y50. I0. J0.318
N13375 G1 Y62.167 F1100.
N13380 G3 X428.833 Y62.579 I-0.413 J0.
N13385 G1 X404.5
N13390 G3 X404.087 Y62.167 I0. J-0.413
N13395 G1 Y37.833
N13400 G3 X404.5 Y37.421 I0.413 J0.
N13405 G1 X428.833
N13410 G3 X429.246 Y37.833 I0. J0.413
N13415 G1 Y50.
N13420 G3 X428.928 Y50.317 I-0.318 J0. F1000.
N13425 G1 X428.611
N13430 G18 G3 X428.293 Z4.317 I0. K0.318
N13435 G1 Y49.682 F1100.
N13440 Z1. F333.33
N13445 Z17. F1000.
N13450 Z1. F333.33
N13455 X428.611 F1000.
N13460 X428.928
N13465 G17 G3 X429.246 Y50. I0. J0.318
N13470 G1 Y52.338 F1100.
N13475 Z0. F333.33
N13480 Y62.167 F1100.
N13485 G3 X428.833 Y62.579 I-0.413 J0.
N13490 G1 X419.004
N13495 Z1.
N13500 X414.329
N13505 Z0. F333.33
N13510 X404.5 F1100.
N13515 G3 X404.087 Y62.167 I0. J-0.413
N13520 G1 Y52.338
N13525 Z1.
N13530 Y47.662
N13535 Z0. F333.33
N13540 Y37.833 F1100.
N13545 G3 X404.5 Y37.421 I0.413 J0.
N13550 G1 X414.329
N13555 Z1.
N13560 X419.004
N13565 Z0. F333.33
N13570 X428.833 F1100.
N13575 G3 X429.246 Y37.833 I0. J0.413
N13580 G1 Y47.662
N13585 Z1.
N13590 Y50.
N13595 G3 X428.928 Y50.317 I-0.318 J0. F1000.
N13600 G1 X428.293
N13605 G0 Z17.
N13610 X449.682 Y38.373
N13615 G1 Z8.317 F333.33
N13620 G19 G2 Y38.056 Z8. J-0.317 K0. F1000.
N13625 G1 Y37.738
N13630 G17 G3 X450. Y37.421 I0.318 J0.
N13635 G1 X462.167 F1100.
N13640 G3 X462.579 Y37.833 I0. J0.413
N13645 G1 Y62.167
N13650 G3 X462.167 Y62.579 I-0.413 J0.
N13655 G1 X437.833
N13660 G3 X437.421 Y62.167 I0. J-0.413
N13665 G1 Y37.833
N13670 G3 X437.833 Y37.421 I0.413 J0.
N13675 G1 X450.
N13680 G3 X450.317 Y37.738 I0. J0.318 F1000.
N13685 G1 Y38.056
N13690 G19 G3 Y38.373 Z8.317 J0. K0.318
N13695 G1 X449.682 F1100.
N13700 Z4.317 F333.33
N13705 G2 Y38.056 Z4. J-0.317 K0. F1000.
N13710 G1 Y37.738
N13715 G17 G3 X450. Y37.421 I0.318 J0.
N13720 G1 X462.167 F1100.
N13725 G3 X462.579 Y37.833 I0. J0.413
N13730 G1 Y62.167
N13735 G3 X462.167 Y62.579 I-0.413 J0.
N13740 G1 X437.833
N13745 G3 X437.421 Y62.167 I0. J-0.413
N13750 G1 Y37.833
N13755 G3 X437.833 Y37.421 I0.413 J0.
N13760 G1 X450.
N13765 G3 X450.317 Y37.738 I0. J0.318 F1000.
N13770 G1 Y38.056
N13775 G19 G3 Y38.373 Z4.317 J0. K0.318
N13780 G1 X449.682 F1100.
N13785 Z1. F333.33
N13790 Z17. F1000.
N13795 Z1. F333.33
N13800 Y38.056 F1000.
N13805 Y37.738
N13810 G17 G3 X450. Y37.421 I0.318 J0.
N13815 G1 X452.337 F1100.
N13820 Z0. F333.33
N13825 X462.167 F1100.
N13830 G3 X462.579 Y37.833 I0. J0.413
N13835 G1 Y47.662
N13840 Z1.
N13845 Y52.338
N13850 Z0. F333.33
N13855 Y62.167 F1100.
N13860 G3 X462.167 Y62.579 I-0.413 J0.
N13865 G1 X452.337
N13870 Z1.
N13875 X447.663
N13880 Z0. F333.33
N13885 X437.833 F1100.
N13890 G3 X437.421 Y62.167 I0. J-0.413
N13895 G1 Y52.338
N13900 Z1.
N13905 Y47.662
N13910 Z0. F333.33
N13915 Y37.833 F1100.
N13920 G3 X437.833 Y37.421 I0.413 J0.
N13925 G1 X447.663
N13930 Z1.
N13935 X450.
N13940 G3 X450.317 Y37.738 I0. J0.318 F1000.
N13945 G1 Y38.373
N13950 G0 Z17.
N13955 X449.682 Y71.707
N13960 G1 Z8.317 F333.33
N13965 G19 G2 Y71.389 Z8. J-0.318 K0. F1000.
N13970 G1 Y71.072
N13975 G17 G3 X450. Y70.754 I0.318 J0.
N13980 G1 X462.167 F1100.
N13985 G3 X462.579 Y71.167 I0. J0.412
N13990 G1 Y95.5
N13995 G3 X462.167 Y95.912 I-0.413 J0.
N14000 G1 X437.833
N14005 G3 X437.421 Y95.5 I0. J-0.412
N14010 G1 Y71.167
N14015 G3 X437.833 Y70.754 I0.413 J0.
N14020 G1 X450.
N14025 G3 X450.317 Y71.072 I0. J0.317 F1000.
N14030 G1 Y71.389
N14035 G19 G3 Y71.707 Z8.317 J0. K0.318
N14040 G1 X449.682 F1100.
N14045 Z4.317 F333.33
N14050 G2 Y71.389 Z4. J-0.318 K0. F1000.
N14055 G1 Y71.072
N14060 G17 G3 X450. Y70.754 I0.318 J0.
N14065 G1 X462.167 F1100.
N14070 G3 X462.579 Y71.167 I0. J0.412
N14075 G1 Y95.5
N14080 G3 X462.167 Y95.912 I-0.413 J0.
N14085 G1 X437.833
N14090 G3 X437.421 Y95.5 I0. J-0.412
N14095 G1 Y71.167
N14100 G3 X437.833 Y70.754 I0.413 J0.
N14105 G1 X450.
N14110 G3 X450.317 Y71.072 I0. J0.317 F1000.
N14115 G1 Y71.389
N14120 G19 G3 Y71.707 Z4.317 J0. K0.318
N14125 G1 X449.682 F1100.
N14130 Z1. F333.33
N14135 Z17. F1000.
N14140 Z1. F333.33
N14145 Y71.389 F1000.
N14150 Y71.072
N14155 G17 G3 X450. Y70.754 I0.318 J0.
N14160 G1 X452.337 F1100.
N14165 Z0. F333.33
N14170 X462.167 F1100.
N14175 G3 X462.579 Y71.167 I0. J0.412
N14180 G1 Y80.996
N14185 Z1.
N14190 Y85.671
N14195 Z0. F333.33
N14200 Y95.5 F1100.
N14205 G3 X462.167 Y95.912 I-0.413 J0.
N14210 G1 X452.337
N14215 Z1.
N14220 X447.663
N14225 Z0. F333.33
N14230 X437.833 F1100.
N14235 G3 X437.421 Y95.5 I0. J-0.412
N14240 G1 Y85.671
N14245 Z1.
N14250 Y80.996
N14255 Z0. F333.33
N14260 Y71.167 F1100.
N14265 G3 X437.833 Y70.754 I0.413 J0.
N14270 G1 X447.663
N14275 Z1.
N14280 X450.
N14285 G3 X450.317 Y71.072 I0. J0.317 F1000.
N14290 G1 Y71.707
N14295 G0 Z17.
N14300 X428.293 Y83.016
N14305 G1 Z8.317 F333.33
N14310 G18 G2 X428.611 Z8. I0.318 K0. F1000.
N14315 G1 X428.928
N14320 G17 G3 X429.246 Y83.334 I0. J0.318
N14325 G1 Y95.5 F1100.
N14330 G3 X428.833 Y95.912 I-0.413 J0.
N14335 G1 X404.5
N14340 G3 X404.087 Y95.5 I0. J-0.412
N14345 G1 Y71.167
N14350 G3 X404.5 Y70.754 I0.413 J0.
N14355 G1 X428.833
N14360 G3 X429.246 Y71.167 I0. J0.412
N14365 G1 Y83.334
N14370 G3 X428.928 Y83.651 I-0.318 J0. F1000.
N14375 G1 X428.611
N14380 G18 G3 X428.293 Z8.317 I0. K0.318
N14385 G1 Y83.016 F1100.
N14390 Z4.317 F333.33
N14395 G2 X428.611 Z4. I0.318 K0. F1000.
N14400 G1 X428.928
N14405 G17 G3 X429.246 Y83.334 I0. J0.318
N14410 G1 Y95.5 F1100.
N14415 G3 X428.833 Y95.912 I-0.413 J0.
N14420 G1 X404.5
N14425 G3 X404.087 Y95.5 I0. J-0.412
N14430 G1 Y71.167
N14435 G3 X404.5 Y70.754 I0.413 J0.
N14440 G1 X428.833
N14445 G3 X429.246 Y71.167 I0. J0.412
N14450 G1 Y83.334
N14455 G3 X428.928 Y83.651 I-0.318 J0. F1000.
N14460 G1 X428.611
N14465 G18 G3 X428.293 Z4.317 I0. K0.318
N14470 G1 Y83.016 F1100.
N14475 Z1. F333.33
N14480 Z17. F1000.
N14485 Z1. F333.33
N14490 X428.611 F1000.
N14495 X428.928
N14500 G17 G3 X429.246 Y83.334 I0. J0.318
N14505 G1 Y85.671 F1100.
N14510 Z0. F333.33
N14515 Y95.5 F1100.
N14520 G3 X428.833 Y95.912 I-0.413 J0.
N14525 G1 X419.004
N14530 Z1.
N14535 X414.329
N14540 Z0. F333.33
N14545 X404.5 F1100.
N14550 G3 X404.087 Y95.5 I0. J-0.412
N14555 G1 Y85.671
N14560 Z1.
N14565 Y80.996
N14570 Z0. F333.33
N14575 Y71.167 F1100.
N14580 G3 X404.5 Y70.754 I0.413 J0.
N14585 G1 X414.329
N14590 Z1.
N14595 X419.004
N14600 Z0. F333.33
N14605 X428.833 F1100.
N14610 G3 X429.246 Y71.167 I0. J0.412
N14615 G1 Y80.996
N14620 Z1.
N14625 Y83.334
N14630 G3 X428.928 Y83.651 I-0.318 J0. F1000.
N14635 G1 X428.293
N14640 G0 Z17.
N14645 Y116.349
N14650 G1 Z8.317 F333.33
N14655 G18 G2 X428.611 Z8. I0.318 K0. F1000.
N14660 G1 X428.928
N14665 G17 G3 X429.246 Y116.666 I0. J0.317
N14670 G1 Y128.833 F1100.
N14675 G3 X428.833 Y129.245 I-0.413 J0.
N14680 G1 X404.5
N14685 G3 X404.087 Y128.833 I0. J-0.413
N14690 G1 Y104.5
N14695 G3 X404.5 Y104.088 I0.413 J0.
N14700 G1 X428.833
N14705 G3 X429.246 Y104.5 I0. J0.412
N14710 G1 Y116.666
N14715 G3 X428.928 Y116.984 I-0.318 J0. F1000.
N14720 G1 X428.611
N14725 G18 G3 X428.293 Z8.317 I0. K0.318
N14730 G1 Y116.349 F1100.
N14735 Z4.317 F333.33
N14740 G2 X428.611 Z4. I0.318 K0. F1000.
N14745 G1 X428.928
N14750 G17 G3 X429.246 Y116.666 I0. J0.317
N14755 G1 Y128.833 F1100.
N14760 G3 X428.833 Y129.245 I-0.413 J0.
N14765 G1 X404.5
N14770 G3 X404.087 Y128.833 I0. J-0.413
N14775 G1 Y104.5
N14780 G3 X404.5 Y104.088 I0.413 J0.
N14785 G1 X428.833
N14790 G3 X429.246 Y104.5 I0. J0.412
N14795 G1 Y116.666
N14800 G3 X428.928 Y116.984 I-0.318 J0. F1000.
N14805 G1 X428.611
N14810 G18 G3 X428.293 Z4.317 I0. K0.318
N14815 G1 Y116.349 F1100.
N14820 Z1. F333.33
N14825 Z17. F1000.
N14830 Z1. F333.33
N14835 X428.611 F1000.
N14840 X428.928
N14845 G17 G3 X429.246 Y116.666 I0. J0.317
N14850 G1 Y119.005 F1100.
N14855 Z0. F333.33
N14860 Y128.833 F1100.
N14865 G3 X428.833 Y129.245 I-0.413 J0.
N14870 G1 X419.004
N14875 Z1.
N14880 X414.329
N14885 Z0. F333.33
N14890 X404.5 F1100.
N14895 G3 X404.087 Y128.833 I0. J-0.413
N14900 G1 Y119.005
N14905 Z1.
N14910 Y114.329
N14915 Z0. F333.33
N14920 Y104.5 F1100.
N14925 G3 X404.5 Y104.088 I0.413 J0.
N14930 G1 X414.329
N14935 Z1.
N14940 X419.004
N14945 Z0. F333.33
N14950 X428.833 F1100.
N14955 G3 X429.246 Y104.5 I0. J0.412
N14960 G1 Y114.329
N14965 Z1.
N14970 Y116.666
N14975 G3 X428.928 Y116.984 I-0.318 J0. F1000.
N14980 G1 X428.293
N14985 G0 Z17.
N14990 X449.682 Y105.04
N14995 G1 Z8.317 F333.33
N15000 G19 G2 Y104.723 Z8. J-0.317 K0. F1000.
N15005 G1 Y104.405
N15010 G17 G3 X450. Y104.088 I0.318 J0.
N15015 G1 X462.167 F1100.
N15020 G3 X462.579 Y104.5 I0. J0.412
N15025 G1 Y128.833
N15030 G3 X462.167 Y129.245 I-0.413 J0.
N15035 G1 X437.833
N15040 G3 X437.421 Y128.833 I0. J-0.413
N15045 G1 Y104.5
N15050 G3 X437.833 Y104.088 I0.413 J0.
N15055 G1 X450.
N15060 G3 X450.317 Y104.405 I0. J0.317 F1000.
N15065 G1 Y104.723
N15070 G19 G3 Y105.04 Z8.317 J0. K0.318
N15075 G1 X449.682 F1100.
N15080 Z4.317 F333.33
N15085 G2 Y104.723 Z4. J-0.317 K0. F1000.
N15090 G1 Y104.405
N15095 G17 G3 X450. Y104.088 I0.318 J0.
N15100 G1 X462.167 F1100.
N15105 G3 X462.579 Y104.5 I0. J0.412
N15110 G1 Y128.833
N15115 G3 X462.167 Y129.245 I-0.413 J0.
N15120 G1 X437.833
N15125 G3 X437.421 Y128.833 I0. J-0.413
N15130 G1 Y104.5
N15135 G3 X437.833 Y104.088 I0.413 J0.
N15140 G1 X450.
N15145 G3 X450.317 Y104.405 I0. J0.317 F1000.
N15150 G1 Y104.723
N15155 G19 G3 Y105.04 Z4.317 J0. K0.318
N15160 G1 X449.682 F1100.
N15165 Z1. F333.33
N15170 Z17. F1000.
N15175 Z1. F333.33
N15180 Y104.723 F1000.
N15185 Y104.405
N15190 G17 G3 X450. Y104.088 I0.318 J0.
N15195 G1 X452.337 F1100.
N15200 Z0. F333.33
N15205 X462.167 F1100.
N15210 G3 X462.579 Y104.5 I0. J0.412
N15215 G1 Y114.329
N15220 Z1.
N15225 Y119.005
N15230 Z0. F333.33
N15235 Y128.833 F1100.
N15240 G3 X462.167 Y129.245 I-0.413 J0.
N15245 G1 X452.337
N15250 Z1.
N15255 X447.663
N15260 Z0. F333.33
N15265 X437.833 F1100.
N15270 G3 X437.421 Y128.833 I0. J-0.413
N15275 G1 Y119.005
N15280 Z1.
N15285 Y114.329
N15290 Z0. F333.33
N15295 Y104.5 F1100.
N15300 G3 X437.833 Y104.088 I0.413 J0.
N15305 G1 X447.663
N15310 Z1.
N15315 X450.
N15320 G3 X450.317 Y104.405 I0. J0.317 F1000.
N15325 G1 Y105.04
N15330 G0 Z17.
N15335 X394.96 Y116.349
N15340 G1 Z8.317 F333.33
N15345 G18 G2 X395.277 Z8. I0.318 K0. F1000.
N15350 G1 X395.595
N15355 G17 G3 X395.913 Y116.666 I0. J0.317
N15360 G1 Y128.833 F1100.
N15365 G3 X395.5 Y129.245 I-0.413 J0.
N15370 G1 X371.167
N15375 G3 X370.754 Y128.833 I0. J-0.413
N15380 G1 Y104.5
N15385 G3 X371.167 Y104.088 I0.413 J0.
N15390 G1 X395.5
N15395 G3 X395.913 Y104.5 I0. J0.412
N15400 G1 Y116.666
N15405 G3 X395.595 Y116.984 I-0.318 J0. F1000.
N15410 G1 X395.277
N15415 G18 G3 X394.96 Z8.317 I0. K0.318
N15420 G1 Y116.349 F1100.
N15425 Z4.317 F333.33
N15430 G2 X395.277 Z4. I0.318 K0. F1000.
N15435 G1 X395.595
N15440 G17 G3 X395.913 Y116.666 I0. J0.317
N15445 G1 Y128.833 F1100.
N15450 G3 X395.5 Y129.245 I-0.413 J0.
N15455 G1 X371.167
N15460 G3 X370.754 Y128.833 I0. J-0.413
N15465 G1 Y104.5
N15470 G3 X371.167 Y104.088 I0.413 J0.
N15475 G1 X395.5
N15480 G3 X395.913 Y104.5 I0. J0.412
N15485 G1 Y116.666
N15490 G3 X395.595 Y116.984 I-0.318 J0. F1000.
N15495 G1 X395.277
N15500 G18 G3 X394.96 Z4.317 I0. K0.318
N15505 G1 Y116.349 F1100.
N15510 Z1. F333.33
N15515 Z17. F1000.
N15520 Z1. F333.33
N15525 X395.277 F1000.
N15530 X395.595
N15535 G17 G3 X395.913 Y116.666 I0. J0.317
N15540 G1 Y119.005 F1100.
N15545 Z0. F333.33
N15550 Y128.833 F1100.
N15555 G3 X395.5 Y129.245 I-0.413 J0.
N15560 G1 X385.671
N15565 Z1.
N15570 X380.996
N15575 Z0. F333.33
N15580 X371.167 F1100.
N15585 G3 X370.754 Y128.833 I0. J-0.413
N15590 G1 Y119.005
N15595 Z1.
N15600 Y114.329
N15605 Z0. F333.33
N15610 Y104.5 F1100.
N15615 G3 X371.167 Y104.088 I0.413 J0.
N15620 G1 X380.996
N15625 Z1.
N15630 X385.671
N15635 Z0. F333.33
N15640 X395.5 F1100.
N15645 G3 X395.913 Y104.5 I0. J0.412
N15650 G1 Y114.329
N15655 Z1.
N15660 Y116.666
N15665 G3 X395.595 Y116.984 I-0.318 J0. F1000.
N15670 G1 X394.96
N15675 G0 Z17.
N15680 Y83.016
N15685 G1 Z8.317 F333.33
N15690 G18 G2 X395.277 Z8. I0.318 K0. F1000.
N15695 G1 X395.595
N15700 G17 G3 X395.913 Y83.334 I0. J0.318
N15705 G1 Y95.5 F1100.
N15710 G3 X395.5 Y95.912 I-0.413 J0.
N15715 G1 X371.167
N15720 G3 X370.754 Y95.5 I0. J-0.412
N15725 G1 Y71.167
N15730 G3 X371.167 Y70.754 I0.413 J0.
N15735 G1 X395.5
N15740 G3 X395.913 Y71.167 I0. J0.412
N15745 G1 Y83.334
N15750 G3 X395.595 Y83.651 I-0.318 J0. F1000.
N15755 G1 X395.277
N15760 G18 G3 X394.96 Z8.317 I0. K0.318
N15765 G1 Y83.016 F1100.
N15770 Z4.317 F333.33
N15775 G2 X395.277 Z4. I0.318 K0. F1000.
N15780 G1 X395.595
N15785 G17 G3 X395.913 Y83.334 I0. J0.318
N15790 G1 Y95.5 F1100.
N15795 G3 X395.5 Y95.912 I-0.413 J0.
N15800 G1 X371.167
N15805 G3 X370.754 Y95.5 I0. J-0.412
N15810 G1 Y71.167
N15815 G3 X371.167 Y70.754 I0.413 J0.
N15820 G1 X395.5
N15825 G3 X395.913 Y71.167 I0. J0.412
N15830 G1 Y83.334
N15835 G3 X395.595 Y83.651 I-0.318 J0. F1000.
N15840 G1 X395.277
N15845 G18 G3 X394.96 Z4.317 I0. K0.318
N15850 G1 Y83.016 F1100.
N15855 Z1. F333.33
N15860 Z17. F1000.
N15865 Z1. F333.33
N15870 X395.277 F1000.
N15875 X395.595
N15880 G17 G3 X395.913 Y83.334 I0. J0.318
N15885 G1 Y85.671 F1100.
N15890 Z0. F333.33
N15895 Y95.5 F1100.
N15900 G3 X395.5 Y95.912 I-0.413 J0.
N15905 G1 X385.671
N15910 Z1.
N15915 X380.996
N15920 Z0. F333.33
N15925 X371.167 F1100.
N15930 G3 X370.754 Y95.5 I0. J-0.412
N15935 G1 Y85.671
N15940 Z1.
N15945 Y80.996
N15950 Z0. F333.33
N15955 Y71.167 F1100.
N15960 G3 X371.167 Y70.754 I0.413 J0.
N15965 G1 X380.996
N15970 Z1.
N15975 X385.671
N15980 Z0. F333.33
N15985 X395.5 F1100.
N15990 G3 X395.913 Y71.167 I0. J0.412
N15995 G1 Y80.996
N16000 Z1.
N16005 Y83.334
N16010 G3 X395.595 Y83.651 I-0.318 J0. F1000.
N16015 G1 X394.96
N16020 G0 Z17.
N16025 X361.627 Y83.016
N16030 G1 Z8.317 F333.33
N16035 G18 G2 X361.944 Z8. I0.317 K0. F1000.
N16040 G1 X362.262
N16045 G17 G3 X362.579 Y83.333 I0. J0.318
N16050 G1 Y95.5 F1100.
N16055 G3 X362.167 Y95.912 I-0.413 J0.
N16060 G1 X337.833
N16065 G3 X337.421 Y95.5 I0. J-0.412
N16070 G1 Y71.167
N16075 G3 X337.833 Y70.754 I0.413 J0.
N16080 G1 X362.167
N16085 G3 X362.579 Y71.167 I0. J0.412
N16090 G1 Y83.333
N16095 G3 X362.262 Y83.651 I-0.318 J0. F1000.
N16100 G1 X361.944
N16105 G18 G3 X361.627 Z8.317 I0. K0.318
N16110 G1 Y83.016 F1100.
N16115 Z4.317 F333.33
N16120 G2 X361.944 Z4. I0.317 K0. F1000.
N16125 G1 X362.262
N16130 G17 G3 X362.579 Y83.333 I0. J0.318
N16135 G1 Y95.5 F1100.
N16140 G3 X362.167 Y95.912 I-0.413 J0.
N16145 G1 X337.833
N16150 G3 X337.421 Y95.5 I0. J-0.412
N16155 G1 Y71.167
N16160 G3 X337.833 Y70.754 I0.413 J0.
N16165 G1 X362.167
N16170 G3 X362.579 Y71.167 I0. J0.412
N16175 G1 Y83.333
N16180 G3 X362.262 Y83.651 I-0.318 J0. F1000.
N16185 G1 X361.944
N16190 G18 G3 X361.627 Z4.317 I0. K0.318
N16195 G1 Y83.016 F1100.
N16200 Z1. F333.33
N16205 Z17. F1000.
N16210 Z1. F333.33
N16215 X361.944 F1000.
N16220 X362.262
N16225 G17 G3 X362.579 Y83.333 I0. J0.318
N16230 G1 Y85.671 F1100.
N16235 Z0. F333.33
N16240 Y95.5 F1100.
N16245 G3 X362.167 Y95.912 I-0.413 J0.
N16250 G1 X352.337
N16255 Z1.
N16260 X347.663
N16265 Z0. F333.33
N16270 X337.833 F1100.
N16275 G3 X337.421 Y95.5 I0. J-0.412
N16280 G1 Y85.671
N16285 Z1.
N16290 Y80.996
N16295 Z0. F333.33
N16300 Y71.167 F1100.
N16305 G3 X337.833 Y70.754 I0.413 J0.
N16310 G1 X347.663
N16315 Z1.
N16320 X352.337
N16325 Z0. F333.33
N16330 X362.167 F1100.
N16335 G3 X362.579 Y71.167 I0. J0.412
N16340 G1 Y80.996
N16345 Z1.
N16350 Y83.333
N16355 G3 X362.262 Y83.651 I-0.318 J0. F1000.
N16360 G1 X361.627
N16365 G0 Z17.
N16370 X349.682 Y105.04
N16375 G1 Z8.317 F333.33
N16380 G19 G2 Y104.723 Z8. J-0.317 K0. F1000.
N16385 G1 Y104.405
N16390 G17 G3 X350. Y104.088 I0.318 J0.
N16395 G1 X362.167 F1100.
N16400 G3 X362.579 Y104.5 I0. J0.412
N16405 G1 Y128.833
N16410 G3 X362.167 Y129.245 I-0.413 J0.
N16415 G1 X337.833
N16420 G3 X337.421 Y128.833 I0. J-0.413
N16425 G1 Y104.5
N16430 G3 X337.833 Y104.088 I0.413 J0.
N16435 G1 X350.
N16440 G3 X350.317 Y104.405 I0. J0.317 F1000.
N16445 G1 Y104.723
N16450 G19 G3 Y105.04 Z8.317 J0. K0.318
N16455 G1 X349.682 F1100.
N16460 Z4.317 F333.33
N16465 G2 Y104.723 Z4. J-0.317 K0. F1000.
N16470 G1 Y104.405
N16475 G17 G3 X350. Y104.088 I0.318 J0.
N16480 G1 X362.167 F1100.
N16485 G3 X362.579 Y104.5 I0. J0.412
N16490 G1 Y128.833
N16495 G3 X362.167 Y129.245 I-0.413 J0.
N16500 G1 X337.833
N16505 G3 X337.421 Y128.833 I0. J-0.413
N16510 G1 Y104.5
N16515 G3 X337.833 Y104.088 I0.413 J0.
N16520 G1 X350.
N16525 G3 X350.317 Y104.405 I0. J0.317 F1000.
N16530 G1 Y104.723
N16535 G19 G3 Y105.04 Z4.317 J0. K0.318
N16540 G1 X349.682 F1100.
N16545 Z1. F333.33
N16550 Z17. F1000.
N16555 Z1. F333.33
N16560 Y104.723 F1000.
N16565 Y104.405
N16570 G17 G3 X350. Y104.088 I0.318 J0.
N16575 G1 X352.337 F1100.
N16580 Z0. F333.33
N16585 X362.167 F1100.
N16590 G3 X362.579 Y104.5 I0. J0.412
N16595 G1 Y114.329
N16600 Z1.
N16605 Y119.005
N16610 Z0. F333.33
N16615 Y128.833 F1100.
N16620 G3 X362.167 Y129.245 I-0.413 J0.
N16625 G1 X352.337
N16630 Z1.
N16635 X347.663
N16640 Z0. F333.33
N16645 X337.833 F1100.
N16650 G3 X337.421 Y128.833 I0. J-0.413
N16655 G1 Y119.005
N16660 Z1.
N16665 Y114.329
N16670 Z0. F333.33
N16675 Y104.5 F1100.
N16680 G3 X337.833 Y104.088 I0.413 J0.
N16685 G1 X347.663
N16690 Z1.
N16695 X350.
N16700 G3 X350.317 Y104.405 I0. J0.317 F1000.
N16705 G1 Y105.04
N16710 G0 Z17.
N16715 X328.293 Y116.349
N16720 G1 Z8.317 F333.33
N16725 G18 G2 X328.611 Z8. I0.318 K0. F1000.
N16730 G1 X328.928
N16735 G17 G3 X329.246 Y116.666 I0. J0.317
N16740 G1 Y128.833 F1100.
N16745 G3 X328.833 Y129.245 I-0.413 J0.
N16750 G1 X304.5
N16755 G3 X304.087 Y128.833 I0. J-0.413
N16760 G1 Y104.5
N16765 G3 X304.5 Y104.088 I0.413 J0.
N16770 G1 X328.833
N16775 G3 X329.246 Y104.5 I0. J0.412
N16780 G1 Y116.666
N16785 G3 X328.928 Y116.984 I-0.318 J0. F1000.
N16790 G1 X328.611
N16795 G18 G3 X328.293 Z8.317 I0. K0.318
N16800 G1 Y116.349 F1100.
N16805 Z4.317 F333.33
N16810 G2 X328.611 Z4. I0.318 K0. F1000.
N16815 G1 X328.928
N16820 G17 G3 X329.246 Y116.666 I0. J0.317
N16825 G1 Y128.833 F1100.
N16830 G3 X328.833 Y129.245 I-0.413 J0.
N16835 G1 X304.5
N16840 G3 X304.087 Y128.833 I0. J-0.413
N16845 G1 Y104.5
N16850 G3 X304.5 Y104.088 I0.413 J0.
N16855 G1 X328.833
N16860 G3 X329.246 Y104.5 I0. J0.412
N16865 G1 Y116.666
N16870 G3 X328.928 Y116.984 I-0.318 J0. F1000.
N16875 G1 X328.611
N16880 G18 G3 X328.293 Z4.317 I0. K0.318
N16885 G1 Y116.349 F1100.
N16890 Z1. F333.33
N16895 Z17. F1000.
N16900 Z1. F333.33
N16905 X328.611 F1000.
N16910 X328.928
N16915 G17 G3 X329.246 Y116.666 I0. J0.317
N16920 G1 Y119.005 F1100.
N16925 Z0. F333.33
N16930 Y128.833 F1100.
N16935 G3 X328.833 Y129.245 I-0.413 J0.
N16940 G1 X319.004
N16945 Z1.
N16950 X314.329
N16955 Z0. F333.33
N16960 X304.5 F1100.
N16965 G3 X304.087 Y128.833 I0. J-0.413
N16970 G1 Y119.005
N16975 Z1.
N16980 Y114.329
N16985 Z0. F333.33
N16990 Y104.5 F1100.
N16995 G3 X304.5 Y104.088 I0.413 J0.
N17000 G1 X314.329
N17005 Z1.
N17010 X319.004
N17015 Z0. F333.33
N17020 X328.833 F1100.
N17025 G3 X329.246 Y104.5 I0. J0.412
N17030 G1 Y114.329
N17035 Z1.
N17040 Y116.666
N17045 G3 X328.928 Y116.984 I-0.318 J0. F1000.
N17050 G1 X328.293
N17055 G0 Z17.
N17060 Y83.016
N17065 G1 Z8.317 F333.33
N17070 G18 G2 X328.611 Z8. I0.318 K0. F1000.
N17075 G1 X328.928
N17080 G17 G3 X329.246 Y83.334 I0. J0.318
N17085 G1 Y95.5 F1100.
N17090 G3 X328.833 Y95.912 I-0.413 J0.
N17095 G1 X304.5
N17100 G3 X304.087 Y95.5 I0. J-0.412
N17105 G1 Y71.167
N17110 G3 X304.5 Y70.754 I0.413 J0.
N17115 G1 X328.833
N17120 G3 X329.246 Y71.167 I0. J0.412
N17125 G1 Y83.334
N17130 G3 X328.928 Y83.651 I-0.318 J0. F1000.
N17135 G1 X328.611
N17140 G18 G3 X328.293 Z8.317 I0. K0.318
N17145 G1 Y83.016 F1100.
N17150 Z4.317 F333.33
N17155 G2 X328.611 Z4. I0.318 K0. F1000.
N17160 G1 X328.928
N17165 G17 G3 X329.246 Y83.334 I0. J0.318
N17170 G1 Y95.5 F1100.
N17175 G3 X328.833 Y95.912 I-0.413 J0.
N17180 G1 X304.5
N17185 G3 X304.087 Y95.5 I0. J-0.412
N17190 G1 Y71.167
N17195 G3 X304.5 Y70.754 I0.413 J0.
N17200 G1 X328.833
N17205 G3 X329.246 Y71.167 I0. J0.412
N17210 G1 Y83.334
N17215 G3 X328.928 Y83.651 I-0.318 J0. F1000.
N17220 G1 X328.611
N17225 G18 G3 X328.293 Z4.317 I0. K0.318
N17230 G1 Y83.016 F1100.
N17235 Z1. F333.33
N17240 Z17. F1000.
N17245 Z1. F333.33
N17250 X328.611 F1000.
N17255 X328.928
N17260 G17 G3 X329.246 Y83.334 I0. J0.318
N17265 G1 Y85.671 F1100.
N17270 Z0. F333.33
N17275 Y95.5 F1100.
N17280 G3 X328.833 Y95.912 I-0.413 J0.
N17285 G1 X319.004
N17290 Z1.
N17295 X314.329
N17300 Z0. F333.33
N17305 X304.5 F1100.
N17310 G3 X304.087 Y95.5 I0. J-0.412
N17315 G1 Y85.671
N17320 Z1.
N17325 Y80.996
N17330 Z0. F333.33
N17335 Y71.167 F1100.
N17340 G3 X304.5 Y70.754 I0.413 J0.
N17345 G1 X314.329
N17350 Z1.
N17355 X319.004
N17360 Z0. F333.33
N17365 X328.833 F1100.
N17370 G3 X329.246 Y71.167 I0. J0.412
N17375 G1 Y80.996
N17380 Z1.
N17385 Y83.334
N17390 G3 X328.928 Y83.651 I-0.318 J0. F1000.
N17395 G1 X328.293
N17400 G0 Z17.
N17405 X294.96 Y83.016
N17410 G1 Z8.317 F333.33
N17415 G18 G2 X295.277 Z8. I0.318 K0. F1000.
N17420 G1 X295.595
N17425 G17 G3 X295.913 Y83.333 I0. J0.317
N17430 G1 Y95.5 F1100.
N17435 G3 X295.5 Y95.912 I-0.413 J0.
N17440 G1 X271.167
N17445 G3 X270.754 Y95.5 I0. J-0.412
N17450 G1 Y71.167
N17455 G3 X271.167 Y70.754 I0.413 J0.
N17460 G1 X295.5
N17465 G3 X295.913 Y71.167 I0. J0.412
N17470 G1 Y83.333
N17475 G3 X295.595 Y83.651 I-0.318 J0. F1000.
N17480 G1 X295.277
N17485 G18 G3 X294.96 Z8.317 I0. K0.318
N17490 G1 Y83.016 F1100.
N17495 Z4.317 F333.33
N17500 G2 X295.277 Z4. I0.318 K0. F1000.
N17505 G1 X295.595
N17510 G17 G3 X295.913 Y83.333 I0. J0.317
N17515 G1 Y95.5 F1100.
N17520 G3 X295.5 Y95.912 I-0.413 J0.
N17525 G1 X271.167
N17530 G3 X270.754 Y95.5 I0. J-0.412
N17535 G1 Y71.167
N17540 G3 X271.167 Y70.754 I0.413 J0.
N17545 G1 X295.5
N17550 G3 X295.913 Y71.167 I0. J0.412
N17555 G1 Y83.333
N17560 G3 X295.595 Y83.651 I-0.318 J0. F1000.
N17565 G1 X295.277
N17570 G18 G3 X294.96 Z4.317 I0. K0.318
N17575 G1 Y83.016 F1100.
N17580 Z1. F333.33
N17585 Z17. F1000.
N17590 Z1. F333.33
N17595 X295.277 F1000.
N17600 X295.595
N17605 G17 G3 X295.913 Y83.333 I0. J0.317
N17610 G1 Y85.671 F1100.
N17615 Z0. F333.33
N17620 Y95.5 F1100.
N17625 G3 X295.5 Y95.912 I-0.413 J0.
N17630 G1 X285.671
N17635 Z1.
N17640 X280.996
N17645 Z0. F333.33
N17650 X271.167 F1100.
N17655 G3 X270.754 Y95.5 I0. J-0.412
N17660 G1 Y85.671
N17665 Z1.
N17670 Y80.996
N17675 Z0. F333.33
N17680 Y71.167 F1100.
N17685 G3 X271.167 Y70.754 I0.413 J0.
N17690 G1 X280.996
N17695 Z1.
N17700 X285.671
N17705 Z0. F333.33
N17710 X295.5 F1100.
N17715 G3 X295.913 Y71.167 I0. J0.412
N17720 G1 Y80.996
N17725 Z1.
N17730 Y83.333
N17735 G3 X295.595 Y83.651 I-0.318 J0. F1000.
N17740 G1 X294.96
N17745 G0 Z17.
N17750 Y116.349
N17755 G1 Z8.317 F333.33
N17760 G18 G2 X295.277 Z8. I0.318 K0. F1000.
N17765 G1 X295.595
N17770 G17 G3 X295.913 Y116.666 I0. J0.317
N17775 G1 Y128.833 F1100.
N17780 G3 X295.5 Y129.245 I-0.413 J0.
N17785 G1 X271.167
N17790 G3 X270.754 Y128.833 I0. J-0.413
N17795 G1 Y104.5
N17800 G3 X271.167 Y104.088 I0.413 J0.
N17805 G1 X295.5
N17810 G3 X295.913 Y104.5 I0. J0.412
N17815 G1 Y116.666
N17820 G3 X295.595 Y116.984 I-0.318 J0. F1000.
N17825 G1 X295.277
N17830 G18 G3 X294.96 Z8.317 I0. K0.318
N17835 G1 Y116.349 F1100.
N17840 Z4.317 F333.33
N17845 G2 X295.277 Z4. I0.318 K0. F1000.
N17850 G1 X295.595
N17855 G17 G3 X295.913 Y116.666 I0. J0.317
N17860 G1 Y128.833 F1100.
N17865 G3 X295.5 Y129.245 I-0.413 J0.
N17870 G1 X271.167
N17875 G3 X270.754 Y128.833 I0. J-0.413
N17880 G1 Y104.5
N17885 G3 X271.167 Y104.088 I0.413 J0.
N17890 G1 X295.5
N17895 G3 X295.913 Y104.5 I0. J0.412
N17900 G1 Y116.666
N17905 G3 X295.595 Y116.984 I-0.318 J0. F1000.
N17910 G1 X295.277
N17915 G18 G3 X294.96 Z4.317 I0. K0.318
N17920 G1 Y116.349 F1100.
N17925 Z1. F333.33
N17930 Z17. F1000.
N17935 Z1. F333.33
N17940 X295.277 F1000.
N17945 X295.595
N17950 G17 G3 X295.913 Y116.666 I0. J0.317
N17955 G1 Y119.005 F1100.
N17960 Z0. F333.33
N17965 Y128.833 F1100.
N17970 G3 X295.5 Y129.245 I-0.413 J0.
N17975 G1 X285.671
N17980 Z1.
N17985 X280.996
N17990 Z0. F333.33
N17995 X271.167 F1100.
N18000 G3 X270.754 Y128.833 I0. J-0.413
N18005 G1 Y119.005
N18010 Z1.
N18015 Y114.329
N18020 Z0. F333.33
N18025 Y104.5 F1100.
N18030 G3 X271.167 Y104.088 I0.413 J0.
N18035 G1 X280.996
N18040 Z1.
N18045 X285.671
N18050 Z0. F333.33
N18055 X295.5 F1100.
N18060 G3 X295.913 Y104.5 I0. J0.412
N18065 G1 Y114.329
N18070 Z1.
N18075 Y116.666
N18080 G3 X295.595 Y116.984 I-0.318 J0. F1000.
N18085 G1 X294.96
N18090 G0 Z17.
N18095 X228.293 Y83.016
N18100 G1 Z8.317 F333.33
N18105 G18 G2 X228.611 Z8. I0.318 K0. F1000.
N18110 G1 X228.928
N18115 G17 G3 X229.245 Y83.333 I0. J0.317
N18120 G1 Y95.5 F1100.
N18125 G3 X228.833 Y95.912 I-0.413 J0.
N18130 G1 X204.5
N18135 G3 X204.087 Y95.5 I0. J-0.412
N18140 G1 Y71.167
N18145 G3 X204.5 Y70.754 I0.413 J0.
N18150 G1 X228.833
N18155 G3 X229.245 Y71.167 I0. J0.412
N18160 G1 Y83.333
N18165 G3 X228.928 Y83.651 I-0.318 J0. F1000.
N18170 G1 X228.611
N18175 G18 G3 X228.293 Z8.317 I0. K0.318
N18180 G1 Y83.016 F1100.
N18185 Z4.317 F333.33
N18190 G2 X228.611 Z4. I0.318 K0. F1000.
N18195 G1 X228.928
N18200 G17 G3 X229.245 Y83.333 I0. J0.317
N18205 G1 Y95.5 F1100.
N18210 G3 X228.833 Y95.912 I-0.413 J0.
N18215 G1 X204.5
N18220 G3 X204.087 Y95.5 I0. J-0.412
N18225 G1 Y71.167
N18230 G3 X204.5 Y70.754 I0.413 J0.
N18235 G1 X228.833
N18240 G3 X229.245 Y71.167 I0. J0.412
N18245 G1 Y83.333
N18250 G3 X228.928 Y83.651 I-0.318 J0. F1000.
N18255 G1 X228.611
N18260 G18 G3 X228.293 Z4.317 I0. K0.318
N18265 G1 Y83.016 F1100.
N18270 Z1. F333.33
N18275 Z17. F1000.
N18280 Z1. F333.33
N18285 X228.611 F1000.
N18290 X228.928
N18295 G17 G3 X229.245 Y83.333 I0. J0.317
N18300 G1 Y85.671 F1100.
N18305 Z0. F333.33
N18310 Y95.5 F1100.
N18315 G3 X228.833 Y95.912 I-0.413 J0.
N18320 G1 X219.005
N18325 Z1.
N18330 X214.329
N18335 Z0. F333.33
N18340 X204.5 F1100.
N18345 G3 X204.087 Y95.5 I0. J-0.412
N18350 G1 Y85.671
N18355 Z1.
N18360 Y80.996
N18365 Z0. F333.33
N18370 Y71.167 F1100.
N18375 G3 X204.5 Y70.754 I0.413 J0.
N18380 G1 X214.329
N18385 Z1.
N18390 X219.005
N18395 Z0. F333.33
N18400 X228.833 F1100.
N18405 G3 X229.245 Y71.167 I0. J0.412
N18410 G1 Y80.996
N18415 Z1.
N18420 Y83.333
N18425 G3 X228.928 Y83.651 I-0.318 J0. F1000.
N18430 G1 X228.293
N18435 G0 Z17.
N18440 Y49.683
N18445 G1 Z8.317 F333.33
N18450 G18 G2 X228.611 Z8. I0.318 K0. F1000.
N18455 G1 X228.928
N18460 G17 G3 X229.245 Y50. I0. J0.317
N18465 G1 Y62.167 F1100.
N18470 G3 X228.833 Y62.579 I-0.413 J0.
N18475 G1 X204.5
N18480 G3 X204.087 Y62.167 I0. J-0.413
N18485 G1 Y37.833
N18490 G3 X204.5 Y37.421 I0.413 J0.
N18495 G1 X228.833
N18500 G3 X229.245 Y37.833 I0. J0.413
N18505 G1 Y50.
N18510 G3 X228.928 Y50.318 I-0.318 J0. F1000.
N18515 G1 X228.611
N18520 G18 G3 X228.293 Z8.317 I0. K0.318
N18525 G1 Y49.683 F1100.
N18530 Z4.317 F333.33
N18535 G2 X228.611 Z4. I0.318 K0. F1000.
N18540 G1 X228.928
N18545 G17 G3 X229.245 Y50. I0. J0.317
N18550 G1 Y62.167 F1100.
N18555 G3 X228.833 Y62.579 I-0.413 J0.
N18560 G1 X204.5
N18565 G3 X204.087 Y62.167 I0. J-0.413
N18570 G1 Y37.833
N18575 G3 X204.5 Y37.421 I0.413 J0.
N18580 G1 X228.833
N18585 G3 X229.245 Y37.833 I0. J0.413
N18590 G1 Y50.
N18595 G3 X228.928 Y50.318 I-0.318 J0. F1000.
N18600 G1 X228.611
N18605 G18 G3 X228.293 Z4.317 I0. K0.318
N18610 G1 Y49.683 F1100.
N18615 Z1. F333.33
N18620 Z17. F1000.
N18625 Z1. F333.33
N18630 X228.611 F1000.
N18635 X228.928
N18640 G17 G3 X229.245 Y50. I0. J0.317
N18645 G1 Y52.338 F1100.
N18650 Z0. F333.33
N18655 Y62.167 F1100.
N18660 G3 X228.833 Y62.579 I-0.413 J0.
N18665 G1 X219.005
N18670 Z1.
N18675 X214.329
N18680 Z0. F333.33
N18685 X204.5 F1100.
N18690 G3 X204.087 Y62.167 I0. J-0.413
N18695 G1 Y52.338
N18700 Z1.
N18705 Y47.662
N18710 Z0. F333.33
N18715 Y37.833 F1100.
N18720 G3 X204.5 Y37.421 I0.413 J0.
N18725 G1 X214.329
N18730 Z1.
N18735 X219.005
N18740 Z0. F333.33
N18745 X228.833 F1100.
N18750 G3 X229.245 Y37.833 I0. J0.413
N18755 G1 Y47.662
N18760 Z1.
N18765 Y50.
N18770 G3 X228.928 Y50.318 I-0.318 J0. F1000.
N18775 G1 X228.293
N18780 G0 Z17.
N18785 X194.96 Y49.682
N18790 G1 Z8.317 F333.33
N18795 G18 G2 X195.277 Z8. I0.317 K0. F1000.
N18800 G1 X195.595
N18805 G17 G3 X195.913 Y50. I0. J0.318
N18810 G1 Y62.167 F1100.
N18815 G3 X195.5 Y62.579 I-0.413 J0.
N18820 G1 X171.167
N18825 G3 X170.755 Y62.167 I0. J-0.413
N18830 G1 Y37.833
N18835 G3 X171.167 Y37.421 I0.413 J0.
N18840 G1 X195.5
N18845 G3 X195.913 Y37.833 I0. J0.413
N18850 G1 Y50.
N18855 G3 X195.595 Y50.317 I-0.318 J0. F1000.
N18860 G1 X195.277
N18865 G18 G3 X194.96 Z8.317 I0. K0.318
N18870 G1 Y49.682 F1100.
N18875 Z4.317 F333.33
N18880 G2 X195.277 Z4. I0.317 K0. F1000.
N18885 G1 X195.595
N18890 G17 G3 X195.913 Y50. I0. J0.318
N18895 G1 Y62.167 F1100.
N18900 G3 X195.5 Y62.579 I-0.413 J0.
N18905 G1 X171.167
N18910 G3 X170.755 Y62.167 I0. J-0.413
N18915 G1 Y37.833
N18920 G3 X171.167 Y37.421 I0.413 J0.
N18925 G1 X195.5
N18930 G3 X195.913 Y37.833 I0. J0.413
N18935 G1 Y50.
N18940 G3 X195.595 Y50.317 I-0.318 J0. F1000.
N18945 G1 X195.277
N18950 G18 G3 X194.96 Z4.317 I0. K0.318
N18955 G1 Y49.682 F1100.
N18960 Z1. F333.33
N18965 Z17. F1000.
N18970 Z1. F333.33
N18975 X195.277 F1000.
N18980 X195.595
N18985 G17 G3 X195.913 Y50. I0. J0.318
N18990 G1 Y52.338 F1100.
N18995 Z0. F333.33
N19000 Y62.167 F1100.
N19005 G3 X195.5 Y62.579 I-0.413 J0.
N19010 G1 X185.671
N19015 Z1.
N19020 X180.995
N19025 Z0. F333.33
N19030 X171.167 F1100.
N19035 G3 X170.755 Y62.167 I0. J-0.413
N19040 G1 Y52.338
N19045 Z1.
N19050 Y47.662
N19055 Z0. F333.33
N19060 Y37.833 F1100.
N19065 G3 X171.167 Y37.421 I0.413 J0.
N19070 G1 X180.995
N19075 Z1.
N19080 X185.671
N19085 Z0. F333.33
N19090 X195.5 F1100.
N19095 G3 X195.913 Y37.833 I0. J0.413
N19100 G1 Y47.662
N19105 Z1.
N19110 Y50.
N19115 G3 X195.595 Y50.317 I-0.318 J0. F1000.
N19120 G1 X194.96
N19125 G0 Z17.
N19130 Y83.016
N19135 G1 Z8.317 F333.33
N19140 G18 G2 X195.277 Z8. I0.317 K0. F1000.
N19145 G1 X195.595
N19150 G17 G3 X195.913 Y83.334 I0. J0.318
N19155 G1 Y95.5 F1100.
N19160 G3 X195.5 Y95.912 I-0.413 J0.
N19165 G1 X171.167
N19170 G3 X170.755 Y95.5 I0. J-0.412
N19175 G1 Y71.167
N19180 G3 X171.167 Y70.754 I0.413 J0.
N19185 G1 X195.5
N19190 G3 X195.913 Y71.167 I0. J0.412
N19195 G1 Y83.334
N19200 G3 X195.595 Y83.651 I-0.318 J0. F1000.
N19205 G1 X195.277
N19210 G18 G3 X194.96 Z8.317 I0. K0.318
N19215 G1 Y83.016 F1100.
N19220 Z4.317 F333.33
N19225 G2 X195.277 Z4. I0.317 K0. F1000.
N19230 G1 X195.595
N19235 G17 G3 X195.913 Y83.334 I0. J0.318
N19240 G1 Y95.5 F1100.
N19245 G3 X195.5 Y95.912 I-0.413 J0.
N19250 G1 X171.167
N19255 G3 X170.755 Y95.5 I0. J-0.412
N19260 G1 Y71.167
N19265 G3 X171.167 Y70.754 I0.413 J0.
N19270 G1 X195.5
N19275 G3 X195.913 Y71.167 I0. J0.412
N19280 G1 Y83.334
N19285 G3 X195.595 Y83.651 I-0.318 J0. F1000.
N19290 G1 X195.277
N19295 G18 G3 X194.96 Z4.317 I0. K0.318
N19300 G1 Y83.016 F1100.
N19305 Z1. F333.33
N19310 Z17. F1000.
N19315 Z1. F333.33
N19320 X195.277 F1000.
N19325 X195.595
N19330 G17 G3 X195.913 Y83.334 I0. J0.318
N19335 G1 Y85.671 F1100.
N19340 Z0. F333.33
N19345 Y95.5 F1100.
N19350 G3 X195.5 Y95.912 I-0.413 J0.
N19355 G1 X185.671
N19360 Z1.
N19365 X180.995
N19370 Z0. F333.33
N19375 X171.167 F1100.
N19380 G3 X170.755 Y95.5 I0. J-0.412
N19385 G1 Y85.671
N19390 Z1.
N19395 Y80.996
N19400 Z0. F333.33
N19405 Y71.167 F1100.
N19410 G3 X171.167 Y70.754 I0.413 J0.
N19415 G1 X180.995
N19420 Z1.
N19425 X185.671
N19430 Z0. F333.33
N19435 X195.5 F1100.
N19440 G3 X195.913 Y71.167 I0. J0.412
N19445 G1 Y80.996
N19450 Z1.
N19455 Y83.334
N19460 G3 X195.595 Y83.651 I-0.318 J0. F1000.
N19465 G1 X194.96
N19470 G0 Z17.
N19475 Y116.349
N19480 G1 Z8.317 F333.33
N19485 G18 G2 X195.277 Z8. I0.317 K0. F1000.
N19490 G1 X195.595
N19495 G17 G3 X195.913 Y116.666 I0. J0.317
N19500 G1 Y128.833 F1100.
N19505 G3 X195.5 Y129.245 I-0.413 J0.
N19510 G1 X171.167
N19515 G3 X170.755 Y128.833 I0. J-0.413
N19520 G1 Y104.5
N19525 G3 X171.167 Y104.088 I0.413 J0.
N19530 G1 X195.5
N19535 G3 X195.913 Y104.5 I0. J0.412
N19540 G1 Y116.666
N19545 G3 X195.595 Y116.984 I-0.318 J0. F1000.
N19550 G1 X195.277
N19555 G18 G3 X194.96 Z8.317 I0. K0.318
N19560 G1 Y116.349 F1100.
N19565 Z4.317 F333.33
N19570 G2 X195.277 Z4. I0.317 K0. F1000.
N19575 G1 X195.595
N19580 G17 G3 X195.913 Y116.666 I0. J0.317
N19585 G1 Y128.833 F1100.
N19590 G3 X195.5 Y129.245 I-0.413 J0.
N19595 G1 X171.167
N19600 G3 X170.755 Y128.833 I0. J-0.413
N19605 G1 Y104.5
N19610 G3 X171.167 Y104.088 I0.413 J0.
N19615 G1 X195.5
N19620 G3 X195.913 Y104.5 I0. J0.412
N19625 G1 Y116.666
N19630 G3 X195.595 Y116.984 I-0.318 J0. F1000.
N19635 G1 X195.277
N19640 G18 G3 X194.96 Z4.317 I0. K0.318
N19645 G1 Y116.349 F1100.
N19650 Z1. F333.33
N19655 Z17. F1000.
N19660 Z1. F333.33
N19665 X195.277 F1000.
N19670 X195.595
N19675 G17 G3 X195.913 Y116.666 I0. J0.317
N19680 G1 Y119.005 F1100.
N19685 Z0. F333.33
N19690 Y128.833 F1100.
N19695 G3 X195.5 Y129.245 I-0.413 J0.
N19700 G1 X185.671
N19705 Z1.
N19710 X180.995
N19715 Z0. F333.33
N19720 X171.167 F1100.
N19725 G3 X170.755 Y128.833 I0. J-0.413
N19730 G1 Y119.005
N19735 Z1.
N19740 Y114.329
N19745 Z0. F333.33
N19750 Y104.5 F1100.
N19755 G3 X171.167 Y104.088 I0.413 J0.
N19760 G1 X180.995
