%
(1001)
(T1  D=2. CR=0. - ZMIN=-12. - FLAT END MILL)
N10 G90 G94 G17 G91.1
N15 G21
N20 G53 G0 Z0.
(2D CONTOUR1)
N25 T1 M6
N30 S1000 M3
N35 G54
N40 M8
N45 G0 X120.133 Y114.8
N50 G43 Z15. H1
N55 G0 Z5.
N60 G1 Z-3.8 F333.33
N65 G18 G2 X120.333 Z-4. I0.2 K0.
N70 G1 X120.533 F1000.
N75 G17 G3 X120.733 Y115. I0. J0.2
N80 G1 Y119.733
N85 G3 X119.733 Y120.733 I-1. J0.
N90 G1 X110.267
N95 G3 X109.267 Y119.733 I0. J-1.
N100 G1 Y110.267
N105 G3 X110.267 Y109.267 I1. J0.
N110 G1 X119.733
N115 G3 X120.733 Y110.267 I0. J1.
N120 G1 Y115.
N125 G3 X120.533 Y115.2 I-0.2 J0.
N130 G1 X120.333
N135 G18 G3 X120.133 Z-3.8 I0. K0.2
N140 G1 Y114.8
N145 Z-7.8 F333.33
N150 G2 X120.333 Z-8. I0.2 K0.
N155 G1 X120.533 F1000.
N160 G17 G3 X120.733 Y115. I0. J0.2
N165 G1 Y119.733
N170 G3 X119.733 Y120.733 I-1. J0.
N175 G1 X110.267
N180 G3 X109.267 Y119.733 I0. J-1.
N185 G1 Y110.267
N190 G3 X110.267 Y109.267 I1. J0.
N195 G1 X119.733
N200 G3 X120.733 Y110.267 I0. J1.
N205 G1 Y115.
N210 G3 X120.533 Y115.2 I-0.2 J0.
N215 G1 X120.333
N220 G18 G3 X120.133 Z-7.8 I0. K0.2
N225 G1 Y114.8
N230 Z-11.5 F333.33
N235 X120.333
N240 X120.533 F1000.
N245 G17 G3 X120.733 Y115. I0. J0.2
N250 G1 Y116.5
N255 Z-12. F333.33
N260 Y119.733 F1000.
N265 G3 X119.733 Y120.733 I-1. J0.
N270 G1 X116.5
N275 Z-11.5
N280 X113.5
N285 Z-12. F333.33
N290 X110.267 F1000.
N295 G3 X109.267 Y119.733 I0. J-1.
N300 G1 Y116.5
N305 Z-11.5
N310 Y113.5
N315 Z-12. F333.33
N320 Y110.267 F1000.
N325 G3 X110.267 Y109.267 I1. J0.
N330 G1 X113.5
N335 Z-11.5
N340 X116.5
N345 Z-12. F333.33
N350 X119.733 F1000.
N355 G3 X120.733 Y110.267 I0. J1.
N360 G1 Y113.5
N365 Z-11.5
N370 Y115.
N375 G3 X120.533 Y115.2 I-0.2 J0.
N380 G1 X120.133
N385 G0 Z5.
N390 X131.466 Y109.867
N395 G1 Z-3.8 F333.33
N400 G19 G2 Y109.667 Z-4. J-0.2 K0.
N405 G1 Y109.467 F1000.
N410 G17 G3 X131.666 Y109.267 I0.2 J0.
N415 G1 X136.4
N420 G3 X137.4 Y110.267 I0. J1.
N425 G1 Y119.733
N430 G3 X136.4 Y120.733 I-1. J0.
N435 G1 X126.933
N440 G3 X125.933 Y119.733 I0. J-1.
N445 G1 Y110.267
N450 G3 X126.933 Y109.267 I1. J0.
N455 G1 X131.666
N460 G3 X131.866 Y109.467 I0. J0.2
N465 G1 Y109.667
N470 G19 G3 Y109.867 Z-3.8 J0. K0.2
N475 G1 X131.466
N480 Z-7.8 F333.33
N485 G2 Y109.667 Z-8. J-0.2 K0.
N490 G1 Y109.467 F1000.
N495 G17 G3 X131.666 Y109.267 I0.2 J0.
N500 G1 X136.4
N505 G3 X137.4 Y110.267 I0. J1.
N510 G1 Y119.733
N515 G3 X136.4 Y120.733 I-1. J0.
N520 G1 X126.933
N525 G3 X125.933 Y119.733 I0. J-1.
N530 G1 Y110.267
N535 G3 X126.933 Y109.267 I1. J0.
N540 G1 X131.666
N545 G3 X131.866 Y109.467 I0. J0.2
N550 G1 Y109.667
N555 G19 G3 Y109.867 Z-7.8 J0. K0.2
N560 G1 X131.466
N565 Z-11.5 F333.33
N570 Y109.667
N575 Y109.467 F1000.
N580 G17 G3 X131.666 Y109.267 I0.2 J0.
N585 G1 X133.167
N590 Z-12. F333.33
N595 X136.4 F1000.
N600 G3 X137.4 Y110.267 I0. J1.
N605 G1 Y113.5
N610 Z-11.5
N615 Y116.5
N620 Z-12. F333.33
N625 Y119.733 F1000.
N630 G3 X136.4 Y120.733 I-1. J0.
N635 G1 X133.167
N640 Z-11.5
N645 X130.167
N650 Z-12. F333.33
N655 X126.933 F1000.
N660 G3 X125.933 Y119.733 I0. J-1.
N665 G1 Y116.5
N670 Z-11.5
N675 Y113.5
N680 Z-12. F333.33
N685 Y110.267 F1000.
N690 G3 X126.933 Y109.267 I1. J0.
N695 G1 X130.167
N700 Z-11.5
N705 X131.666
N710 G3 X131.866 Y109.467 I0. J0.2
N715 G1 Y109.867
N720 G0 Z5.
N725 X136.8 Y98.133
N730 G1 Z-3.8 F333.33
N735 G18 G2 X137. Z-4. I0.2 K0.
N740 G1 X137.2 F1000.
N745 G17 G3 X137.4 Y98.334 I0. J0.2
N750 G1 Y103.067
N755 G3 X136.4 Y104.067 I-1. J0.
N760 G1 X126.933
N765 G3 X125.933 Y103.067 I0. J-1.
N770 G1 Y93.6
N775 G3 X126.933 Y92.6 I1. J0.
N780 G1 X136.4
N785 G3 X137.4 Y93.6 I0. J1.
N790 G1 Y98.334
N795 G3 X137.2 Y98.534 I-0.2 J0.
N800 G1 X137.
N805 G18 G3 X136.8 Z-3.8 I0. K0.2
N810 G1 Y98.133
N815 Z-7.8 F333.33
N820 G2 X137. Z-8. I0.2 K0.
N825 G1 X137.2 F1000.
N830 G17 G3 X137.4 Y98.334 I0. J0.2
N835 G1 Y103.067
N840 G3 X136.4 Y104.067 I-1. J0.
N845 G1 X126.933
N850 G3 X125.933 Y103.067 I0. J-1.
N855 G1 Y93.6
N860 G3 X126.933 Y92.6 I1. J0.
N865 G1 X136.4
N870 G3 X137.4 Y93.6 I0. J1.
N875 G1 Y98.334
N880 G3 X137.2 Y98.534 I-0.2 J0.
N885 G1 X137.
N890 G18 G3 X136.8 Z-7.8 I0. K0.2
N895 G1 Y98.133
N900 Z-11.5 F333.33
N905 X137.
N910 X137.2 F1000.
N915 G17 G3 X137.4 Y98.334 I0. J0.2
N920 G1 Y99.833
N925 Z-12. F333.33
N930 Y103.067 F1000.
N935 G3 X136.4 Y104.067 I-1. J0.
N940 G1 X133.167
N945 Z-11.5
N950 X130.167
N955 Z-12. F333.33
N960 X126.933 F1000.
N965 G3 X125.933 Y103.067 I0. J-1.
N970 G1 Y99.833
N975 Z-11.5
N980 Y96.833
N985 Z-12. F333.33
N990 Y93.6 F1000.
N995 G3 X126.933 Y92.6 I1. J0.
N1000 G1 X130.167
N1005 Z-11.5
N1010 X133.167
N1015 Z-12. F333.33
N1020 X136.4 F1000.
N1025 G3 X137.4 Y93.6 I0. J1.
N1030 G1 Y96.833
N1035 Z-11.5
N1040 Y98.334
N1045 G3 X137.2 Y98.534 I-0.2 J0.
N1050 G1 X136.8
N1055 G0 Z5.
N1060 X153.467 Y98.133
N1065 G1 Z-3.8 F333.33
N1070 G18 G2 X153.667 Z-4. I0.2 K0.
N1075 G1 X153.867 F1000.
N1080 G17 G3 X154.067 Y98.334 I0. J0.2
N1085 G1 Y103.067
N1090 G3 X153.067 Y104.067 I-1. J0.
N1095 G1 X143.6
N1100 G3 X142.6 Y103.067 I0. J-1.
N1105 G1 Y93.6
N1110 G3 X143.6 Y92.6 I1. J0.
N1115 G1 X153.067
N1120 G3 X154.067 Y93.6 I0. J1.
N1125 G1 Y98.334
N1130 G3 X153.867 Y98.534 I-0.2 J0.
N1135 G1 X153.667
N1140 G18 G3 X153.467 Z-3.8 I0. K0.2
N1145 G1 Y98.133
N1150 Z-7.8 F333.33
N1155 G2 X153.667 Z-8. I0.2 K0.
N1160 G1 X153.867 F1000.
N1165 G17 G3 X154.067 Y98.334 I0. J0.2
N1170 G1 Y103.067
N1175 G3 X153.067 Y104.067 I-1. J0.
N1180 G1 X143.6
N1185 G3 X142.6 Y103.067 I0. J-1.
N1190 G1 Y93.6
N1195 G3 X143.6 Y92.6 I1. J0.
N1200 G1 X153.067
N1205 G3 X154.067 Y93.6 I0. J1.
N1210 G1 Y98.334
N1215 G3 X153.867 Y98.534 I-0.2 J0.
N1220 G1 X153.667
N1225 G18 G3 X153.467 Z-7.8 I0. K0.2
N1230 G1 Y98.133
N1235 Z-11.5 F333.33
N1240 X153.667
N1245 X153.867 F1000.
N1250 G17 G3 X154.067 Y98.334 I0. J0.2
N1255 G1 Y99.833
N1260 Z-12. F333.33
N1265 Y103.067 F1000.
N1270 G3 X153.067 Y104.067 I-1. J0.
N1275 G1 X149.833
N1280 Z-11.5
N1285 X146.833
N1290 Z-12. F333.33
N1295 X143.6 F1000.
N1300 G3 X142.6 Y103.067 I0. J-1.
N1305 G1 Y99.833
N1310 Z-11.5
N1315 Y96.833
N1320 Z-12. F333.33
N1325 Y93.6 F1000.
N1330 G3 X143.6 Y92.6 I1. J0.
N1335 G1 X146.833
N1340 Z-11.5
N1345 X149.833
N1350 Z-12. F333.33
N1355 X153.067 F1000.
N1360 G3 X154.067 Y93.6 I0. J1.
N1365 G1 Y96.833
N1370 Z-11.5
N1375 Y98.334
N1380 G3 X153.867 Y98.534 I-0.2 J0.
N1385 G1 X153.467
N1390 G0 Z5.
N1395 X170.133 Y98.133
N1400 G1 Z-3.8 F333.33
N1405 G18 G2 X170.333 Z-4. I0.2 K0.
N1410 G1 X170.533 F1000.
N1415 G17 G3 X170.733 Y98.333 I0. J0.2
N1420 G1 Y103.067
N1425 G3 X169.733 Y104.067 I-1. J0.
N1430 G1 X160.267
N1435 G3 X159.267 Y103.067 I0. J-1.
N1440 G1 Y93.6
N1445 G3 X160.267 Y92.6 I1. J0.
N1450 G1 X169.733
N1455 G3 X170.733 Y93.6 I0. J1.
N1460 G1 Y98.333
N1465 G3 X170.533 Y98.533 I-0.2 J0.
N1470 G1 X170.333
N1475 G18 G3 X170.133 Z-3.8 I0. K0.2
N1480 G1 Y98.133
N1485 Z-7.8 F333.33
N1490 G2 X170.333 Z-8. I0.2 K0.
N1495 G1 X170.533 F1000.
N1500 G17 G3 X170.733 Y98.333 I0. J0.2
N1505 G1 Y103.067
N1510 G3 X169.733 Y104.067 I-1. J0.
N1515 G1 X160.267
N1520 G3 X159.267 Y103.067 I0. J-1.
N1525 G1 Y93.6
N1530 G3 X160.267 Y92.6 I1. J0.
N1535 G1 X169.733
N1540 G3 X170.733 Y93.6 I0. J1.
N1545 G1 Y98.333
N1550 G3 X170.533 Y98.533 I-0.2 J0.
N1555 G1 X170.333
N1560 G18 G3 X170.133 Z-7.8 I0. K0.2
N1565 G1 Y98.133
N1570 Z-11.5 F333.33
N1575 X170.333
N1580 X170.533 F1000.
N1585 G17 G3 X170.733 Y98.333 I0. J0.2
N1590 G1 Y99.833
N1595 Z-12. F333.33
N1600 Y103.067 F1000.
N1605 G3 X169.733 Y104.067 I-1. J0.
N1610 G1 X166.5
N1615 Z-11.5
N1620 X163.5
N1625 Z-12. F333.33
N1630 X160.267 F1000.
N1635 G3 X159.267 Y103.067 I0. J-1.
N1640 G1 Y99.833
N1645 Z-11.5
N1650 Y96.833
N1655 Z-12. F333.33
N1660 Y93.6 F1000.
N1665 G3 X160.267 Y92.6 I1. J0.
N1670 G1 X163.5
N1675 Z-11.5
N1680 X166.5
N1685 Z-12. F333.33
N1690 X169.733 F1000.
N1695 G3 X170.733 Y93.6 I0. J1.
N1700 G1 Y96.833
N1705 Z-11.5
N1710 Y98.333
N1715 G3 X170.533 Y98.533 I-0.2 J0.
N1720 G1 X170.133
N1725 G0 Z5.
N1730 X186.8 Y98.133
N1735 G1 Z-3.8 F333.33
N1740 G18 G2 X187. Z-4. I0.2 K0.
N1745 G1 X187.2 F1000.
N1750 G17 G3 X187.4 Y98.334 I0. J0.2
N1755 G1 Y103.067
N1760 G3 X186.4 Y104.067 I-1. J0.
N1765 G1 X176.933
N1770 G3 X175.933 Y103.067 I0. J-1.
N1775 G1 Y93.6
N1780 G3 X176.933 Y92.6 I1. J0.
N1785 G1 X186.4
N1790 G3 X187.4 Y93.6 I0. J1.
N1795 G1 Y98.334
N1800 G3 X187.2 Y98.534 I-0.2 J0.
N1805 G1 X187.
N1810 G18 G3 X186.8 Z-3.8 I0. K0.2
N1815 G1 Y98.133
N1820 Z-7.8 F333.33
N1825 G2 X187. Z-8. I0.2 K0.
N1830 G1 X187.2 F1000.
N1835 G17 G3 X187.4 Y98.334 I0. J0.2
N1840 G1 Y103.067
N1845 G3 X186.4 Y104.067 I-1. J0.
N1850 G1 X176.933
N1855 G3 X175.933 Y103.067 I0. J-1.
N1860 G1 Y93.6
N1865 G3 X176.933 Y92.6 I1. J0.
N1870 G1 X186.4
N1875 G3 X187.4 Y93.6 I0. J1.
N1880 G1 Y98.334
N1885 G3 X187.2 Y98.534 I-0.2 J0.
N1890 G1 X187.
N1895 G18 G3 X186.8 Z-7.8 I0. K0.2
N1900 G1 Y98.133
N1905 Z-11.5 F333.33
N1910 X187.
N1915 X187.2 F1000.
N1920 G17 G3 X187.4 Y98.334 I0. J0.2
N1925 G1 Y99.833
N1930 Z-12. F333.33
N1935 Y103.067 F1000.
N1940 G3 X186.4 Y104.067 I-1. J0.
N1945 G1 X183.167
N1950 Z-11.5
N1955 X180.167
N1960 Z-12. F333.33
N1965 X176.933 F1000.
N1970 G3 X175.933 Y103.067 I0. J-1.
N1975 G1 Y99.833
N1980 Z-11.5
N1985 Y96.833
N1990 Z-12. F333.33
N1995 Y93.6 F1000.
N2000 G3 X176.933 Y92.6 I1. J0.
N2005 G1 X180.167
N2010 Z-11.5
N2015 X183.167
N2020 Z-12. F333.33
N2025 X186.4 F1000.
N2030 G3 X187.4 Y93.6 I0. J1.
N2035 G1 Y96.833
N2040 Z-11.5
N2045 Y98.334
N2050 G3 X187.2 Y98.534 I-0.2 J0.
N2055 G1 X186.8
N2060 G0 Z5.
N2065 X203.467 Y98.133
N2070 G1 Z-3.8 F333.33
N2075 G18 G2 X203.667 Z-4. I0.2 K0.
N2080 G1 X203.867 F1000.
N2085 G17 G3 X204.067 Y98.334 I0. J0.2
N2090 G1 Y103.067
N2095 G3 X203.067 Y104.067 I-1. J0.
N2100 G1 X193.6
N2105 G3 X192.6 Y103.067 I0. J-1.
N2110 G1 Y93.6
N2115 G3 X193.6 Y92.6 I1. J0.
N2120 G1 X203.067
N2125 G3 X204.067 Y93.6 I0. J1.
N2130 G1 Y98.334
N2135 G3 X203.867 Y98.534 I-0.2 J0.
N2140 G1 X203.667
N2145 G18 G3 X203.467 Z-3.8 I0. K0.2
N2150 G1 Y98.133
N2155 Z-7.8 F333.33
N2160 G2 X203.667 Z-8. I0.2 K0.
N2165 G1 X203.867 F1000.
N2170 G17 G3 X204.067 Y98.334 I0. J0.2
N2175 G1 Y103.067
N2180 G3 X203.067 Y104.067 I-1. J0.
N2185 G1 X193.6
N2190 G3 X192.6 Y103.067 I0. J-1.
N2195 G1 Y93.6
N2200 G3 X193.6 Y92.6 I1. J0.
N2205 G1 X203.067
N2210 G3 X204.067 Y93.6 I0. J1.
N2215 G1 Y98.334
N2220 G3 X203.867 Y98.534 I-0.2 J0.
N2225 G1 X203.667
N2230 G18 G3 X203.467 Z-7.8 I0. K0.2
N2235 G1 Y98.133
N2240 Z-11.5 F333.33
N2245 X203.667
N2250 X203.867 F1000.
N2255 G17 G3 X204.067 Y98.334 I0. J0.2
N2260 G1 Y99.833
N2265 Z-12. F333.33
N2270 Y103.067 F1000.
N2275 G3 X203.067 Y104.067 I-1. J0.
N2280 G1 X199.833
N2285 Z-11.5
N2290 X196.833
N2295 Z-12. F333.33
N2300 X193.6 F1000.
N2305 G3 X192.6 Y103.067 I0. J-1.
N2310 G1 Y99.833
N2315 Z-11.5
N2320 Y96.833
N2325 Z-12. F333.33
N2330 Y93.6 F1000.
N2335 G3 X193.6 Y92.6 I1. J0.
N2340 G1 X196.833
N2345 Z-11.5
N2350 X199.833
N2355 Z-12. F333.33
N2360 X203.067 F1000.
N2365 G3 X204.067 Y93.6 I0. J1.
N2370 G1 Y96.833
N2375 Z-11.5
N2380 Y98.334
N2385 G3 X203.867 Y98.534 I-0.2 J0.
N2390 G1 X203.467
N2395 G0 Z5.
N2400 X198.533 Y120.133
N2405 G1 Z-3.8 F333.33
N2410 G19 G3 Y120.333 Z-4. J0.2 K0.
N2415 G1 Y120.533 F1000.
N2420 G17 G3 X198.333 Y120.733 I-0.2 J0.
N2425 G1 X193.6
N2430 G3 X192.6 Y119.733 I0. J-1.
N2435 G1 Y110.267
N2440 G3 X193.6 Y109.267 I1. J0.
N2445 G1 X203.067
N2450 G3 X204.067 Y110.267 I0. J1.
N2455 G1 Y119.733
N2460 G3 X203.067 Y120.733 I-1. J0.
N2465 G1 X198.333
N2470 G3 X198.133 Y120.533 I0. J-0.2
N2475 G1 Y120.333
N2480 G19 G2 Y120.133 Z-3.8 J0. K0.2
N2485 G1 X198.533
N2490 Z-7.8 F333.33
N2495 G3 Y120.333 Z-8. J0.2 K0.
N2500 G1 Y120.533 F1000.
N2505 G17 G3 X198.333 Y120.733 I-0.2 J0.
N2510 G1 X193.6
N2515 G3 X192.6 Y119.733 I0. J-1.
N2520 G1 Y110.267
N2525 G3 X193.6 Y109.267 I1. J0.
N2530 G1 X203.067
N2535 G3 X204.067 Y110.267 I0. J1.
N2540 G1 Y119.733
N2545 G3 X203.067 Y120.733 I-1. J0.
N2550 G1 X198.333
N2555 G3 X198.133 Y120.533 I0. J-0.2
N2560 G1 Y120.333
N2565 G19 G2 Y120.133 Z-7.8 J0. K0.2
N2570 G1 X198.533
N2575 Z-11.5 F333.33
N2580 Y120.333
N2585 Y120.533 F1000.
N2590 G17 G3 X198.333 Y120.733 I-0.2 J0.
N2595 G1 X196.833
N2600 Z-12. F333.33
N2605 X193.6 F1000.
N2610 G3 X192.6 Y119.733 I0. J-1.
N2615 G1 Y116.5
N2620 Z-11.5
N2625 Y113.5
N2630 Z-12. F333.33
N2635 Y110.267 F1000.
N2640 G3 X193.6 Y109.267 I1. J0.
N2645 G1 X196.833
N2650 Z-11.5
N2655 X199.833
N2660 Z-12. F333.33
N2665 X203.067 F1000.
N2670 G3 X204.067 Y110.267 I0. J1.
N2675 G1 Y113.5
N2680 Z-11.5
N2685 Y116.5
N2690 Z-12. F333.33
N2695 Y119.733 F1000.
N2700 G3 X203.067 Y120.733 I-1. J0.
N2705 G1 X199.833
N2710 Z-11.5
N2715 X198.333
N2720 G3 X198.133 Y120.533 I0. J-0.2
N2725 G1 Y120.133
N2730 G0 Z5.
N2735 X203.467 Y131.467
N2740 G1 Z-3.8 F333.33
N2745 G18 G2 X203.667 Z-4. I0.2 K0.
N2750 G1 X203.867 F1000.
N2755 G17 G3 X204.067 Y131.667 I0. J0.2
N2760 G1 Y136.4
N2765 G3 X203.067 Y137.4 I-1. J0.
N2770 G1 X193.6
N2775 G3 X192.6 Y136.4 I0. J-1.
N2780 G1 Y126.933
N2785 G3 X193.6 Y125.933 I1. J0.
N2790 G1 X203.067
N2795 G3 X204.067 Y126.933 I0. J1.
N2800 G1 Y131.667
N2805 G3 X203.867 Y131.867 I-0.2 J0.
N2810 G1 X203.667
N2815 G18 G3 X203.467 Z-3.8 I0. K0.2
N2820 G1 Y131.467
N2825 Z-7.8 F333.33
N2830 G2 X203.667 Z-8. I0.2 K0.
N2835 G1 X203.867 F1000.
N2840 G17 G3 X204.067 Y131.667 I0. J0.2
N2845 G1 Y136.4
N2850 G3 X203.067 Y137.4 I-1. J0.
N2855 G1 X193.6
N2860 G3 X192.6 Y136.4 I0. J-1.
N2865 G1 Y126.933
N2870 G3 X193.6 Y125.933 I1. J0.
N2875 G1 X203.067
N2880 G3 X204.067 Y126.933 I0. J1.
N2885 G1 Y131.667
N2890 G3 X203.867 Y131.867 I-0.2 J0.
N2895 G1 X203.667
N2900 G18 G3 X203.467 Z-7.8 I0. K0.2
N2905 G1 Y131.467
N2910 Z-11.5 F333.33
N2915 X203.667
N2920 X203.867 F1000.
N2925 G17 G3 X204.067 Y131.667 I0. J0.2
N2930 G1 Y133.167
N2935 Z-12. F333.33
N2940 Y136.4 F1000.
N2945 G3 X203.067 Y137.4 I-1. J0.
N2950 G1 X199.833
N2955 Z-11.5
N2960 X196.833
N2965 Z-12. F333.33
N2970 X193.6 F1000.
N2975 G3 X192.6 Y136.4 I0. J-1.
N2980 G1 Y133.167
N2985 Z-11.5
N2990 Y130.167
N2995 Z-12. F333.33
N3000 Y126.933 F1000.
N3005 G3 X193.6 Y125.933 I1. J0.
N3010 G1 X196.833
N3015 Z-11.5
N3020 X199.833
N3025 Z-12. F333.33
N3030 X203.067 F1000.
N3035 G3 X204.067 Y126.933 I0. J1.
N3040 G1 Y130.167
N3045 Z-11.5
N3050 Y131.667
N3055 G3 X203.867 Y131.867 I-0.2 J0.
N3060 G1 X203.467
N3065 G0 Z5.
N3070 Y148.133
N3075 G1 Z-3.8 F333.33
N3080 G18 G2 X203.667 Z-4. I0.2 K0.
N3085 G1 X203.867 F1000.
N3090 G17 G3 X204.067 Y148.333 I0. J0.2
N3095 G1 Y153.067
N3100 G3 X203.067 Y154.067 I-1. J0.
N3105 G1 X193.6
N3110 G3 X192.6 Y153.067 I0. J-1.
N3115 G1 Y143.6
N3120 G3 X193.6 Y142.6 I1. J0.
N3125 G1 X203.067
N3130 G3 X204.067 Y143.6 I0. J1.
N3135 G1 Y148.333
N3140 G3 X203.867 Y148.533 I-0.2 J0.
N3145 G1 X203.667
N3150 G18 G3 X203.467 Z-3.8 I0. K0.2
N3155 G1 Y148.133
N3160 Z-7.8 F333.33
N3165 G2 X203.667 Z-8. I0.2 K0.
N3170 G1 X203.867 F1000.
N3175 G17 G3 X204.067 Y148.333 I0. J0.2
N3180 G1 Y153.067
N3185 G3 X203.067 Y154.067 I-1. J0.
N3190 G1 X193.6
N3195 G3 X192.6 Y153.067 I0. J-1.
N3200 G1 Y143.6
N3205 G3 X193.6 Y142.6 I1. J0.
N3210 G1 X203.067
N3215 G3 X204.067 Y143.6 I0. J1.
N3220 G1 Y148.333
N3225 G3 X203.867 Y148.533 I-0.2 J0.
N3230 G1 X203.667
N3235 G18 G3 X203.467 Z-7.8 I0. K0.2
N3240 G1 Y148.133
N3245 Z-11.5 F333.33
N3250 X203.667
N3255 X203.867 F1000.
N3260 G17 G3 X204.067 Y148.333 I0. J0.2
N3265 G1 Y149.833
N3270 Z-12. F333.33
N3275 Y153.067 F1000.
N3280 G3 X203.067 Y154.067 I-1. J0.
N3285 G1 X199.833
N3290 Z-11.5
N3295 X196.833
N3300 Z-12. F333.33
N3305 X193.6 F1000.
N3310 G3 X192.6 Y153.067 I0. J-1.
N3315 G1 Y149.833
N3320 Z-11.5
N3325 Y146.833
N3330 Z-12. F333.33
N3335 Y143.6 F1000.
N3340 G3 X193.6 Y142.6 I1. J0.
N3345 G1 X196.833
N3350 Z-11.5
N3355 X199.833
N3360 Z-12. F333.33
N3365 X203.067 F1000.
N3370 G3 X204.067 Y143.6 I0. J1.
N3375 G1 Y146.833
N3380 Z-11.5
N3385 Y148.333
N3390 G3 X203.867 Y148.533 I-0.2 J0.
N3395 G1 X203.467
N3400 G0 Z5.
N3405 Y164.8
N3410 G1 Z-3.8 F333.33
N3415 G18 G2 X203.667 Z-4. I0.2 K0.
N3420 G1 X203.867 F1000.
N3425 G17 G3 X204.067 Y165. I0. J0.2
N3430 G1 Y169.733
N3435 G3 X203.067 Y170.733 I-1. J0.
N3440 G1 X193.6
N3445 G3 X192.6 Y169.733 I0. J-1.
N3450 G1 Y160.267
N3455 G3 X193.6 Y159.267 I1. J0.
N3460 G1 X203.067
N3465 G3 X204.067 Y160.267 I0. J1.
N3470 G1 Y165.
N3475 G3 X203.867 Y165.2 I-0.2 J0.
N3480 G1 X203.667
N3485 G18 G3 X203.467 Z-3.8 I0. K0.2
N3490 G1 Y164.8
N3495 Z-7.8 F333.33
N3500 G2 X203.667 Z-8. I0.2 K0.
N3505 G1 X203.867 F1000.
N3510 G17 G3 X204.067 Y165. I0. J0.2
N3515 G1 Y169.733
N3520 G3 X203.067 Y170.733 I-1. J0.
N3525 G1 X193.6
N3530 G3 X192.6 Y169.733 I0. J-1.
N3535 G1 Y160.267
N3540 G3 X193.6 Y159.267 I1. J0.
N3545 G1 X203.067
N3550 G3 X204.067 Y160.267 I0. J1.
N3555 G1 Y165.
N3560 G3 X203.867 Y165.2 I-0.2 J0.
N3565 G1 X203.667
N3570 G18 G3 X203.467 Z-7.8 I0. K0.2
N3575 G1 Y164.8
N3580 Z-11.5 F333.33
N3585 X203.667
N3590 X203.867 F1000.
N3595 G17 G3 X204.067 Y165. I0. J0.2
N3600 G1 Y166.5
N3605 Z-12. F333.33
N3610 Y169.733 F1000.
N3615 G3 X203.067 Y170.733 I-1. J0.
N3620 G1 X199.833
N3625 Z-11.5
N3630 X196.833
N3635 Z-12. F333.33
N3640 X193.6 F1000.
N3645 G3 X192.6 Y169.733 I0. J-1.
N3650 G1 Y166.5
N3655 Z-11.5
N3660 Y163.5
N3665 Z-12. F333.33
N3670 Y160.267 F1000.
N3675 G3 X193.6 Y159.267 I1. J0.
N3680 G1 X196.833
N3685 Z-11.5
N3690 X199.833
N3695 Z-12. F333.33
N3700 X203.067 F1000.
N3705 G3 X204.067 Y160.267 I0. J1.
N3710 G1 Y163.5
N3715 Z-11.5
N3720 Y165.
N3725 G3 X203.867 Y165.2 I-0.2 J0.
N3730 G1 X203.467
N3735 G0 Z5.
N3740 Y181.467
N3745 G1 Z-3.8 F333.33
N3750 G18 G2 X203.667 Z-4. I0.2 K0.
N3755 G1 X203.867 F1000.
N3760 G17 G3 X204.067 Y181.667 I0. J0.2
N3765 G1 Y186.4
N3770 G3 X203.067 Y187.4 I-1. J0.
N3775 G1 X193.6
N3780 G3 X192.6 Y186.4 I0. J-1.
N3785 G1 Y176.933
N3790 G3 X193.6 Y175.933 I1. J0.
N3795 G1 X203.067
N3800 G3 X204.067 Y176.933 I0. J1.
N3805 G1 Y181.667
N3810 G3 X203.867 Y181.867 I-0.2 J0.
N3815 G1 X203.667
N3820 G18 G3 X203.467 Z-3.8 I0. K0.2
N3825 G1 Y181.467
N3830 Z-7.8 F333.33
N3835 G2 X203.667 Z-8. I0.2 K0.
N3840 G1 X203.867 F1000.
N3845 G17 G3 X204.067 Y181.667 I0. J0.2
N3850 G1 Y186.4
N3855 G3 X203.067 Y187.4 I-1. J0.
N3860 G1 X193.6
N3865 G3 X192.6 Y186.4 I0. J-1.
N3870 G1 Y176.933
N3875 G3 X193.6 Y175.933 I1. J0.
N3880 G1 X203.067
N3885 G3 X204.067 Y176.933 I0. J1.
N3890 G1 Y181.667
N3895 G3 X203.867 Y181.867 I-0.2 J0.
N3900 G1 X203.667
N3905 G18 G3 X203.467 Z-7.8 I0. K0.2
N3910 G1 Y181.467
N3915 Z-11.5 F333.33
N3920 X203.667
N3925 X203.867 F1000.
N3930 G17 G3 X204.067 Y181.667 I0. J0.2
N3935 G1 Y183.167
N3940 Z-12. F333.33
N3945 Y186.4 F1000.
N3950 G3 X203.067 Y187.4 I-1. J0.
N3955 G1 X199.833
N3960 Z-11.5
N3965 X196.833
N3970 Z-12. F333.33
N3975 X193.6 F1000.
N3980 G3 X192.6 Y186.4 I0. J-1.
N3985 G1 Y183.167
N3990 Z-11.5
N3995 Y180.167
N4000 Z-12. F333.33
N4005 Y176.933 F1000.
N4010 G3 X193.6 Y175.933 I1. J0.
N4015 G1 X196.833
N4020 Z-11.5
N4025 X199.833
N4030 Z-12. F333.33
N4035 X203.067 F1000.
N4040 G3 X204.067 Y176.933 I0. J1.
N4045 G1 Y180.167
N4050 Z-11.5
N4055 Y181.667
N4060 G3 X203.867 Y181.867 I-0.2 J0.
N4065 G1 X203.467
N4070 G0 Z5.
N4075 Y198.133
N4080 G1 Z-3.8 F333.33
N4085 G18 G2 X203.667 Z-4. I0.2 K0.
N4090 G1 X203.867 F1000.
N4095 G17 G3 X204.067 Y198.333 I0. J0.2
N4100 G1 Y203.067
N4105 G3 X203.067 Y204.067 I-1. J0.
N4110 G1 X193.6
N4115 G3 X192.6 Y203.067 I0. J-1.
N4120 G1 Y193.6
N4125 G3 X193.6 Y192.6 I1. J0.
N4130 G1 X203.067
N4135 G3 X204.067 Y193.6 I0. J1.
N4140 G1 Y198.333
N4145 G3 X203.867 Y198.533 I-0.2 J0.
N4150 G1 X203.667
N4155 G18 G3 X203.467 Z-3.8 I0. K0.2
N4160 G1 Y198.133
N4165 Z-7.8 F333.33
N4170 G2 X203.667 Z-8. I0.2 K0.
N4175 G1 X203.867 F1000.
N4180 G17 G3 X204.067 Y198.333 I0. J0.2
N4185 G1 Y203.067
N4190 G3 X203.067 Y204.067 I-1. J0.
N4195 G1 X193.6
N4200 G3 X192.6 Y203.067 I0. J-1.
N4205 G1 Y193.6
N4210 G3 X193.6 Y192.6 I1. J0.
N4215 G1 X203.067
N4220 G3 X204.067 Y193.6 I0. J1.
N4225 G1 Y198.333
N4230 G3 X203.867 Y198.533 I-0.2 J0.
N4235 G1 X203.667
N4240 G18 G3 X203.467 Z-7.8 I0. K0.2
N4245 G1 Y198.133
N4250 Z-11.5 F333.33
N4255 X203.667
N4260 X203.867 F1000.
N4265 G17 G3 X204.067 Y198.333 I0. J0.2
N4270 G1 Y199.833
N4275 Z-12. F333.33
N4280 Y203.067 F1000.
N4285 G3 X203.067 Y204.067 I-1. J0.
N4290 G1 X199.833
N4295 Z-11.5
N4300 X196.833
N4305 Z-12. F333.33
N4310 X193.6 F1000.
N4315 G3 X192.6 Y203.067 I0. J-1.
N4320 G1 Y199.833
N4325 Z-11.5
N4330 Y196.833
N4335 Z-12. F333.33
N4340 Y193.6 F1000.
N4345 G3 X193.6 Y192.6 I1. J0.
N4350 G1 X196.833
N4355 Z-11.5
N4360 X199.833
N4365 Z-12. F333.33
N4370 X203.067 F1000.
N4375 G3 X204.067 Y193.6 I0. J1.
N4380 G1 Y196.833
N4385 Z-11.5
N4390 Y198.333
N4395 G3 X203.867 Y198.533 I-0.2 J0.
N4400 G1 X203.467
N4405 G0 Z5.
N4410 X186.8 Y198.133
N4415 G1 Z-3.8 F333.33
N4420 G18 G2 X187. Z-4. I0.2 K0.
N4425 G1 X187.2 F1000.
N4430 G17 G3 X187.4 Y198.333 I0. J0.2
N4435 G1 Y203.067
N4440 G3 X186.4 Y204.067 I-1. J0.
N4445 G1 X176.933
N4450 G3 X175.933 Y203.067 I0. J-1.
N4455 G1 Y193.6
N4460 G3 X176.933 Y192.6 I1. J0.
N4465 G1 X186.4
N4470 G3 X187.4 Y193.6 I0. J1.
N4475 G1 Y198.333
N4480 G3 X187.2 Y198.533 I-0.2 J0.
N4485 G1 X187.
N4490 G18 G3 X186.8 Z-3.8 I0. K0.2
N4495 G1 Y198.133
N4500 Z-7.8 F333.33
N4505 G2 X187. Z-8. I0.2 K0.
N4510 G1 X187.2 F1000.
N4515 G17 G3 X187.4 Y198.333 I0. J0.2
N4520 G1 Y203.067
N4525 G3 X186.4 Y204.067 I-1. J0.
N4530 G1 X176.933
N4535 G3 X175.933 Y203.067 I0. J-1.
N4540 G1 Y193.6
N4545 G3 X176.933 Y192.6 I1. J0.
N4550 G1 X186.4
N4555 G3 X187.4 Y193.6 I0. J1.
N4560 G1 Y198.333
N4565 G3 X187.2 Y198.533 I-0.2 J0.
N4570 G1 X187.
N4575 G18 G3 X186.8 Z-7.8 I0. K0.2
N4580 G1 Y198.133
N4585 Z-11.5 F333.33
N4590 X187.
N4595 X187.2 F1000.
N4600 G17 G3 X187.4 Y198.333 I0. J0.2
N4605 G1 Y199.833
N4610 Z-12. F333.33
N4615 Y203.067 F1000.
N4620 G3 X186.4 Y204.067 I-1. J0.
N4625 G1 X183.167
N4630 Z-11.5
N4635 X180.167
N4640 Z-12. F333.33
N4645 X176.933 F1000.
N4650 G3 X175.933 Y203.067 I0. J-1.
N4655 G1 Y199.833
N4660 Z-11.5
N4665 Y196.833
N4670 Z-12. F333.33
N4675 Y193.6 F1000.
N4680 G3 X176.933 Y192.6 I1. J0.
N4685 G1 X180.167
N4690 Z-11.5
N4695 X183.167
N4700 Z-12. F333.33
N4705 X186.4 F1000.
N4710 G3 X187.4 Y193.6 I0. J1.
N4715 G1 Y196.833
N4720 Z-11.5
N4725 Y198.333
N4730 G3 X187.2 Y198.533 I-0.2 J0.
N4735 G1 X186.8
N4740 G0 Z5.
N4745 Y181.467
N4750 G1 Z-3.8 F333.33
N4755 G18 G2 X187. Z-4. I0.2 K0.
N4760 G1 X187.2 F1000.
N4765 G17 G3 X187.4 Y181.667 I0. J0.2
N4770 G1 Y186.4
N4775 G3 X186.4 Y187.4 I-1. J0.
N4780 G1 X176.933
N4785 G3 X175.933 Y186.4 I0. J-1.
N4790 G1 Y176.933
N4795 G3 X176.933 Y175.933 I1. J0.
N4800 G1 X186.4
N4805 G3 X187.4 Y176.933 I0. J1.
N4810 G1 Y181.667
N4815 G3 X187.2 Y181.867 I-0.2 J0.
N4820 G1 X187.
N4825 G18 G3 X186.8 Z-3.8 I0. K0.2
N4830 G1 Y181.467
N4835 Z-7.8 F333.33
N4840 G2 X187. Z-8. I0.2 K0.
N4845 G1 X187.2 F1000.
N4850 G17 G3 X187.4 Y181.667 I0. J0.2
N4855 G1 Y186.4
N4860 G3 X186.4 Y187.4 I-1. J0.
N4865 G1 X176.933
N4870 G3 X175.933 Y186.4 I0. J-1.
N4875 G1 Y176.933
N4880 G3 X176.933 Y175.933 I1. J0.
N4885 G1 X186.4
N4890 G3 X187.4 Y176.933 I0. J1.
N4895 G1 Y181.667
N4900 G3 X187.2 Y181.867 I-0.2 J0.
N4905 G1 X187.
N4910 G18 G3 X186.8 Z-7.8 I0. K0.2
N4915 G1 Y181.467
N4920 Z-11.5 F333.33
N4925 X187.
N4930 X187.2 F1000.
N4935 G17 G3 X187.4 Y181.667 I0. J0.2
N4940 G1 Y183.167
N4945 Z-12. F333.33
N4950 Y186.4 F1000.
N4955 G3 X186.4 Y187.4 I-1. J0.
N4960 G1 X183.167
N4965 Z-11.5
N4970 X180.167
N4975 Z-12. F333.33
N4980 X176.933 F1000.
N4985 G3 X175.933 Y186.4 I0. J-1.
N4990 G1 Y183.167
N4995 Z-11.5
N5000 Y180.167
N5005 Z-12. F333.33
N5010 Y176.933 F1000.
N5015 G3 X176.933 Y175.933 I1. J0.
N5020 G1 X180.167
N5025 Z-11.5
N5030 X183.167
N5035 Z-12. F333.33
N5040 X186.4 F1000.
N5045 G3 X187.4 Y176.933 I0. J1.
N5050 G1 Y180.167
N5055 Z-11.5
N5060 Y181.667
N5065 G3 X187.2 Y181.867 I-0.2 J0.
N5070 G1 X186.8
N5075 G0 Z5.
N5080 Y164.8
N5085 G1 Z-3.8 F333.33
N5090 G18 G2 X187. Z-4. I0.2 K0.
N5095 G1 X187.2 F1000.
N5100 G17 G3 X187.4 Y165. I0. J0.2
N5105 G1 Y169.733
N5110 G3 X186.4 Y170.733 I-1. J0.
N5115 G1 X176.933
N5120 G3 X175.933 Y169.733 I0. J-1.
N5125 G1 Y160.267
N5130 G3 X176.933 Y159.267 I1. J0.
N5135 G1 X186.4
N5140 G3 X187.4 Y160.267 I0. J1.
N5145 G1 Y165.
N5150 G3 X187.2 Y165.2 I-0.2 J0.
N5155 G1 X187.
N5160 G18 G3 X186.8 Z-3.8 I0. K0.2
N5165 G1 Y164.8
N5170 Z-7.8 F333.33
N5175 G2 X187. Z-8. I0.2 K0.
N5180 G1 X187.2 F1000.
N5185 G17 G3 X187.4 Y165. I0. J0.2
N5190 G1 Y169.733
N5195 G3 X186.4 Y170.733 I-1. J0.
N5200 G1 X176.933
N5205 G3 X175.933 Y169.733 I0. J-1.
N5210 G1 Y160.267
N5215 G3 X176.933 Y159.267 I1. J0.
N5220 G1 X186.4
N5225 G3 X187.4 Y160.267 I0. J1.
N5230 G1 Y165.
N5235 G3 X187.2 Y165.2 I-0.2 J0.
N5240 G1 X187.
N5245 G18 G3 X186.8 Z-7.8 I0. K0.2
N5250 G1 Y164.8
N5255 Z-11.5 F333.33
N5260 X187.
N5265 X187.2 F1000.
N5270 G17 G3 X187.4 Y165. I0. J0.2
N5275 G1 Y166.5
N5280 Z-12. F333.33
N5285 Y169.733 F1000.
N5290 G3 X186.4 Y170.733 I-1. J0.
N5295 G1 X183.167
N5300 Z-11.5
N5305 X180.167
N5310 Z-12. F333.33
N5315 X176.933 F1000.
N5320 G3 X175.933 Y169.733 I0. J-1.
N5325 G1 Y166.5
N5330 Z-11.5
N5335 Y163.5
N5340 Z-12. F333.33
N5345 Y160.267 F1000.
N5350 G3 X176.933 Y159.267 I1. J0.
N5355 G1 X180.167
N5360 Z-11.5
N5365 X183.167
N5370 Z-12. F333.33
N5375 X186.4 F1000.
N5380 G3 X187.4 Y160.267 I0. J1.
N5385 G1 Y163.5
N5390 Z-11.5
N5395 Y165.
N5400 G3 X187.2 Y165.2 I-0.2 J0.
N5405 G1 X186.8
N5410 G0 Z5.
N5415 Y148.133
N5420 G1 Z-3.8 F333.33
N5425 G18 G2 X187. Z-4. I0.2 K0.
N5430 G1 X187.2 F1000.
N5435 G17 G3 X187.4 Y148.333 I0. J0.2
N5440 G1 Y153.067
N5445 G3 X186.4 Y154.067 I-1. J0.
N5450 G1 X176.933
N5455 G3 X175.933 Y153.067 I0. J-1.
N5460 G1 Y143.6
N5465 G3 X176.933 Y142.6 I1. J0.
N5470 G1 X186.4
N5475 G3 X187.4 Y143.6 I0. J1.
N5480 G1 Y148.333
N5485 G3 X187.2 Y148.533 I-0.2 J0.
N5490 G1 X187.
N5495 G18 G3 X186.8 Z-3.8 I0. K0.2
N5500 G1 Y148.133
N5505 Z-7.8 F333.33
N5510 G2 X187. Z-8. I0.2 K0.
N5515 G1 X187.2 F1000.
N5520 G17 G3 X187.4 Y148.333 I0. J0.2
N5525 G1 Y153.067
N5530 G3 X186.4 Y154.067 I-1. J0.
N5535 G1 X176.933
N5540 G3 X175.933 Y153.067 I0. J-1.
N5545 G1 Y143.6
N5550 G3 X176.933 Y142.6 I1. J0.
N5555 G1 X186.4
N5560 G3 X187.4 Y143.6 I0. J1.
N5565 G1 Y148.333
N5570 G3 X187.2 Y148.533 I-0.2 J0.
N5575 G1 X187.
N5580 G18 G3 X186.8 Z-7.8 I0. K0.2
N5585 G1 Y148.133
N5590 Z-11.5 F333.33
N5595 X187.
N5600 X187.2 F1000.
N5605 G17 G3 X187.4 Y148.333 I0. J0.2
N5610 G1 Y149.833
N5615 Z-12. F333.33
N5620 Y153.067 F1000.
N5625 G3 X186.4 Y154.067 I-1. J0.
N5630 G1 X183.167
N5635 Z-11.5
N5640 X180.167
N5645 Z-12. F333.33
N5650 X176.933 F1000.
N5655 G3 X175.933 Y153.067 I0. J-1.
N5660 G1 Y149.833
N5665 Z-11.5
N5670 Y146.833
N5675 Z-12. F333.33
N5680 Y143.6 F1000.
N5685 G3 X176.933 Y142.6 I1. J0.
N5690 G1 X180.167
N5695 Z-11.5
N5700 X183.167
N5705 Z-12. F333.33
N5710 X186.4 F1000.
N5715 G3 X187.4 Y143.6 I0. J1.
N5720 G1 Y146.833
N5725 Z-11.5
N5730 Y148.333
N5735 G3 X187.2 Y148.533 I-0.2 J0.
N5740 G1 X186.8
N5745 G0 Z5.
N5750 Y131.467
N5755 G1 Z-3.8 F333.33
N5760 G18 G2 X187. Z-4. I0.2 K0.
N5765 G1 X187.2 F1000.
N5770 G17 G3 X187.4 Y131.667 I0. J0.2
N5775 G1 Y136.4
N5780 G3 X186.4 Y137.4 I-1. J0.
N5785 G1 X176.933
N5790 G3 X175.933 Y136.4 I0. J-1.
N5795 G1 Y126.933
N5800 G3 X176.933 Y125.933 I1. J0.
N5805 G1 X186.4
N5810 G3 X187.4 Y126.933 I0. J1.
N5815 G1 Y131.667
N5820 G3 X187.2 Y131.867 I-0.2 J0.
N5825 G1 X187.
N5830 G18 G3 X186.8 Z-3.8 I0. K0.2
N5835 G1 Y131.467
N5840 Z-7.8 F333.33
N5845 G2 X187. Z-8. I0.2 K0.
N5850 G1 X187.2 F1000.
N5855 G17 G3 X187.4 Y131.667 I0. J0.2
N5860 G1 Y136.4
N5865 G3 X186.4 Y137.4 I-1. J0.
N5870 G1 X176.933
N5875 G3 X175.933 Y136.4 I0. J-1.
N5880 G1 Y126.933
N5885 G3 X176.933 Y125.933 I1. J0.
N5890 G1 X186.4
N5895 G3 X187.4 Y126.933 I0. J1.
N5900 G1 Y131.667
N5905 G3 X187.2 Y131.867 I-0.2 J0.
N5910 G1 X187.
N5915 G18 G3 X186.8 Z-7.8 I0. K0.2
N5920 G1 Y131.467
N5925 Z-11.5 F333.33
N5930 X187.
N5935 X187.2 F1000.
N5940 G17 G3 X187.4 Y131.667 I0. J0.2
N5945 G1 Y133.167
N5950 Z-12. F333.33
N5955 Y136.4 F1000.
N5960 G3 X186.4 Y137.4 I-1. J0.
N5965 G1 X183.167
N5970 Z-11.5
N5975 X180.167
N5980 Z-12. F333.33
N5985 X176.933 F1000.
N5990 G3 X175.933 Y136.4 I0. J-1.
N5995 G1 Y133.167
N6000 Z-11.5
N6005 Y130.167
N6010 Z-12. F333.33
N6015 Y126.933 F1000.
N6020 G3 X176.933 Y125.933 I1. J0.
N6025 G1 X180.167
N6030 Z-11.5
N6035 X183.167
N6040 Z-12. F333.33
N6045 X186.4 F1000.
N6050 G3 X187.4 Y126.933 I0. J1.
N6055 G1 Y130.167
N6060 Z-11.5
N6065 Y131.667
N6070 G3 X187.2 Y131.867 I-0.2 J0.
N6075 G1 X186.8
N6080 G0 Z5.
N6085 Y114.8
N6090 G1 Z-3.8 F333.33
N6095 G18 G2 X187. Z-4. I0.2 K0.
N6100 G1 X187.2 F1000.
N6105 G17 G3 X187.4 Y115. I0. J0.2
N6110 G1 Y119.733
N6115 G3 X186.4 Y120.733 I-1. J0.
N6120 G1 X176.933
N6125 G3 X175.933 Y119.733 I0. J-1.
N6130 G1 Y110.267
N6135 G3 X176.933 Y109.267 I1. J0.
N6140 G1 X186.4
N6145 G3 X187.4 Y110.267 I0. J1.
N6150 G1 Y115.
N6155 G3 X187.2 Y115.2 I-0.2 J0.
N6160 G1 X187.
N6165 G18 G3 X186.8 Z-3.8 I0. K0.2
N6170 G1 Y114.8
N6175 Z-7.8 F333.33
N6180 G2 X187. Z-8. I0.2 K0.
N6185 G1 X187.2 F1000.
N6190 G17 G3 X187.4 Y115. I0. J0.2
N6195 G1 Y119.733
N6200 G3 X186.4 Y120.733 I-1. J0.
N6205 G1 X176.933
N6210 G3 X175.933 Y119.733 I0. J-1.
N6215 G1 Y110.267
N6220 G3 X176.933 Y109.267 I1. J0.
N6225 G1 X186.4
N6230 G3 X187.4 Y110.267 I0. J1.
N6235 G1 Y115.
N6240 G3 X187.2 Y115.2 I-0.2 J0.
N6245 G1 X187.
N6250 G18 G3 X186.8 Z-7.8 I0. K0.2
N6255 G1 Y114.8
N6260 Z-11.5 F333.33
N6265 X187.
N6270 X187.2 F1000.
N6275 G17 G3 X187.4 Y115. I0. J0.2
N6280 G1 Y116.5
N6285 Z-12. F333.33
N6290 Y119.733 F1000.
N6295 G3 X186.4 Y120.733 I-1. J0.
N6300 G1 X183.167
N6305 Z-11.5
N6310 X180.167
N6315 Z-12. F333.33
N6320 X176.933 F1000.
N6325 G3 X175.933 Y119.733 I0. J-1.
N6330 G1 Y116.5
N6335 Z-11.5
N6340 Y113.5
N6345 Z-12. F333.33
N6350 Y110.267 F1000.
N6355 G3 X176.933 Y109.267 I1. J0.
N6360 G1 X180.167
N6365 Z-11.5
N6370 X183.167
N6375 Z-12. F333.33
N6380 X186.4 F1000.
N6385 G3 X187.4 Y110.267 I0. J1.
N6390 G1 Y113.5
N6395 Z-11.5
N6400 Y115.
N6405 G3 X187.2 Y115.2 I-0.2 J0.
N6410 G1 X186.8
N6415 G0 Z5.
N6420 X170.133 Y114.8
N6425 G1 Z-3.8 F333.33
N6430 G18 G2 X170.333 Z-4. I0.2 K0.
N6435 G1 X170.533 F1000.
N6440 G17 G3 X170.733 Y115. I0. J0.2
N6445 G1 Y119.733
N6450 G3 X169.733 Y120.733 I-1. J0.
N6455 G1 X160.267
N6460 G3 X159.267 Y119.733 I0. J-1.
N6465 G1 Y110.267
N6470 G3 X160.267 Y109.267 I1. J0.
N6475 G1 X169.733
N6480 G3 X170.733 Y110.267 I0. J1.
N6485 G1 Y115.
N6490 G3 X170.533 Y115.2 I-0.2 J0.
N6495 G1 X170.333
N6500 G18 G3 X170.133 Z-3.8 I0. K0.2
N6505 G1 Y114.8
N6510 Z-7.8 F333.33
N6515 G2 X170.333 Z-8. I0.2 K0.
N6520 G1 X170.533 F1000.
N6525 G17 G3 X170.733 Y115. I0. J0.2
N6530 G1 Y119.733
N6535 G3 X169.733 Y120.733 I-1. J0.
N6540 G1 X160.267
N6545 G3 X159.267 Y119.733 I0. J-1.
N6550 G1 Y110.267
N6555 G3 X160.267 Y109.267 I1. J0.
N6560 G1 X169.733
N6565 G3 X170.733 Y110.267 I0. J1.
N6570 G1 Y115.
N6575 G3 X170.533 Y115.2 I-0.2 J0.
N6580 G1 X170.333
N6585 G18 G3 X170.133 Z-7.8 I0. K0.2
N6590 G1 Y114.8
N6595 Z-11.5 F333.33
N6600 X170.333
N6605 X170.533 F1000.
N6610 G17 G3 X170.733 Y115. I0. J0.2
N6615 G1 Y116.5
N6620 Z-12. F333.33
N6625 Y119.733 F1000.
N6630 G3 X169.733 Y120.733 I-1. J0.
N6635 G1 X166.5
N6640 Z-11.5
N6645 X163.5
N6650 Z-12. F333.33
N6655 X160.267 F1000.
N6660 G3 X159.267 Y119.733 I0. J-1.
N6665 G1 Y116.5
N6670 Z-11.5
N6675 Y113.5
N6680 Z-12. F333.33
N6685 Y110.267 F1000.
N6690 G3 X160.267 Y109.267 I1. J0.
N6695 G1 X163.5
N6700 Z-11.5
N6705 X166.5
N6710 Z-12. F333.33
N6715 X169.733 F1000.
N6720 G3 X170.733 Y110.267 I0. J1.
N6725 G1 Y113.5
N6730 Z-11.5
N6735 Y115.
N6740 G3 X170.533 Y115.2 I-0.2 J0.
N6745 G1 X170.133
N6750 G0 Z5.
N6755 Y131.467
N6760 G1 Z-3.8 F333.33
N6765 G18 G2 X170.333 Z-4. I0.2 K0.
N6770 G1 X170.533 F1000.
N6775 G17 G3 X170.733 Y131.667 I0. J0.2
N6780 G1 Y136.4
N6785 G3 X169.733 Y137.4 I-1. J0.
N6790 G1 X160.267
N6795 G3 X159.267 Y136.4 I0. J-1.
N6800 G1 Y126.933
N6805 G3 X160.267 Y125.933 I1. J0.
N6810 G1 X169.733
N6815 G3 X170.733 Y126.933 I0. J1.
N6820 G1 Y131.667
N6825 G3 X170.533 Y131.867 I-0.2 J0.
N6830 G1 X170.333
N6835 G18 G3 X170.133 Z-3.8 I0. K0.2
N6840 G1 Y131.467
N6845 Z-7.8 F333.33
N6850 G2 X170.333 Z-8. I0.2 K0.
N6855 G1 X170.533 F1000.
N6860 G17 G3 X170.733 Y131.667 I0. J0.2
N6865 G1 Y136.4
N6870 G3 X169.733 Y137.4 I-1. J0.
N6875 G1 X160.267
N6880 G3 X159.267 Y136.4 I0. J-1.
N6885 G1 Y126.933
N6890 G3 X160.267 Y125.933 I1. J0.
N6895 G1 X169.733
N6900 G3 X170.733 Y126.933 I0. J1.
N6905 G1 Y131.667
N6910 G3 X170.533 Y131.867 I-0.2 J0.
N6915 G1 X170.333
N6920 G18 G3 X170.133 Z-7.8 I0. K0.2
N6925 G1 Y131.467
N6930 Z-11.5 F333.33
N6935 X170.333
N6940 X170.533 F1000.
N6945 G17 G3 X170.733 Y131.667 I0. J0.2
N6950 G1 Y133.167
N6955 Z-12. F333.33
N6960 Y136.4 F1000.
N6965 G3 X169.733 Y137.4 I-1. J0.
N6970 G1 X166.5
N6975 Z-11.5
N6980 X163.5
N6985 Z-12. F333.33
N6990 X160.267 F1000.
N6995 G3 X159.267 Y136.4 I0. J-1.
N7000 G1 Y133.167
N7005 Z-11.5
N7010 Y130.167
N7015 Z-12. F333.33
N7020 Y126.933 F1000.
N7025 G3 X160.267 Y125.933 I1. J0.
N7030 G1 X163.5
N7035 Z-11.5
N7040 X166.5
N7045 Z-12. F333.33
N7050 X169.733 F1000.
N7055 G3 X170.733 Y126.933 I0. J1.
N7060 G1 Y130.167
N7065 Z-11.5
N7070 Y131.667
N7075 G3 X170.533 Y131.867 I-0.2 J0.
N7080 G1 X170.133
N7085 G0 Z5.
N7090 Y148.134
N7095 G1 Z-3.8 F333.33
N7100 G18 G2 X170.333 Z-4. I0.2 K0.
N7105 G1 X170.533 F1000.
N7110 G17 G3 X170.733 Y148.334 I0. J0.2
N7115 G1 Y153.067
N7120 G3 X169.733 Y154.067 I-1. J0.
N7125 G1 X160.267
N7130 G3 X159.267 Y153.067 I0. J-1.
N7135 G1 Y143.6
N7140 G3 X160.267 Y142.6 I1. J0.
N7145 G1 X169.733
N7150 G3 X170.733 Y143.6 I0. J1.
N7155 G1 Y148.334
N7160 G3 X170.533 Y148.534 I-0.2 J0.
N7165 G1 X170.333
N7170 G18 G3 X170.133 Z-3.8 I0. K0.2
N7175 G1 Y148.134
N7180 Z-7.8 F333.33
N7185 G2 X170.333 Z-8. I0.2 K0.
N7190 G1 X170.533 F1000.
N7195 G17 G3 X170.733 Y148.334 I0. J0.2
N7200 G1 Y153.067
N7205 G3 X169.733 Y154.067 I-1. J0.
N7210 G1 X160.267
N7215 G3 X159.267 Y153.067 I0. J-1.
N7220 G1 Y143.6
N7225 G3 X160.267 Y142.6 I1. J0.
N7230 G1 X169.733
N7235 G3 X170.733 Y143.6 I0. J1.
N7240 G1 Y148.334
N7245 G3 X170.533 Y148.534 I-0.2 J0.
N7250 G1 X170.333
N7255 G18 G3 X170.133 Z-7.8 I0. K0.2
N7260 G1 Y148.134
N7265 Z-11.5 F333.33
N7270 X170.333
N7275 X170.533 F1000.
N7280 G17 G3 X170.733 Y148.334 I0. J0.2
N7285 G1 Y149.833
N7290 Z-12. F333.33
N7295 Y153.067 F1000.
N7300 G3 X169.733 Y154.067 I-1. J0.
N7305 G1 X166.5
N7310 Z-11.5
N7315 X163.5
N7320 Z-12. F333.33
N7325 X160.267 F1000.
N7330 G3 X159.267 Y153.067 I0. J-1.
N7335 G1 Y149.833
N7340 Z-11.5
N7345 Y146.833
N7350 Z-12. F333.33
N7355 Y143.6 F1000.
N7360 G3 X160.267 Y142.6 I1. J0.
N7365 G1 X163.5
N7370 Z-11.5
N7375 X166.5
N7380 Z-12. F333.33
N7385 X169.733 F1000.
N7390 G3 X170.733 Y143.6 I0. J1.
N7395 G1 Y146.833
N7400 Z-11.5
N7405 Y148.334
N7410 G3 X170.533 Y148.534 I-0.2 J0.
N7415 G1 X170.133
N7420 G0 Z5.
N7425 Y164.8
N7430 G1 Z-3.8 F333.33
N7435 G18 G2 X170.333 Z-4. I0.2 K0.
N7440 G1 X170.533 F1000.
N7445 G17 G3 X170.733 Y165. I0. J0.2
N7450 G1 Y169.733
N7455 G3 X169.733 Y170.733 I-1. J0.
N7460 G1 X160.267
N7465 G3 X159.267 Y169.733 I0. J-1.
N7470 G1 Y160.267
N7475 G3 X160.267 Y159.267 I1. J0.
N7480 G1 X169.733
N7485 G3 X170.733 Y160.267 I0. J1.
N7490 G1 Y165.
N7495 G3 X170.533 Y165.2 I-0.2 J0.
N7500 G1 X170.333
N7505 G18 G3 X170.133 Z-3.8 I0. K0.2
N7510 G1 Y164.8
N7515 Z-7.8 F333.33
N7520 G2 X170.333 Z-8. I0.2 K0.
N7525 G1 X170.533 F1000.
N7530 G17 G3 X170.733 Y165. I0. J0.2
N7535 G1 Y169.733
N7540 G3 X169.733 Y170.733 I-1. J0.
N7545 G1 X160.267
N7550 G3 X159.267 Y169.733 I0. J-1.
N7555 G1 Y160.267
N7560 G3 X160.267 Y159.267 I1. J0.
N7565 G1 X169.733
N7570 G3 X170.733 Y160.267 I0. J1.
N7575 G1 Y165.
N7580 G3 X170.533 Y165.2 I-0.2 J0.
N7585 G1 X170.333
N7590 G18 G3 X170.133 Z-7.8 I0. K0.2
N7595 G1 Y164.8
N7600 Z-11.5 F333.33
N7605 X170.333
N7610 X170.533 F1000.
N7615 G17 G3 X170.733 Y165. I0. J0.2
N7620 G1 Y166.5
N7625 Z-12. F333.33
N7630 Y169.733 F1000.
N7635 G3 X169.733 Y170.733 I-1. J0.
N7640 G1 X166.5
N7645 Z-11.5
N7650 X163.5
N7655 Z-12. F333.33
N7660 X160.267 F1000.
N7665 G3 X159.267 Y169.733 I0. J-1.
N7670 G1 Y166.5
N7675 Z-11.5
N7680 Y163.5
N7685 Z-12. F333.33
N7690 Y160.267 F1000.
N7695 G3 X160.267 Y159.267 I1. J0.
N7700 G1 X163.5
N7705 Z-11.5
N7710 X166.5
N7715 Z-12. F333.33
N7720 X169.733 F1000.
N7725 G3 X170.733 Y160.267 I0. J1.
N7730 G1 Y163.5
N7735 Z-11.5
N7740 Y165.
N7745 G3 X170.533 Y165.2 I-0.2 J0.
N7750 G1 X170.133
N7755 G0 Z5.
N7760 Y181.466
N7765 G1 Z-3.8 F333.33
N7770 G18 G2 X170.333 Z-4. I0.2 K0.
N7775 G1 X170.533 F1000.
N7780 G17 G3 X170.733 Y181.666 I0. J0.2
N7785 G1 Y186.4
N7790 G3 X169.733 Y187.4 I-1. J0.
N7795 G1 X160.267
N7800 G3 X159.267 Y186.4 I0. J-1.
N7805 G1 Y176.933
N7810 G3 X160.267 Y175.933 I1. J0.
N7815 G1 X169.733
N7820 G3 X170.733 Y176.933 I0. J1.
N7825 G1 Y181.666
N7830 G3 X170.533 Y181.866 I-0.2 J0.
N7835 G1 X170.333
N7840 G18 G3 X170.133 Z-3.8 I0. K0.2
N7845 G1 Y181.466
N7850 Z-7.8 F333.33
N7855 G2 X170.333 Z-8. I0.2 K0.
N7860 G1 X170.533 F1000.
N7865 G17 G3 X170.733 Y181.666 I0. J0.2
N7870 G1 Y186.4
N7875 G3 X169.733 Y187.4 I-1. J0.
N7880 G1 X160.267
N7885 G3 X159.267 Y186.4 I0. J-1.
N7890 G1 Y176.933
N7895 G3 X160.267 Y175.933 I1. J0.
N7900 G1 X169.733
N7905 G3 X170.733 Y176.933 I0. J1.
N7910 G1 Y181.666
N7915 G3 X170.533 Y181.866 I-0.2 J0.
N7920 G1 X170.333
N7925 G18 G3 X170.133 Z-7.8 I0. K0.2
N7930 G1 Y181.466
N7935 Z-11.5 F333.33
N7940 X170.333
N7945 X170.533 F1000.
N7950 G17 G3 X170.733 Y181.666 I0. J0.2
N7955 G1 Y183.167
N7960 Z-12. F333.33
N7965 Y186.4 F1000.
N7970 G3 X169.733 Y187.4 I-1. J0.
N7975 G1 X166.5
N7980 Z-11.5
N7985 X163.5
N7990 Z-12. F333.33
N7995 X160.267 F1000.
N8000 G3 X159.267 Y186.4 I0. J-1.
N8005 G1 Y183.167
N8010 Z-11.5
N8015 Y180.167
N8020 Z-12. F333.33
N8025 Y176.933 F1000.
N8030 G3 X160.267 Y175.933 I1. J0.
N8035 G1 X163.5
N8040 Z-11.5
N8045 X166.5
N8050 Z-12. F333.33
N8055 X169.733 F1000.
N8060 G3 X170.733 Y176.933 I0. J1.
N8065 G1 Y180.167
N8070 Z-11.5
N8075 Y181.666
N8080 G3 X170.533 Y181.866 I-0.2 J0.
N8085 G1 X170.133
N8090 G0 Z5.
N8095 Y198.134
N8100 G1 Z-3.8 F333.33
N8105 G18 G2 X170.333 Z-4. I0.2 K0.
N8110 G1 X170.533 F1000.
N8115 G17 G3 X170.733 Y198.334 I0. J0.2
N8120 G1 Y203.067
N8125 G3 X169.733 Y204.067 I-1. J0.
N8130 G1 X160.267
N8135 G3 X159.267 Y203.067 I0. J-1.
N8140 G1 Y193.6
N8145 G3 X160.267 Y192.6 I1. J0.
N8150 G1 X169.733
N8155 G3 X170.733 Y193.6 I0. J1.
N8160 G1 Y198.334
N8165 G3 X170.533 Y198.534 I-0.2 J0.
N8170 G1 X170.333
N8175 G18 G3 X170.133 Z-3.8 I0. K0.2
N8180 G1 Y198.134
N8185 Z-7.8 F333.33
N8190 G2 X170.333 Z-8. I0.2 K0.
N8195 G1 X170.533 F1000.
N8200 G17 G3 X170.733 Y198.334 I0. J0.2
N8205 G1 Y203.067
N8210 G3 X169.733 Y204.067 I-1. J0.
N8215 G1 X160.267
N8220 G3 X159.267 Y203.067 I0. J-1.
N8225 G1 Y193.6
N8230 G3 X160.267 Y192.6 I1. J0.
N8235 G1 X169.733
N8240 G3 X170.733 Y193.6 I0. J1.
N8245 G1 Y198.334
N8250 G3 X170.533 Y198.534 I-0.2 J0.
N8255 G1 X170.333
N8260 G18 G3 X170.133 Z-7.8 I0. K0.2
N8265 G1 Y198.134
N8270 Z-11.5 F333.33
N8275 X170.333
N8280 X170.533 F1000.
N8285 G17 G3 X170.733 Y198.334 I0. J0.2
N8290 G1 Y199.833
N8295 Z-12. F333.33
N8300 Y203.067 F1000.
N8305 G3 X169.733 Y204.067 I-1. J0.
N8310 G1 X166.5
N8315 Z-11.5
N8320 X163.5
N8325 Z-12. F333.33
N8330 X160.267 F1000.
N8335 G3 X159.267 Y203.067 I0. J-1.
N8340 G1 Y199.833
N8345 Z-11.5
N8350 Y196.833
N8355 Z-12. F333.33
N8360 Y193.6 F1000.
N8365 G3 X160.267 Y192.6 I1. J0.
N8370 G1 X163.5
N8375 Z-11.5
N8380 X166.5
N8385 Z-12. F333.33
N8390 X169.733 F1000.
N8395 G3 X170.733 Y193.6 I0. J1.
N8400 G1 Y196.833
N8405 Z-11.5
N8410 Y198.334
N8415 G3 X170.533 Y198.534 I-0.2 J0.
N8420 G1 X170.133
N8425 G0 Z5.
N8430 X153.467 Y198.133
N8435 G1 Z-3.8 F333.33
N8440 G18 G2 X153.667 Z-4. I0.2 K0.
N8445 G1 X153.867 F1000.
N8450 G17 G3 X154.067 Y198.333 I0. J0.2
N8455 G1 Y203.067
N8460 G3 X153.067 Y204.067 I-1. J0.
N8465 G1 X143.6
N8470 G3 X142.6 Y203.067 I0. J-1.
N8475 G1 Y193.6
N8480 G3 X143.6 Y192.6 I1. J0.
N8485 G1 X153.067
N8490 G3 X154.067 Y193.6 I0. J1.
N8495 G1 Y198.333
N8500 G3 X153.867 Y198.533 I-0.2 J0.
N8505 G1 X153.667
N8510 G18 G3 X153.467 Z-3.8 I0. K0.2
N8515 G1 Y198.133
N8520 Z-7.8 F333.33
N8525 G2 X153.667 Z-8. I0.2 K0.
N8530 G1 X153.867 F1000.
N8535 G17 G3 X154.067 Y198.333 I0. J0.2
N8540 G1 Y203.067
N8545 G3 X153.067 Y204.067 I-1. J0.
N8550 G1 X143.6
N8555 G3 X142.6 Y203.067 I0. J-1.
N8560 G1 Y193.6
N8565 G3 X143.6 Y192.6 I1. J0.
N8570 G1 X153.067
N8575 G3 X154.067 Y193.6 I0. J1.
N8580 G1 Y198.333
N8585 G3 X153.867 Y198.533 I-0.2 J0.
N8590 G1 X153.667
N8595 G18 G3 X153.467 Z-7.8 I0. K0.2
N8600 G1 Y198.133
N8605 Z-11.5 F333.33
N8610 X153.667
N8615 X153.867 F1000.
N8620 G17 G3 X154.067 Y198.333 I0. J0.2
N8625 G1 Y199.833
N8630 Z-12. F333.33
N8635 Y203.067 F1000.
N8640 G3 X153.067 Y204.067 I-1. J0.
N8645 G1 X149.833
N8650 Z-11.5
N8655 X146.833
N8660 Z-12. F333.33
N8665 X143.6 F1000.
N8670 G3 X142.6 Y203.067 I0. J-1.
N8675 G1 Y199.833
N8680 Z-11.5
N8685 Y196.833
N8690 Z-12. F333.33
N8695 Y193.6 F1000.
N8700 G3 X143.6 Y192.6 I1. J0.
N8705 G1 X146.833
N8710 Z-11.5
N8715 X149.833
N8720 Z-12. F333.33
N8725 X153.067 F1000.
N8730 G3 X154.067 Y193.6 I0. J1.
N8735 G1 Y196.833
N8740 Z-11.5
N8745 Y198.333
N8750 G3 X153.867 Y198.533 I-0.2 J0.
N8755 G1 X153.467
N8760 G0 Z5.
N8765 Y181.467
N8770 G1 Z-3.8 F333.33
N8775 G18 G2 X153.667 Z-4. I0.2 K0.
N8780 G1 X153.867 F1000.
N8785 G17 G3 X154.067 Y181.667 I0. J0.2
N8790 G1 Y186.4
N8795 G3 X153.067 Y187.4 I-1. J0.
N8800 G1 X143.6
N8805 G3 X142.6 Y186.4 I0. J-1.
N8810 G1 Y176.933
N8815 G3 X143.6 Y175.933 I1. J0.
N8820 G1 X153.067
N8825 G3 X154.067 Y176.933 I0. J1.
N8830 G1 Y181.667
N8835 G3 X153.867 Y181.867 I-0.2 J0.
N8840 G1 X153.667
N8845 G18 G3 X153.467 Z-3.8 I0. K0.2
N8850 G1 Y181.467
N8855 Z-7.8 F333.33
N8860 G2 X153.667 Z-8. I0.2 K0.
N8865 G1 X153.867 F1000.
N8870 G17 G3 X154.067 Y181.667 I0. J0.2
N8875 G1 Y186.4
N8880 G3 X153.067 Y187.4 I-1. J0.
N8885 G1 X143.6
N8890 G3 X142.6 Y186.4 I0. J-1.
N8895 G1 Y176.933
N8900 G3 X143.6 Y175.933 I1. J0.
N8905 G1 X153.067
N8910 G3 X154.067 Y176.933 I0. J1.
N8915 G1 Y181.667
N8920 G3 X153.867 Y181.867 I-0.2 J0.
N8925 G1 X153.667
N8930 G18 G3 X153.467 Z-7.8 I0. K0.2
N8935 G1 Y181.467
N8940 Z-11.5 F333.33
N8945 X153.667
N8950 X153.867 F1000.
N8955 G17 G3 X154.067 Y181.667 I0. J0.2
N8960 G1 Y183.167
N8965 Z-12. F333.33
N8970 Y186.4 F1000.
N8975 G3 X153.067 Y187.4 I-1. J0.
N8980 G1 X149.833
N8985 Z-11.5
N8990 X146.833
N8995 Z-12. F333.33
N9000 X143.6 F1000.
N9005 G3 X142.6 Y186.4 I0. J-1.
N9010 G1 Y183.167
N9015 Z-11.5
N9020 Y180.167
N9025 Z-12. F333.33
N9030 Y176.933 F1000.
N9035 G3 X143.6 Y175.933 I1. J0.
N9040 G1 X146.833
N9045 Z-11.5
N9050 X149.833
N9055 Z-12. F333.33
N9060 X153.067 F1000.
N9065 G3 X154.067 Y176.933 I0. J1.
N9070 G1 Y180.167
N9075 Z-11.5
N9080 Y181.667
N9085 G3 X153.867 Y181.867 I-0.2 J0.
N9090 G1 X153.467
N9095 G0 Z5.
N9100 X148.533 Y170.133
N9105 G1 Z-3.8 F333.33
N9110 G19 G3 Y170.333 Z-4. J0.2 K0.
N9115 G1 Y170.533 F1000.
N9120 G17 G3 X148.333 Y170.733 I-0.2 J0.
N9125 G1 X143.6
N9130 G3 X142.6 Y169.733 I0. J-1.
N9135 G1 Y160.267
N9140 G3 X143.6 Y159.267 I1. J0.
N9145 G1 X153.067
N9150 G3 X154.067 Y160.267 I0. J1.
N9155 G1 Y169.733
N9160 G3 X153.067 Y170.733 I-1. J0.
N9165 G1 X148.333
N9170 G3 X148.133 Y170.533 I0. J-0.2
N9175 G1 Y170.333
N9180 G19 G2 Y170.133 Z-3.8 J0. K0.2
N9185 G1 X148.533
N9190 Z-7.8 F333.33
N9195 G3 Y170.333 Z-8. J0.2 K0.
N9200 G1 Y170.533 F1000.
N9205 G17 G3 X148.333 Y170.733 I-0.2 J0.
N9210 G1 X143.6
N9215 G3 X142.6 Y169.733 I0. J-1.
N9220 G1 Y160.267
N9225 G3 X143.6 Y159.267 I1. J0.
N9230 G1 X153.067
N9235 G3 X154.067 Y160.267 I0. J1.
N9240 G1 Y169.733
N9245 G3 X153.067 Y170.733 I-1. J0.
N9250 G1 X148.333
N9255 G3 X148.133 Y170.533 I0. J-0.2
N9260 G1 Y170.333
N9265 G19 G2 Y170.133 Z-7.8 J0. K0.2
N9270 G1 X148.533
N9275 Z-11.5 F333.33
N9280 Y170.333
N9285 Y170.533 F1000.
N9290 G17 G3 X148.333 Y170.733 I-0.2 J0.
N9295 G1 X146.833
N9300 Z-12. F333.33
N9305 X143.6 F1000.
N9310 G3 X142.6 Y169.733 I0. J-1.
N9315 G1 Y166.5
N9320 Z-11.5
N9325 Y163.5
N9330 Z-12. F333.33
N9335 Y160.267 F1000.
N9340 G3 X143.6 Y159.267 I1. J0.
N9345 G1 X146.833
N9350 Z-11.5
N9355 X149.833
N9360 Z-12. F333.33
N9365 X153.067 F1000.
N9370 G3 X154.067 Y160.267 I0. J1.
N9375 G1 Y163.5
N9380 Z-11.5
N9385 Y166.5
N9390 Z-12. F333.33
N9395 Y169.733 F1000.
N9400 G3 X153.067 Y170.733 I-1. J0.
N9405 G1 X149.833
N9410 Z-11.5
N9415 X148.333
N9420 G3 X148.133 Y170.533 I0. J-0.2
N9425 G1 Y170.133
N9430 G0 Z5.
N9435 X136.8 Y164.8
N9440 G1 Z-3.8 F333.33
N9445 G18 G2 X137. Z-4. I0.2 K0.
N9450 G1 X137.2 F1000.
N9455 G17 G3 X137.4 Y165. I0. J0.2
N9460 G1 Y169.733
N9465 G3 X136.4 Y170.733 I-1. J0.
N9470 G1 X126.933
N9475 G3 X125.933 Y169.733 I0. J-1.
N9480 G1 Y160.267
N9485 G3 X126.933 Y159.267 I1. J0.
N9490 G1 X136.4
N9495 G3 X137.4 Y160.267 I0. J1.
N9500 G1 Y165.
N9505 G3 X137.2 Y165.2 I-0.2 J0.
N9510 G1 X137.
N9515 G18 G3 X136.8 Z-3.8 I0. K0.2
N9520 G1 Y164.8
N9525 Z-7.8 F333.33
N9530 G2 X137. Z-8. I0.2 K0.
N9535 G1 X137.2 F1000.
N9540 G17 G3 X137.4 Y165. I0. J0.2
N9545 G1 Y169.733
N9550 G3 X136.4 Y170.733 I-1. J0.
N9555 G1 X126.933
N9560 G3 X125.933 Y169.733 I0. J-1.
N9565 G1 Y160.267
N9570 G3 X126.933 Y159.267 I1. J0.
N9575 G1 X136.4
N9580 G3 X137.4 Y160.267 I0. J1.
N9585 G1 Y165.
N9590 G3 X137.2 Y165.2 I-0.2 J0.
N9595 G1 X137.
N9600 G18 G3 X136.8 Z-7.8 I0. K0.2
N9605 G1 Y164.8
N9610 Z-11.5 F333.33
N9615 X137.
N9620 X137.2 F1000.
N9625 G17 G3 X137.4 Y165. I0. J0.2
N9630 G1 Y166.5
N9635 Z-12. F333.33
N9640 Y169.733 F1000.
N9645 G3 X136.4 Y170.733 I-1. J0.
N9650 G1 X133.167
N9655 Z-11.5
N9660 X130.167
N9665 Z-12. F333.33
N9670 X126.933 F1000.
N9675 G3 X125.933 Y169.733 I0. J-1.
N9680 G1 Y166.5
N9685 Z-11.5
N9690 Y163.5
N9695 Z-12. F333.33
N9700 Y160.267 F1000.
N9705 G3 X126.933 Y159.267 I1. J0.
N9710 G1 X130.167
N9715 Z-11.5
N9720 X133.167
N9725 Z-12. F333.33
N9730 X136.4 F1000.
N9735 G3 X137.4 Y160.267 I0. J1.
N9740 G1 Y163.5
N9745 Z-11.5
N9750 Y165.
N9755 G3 X137.2 Y165.2 I-0.2 J0.
N9760 G1 X136.8
N9765 G0 Z5.
N9770 Y181.467
N9775 G1 Z-3.8 F333.33
N9780 G18 G2 X137. Z-4. I0.2 K0.
N9785 G1 X137.2 F1000.
N9790 G17 G3 X137.4 Y181.667 I0. J0.2
N9795 G1 Y186.4
N9800 G3 X136.4 Y187.4 I-1. J0.
N9805 G1 X126.933
N9810 G3 X125.933 Y186.4 I0. J-1.
N9815 G1 Y176.933
N9820 G3 X126.933 Y175.933 I1. J0.
N9825 G1 X136.4
N9830 G3 X137.4 Y176.933 I0. J1.
N9835 G1 Y181.667
N9840 G3 X137.2 Y181.867 I-0.2 J0.
N9845 G1 X137.
N9850 G18 G3 X136.8 Z-3.8 I0. K0.2
N9855 G1 Y181.467
N9860 Z-7.8 F333.33
N9865 G2 X137. Z-8. I0.2 K0.
N9870 G1 X137.2 F1000.
N9875 G17 G3 X137.4 Y181.667 I0. J0.2
N9880 G1 Y186.4
N9885 G3 X136.4 Y187.4 I-1. J0.
N9890 G1 X126.933
N9895 G3 X125.933 Y186.4 I0. J-1.
N9900 G1 Y176.933
N9905 G3 X126.933 Y175.933 I1. J0.
N9910 G1 X136.4
N9915 G3 X137.4 Y176.933 I0. J1.
N9920 G1 Y181.667
N9925 G3 X137.2 Y181.867 I-0.2 J0.
N9930 G1 X137.
N9935 G18 G3 X136.8 Z-7.8 I0. K0.2
N9940 G1 Y181.467
N9945 Z-11.5 F333.33
N9950 X137.
N9955 X137.2 F1000.
N9960 G17 G3 X137.4 Y181.667 I0. J0.2
N9965 G1 Y183.167
N9970 Z-12. F333.33
N9975 Y186.4 F1000.
N9980 G3 X136.4 Y187.4 I-1. J0.
N9985 G1 X133.167
N9990 Z-11.5
N9995 X130.167
N10000 Z-12. F333.33
N10005 X126.933 F1000.
N10010 G3 X125.933 Y186.4 I0. J-1.
N10015 G1 Y183.167
N10020 Z-11.5
N10025 Y180.167
N10030 Z-12. F333.33
N10035 Y176.933 F1000.
N10040 G3 X126.933 Y175.933 I1. J0.
N10045 G1 X130.167
N10050 Z-11.5
N10055 X133.167
N10060 Z-12. F333.33
N10065 X136.4 F1000.
N10070 G3 X137.4 Y176.933 I0. J1.
N10075 G1 Y180.167
N10080 Z-11.5
N10085 Y181.667
N10090 G3 X137.2 Y181.867 I-0.2 J0.
N10095 G1 X136.8
N10100 G0 Z5.
N10105 Y198.133
N10110 G1 Z-3.8 F333.33
N10115 G18 G2 X137. Z-4. I0.2 K0.
N10120 G1 X137.2 F1000.
N10125 G17 G3 X137.4 Y198.333 I0. J0.2
N10130 G1 Y203.067
N10135 G3 X136.4 Y204.067 I-1. J0.
N10140 G1 X126.933
N10145 G3 X125.933 Y203.067 I0. J-1.
N10150 G1 Y193.6
N10155 G3 X126.933 Y192.6 I1. J0.
N10160 G1 X136.4
N10165 G3 X137.4 Y193.6 I0. J1.
N10170 G1 Y198.333
N10175 G3 X137.2 Y198.533 I-0.2 J0.
N10180 G1 X137.
N10185 G18 G3 X136.8 Z-3.8 I0. K0.2
N10190 G1 Y198.133
N10195 Z-7.8 F333.33
N10200 G2 X137. Z-8. I0.2 K0.
N10205 G1 X137.2 F1000.
N10210 G17 G3 X137.4 Y198.333 I0. J0.2
N10215 G1 Y203.067
N10220 G3 X136.4 Y204.067 I-1. J0.
N10225 G1 X126.933
N10230 G3 X125.933 Y203.067 I0. J-1.
N10235 G1 Y193.6
N10240 G3 X126.933 Y192.6 I1. J0.
N10245 G1 X136.4
N10250 G3 X137.4 Y193.6 I0. J1.
N10255 G1 Y198.333
N10260 G3 X137.2 Y198.533 I-0.2 J0.
N10265 G1 X137.
N10270 G18 G3 X136.8 Z-7.8 I0. K0.2
N10275 G1 Y198.133
N10280 Z-11.5 F333.33
N10285 X137.
N10290 X137.2 F1000.
N10295 G17 G3 X137.4 Y198.333 I0. J0.2
N10300 G1 Y199.833
N10305 Z-12. F333.33
N10310 Y203.067 F1000.
N10315 G3 X136.4 Y204.067 I-1. J0.
N10320 G1 X133.167
N10325 Z-11.5
N10330 X130.167
N10335 Z-12. F333.33
N10340 X126.933 F1000.
N10345 G3 X125.933 Y203.067 I0. J-1.
N10350 G1 Y199.833
N10355 Z-11.5
N10360 Y196.833
N10365 Z-12. F333.33
N10370 Y193.6 F1000.
N10375 G3 X126.933 Y192.6 I1. J0.
N10380 G1 X130.167
N10385 Z-11.5
N10390 X133.167
N10395 Z-12. F333.33
N10400 X136.4 F1000.
N10405 G3 X137.4 Y193.6 I0. J1.
N10410 G1 Y196.833
N10415 Z-11.5
N10420 Y198.333
N10425 G3 X137.2 Y198.533 I-0.2 J0.
N10430 G1 X136.8
N10435 G0 Z5.
N10440 X120.133 Y198.134
N10445 G1 Z-3.8 F333.33
N10450 G18 G2 X120.333 Z-4. I0.2 K0.
N10455 G1 X120.533 F1000.
N10460 G17 G3 X120.733 Y198.334 I0. J0.2
N10465 G1 Y203.067
N10470 G3 X119.733 Y204.067 I-1. J0.
N10475 G1 X110.267
N10480 G3 X109.267 Y203.067 I0. J-1.
N10485 G1 Y193.6
N10490 G3 X110.267 Y192.6 I1. J0.
N10495 G1 X119.733
N10500 G3 X120.733 Y193.6 I0. J1.
N10505 G1 Y198.334
N10510 G3 X120.533 Y198.534 I-0.2 J0.
N10515 G1 X120.333
N10520 G18 G3 X120.133 Z-3.8 I0. K0.2
N10525 G1 Y198.134
N10530 Z-7.8 F333.33
N10535 G2 X120.333 Z-8. I0.2 K0.
N10540 G1 X120.533 F1000.
N10545 G17 G3 X120.733 Y198.334 I0. J0.2
N10550 G1 Y203.067
N10555 G3 X119.733 Y204.067 I-1. J0.
N10560 G1 X110.267
N10565 G3 X109.267 Y203.067 I0. J-1.
N10570 G1 Y193.6
N10575 G3 X110.267 Y192.6 I1. J0.
N10580 G1 X119.733
N10585 G3 X120.733 Y193.6 I0. J1.
N10590 G1 Y198.334
N10595 G3 X120.533 Y198.534 I-0.2 J0.
N10600 G1 X120.333
N10605 G18 G3 X120.133 Z-7.8 I0. K0.2
N10610 G1 Y198.134
N10615 Z-11.5 F333.33
N10620 X120.333
N10625 X120.533 F1000.
N10630 G17 G3 X120.733 Y198.334 I0. J0.2
N10635 G1 Y199.833
N10640 Z-12. F333.33
N10645 Y203.067 F1000.
N10650 G3 X119.733 Y204.067 I-1. J0.
N10655 G1 X116.5
N10660 Z-11.5
N10665 X113.5
N10670 Z-12. F333.33
N10675 X110.267 F1000.
N10680 G3 X109.267 Y203.067 I0. J-1.
N10685 G1 Y199.833
N10690 Z-11.5
N10695 Y196.833
N10700 Z-12. F333.33
N10705 Y193.6 F1000.
N10710 G3 X110.267 Y192.6 I1. J0.
N10715 G1 X113.5
N10720 Z-11.5
N10725 X116.5
N10730 Z-12. F333.33
N10735 X119.733 F1000.
N10740 G3 X120.733 Y193.6 I0. J1.
N10745 G1 Y196.833
N10750 Z-11.5
N10755 Y198.334
N10760 G3 X120.533 Y198.534 I-0.2 J0.
N10765 G1 X120.133
N10770 G0 Z5.
N10775 Y181.466
N10780 G1 Z-3.8 F333.33
N10785 G18 G2 X120.333 Z-4. I0.2 K0.
N10790 G1 X120.533 F1000.
N10795 G17 G3 X120.733 Y181.666 I0. J0.2
N10800 G1 Y186.4
N10805 G3 X119.733 Y187.4 I-1. J0.
N10810 G1 X110.267
N10815 G3 X109.267 Y186.4 I0. J-1.
N10820 G1 Y176.933
N10825 G3 X110.267 Y175.933 I1. J0.
N10830 G1 X119.733
N10835 G3 X120.733 Y176.933 I0. J1.
N10840 G1 Y181.666
N10845 G3 X120.533 Y181.866 I-0.2 J0.
N10850 G1 X120.333
N10855 G18 G3 X120.133 Z-3.8 I0. K0.2
N10860 G1 Y181.466
N10865 Z-7.8 F333.33
N10870 G2 X120.333 Z-8. I0.2 K0.
N10875 G1 X120.533 F1000.
N10880 G17 G3 X120.733 Y181.666 I0. J0.2
N10885 G1 Y186.4
N10890 G3 X119.733 Y187.4 I-1. J0.
N10895 G1 X110.267
N10900 G3 X109.267 Y186.4 I0. J-1.
N10905 G1 Y176.933
N10910 G3 X110.267 Y175.933 I1. J0.
N10915 G1 X119.733
N10920 G3 X120.733 Y176.933 I0. J1.
N10925 G1 Y181.666
N10930 G3 X120.533 Y181.866 I-0.2 J0.
N10935 G1 X120.333
N10940 G18 G3 X120.133 Z-7.8 I0. K0.2
N10945 G1 Y181.466
N10950 Z-11.5 F333.33
N10955 X120.333
N10960 X120.533 F1000.
N10965 G17 G3 X120.733 Y181.666 I0. J0.2
N10970 G1 Y183.167
N10975 Z-12. F333.33
N10980 Y186.4 F1000.
N10985 G3 X119.733 Y187.4 I-1. J0.
N10990 G1 X116.5
N10995 Z-11.5
N11000 X113.5
N11005 Z-12. F333.33
N11010 X110.267 F1000.
N11015 G3 X109.267 Y186.4 I0. J-1.
N11020 G1 Y183.167
N11025 Z-11.5
N11030 Y180.167
N11035 Z-12. F333.33
N11040 Y176.933 F1000.
N11045 G3 X110.267 Y175.933 I1. J0.
N11050 G1 X113.5
N11055 Z-11.5
N11060 X116.5
N11065 Z-12. F333.33
N11070 X119.733 F1000.
N11075 G3 X120.733 Y176.933 I0. J1.
N11080 G1 Y180.167
N11085 Z-11.5
N11090 Y181.666
N11095 G3 X120.533 Y181.866 I-0.2 J0.
N11100 G1 X120.133
N11105 G0 Z5.
N11110 Y164.8
N11115 G1 Z-3.8 F333.33
N11120 G18 G2 X120.333 Z-4. I0.2 K0.
N11125 G1 X120.533 F1000.
N11130 G17 G3 X120.733 Y165. I0. J0.2
N11135 G1 Y169.733
N11140 G3 X119.733 Y170.733 I-1. J0.
N11145 G1 X110.267
N11150 G3 X109.267 Y169.733 I0. J-1.
N11155 G1 Y160.267
N11160 G3 X110.267 Y159.267 I1. J0.
N11165 G1 X119.733
N11170 G3 X120.733 Y160.267 I0. J1.
N11175 G1 Y165.
N11180 G3 X120.533 Y165.2 I-0.2 J0.
N11185 G1 X120.333
N11190 G18 G3 X120.133 Z-3.8 I0. K0.2
N11195 G1 Y164.8
N11200 Z-7.8 F333.33
N11205 G2 X120.333 Z-8. I0.2 K0.
N11210 G1 X120.533 F1000.
N11215 G17 G3 X120.733 Y165. I0. J0.2
N11220 G1 Y169.733
N11225 G3 X119.733 Y170.733 I-1. J0.
N11230 G1 X110.267
N11235 G3 X109.267 Y169.733 I0. J-1.
N11240 G1 Y160.267
N11245 G3 X110.267 Y159.267 I1. J0.
N11250 G1 X119.733
N11255 G3 X120.733 Y160.267 I0. J1.
N11260 G1 Y165.
N11265 G3 X120.533 Y165.2 I-0.2 J0.
N11270 G1 X120.333
N11275 G18 G3 X120.133 Z-7.8 I0. K0.2
N11280 G1 Y164.8
N11285 Z-11.5 F333.33
N11290 X120.333
N11295 X120.533 F1000.
N11300 G17 G3 X120.733 Y165. I0. J0.2
N11305 G1 Y166.5
N11310 Z-12. F333.33
N11315 Y169.733 F1000.
N11320 G3 X119.733 Y170.733 I-1. J0.
N11325 G1 X116.5
N11330 Z-11.5
N11335 X113.5
N11340 Z-12. F333.33
N11345 X110.267 F1000.
N11350 G3 X109.267 Y169.733 I0. J-1.
N11355 G1 Y166.5
N11360 Z-11.5
N11365 Y163.5
N11370 Z-12. F333.33
N11375 Y160.267 F1000.
N11380 G3 X110.267 Y159.267 I1. J0.
N11385 G1 X113.5
N11390 Z-11.5
N11395 X116.5
N11400 Z-12. F333.33
N11405 X119.733 F1000.
N11410 G3 X120.733 Y160.267 I0. J1.
N11415 G1 Y163.5
N11420 Z-11.5
N11425 Y165.
N11430 G3 X120.533 Y165.2 I-0.2 J0.
N11435 G1 X120.133
N11440 G0 Z5.
N11445 Y148.134
N11450 G1 Z-3.8 F333.33
N11455 G18 G2 X120.333 Z-4. I0.2 K0.
N11460 G1 X120.533 F1000.
N11465 G17 G3 X120.733 Y148.334 I0. J0.2
N11470 G1 Y153.067
N11475 G3 X119.733 Y154.067 I-1. J0.
N11480 G1 X110.267
N11485 G3 X109.267 Y153.067 I0. J-1.
N11490 G1 Y143.6
N11495 G3 X110.267 Y142.6 I1. J0.
N11500 G1 X119.733
N11505 G3 X120.733 Y143.6 I0. J1.
N11510 G1 Y148.334
N11515 G3 X120.533 Y148.534 I-0.2 J0.
N11520 G1 X120.333
N11525 G18 G3 X120.133 Z-3.8 I0. K0.2
N11530 G1 Y148.134
N11535 Z-7.8 F333.33
N11540 G2 X120.333 Z-8. I0.2 K0.
N11545 G1 X120.533 F1000.
N11550 G17 G3 X120.733 Y148.334 I0. J0.2
N11555 G1 Y153.067
N11560 G3 X119.733 Y154.067 I-1. J0.
N11565 G1 X110.267
N11570 G3 X109.267 Y153.067 I0. J-1.
N11575 G1 Y143.6
N11580 G3 X110.267 Y142.6 I1. J0.
N11585 G1 X119.733
N11590 G3 X120.733 Y143.6 I0. J1.
N11595 G1 Y148.334
N11600 G3 X120.533 Y148.534 I-0.2 J0.
N11605 G1 X120.333
N11610 G18 G3 X120.133 Z-7.8 I0. K0.2
N11615 G1 Y148.134
N11620 Z-11.5 F333.33
N11625 X120.333
N11630 X120.533 F1000.
N11635 G17 G3 X120.733 Y148.334 I0. J0.2
N11640 G1 Y149.833
N11645 Z-12. F333.33
N11650 Y153.067 F1000.
N11655 G3 X119.733 Y154.067 I-1. J0.
N11660 G1 X116.5
N11665 Z-11.5
N11670 X113.5
N11675 Z-12. F333.33
N11680 X110.267 F1000.
N11685 G3 X109.267 Y153.067 I0. J-1.
N11690 G1 Y149.833
N11695 Z-11.5
N11700 Y146.833
N11705 Z-12. F333.33
N11710 Y143.6 F1000.
N11715 G3 X110.267 Y142.6 I1. J0.
N11720 G1 X113.5
N11725 Z-11.5
N11730 X116.5
N11735 Z-12. F333.33
N11740 X119.733 F1000.
N11745 G3 X120.733 Y143.6 I0. J1.
N11750 G1 Y146.833
N11755 Z-11.5
N11760 Y148.334
N11765 G3 X120.533 Y148.534 I-0.2 J0.
N11770 G1 X120.133
N11775 G0 Z5.
N11780 X136.8 Y148.133
N11785 G1 Z-3.8 F333.33
N11790 G18 G2 X137. Z-4. I0.2 K0.
N11795 G1 X137.2 F1000.
N11800 G17 G3 X137.4 Y148.333 I0. J0.2
N11805 G1 Y153.067
N11810 G3 X136.4 Y154.067 I-1. J0.
N11815 G1 X126.933
N11820 G3 X125.933 Y153.067 I0. J-1.
N11825 G1 Y143.6
N11830 G3 X126.933 Y142.6 I1. J0.
N11835 G1 X136.4
N11840 G3 X137.4 Y143.6 I0. J1.
N11845 G1 Y148.333
N11850 G3 X137.2 Y148.533 I-0.2 J0.
N11855 G1 X137.
N11860 G18 G3 X136.8 Z-3.8 I0. K0.2
N11865 G1 Y148.133
N11870 Z-7.8 F333.33
N11875 G2 X137. Z-8. I0.2 K0.
N11880 G1 X137.2 F1000.
N11885 G17 G3 X137.4 Y148.333 I0. J0.2
N11890 G1 Y153.067
N11895 G3 X136.4 Y154.067 I-1. J0.
N11900 G1 X126.933
N11905 G3 X125.933 Y153.067 I0. J-1.
N11910 G1 Y143.6
N11915 G3 X126.933 Y142.6 I1. J0.
N11920 G1 X136.4
N11925 G3 X137.4 Y143.6 I0. J1.
N11930 G1 Y148.333
N11935 G3 X137.2 Y148.533 I-0.2 J0.
N11940 G1 X137.
N11945 G18 G3 X136.8 Z-7.8 I0. K0.2
N11950 G1 Y148.133
N11955 Z-11.5 F333.33
N11960 X137.
N11965 X137.2 F1000.
N11970 G17 G3 X137.4 Y148.333 I0. J0.2
N11975 G1 Y149.833
N11980 Z-12. F333.33
N11985 Y153.067 F1000.
N11990 G3 X136.4 Y154.067 I-1. J0.
N11995 G1 X133.167
N12000 Z-11.5
N12005 X130.167
N12010 Z-12. F333.33
N12015 X126.933 F1000.
N12020 G3 X125.933 Y153.067 I0. J-1.
N12025 G1 Y149.833
N12030 Z-11.5
N12035 Y146.833
N12040 Z-12. F333.33
N12045 Y143.6 F1000.
N12050 G3 X126.933 Y142.6 I1. J0.
N12055 G1 X130.167
N12060 Z-11.5
N12065 X133.167
N12070 Z-12. F333.33
N12075 X136.4 F1000.
N12080 G3 X137.4 Y143.6 I0. J1.
N12085 G1 Y146.833
N12090 Z-11.5
N12095 Y148.333
N12100 G3 X137.2 Y148.533 I-0.2 J0.
N12105 G1 X136.8
N12110 G0 Z5.
N12115 X153.467 Y148.133
N12120 G1 Z-3.8 F333.33
N12125 G18 G2 X153.667 Z-4. I0.2 K0.
N12130 G1 X153.867 F1000.
N12135 G17 G3 X154.067 Y148.333 I0. J0.2
N12140 G1 Y153.067
N12145 G3 X153.067 Y154.067 I-1. J0.
N12150 G1 X143.6
N12155 G3 X142.6 Y153.067 I0. J-1.
N12160 G1 Y143.6
N12165 G3 X143.6 Y142.6 I1. J0.
N12170 G1 X153.067
N12175 G3 X154.067 Y143.6 I0. J1.
N12180 G1 Y148.333
N12185 G3 X153.867 Y148.533 I-0.2 J0.
N12190 G1 X153.667
N12195 G18 G3 X153.467 Z-3.8 I0. K0.2
N12200 G1 Y148.133
N12205 Z-7.8 F333.33
N12210 G2 X153.667 Z-8. I0.2 K0.
N12215 G1 X153.867 F1000.
N12220 G17 G3 X154.067 Y148.333 I0. J0.2
N12225 G1 Y153.067
N12230 G3 X153.067 Y154.067 I-1. J0.
N12235 G1 X143.6
N12240 G3 X142.6 Y153.067 I0. J-1.
N12245 G1 Y143.6
N12250 G3 X143.6 Y142.6 I1. J0.
N12255 G1 X153.067
N12260 G3 X154.067 Y143.6 I0. J1.
N12265 G1 Y148.333
N12270 G3 X153.867 Y148.533 I-0.2 J0.
N12275 G1 X153.667
N12280 G18 G3 X153.467 Z-7.8 I0. K0.2
N12285 G1 Y148.133
N12290 Z-11.5 F333.33
N12295 X153.667
N12300 X153.867 F1000.
N12305 G17 G3 X154.067 Y148.333 I0. J0.2
N12310 G1 Y149.833
N12315 Z-12. F333.33
N12320 Y153.067 F1000.
N12325 G3 X153.067 Y154.067 I-1. J0.
N12330 G1 X149.833
N12335 Z-11.5
N12340 X146.833
N12345 Z-12. F333.33
N12350 X143.6 F1000.
N12355 G3 X142.6 Y153.067 I0. J-1.
N12360 G1 Y149.833
N12365 Z-11.5
N12370 Y146.833
N12375 Z-12. F333.33
N12380 Y143.6 F1000.
N12385 G3 X143.6 Y142.6 I1. J0.
N12390 G1 X146.833
N12395 Z-11.5
N12400 X149.833
N12405 Z-12. F333.33
N12410 X153.067 F1000.
N12415 G3 X154.067 Y143.6 I0. J1.
N12420 G1 Y146.833
N12425 Z-11.5
N12430 Y148.333
N12435 G3 X153.867 Y148.533 I-0.2 J0.
N12440 G1 X153.467
N12445 G0 Z5.
N12450 Y131.467
N12455 G1 Z-3.8 F333.33
N12460 G18 G2 X153.667 Z-4. I0.2 K0.
N12465 G1 X153.867 F1000.
N12470 G17 G3 X154.067 Y131.667 I0. J0.2
N12475 G1 Y136.4
N12480 G3 X153.067 Y137.4 I-1. J0.
N12485 G1 X143.6
N12490 G3 X142.6 Y136.4 I0. J-1.
N12495 G1 Y126.933
N12500 G3 X143.6 Y125.933 I1. J0.
N12505 G1 X153.067
N12510 G3 X154.067 Y126.933 I0. J1.
N12515 G1 Y131.667
N12520 G3 X153.867 Y131.867 I-0.2 J0.
N12525 G1 X153.667
N12530 G18 G3 X153.467 Z-3.8 I0. K0.2
N12535 G1 Y131.467
N12540 Z-7.8 F333.33
N12545 G2 X153.667 Z-8. I0.2 K0.
N12550 G1 X153.867 F1000.
N12555 G17 G3 X154.067 Y131.667 I0. J0.2
N12560 G1 Y136.4
N12565 G3 X153.067 Y137.4 I-1. J0.
N12570 G1 X143.6
N12575 G3 X142.6 Y136.4 I0. J-1.
N12580 G1 Y126.933
N12585 G3 X143.6 Y125.933 I1. J0.
N12590 G1 X153.067
N12595 G3 X154.067 Y126.933 I0. J1.
N12600 G1 Y131.667
N12605 G3 X153.867 Y131.867 I-0.2 J0.
N12610 G1 X153.667
N12615 G18 G3 X153.467 Z-7.8 I0. K0.2
N12620 G1 Y131.467
N12625 Z-11.5 F333.33
N12630 X153.667
N12635 X153.867 F1000.
N12640 G17 G3 X154.067 Y131.667 I0. J0.2
N12645 G1 Y133.167
N12650 Z-12. F333.33
N12655 Y136.4 F1000.
N12660 G3 X153.067 Y137.4 I-1. J0.
N12665 G1 X149.833
N12670 Z-11.5
N12675 X146.833
N12680 Z-12. F333.33
N12685 X143.6 F1000.
N12690 G3 X142.6 Y136.4 I0. J-1.
N12695 G1 Y133.167
N12700 Z-11.5
N12705 Y130.167
N12710 Z-12. F333.33
N12715 Y126.933 F1000.
N12720 G3 X143.6 Y125.933 I1. J0.
N12725 G1 X146.833
N12730 Z-11.5
N12735 X149.833
N12740 Z-12. F333.33
N12745 X153.067 F1000.
N12750 G3 X154.067 Y126.933 I0. J1.
N12755 G1 Y130.167
N12760 Z-11.5
N12765 Y131.667
N12770 G3 X153.867 Y131.867 I-0.2 J0.
N12775 G1 X153.467
N12780 G0 Z5.
N12785 X148.133 Y109.867
N12790 G1 Z-3.8 F333.33
N12795 G19 G2 Y109.667 Z-4. J-0.2 K0.
N12800 G1 Y109.467 F1000.
N12805 G17 G3 X148.333 Y109.267 I0.2 J0.
N12810 G1 X153.067
N12815 G3 X154.067 Y110.267 I0. J1.
N12820 G1 Y119.733
N12825 G3 X153.067 Y120.733 I-1. J0.
N12830 G1 X143.6
N12835 G3 X142.6 Y119.733 I0. J-1.
N12840 G1 Y110.267
N12845 G3 X143.6 Y109.267 I1. J0.
N12850 G1 X148.333
N12855 G3 X148.533 Y109.467 I0. J0.2
N12860 G1 Y109.667
N12865 G19 G3 Y109.867 Z-3.8 J0. K0.2
N12870 G1 X148.133
N12875 Z-7.8 F333.33
N12880 G2 Y109.667 Z-8. J-0.2 K0.
N12885 G1 Y109.467 F1000.
N12890 G17 G3 X148.333 Y109.267 I0.2 J0.
N12895 G1 X153.067
N12900 G3 X154.067 Y110.267 I0. J1.
N12905 G1 Y119.733
N12910 G3 X153.067 Y120.733 I-1. J0.
N12915 G1 X143.6
N12920 G3 X142.6 Y119.733 I0. J-1.
N12925 G1 Y110.267
N12930 G3 X143.6 Y109.267 I1. J0.
N12935 G1 X148.333
N12940 G3 X148.533 Y109.467 I0. J0.2
N12945 G1 Y109.667
N12950 G19 G3 Y109.867 Z-7.8 J0. K0.2
N12955 G1 X148.133
N12960 Z-11.5 F333.33
N12965 Y109.667
N12970 Y109.467 F1000.
N12975 G17 G3 X148.333 Y109.267 I0.2 J0.
N12980 G1 X149.833
N12985 Z-12. F333.33
N12990 X153.067 F1000.
N12995 G3 X154.067 Y110.267 I0. J1.
N13000 G1 Y113.5
N13005 Z-11.5
N13010 Y116.5
N13015 Z-12. F333.33
N13020 Y119.733 F1000.
N13025 G3 X153.067 Y120.733 I-1. J0.
N13030 G1 X149.833
N13035 Z-11.5
N13040 X146.833
N13045 Z-12. F333.33
N13050 X143.6 F1000.
N13055 G3 X142.6 Y119.733 I0. J-1.
N13060 G1 Y116.5
N13065 Z-11.5
N13070 Y113.5
N13075 Z-12. F333.33
N13080 Y110.267 F1000.
N13085 G3 X143.6 Y109.267 I1. J0.
N13090 G1 X146.833
N13095 Z-11.5
N13100 X148.333
N13105 G3 X148.533 Y109.467 I0. J0.2
N13110 G1 Y109.867
N13115 G0 Z5.
N13120 X136.8 Y131.467
N13125 G1 Z-3.8 F333.33
N13130 G18 G2 X137. Z-4. I0.2 K0.
N13135 G1 X137.2 F1000.
N13140 G17 G3 X137.4 Y131.667 I0. J0.2
N13145 G1 Y136.4
N13150 G3 X136.4 Y137.4 I-1. J0.
N13155 G1 X126.933
N13160 G3 X125.933 Y136.4 I0. J-1.
N13165 G1 Y126.933
N13170 G3 X126.933 Y125.933 I1. J0.
N13175 G1 X136.4
N13180 G3 X137.4 Y126.933 I0. J1.
N13185 G1 Y131.667
N13190 G3 X137.2 Y131.867 I-0.2 J0.
N13195 G1 X137.
N13200 G18 G3 X136.8 Z-3.8 I0. K0.2
N13205 G1 Y131.467
N13210 Z-7.8 F333.33
N13215 G2 X137. Z-8. I0.2 K0.
N13220 G1 X137.2 F1000.
N13225 G17 G3 X137.4 Y131.667 I0. J0.2
N13230 G1 Y136.4
N13235 G3 X136.4 Y137.4 I-1. J0.
N13240 G1 X126.933
N13245 G3 X125.933 Y136.4 I0. J-1.
N13250 G1 Y126.933
N13255 G3 X126.933 Y125.933 I1. J0.
N13260 G1 X136.4
N13265 G3 X137.4 Y126.933 I0. J1.
N13270 G1 Y131.667
N13275 G3 X137.2 Y131.867 I-0.2 J0.
N13280 G1 X137.
N13285 G18 G3 X136.8 Z-7.8 I0. K0.2
N13290 G1 Y131.467
N13295 Z-11.5 F333.33
N13300 X137.
N13305 X137.2 F1000.
N13310 G17 G3 X137.4 Y131.667 I0. J0.2
N13315 G1 Y133.167
N13320 Z-12. F333.33
N13325 Y136.4 F1000.
N13330 G3 X136.4 Y137.4 I-1. J0.
N13335 G1 X133.167
N13340 Z-11.5
N13345 X130.167
N13350 Z-12. F333.33
N13355 X126.933 F1000.
N13360 G3 X125.933 Y136.4 I0. J-1.
N13365 G1 Y133.167
N13370 Z-11.5
N13375 Y130.167
N13380 Z-12. F333.33
N13385 Y126.933 F1000.
N13390 G3 X126.933 Y125.933 I1. J0.
N13395 G1 X130.167
N13400 Z-11.5
N13405 X133.167
N13410 Z-12. F333.33
N13415 X136.4 F1000.
N13420 G3 X137.4 Y126.933 I0. J1.
N13425 G1 Y130.167
N13430 Z-11.5
N13435 Y131.667
N13440 G3 X137.2 Y131.867 I-0.2 J0.
N13445 G1 X136.8
N13450 G0 Z5.
N13455 X120.133 Y131.467
N13460 G1 Z-3.8 F333.33
N13465 G18 G2 X120.333 Z-4. I0.2 K0.
N13470 G1 X120.533 F1000.
N13475 G17 G3 X120.733 Y131.667 I0. J0.2
N13480 G1 Y136.4
N13485 G3 X119.733 Y137.4 I-1. J0.
N13490 G1 X110.267
N13495 G3 X109.267 Y136.4 I0. J-1.
N13500 G1 Y126.933
N13505 G3 X110.267 Y125.933 I1. J0.
N13510 G1 X119.733
N13515 G3 X120.733 Y126.933 I0. J1.
N13520 G1 Y131.667
N13525 G3 X120.533 Y131.867 I-0.2 J0.
N13530 G1 X120.333
N13535 G18 G3 X120.133 Z-3.8 I0. K0.2
N13540 G1 Y131.467
N13545 Z-7.8 F333.33
N13550 G2 X120.333 Z-8. I0.2 K0.
N13555 G1 X120.533 F1000.
N13560 G17 G3 X120.733 Y131.667 I0. J0.2
N13565 G1 Y136.4
N13570 G3 X119.733 Y137.4 I-1. J0.
N13575 G1 X110.267
N13580 G3 X109.267 Y136.4 I0. J-1.
N13585 G1 Y126.933
N13590 G3 X110.267 Y125.933 I1. J0.
N13595 G1 X119.733
N13600 G3 X120.733 Y126.933 I0. J1.
N13605 G1 Y131.667
N13610 G3 X120.533 Y131.867 I-0.2 J0.
N13615 G1 X120.333
N13620 G18 G3 X120.133 Z-7.8 I0. K0.2
N13625 G1 Y131.467
N13630 Z-11.5 F333.33
N13635 X120.333
N13640 X120.533 F1000.
N13645 G17 G3 X120.733 Y131.667 I0. J0.2
N13650 G1 Y133.167
N13655 Z-12. F333.33
N13660 Y136.4 F1000.
N13665 G3 X119.733 Y137.4 I-1. J0.
N13670 G1 X116.5
N13675 Z-11.5
N13680 X113.5
N13685 Z-12. F333.33
N13690 X110.267 F1000.
N13695 G3 X109.267 Y136.4 I0. J-1.
N13700 G1 Y133.167
N13705 Z-11.5
N13710 Y130.167
N13715 Z-12. F333.33
N13720 Y126.933 F1000.
N13725 G3 X110.267 Y125.933 I1. J0.
N13730 G1 X113.5
N13735 Z-11.5
N13740 X116.5
N13745 Z-12. F333.33
N13750 X119.733 F1000.
N13755 G3 X120.733 Y126.933 I0. J1.
N13760 G1 Y130.167
N13765 Z-11.5
N13770 Y131.667
N13775 G3 X120.533 Y131.867 I-0.2 J0.
N13780 G1 X120.133
N13785 G0 Z5.
N13790 X103.467 Y131.467
N13795 G1 Z-3.8 F333.33
N13800 G18 G2 X103.667 Z-4. I0.2 K0.
N13805 G1 X103.867 F1000.
N13810 G17 G3 X104.067 Y131.667 I0. J0.2
N13815 G1 Y136.4
N13820 G3 X103.067 Y137.4 I-1. J0.
N13825 G1 X93.6
N13830 G3 X92.6 Y136.4 I0. J-1.
N13835 G1 Y126.933
N13840 G3 X93.6 Y125.933 I1. J0.
N13845 G1 X103.067
N13850 G3 X104.067 Y126.933 I0. J1.
N13855 G1 Y131.667
N13860 G3 X103.867 Y131.867 I-0.2 J0.
N13865 G1 X103.667
N13870 G18 G3 X103.467 Z-3.8 I0. K0.2
N13875 G1 Y131.467
N13880 Z-7.8 F333.33
N13885 G2 X103.667 Z-8. I0.2 K0.
N13890 G1 X103.867 F1000.
N13895 G17 G3 X104.067 Y131.667 I0. J0.2
N13900 G1 Y136.4
N13905 G3 X103.067 Y137.4 I-1. J0.
N13910 G1 X93.6
N13915 G3 X92.6 Y136.4 I0. J-1.
N13920 G1 Y126.933
N13925 G3 X93.6 Y125.933 I1. J0.
N13930 G1 X103.067
N13935 G3 X104.067 Y126.933 I0. J1.
N13940 G1 Y131.667
N13945 G3 X103.867 Y131.867 I-0.2 J0.
N13950 G1 X103.667
N13955 G18 G3 X103.467 Z-7.8 I0. K0.2
N13960 G1 Y131.467
N13965 Z-11.5 F333.33
N13970 X103.667
N13975 X103.867 F1000.
N13980 G17 G3 X104.067 Y131.667 I0. J0.2
N13985 G1 Y133.167
N13990 Z-12. F333.33
N13995 Y136.4 F1000.
N14000 G3 X103.067 Y137.4 I-1. J0.
N14005 G1 X99.833
N14010 Z-11.5
N14015 X96.833
N14020 Z-12. F333.33
N14025 X93.6 F1000.
N14030 G3 X92.6 Y136.4 I0. J-1.
N14035 G1 Y133.167
N14040 Z-11.5
N14045 Y130.167
N14050 Z-12. F333.33
N14055 Y126.933 F1000.
N14060 G3 X93.6 Y125.933 I1. J0.
N14065 G1 X96.833
N14070 Z-11.5
N14075 X99.833
N14080 Z-12. F333.33
N14085 X103.067 F1000.
N14090 G3 X104.067 Y126.933 I0. J1.
N14095 G1 Y130.167
N14100 Z-11.5
N14105 Y131.667
N14110 G3 X103.867 Y131.867 I-0.2 J0.
N14115 G1 X103.467
N14120 G0 Z5.
N14125 Y148.133
N14130 G1 Z-3.8 F333.33
N14135 G18 G2 X103.667 Z-4. I0.2 K0.
N14140 G1 X103.867 F1000.
N14145 G17 G3 X104.067 Y148.333 I0. J0.2
N14150 G1 Y153.067
N14155 G3 X103.067 Y154.067 I-1. J0.
N14160 G1 X93.6
N14165 G3 X92.6 Y153.067 I0. J-1.
N14170 G1 Y143.6
N14175 G3 X93.6 Y142.6 I1. J0.
N14180 G1 X103.067
N14185 G3 X104.067 Y143.6 I0. J1.
N14190 G1 Y148.333
N14195 G3 X103.867 Y148.533 I-0.2 J0.
N14200 G1 X103.667
N14205 G18 G3 X103.467 Z-3.8 I0. K0.2
N14210 G1 Y148.133
N14215 Z-7.8 F333.33
N14220 G2 X103.667 Z-8. I0.2 K0.
N14225 G1 X103.867 F1000.
N14230 G17 G3 X104.067 Y148.333 I0. J0.2
N14235 G1 Y153.067
N14240 G3 X103.067 Y154.067 I-1. J0.
N14245 G1 X93.6
N14250 G3 X92.6 Y153.067 I0. J-1.
N14255 G1 Y143.6
N14260 G3 X93.6 Y142.6 I1. J0.
N14265 G1 X103.067
N14270 G3 X104.067 Y143.6 I0. J1.
N14275 G1 Y148.333
N14280 G3 X103.867 Y148.533 I-0.2 J0.
N14285 G1 X103.667
N14290 G18 G3 X103.467 Z-7.8 I0. K0.2
N14295 G1 Y148.133
N14300 Z-11.5 F333.33
N14305 X103.667
N14310 X103.867 F1000.
N14315 G17 G3 X104.067 Y148.333 I0. J0.2
N14320 G1 Y149.833
N14325 Z-12. F333.33
N14330 Y153.067 F1000.
N14335 G3 X103.067 Y154.067 I-1. J0.
N14340 G1 X99.833
N14345 Z-11.5
N14350 X96.833
N14355 Z-12. F333.33
N14360 X93.6 F1000.
N14365 G3 X92.6 Y153.067 I0. J-1.
N14370 G1 Y149.833
N14375 Z-11.5
N14380 Y146.833
N14385 Z-12. F333.33
N14390 Y143.6 F1000.
N14395 G3 X93.6 Y142.6 I1. J0.
N14400 G1 X96.833
N14405 Z-11.5
N14410 X99.833
N14415 Z-12. F333.33
N14420 X103.067 F1000.
N14425 G3 X104.067 Y143.6 I0. J1.
N14430 G1 Y146.833
N14435 Z-11.5
N14440 Y148.333
N14445 G3 X103.867 Y148.533 I-0.2 J0.
N14450 G1 X103.467
N14455 G0 Z5.
N14460 Y164.8
N14465 G1 Z-3.8 F333.33
N14470 G18 G2 X103.667 Z-4. I0.2 K0.
N14475 G1 X103.867 F1000.
N14480 G17 G3 X104.067 Y165. I0. J0.2
N14485 G1 Y169.733
N14490 G3 X103.067 Y170.733 I-1. J0.
N14495 G1 X93.6
N14500 G3 X92.6 Y169.733 I0. J-1.
N14505 G1 Y160.267
N14510 G3 X93.6 Y159.267 I1. J0.
N14515 G1 X103.067
N14520 G3 X104.067 Y160.267 I0. J1.
N14525 G1 Y165.
N14530 G3 X103.867 Y165.2 I-0.2 J0.
N14535 G1 X103.667
N14540 G18 G3 X103.467 Z-3.8 I0. K0.2
N14545 G1 Y164.8
N14550 Z-7.8 F333.33
N14555 G2 X103.667 Z-8. I0.2 K0.
N14560 G1 X103.867 F1000.
N14565 G17 G3 X104.067 Y165. I0. J0.2
N14570 G1 Y169.733
N14575 G3 X103.067 Y170.733 I-1. J0.
N14580 G1 X93.6
N14585 G3 X92.6 Y169.733 I0. J-1.
N14590 G1 Y160.267
N14595 G3 X93.6 Y159.267 I1. J0.
N14600 G1 X103.067
N14605 G3 X104.067 Y160.267 I0. J1.
N14610 G1 Y165.
N14615 G3 X103.867 Y165.2 I-0.2 J0.
N14620 G1 X103.667
N14625 G18 G3 X103.467 Z-7.8 I0. K0.2
N14630 G1 Y164.8
N14635 Z-11.5 F333.33
N14640 X103.667
N14645 X103.867 F1000.
N14650 G17 G3 X104.067 Y165. I0. J0.2
N14655 G1 Y166.5
N14660 Z-12. F333.33
N14665 Y169.733 F1000.
N14670 G3 X103.067 Y170.733 I-1. J0.
N14675 G1 X99.833
N14680 Z-11.5
N14685 X96.833
N14690 Z-12. F333.33
N14695 X93.6 F1000.
N14700 G3 X92.6 Y169.733 I0. J-1.
N14705 G1 Y166.5
N14710 Z-11.5
N14715 Y163.5
N14720 Z-12. F333.33
N14725 Y160.267 F1000.
N14730 G3 X93.6 Y159.267 I1. J0.
N14735 G1 X96.833
N14740 Z-11.5
N14745 X99.833
N14750 Z-12. F333.33
N14755 X103.067 F1000.
N14760 G3 X104.067 Y160.267 I0. J1.
N14765 G1 Y163.5
N14770 Z-11.5
N14775 Y165.
N14780 G3 X103.867 Y165.2 I-0.2 J0.
N14785 G1 X103.467
N14790 G0 Z5.
N14795 Y181.467
N14800 G1 Z-3.8 F333.33
N14805 G18 G2 X103.667 Z-4. I0.2 K0.
N14810 G1 X103.867 F1000.
N14815 G17 G3 X104.067 Y181.667 I0. J0.2
N14820 G1 Y186.4
N14825 G3 X103.067 Y187.4 I-1. J0.
N14830 G1 X93.6
N14835 G3 X92.6 Y186.4 I0. J-1.
N14840 G1 Y176.933
N14845 G3 X93.6 Y175.933 I1. J0.
N14850 G1 X103.067
N14855 G3 X104.067 Y176.933 I0. J1.
N14860 G1 Y181.667
N14865 G3 X103.867 Y181.867 I-0.2 J0.
N14870 G1 X103.667
N14875 G18 G3 X103.467 Z-3.8 I0. K0.2
N14880 G1 Y181.467
N14885 Z-7.8 F333.33
N14890 G2 X103.667 Z-8. I0.2 K0.
N14895 G1 X103.867 F1000.
N14900 G17 G3 X104.067 Y181.667 I0. J0.2
N14905 G1 Y186.4
N14910 G3 X103.067 Y187.4 I-1. J0.
N14915 G1 X93.6
N14920 G3 X92.6 Y186.4 I0. J-1.
N14925 G1 Y176.933
N14930 G3 X93.6 Y175.933 I1. J0.
N14935 G1 X103.067
N14940 G3 X104.067 Y176.933 I0. J1.
N14945 G1 Y181.667
N14950 G3 X103.867 Y181.867 I-0.2 J0.
N14955 G1 X103.667
N14960 G18 G3 X103.467 Z-7.8 I0. K0.2
N14965 G1 Y181.467
N14970 Z-11.5 F333.33
N14975 X103.667
N14980 X103.867 F1000.
N14985 G17 G3 X104.067 Y181.667 I0. J0.2
N14990 G1 Y183.167
N14995 Z-12. F333.33
N15000 Y186.4 F1000.
N15005 G3 X103.067 Y187.4 I-1. J0.
N15010 G1 X99.833
N15015 Z-11.5
N15020 X96.833
N15025 Z-12. F333.33
N15030 X93.6 F1000.
N15035 G3 X92.6 Y186.4 I0. J-1.
N15040 G1 Y183.167
N15045 Z-11.5
N15050 Y180.167
N15055 Z-12. F333.33
N15060 Y176.933 F1000.
N15065 G3 X93.6 Y175.933 I1. J0.
N15070 G1 X96.833
N15075 Z-11.5
N15080 X99.833
N15085 Z-12. F333.33
N15090 X103.067 F1000.
N15095 G3 X104.067 Y176.933 I0. J1.
N15100 G1 Y180.167
N15105 Z-11.5
N15110 Y181.667
N15115 G3 X103.867 Y181.867 I-0.2 J0.
N15120 G1 X103.467
N15125 G0 Z5.
N15130 Y198.133
N15135 G1 Z-3.8 F333.33
N15140 G18 G2 X103.667 Z-4. I0.2 K0.
N15145 G1 X103.867 F1000.
N15150 G17 G3 X104.067 Y198.333 I0. J0.2
N15155 G1 Y203.067
N15160 G3 X103.067 Y204.067 I-1. J0.
N15165 G1 X93.6
N15170 G3 X92.6 Y203.067 I0. J-1.
N15175 G1 Y193.6
N15180 G3 X93.6 Y192.6 I1. J0.
N15185 G1 X103.067
N15190 G3 X104.067 Y193.6 I0. J1.
N15195 G1 Y198.333
N15200 G3 X103.867 Y198.533 I-0.2 J0.
N15205 G1 X103.667
N15210 G18 G3 X103.467 Z-3.8 I0. K0.2
N15215 G1 Y198.133
N15220 Z-7.8 F333.33
N15225 G2 X103.667 Z-8. I0.2 K0.
N15230 G1 X103.867 F1000.
N15235 G17 G3 X104.067 Y198.333 I0. J0.2
N15240 G1 Y203.067
N15245 G3 X103.067 Y204.067 I-1. J0.
N15250 G1 X93.6
N15255 G3 X92.6 Y203.067 I0. J-1.
N15260 G1 Y193.6
N15265 G3 X93.6 Y192.6 I1. J0.
N15270 G1 X103.067
N15275 G3 X104.067 Y193.6 I0. J1.
N15280 G1 Y198.333
N15285 G3 X103.867 Y198.533 I-0.2 J0.
N15290 G1 X103.667
N15295 G18 G3 X103.467 Z-7.8 I0. K0.2
N15300 G1 Y198.133
N15305 Z-11.5 F333.33
N15310 X103.667
N15315 X103.867 F1000.
N15320 G17 G3 X104.067 Y198.333 I0. J0.2
N15325 G1 Y199.833
N15330 Z-12. F333.33
N15335 Y203.067 F1000.
N15340 G3 X103.067 Y204.067 I-1. J0.
N15345 G1 X99.833
N15350 Z-11.5
N15355 X96.833
N15360 Z-12. F333.33
N15365 X93.6 F1000.
N15370 G3 X92.6 Y203.067 I0. J-1.
N15375 G1 Y199.833
N15380 Z-11.5
N15385 Y196.833
N15390 Z-12. F333.33
N15395 Y193.6 F1000.
N15400 G3 X93.6 Y192.6 I1. J0.
N15405 G1 X96.833
N15410 Z-11.5
N15415 X99.833
N15420 Z-12. F333.33
N15425 X103.067 F1000.
N15430 G3 X104.067 Y193.6 I0. J1.
N15435 G1 Y196.833
N15440 Z-11.5
N15445 Y198.333
N15450 G3 X103.867 Y198.533 I-0.2 J0.
N15455 G1 X103.467
N15460 G0 Z5.
N15465 X86.8 Y198.134
N15470 G1 Z-3.8 F333.33
N15475 G18 G2 X87. Z-4. I0.2 K0.
N15480 G1 X87.2 F1000.
N15485 G17 G3 X87.4 Y198.334 I0. J0.2
N15490 G1 Y203.067
N15495 G3 X86.4 Y204.067 I-1. J0.
N15500 G1 X76.933
N15505 G3 X75.933 Y203.067 I0. J-1.
N15510 G1 Y193.6
N15515 G3 X76.933 Y192.6 I1. J0.
N15520 G1 X86.4
N15525 G3 X87.4 Y193.6 I0. J1.
N15530 G1 Y198.334
N15535 G3 X87.2 Y198.534 I-0.2 J0.
N15540 G1 X87.
N15545 G18 G3 X86.8 Z-3.8 I0. K0.2
N15550 G1 Y198.134
N15555 Z-7.8 F333.33
N15560 G2 X87. Z-8. I0.2 K0.
N15565 G1 X87.2 F1000.
N15570 G17 G3 X87.4 Y198.334 I0. J0.2
N15575 G1 Y203.067
N15580 G3 X86.4 Y204.067 I-1. J0.
N15585 G1 X76.933
N15590 G3 X75.933 Y203.067 I0. J-1.
N15595 G1 Y193.6
N15600 G3 X76.933 Y192.6 I1. J0.
N15605 G1 X86.4
N15610 G3 X87.4 Y193.6 I0. J1.
N15615 G1 Y198.334
N15620 G3 X87.2 Y198.534 I-0.2 J0.
N15625 G1 X87.
N15630 G18 G3 X86.8 Z-7.8 I0. K0.2
N15635 G1 Y198.134
N15640 Z-11.5 F333.33
N15645 X87.
N15650 X87.2 F1000.
N15655 G17 G3 X87.4 Y198.334 I0. J0.2
N15660 G1 Y199.833
N15665 Z-12. F333.33
N15670 Y203.067 F1000.
N15675 G3 X86.4 Y204.067 I-1. J0.
N15680 G1 X83.167
N15685 Z-11.5
N15690 X80.167
N15695 Z-12. F333.33
N15700 X76.933 F1000.
N15705 G3 X75.933 Y203.067 I0. J-1.
N15710 G1 Y199.833
N15715 Z-11.5
N15720 Y196.833
N15725 Z-12. F333.33
N15730 Y193.6 F1000.
N15735 G3 X76.933 Y192.6 I1. J0.
N15740 G1 X80.167
N15745 Z-11.5
N15750 X83.167
N15755 Z-12. F333.33
N15760 X86.4 F1000.
N15765 G3 X87.4 Y193.6 I0. J1.
N15770 G1 Y196.833
N15775 Z-11.5
N15780 Y198.334
N15785 G3 X87.2 Y198.534 I-0.2 J0.
N15790 G1 X86.8
N15795 G0 Z5.
N15800 Y181.466
N15805 G1 Z-3.8 F333.33
N15810 G18 G2 X87. Z-4. I0.2 K0.
N15815 G1 X87.2 F1000.
N15820 G17 G3 X87.4 Y181.666 I0. J0.2
N15825 G1 Y186.4
N15830 G3 X86.4 Y187.4 I-1. J0.
N15835 G1 X76.933
N15840 G3 X75.933 Y186.4 I0. J-1.
N15845 G1 Y176.933
N15850 G3 X76.933 Y175.933 I1. J0.
N15855 G1 X86.4
N15860 G3 X87.4 Y176.933 I0. J1.
N15865 G1 Y181.666
N15870 G3 X87.2 Y181.866 I-0.2 J0.
N15875 G1 X87.
N15880 G18 G3 X86.8 Z-3.8 I0. K0.2
N15885 G1 Y181.466
N15890 Z-7.8 F333.33
N15895 G2 X87. Z-8. I0.2 K0.
N15900 G1 X87.2 F1000.
N15905 G17 G3 X87.4 Y181.666 I0. J0.2
N15910 G1 Y186.4
N15915 G3 X86.4 Y187.4 I-1. J0.
N15920 G1 X76.933
N15925 G3 X75.933 Y186.4 I0. J-1.
N15930 G1 Y176.933
N15935 G3 X76.933 Y175.933 I1. J0.
N15940 G1 X86.4
N15945 G3 X87.4 Y176.933 I0. J1.
N15950 G1 Y181.666
N15955 G3 X87.2 Y181.866 I-0.2 J0.
N15960 G1 X87.
N15965 G18 G3 X86.8 Z-7.8 I0. K0.2
N15970 G1 Y181.466
N15975 Z-11.5 F333.33
N15980 X87.
N15985 X87.2 F1000.
N15990 G17 G3 X87.4 Y181.666 I0. J0.2
N15995 G1 Y183.167
N16000 Z-12. F333.33
N16005 Y186.4 F1000.
N16010 G3 X86.4 Y187.4 I-1. J0.
N16015 G1 X83.167
N16020 Z-11.5
N16025 X80.167
N16030 Z-12. F333.33
N16035 X76.933 F1000.
N16040 G3 X75.933 Y186.4 I0. J-1.
N16045 G1 Y183.167
N16050 Z-11.5
N16055 Y180.167
N16060 Z-12. F333.33
N16065 Y176.933 F1000.
N16070 G3 X76.933 Y175.933 I1. J0.
N16075 G1 X80.167
N16080 Z-11.5
N16085 X83.167
N16090 Z-12. F333.33
N16095 X86.4 F1000.
N16100 G3 X87.4 Y176.933 I0. J1.
N16105 G1 Y180.167
N16110 Z-11.5
N16115 Y181.666
N16120 G3 X87.2 Y181.866 I-0.2 J0.
N16125 G1 X86.8
N16130 G0 Z5.
N16135 X81.866 Y170.133
N16140 G1 Z-3.8 F333.33
N16145 G19 G3 Y170.333 Z-4. J0.2 K0.
N16150 G1 Y170.533 F1000.
N16155 G17 G3 X81.666 Y170.733 I-0.2 J0.
N16160 G1 X76.933
N16165 G3 X75.933 Y169.733 I0. J-1.
N16170 G1 Y160.267
N16175 G3 X76.933 Y159.267 I1. J0.
N16180 G1 X86.4
N16185 G3 X87.4 Y160.267 I0. J1.
N16190 G1 Y169.733
N16195 G3 X86.4 Y170.733 I-1. J0.
N16200 G1 X81.666
N16205 G3 X81.466 Y170.533 I0. J-0.2
N16210 G1 Y170.333
N16215 G19 G2 Y170.133 Z-3.8 J0. K0.2
N16220 G1 X81.866
N16225 Z-7.8 F333.33
N16230 G3 Y170.333 Z-8. J0.2 K0.
N16235 G1 Y170.533 F1000.
N16240 G17 G3 X81.666 Y170.733 I-0.2 J0.
N16245 G1 X76.933
N16250 G3 X75.933 Y169.733 I0. J-1.
N16255 G1 Y160.267
N16260 G3 X76.933 Y159.267 I1. J0.
N16265 G1 X86.4
N16270 G3 X87.4 Y160.267 I0. J1.
N16275 G1 Y169.733
N16280 G3 X86.4 Y170.733 I-1. J0.
N16285 G1 X81.666
N16290 G3 X81.466 Y170.533 I0. J-0.2
N16295 G1 Y170.333
N16300 G19 G2 Y170.133 Z-7.8 J0. K0.2
N16305 G1 X81.866
N16310 Z-11.5 F333.33
N16315 Y170.333
N16320 Y170.533 F1000.
N16325 G17 G3 X81.666 Y170.733 I-0.2 J0.
N16330 G1 X80.167
N16335 Z-12. F333.33
N16340 X76.933 F1000.
N16345 G3 X75.933 Y169.733 I0. J-1.
N16350 G1 Y166.5
N16355 Z-11.5
N16360 Y163.5
N16365 Z-12. F333.33
N16370 Y160.267 F1000.
N16375 G3 X76.933 Y159.267 I1. J0.
N16380 G1 X80.167
N16385 Z-11.5
N16390 X83.167
N16395 Z-12. F333.33
N16400 X86.4 F1000.
N16405 G3 X87.4 Y160.267 I0. J1.
N16410 G1 Y163.5
N16415 Z-11.5
N16420 Y166.5
N16425 Z-12. F333.33
N16430 Y169.733 F1000.
N16435 G3 X86.4 Y170.733 I-1. J0.
N16440 G1 X83.167
N16445 Z-11.5
N16450 X81.666
N16455 G3 X81.466 Y170.533 I0. J-0.2
N16460 G1 Y170.133
N16465 G0 Z5.
N16470 X65.2
N16475 G1 Z-3.8 F333.33
N16480 G19 G3 Y170.333 Z-4. J0.2 K0.
N16485 G1 Y170.533 F1000.
N16490 G17 G3 X65. Y170.733 I-0.2 J0.
N16495 G1 X60.267
N16500 G3 X59.267 Y169.733 I0. J-1.
N16505 G1 Y160.267
N16510 G3 X60.267 Y159.267 I1. J0.
N16515 G1 X69.733
N16520 G3 X70.733 Y160.267 I0. J1.
N16525 G1 Y169.733
N16530 G3 X69.733 Y170.733 I-1. J0.
N16535 G1 X65.
N16540 G3 X64.8 Y170.533 I0. J-0.2
N16545 G1 Y170.333
N16550 G19 G2 Y170.133 Z-3.8 J0. K0.2
N16555 G1 X65.2
N16560 Z-7.8 F333.33
N16565 G3 Y170.333 Z-8. J0.2 K0.
N16570 G1 Y170.533 F1000.
N16575 G17 G3 X65. Y170.733 I-0.2 J0.
N16580 G1 X60.267
N16585 G3 X59.267 Y169.733 I0. J-1.
N16590 G1 Y160.267
N16595 G3 X60.267 Y159.267 I1. J0.
N16600 G1 X69.733
N16605 G3 X70.733 Y160.267 I0. J1.
N16610 G1 Y169.733
N16615 G3 X69.733 Y170.733 I-1. J0.
N16620 G1 X65.
N16625 G3 X64.8 Y170.533 I0. J-0.2
N16630 G1 Y170.333
N16635 G19 G2 Y170.133 Z-7.8 J0. K0.2
N16640 G1 X65.2
N16645 Z-11.5 F333.33
N16650 Y170.333
N16655 Y170.533 F1000.
N16660 G17 G3 X65. Y170.733 I-0.2 J0.
N16665 G1 X63.5
N16670 Z-12. F333.33
N16675 X60.267 F1000.
N16680 G3 X59.267 Y169.733 I0. J-1.
N16685 G1 Y166.5
N16690 Z-11.5
N16695 Y163.5
N16700 Z-12. F333.33
N16705 Y160.267 F1000.
N16710 G3 X60.267 Y159.267 I1. J0.
N16715 G1 X63.5
N16720 Z-11.5
N16725 X66.5
N16730 Z-12. F333.33
N16735 X69.733 F1000.
N16740 G3 X70.733 Y160.267 I0. J1.
N16745 G1 Y163.5
N16750 Z-11.5
N16755 Y166.5
N16760 Z-12. F333.33
N16765 Y169.733 F1000.
N16770 G3 X69.733 Y170.733 I-1. J0.
N16775 G1 X66.5
N16780 Z-11.5
N16785 X65.
N16790 G3 X64.8 Y170.533 I0. J-0.2
N16795 G1 Y170.133
N16800 G0 Z5.
N16805 X70.133 Y181.467
N16810 G1 Z-3.8 F333.33
N16815 G18 G2 X70.333 Z-4. I0.2 K0.
N16820 G1 X70.533 F1000.
N16825 G17 G3 X70.733 Y181.667 I0. J0.2
N16830 G1 Y186.4
N16835 G3 X69.733 Y187.4 I-1. J0.
N16840 G1 X60.267
N16845 G3 X59.267 Y186.4 I0. J-1.
N16850 G1 Y176.933
N16855 G3 X60.267 Y175.933 I1. J0.
N16860 G1 X69.733
N16865 G3 X70.733 Y176.933 I0. J1.
N16870 G1 Y181.667
N16875 G3 X70.533 Y181.867 I-0.2 J0.
N16880 G1 X70.333
N16885 G18 G3 X70.133 Z-3.8 I0. K0.2
N16890 G1 Y181.467
N16895 Z-7.8 F333.33
N16900 G2 X70.333 Z-8. I0.2 K0.
N16905 G1 X70.533 F1000.
N16910 G17 G3 X70.733 Y181.667 I0. J0.2
N16915 G1 Y186.4
N16920 G3 X69.733 Y187.4 I-1. J0.
N16925 G1 X60.267
N16930 G3 X59.267 Y186.4 I0. J-1.
N16935 G1 Y176.933
N16940 G3 X60.267 Y175.933 I1. J0.
N16945 G1 X69.733
N16950 G3 X70.733 Y176.933 I0. J1.
N16955 G1 Y181.667
N16960 G3 X70.533 Y181.867 I-0.2 J0.
N16965 G1 X70.333
N16970 G18 G3 X70.133 Z-7.8 I0. K0.2
N16975 G1 Y181.467
N16980 Z-11.5 F333.33
N16985 X70.333
N16990 X70.533 F1000.
N16995 G17 G3 X70.733 Y181.667 I0. J0.2
N17000 G1 Y183.167
N17005 Z-12. F333.33
N17010 Y186.4 F1000.
N17015 G3 X69.733 Y187.4 I-1. J0.
N17020 G1 X66.5
N17025 Z-11.5
N17030 X63.5
N17035 Z-12. F333.33
N17040 X60.267 F1000.
N17045 G3 X59.267 Y186.4 I0. J-1.
N17050 G1 Y183.167
N17055 Z-11.5
N17060 Y180.167
N17065 Z-12. F333.33
N17070 Y176.933 F1000.
N17075 G3 X60.267 Y175.933 I1. J0.
N17080 G1 X63.5
N17085 Z-11.5
N17090 X66.5
N17095 Z-12. F333.33
N17100 X69.733 F1000.
N17105 G3 X70.733 Y176.933 I0. J1.
N17110 G1 Y180.167
N17115 Z-11.5
N17120 Y181.667
N17125 G3 X70.533 Y181.867 I-0.2 J0.
N17130 G1 X70.133
N17135 G0 Z5.
N17140 Y198.133
N17145 G1 Z-3.8 F333.33
N17150 G18 G2 X70.333 Z-4. I0.2 K0.
N17155 G1 X70.533 F1000.
N17160 G17 G3 X70.733 Y198.333 I0. J0.2
N17165 G1 Y203.067
N17170 G3 X69.733 Y204.067 I-1. J0.
N17175 G1 X60.267
N17180 G3 X59.267 Y203.067 I0. J-1.
N17185 G1 Y193.6
N17190 G3 X60.267 Y192.6 I1. J0.
N17195 G1 X69.733
N17200 G3 X70.733 Y193.6 I0. J1.
N17205 G1 Y198.333
N17210 G3 X70.533 Y198.533 I-0.2 J0.
N17215 G1 X70.333
N17220 G18 G3 X70.133 Z-3.8 I0. K0.2
N17225 G1 Y198.133
N17230 Z-7.8 F333.33
N17235 G2 X70.333 Z-8. I0.2 K0.
N17240 G1 X70.533 F1000.
N17245 G17 G3 X70.733 Y198.333 I0. J0.2
N17250 G1 Y203.067
N17255 G3 X69.733 Y204.067 I-1. J0.
N17260 G1 X60.267
N17265 G3 X59.267 Y203.067 I0. J-1.
N17270 G1 Y193.6
N17275 G3 X60.267 Y192.6 I1. J0.
N17280 G1 X69.733
N17285 G3 X70.733 Y193.6 I0. J1.
N17290 G1 Y198.333
N17295 G3 X70.533 Y198.533 I-0.2 J0.
N17300 G1 X70.333
N17305 G18 G3 X70.133 Z-7.8 I0. K0.2
N17310 G1 Y198.133
N17315 Z-11.5 F333.33
N17320 X70.333
N17325 X70.533 F1000.
N17330 G17 G3 X70.733 Y198.333 I0. J0.2
N17335 G1 Y199.833
N17340 Z-12. F333.33
N17345 Y203.067 F1000.
N17350 G3 X69.733 Y204.067 I-1. J0.
N17355 G1 X66.5
N17360 Z-11.5
N17365 X63.5
N17370 Z-12. F333.33
N17375 X60.267 F1000.
N17380 G3 X59.267 Y203.067 I0. J-1.
N17385 G1 Y199.833
N17390 Z-11.5
N17395 Y196.833
N17400 Z-12. F333.33
N17405 Y193.6 F1000.
N17410 G3 X60.267 Y192.6 I1. J0.
N17415 G1 X63.5
N17420 Z-11.5
N17425 X66.5
N17430 Z-12. F333.33
N17435 X69.733 F1000.
N17440 G3 X70.733 Y193.6 I0. J1.
N17445 G1 Y196.833
N17450 Z-11.5
N17455 Y198.333
N17460 G3 X70.533 Y198.533 I-0.2 J0.
N17465 G1 X70.133
N17470 G0 Z5.
N17475 X53.467 Y198.134
N17480 G1 Z-3.8 F333.33
N17485 G18 G2 X53.667 Z-4. I0.2 K0.
N17490 G1 X53.867 F1000.
N17495 G17 G3 X54.067 Y198.334 I0. J0.2
N17500 G1 Y203.067
N17505 G3 X53.067 Y204.067 I-1. J0.
N17510 G1 X43.6
N17515 G3 X42.6 Y203.067 I0. J-1.
N17520 G1 Y193.6
N17525 G3 X43.6 Y192.6 I1. J0.
N17530 G1 X53.067
N17535 G3 X54.067 Y193.6 I0. J1.
N17540 G1 Y198.334
N17545 G3 X53.867 Y198.534 I-0.2 J0.
N17550 G1 X53.667
N17555 G18 G3 X53.467 Z-3.8 I0. K0.2
N17560 G1 Y198.134
N17565 Z-7.8 F333.33
N17570 G2 X53.667 Z-8. I0.2 K0.
N17575 G1 X53.867 F1000.
N17580 G17 G3 X54.067 Y198.334 I0. J0.2
N17585 G1 Y203.067
N17590 G3 X53.067 Y204.067 I-1. J0.
N17595 G1 X43.6
N17600 G3 X42.6 Y203.067 I0. J-1.
N17605 G1 Y193.6
N17610 G3 X43.6 Y192.6 I1. J0.
N17615 G1 X53.067
N17620 G3 X54.067 Y193.6 I0. J1.
N17625 G1 Y198.334
N17630 G3 X53.867 Y198.534 I-0.2 J0.
N17635 G1 X53.667
N17640 G18 G3 X53.467 Z-7.8 I0. K0.2
N17645 G1 Y198.134
N17650 Z-11.5 F333.33
N17655 X53.667
N17660 X53.867 F1000.
N17665 G17 G3 X54.067 Y198.334 I0. J0.2
N17670 G1 Y199.833
N17675 Z-12. F333.33
N17680 Y203.067 F1000.
N17685 G3 X53.067 Y204.067 I-1. J0.
N17690 G1 X49.833
N17695 Z-11.5
N17700 X46.833
N17705 Z-12. F333.33
N17710 X43.6 F1000.
N17715 G3 X42.6 Y203.067 I0. J-1.
N17720 G1 Y199.833
N17725 Z-11.5
N17730 Y196.833
N17735 Z-12. F333.33
N17740 Y193.6 F1000.
N17745 G3 X43.6 Y192.6 I1. J0.
N17750 G1 X46.833
N17755 Z-11.5
N17760 X49.833
N17765 Z-12. F333.33
N17770 X53.067 F1000.
N17775 G3 X54.067 Y193.6 I0. J1.
N17780 G1 Y196.833
N17785 Z-11.5
N17790 Y198.334
N17795 G3 X53.867 Y198.534 I-0.2 J0.
N17800 G1 X53.467
N17805 G0 Z5.
N17810 Y181.467
N17815 G1 Z-3.8 F333.33
N17820 G18 G2 X53.667 Z-4. I0.2 K0.
N17825 G1 X53.867 F1000.
N17830 G17 G3 X54.067 Y181.667 I0. J0.2
N17835 G1 Y186.4
N17840 G3 X53.067 Y187.4 I-1. J0.
N17845 G1 X43.6
N17850 G3 X42.6 Y186.4 I0. J-1.
N17855 G1 Y176.933
N17860 G3 X43.6 Y175.933 I1. J0.
N17865 G1 X53.067
N17870 G3 X54.067 Y176.933 I0. J1.
N17875 G1 Y181.667
N17880 G3 X53.867 Y181.867 I-0.2 J0.
N17885 G1 X53.667
N17890 G18 G3 X53.467 Z-3.8 I0. K0.2
N17895 G1 Y181.467
N17900 Z-7.8 F333.33
N17905 G2 X53.667 Z-8. I0.2 K0.
N17910 G1 X53.867 F1000.
N17915 G17 G3 X54.067 Y181.667 I0. J0.2
N17920 G1 Y186.4
N17925 G3 X53.067 Y187.4 I-1. J0.
N17930 G1 X43.6
N17935 G3 X42.6 Y186.4 I0. J-1.
N17940 G1 Y176.933
N17945 G3 X43.6 Y175.933 I1. J0.
N17950 G1 X53.067
N17955 G3 X54.067 Y176.933 I0. J1.
N17960 G1 Y181.667
N17965 G3 X53.867 Y181.867 I-0.2 J0.
N17970 G1 X53.667
N17975 G18 G3 X53.467 Z-7.8 I0. K0.2
N17980 G1 Y181.467
N17985 Z-11.5 F333.33
N17990 X53.667
N17995 X53.867 F1000.
N18000 G17 G3 X54.067 Y181.667 I0. J0.2
N18005 G1 Y183.167
N18010 Z-12. F333.33
N18015 Y186.4 F1000.
N18020 G3 X53.067 Y187.4 I-1. J0.
N18025 G1 X49.833
N18030 Z-11.5
N18035 X46.833
N18040 Z-12. F333.33
N18045 X43.6 F1000.
N18050 G3 X42.6 Y186.4 I0. J-1.
N18055 G1 Y183.167
N18060 Z-11.5
N18065 Y180.167
N18070 Z-12. F333.33
N18075 Y176.933 F1000.
N18080 G3 X43.6 Y175.933 I1. J0.
N18085 G1 X46.833
N18090 Z-11.5
N18095 X49.833
N18100 Z-12. F333.33
N18105 X53.067 F1000.
N18110 G3 X54.067 Y176.933 I0. J1.
N18115 G1 Y180.167
N18120 Z-11.5
N18125 Y181.667
N18130 G3 X53.867 Y181.867 I-0.2 J0.
N18135 G1 X53.467
N18140 G0 Z5.
N18145 X48.533 Y170.133
N18150 G1 Z-3.8 F333.33
N18155 G19 G3 Y170.333 Z-4. J0.2 K0.
N18160 G1 Y170.533 F1000.
N18165 G17 G3 X48.333 Y170.733 I-0.2 J0.
N18170 G1 X43.6
N18175 G3 X42.6 Y169.733 I0. J-1.
N18180 G1 Y160.267
N18185 G3 X43.6 Y159.267 I1. J0.
N18190 G1 X53.067
N18195 G3 X54.067 Y160.267 I0. J1.
N18200 G1 Y169.733
N18205 G3 X53.067 Y170.733 I-1. J0.
N18210 G1 X48.333
N18215 G3 X48.133 Y170.533 I0. J-0.2
N18220 G1 Y170.333
N18225 G19 G2 Y170.133 Z-3.8 J0. K0.2
N18230 G1 X48.533
N18235 Z-7.8 F333.33
N18240 G3 Y170.333 Z-8. J0.2 K0.
N18245 G1 Y170.533 F1000.
N18250 G17 G3 X48.333 Y170.733 I-0.2 J0.
N18255 G1 X43.6
N18260 G3 X42.6 Y169.733 I0. J-1.
N18265 G1 Y160.267
N18270 G3 X43.6 Y159.267 I1. J0.
N18275 G1 X53.067
N18280 G3 X54.067 Y160.267 I0. J1.
N18285 G1 Y169.733
N18290 G3 X53.067 Y170.733 I-1. J0.
N18295 G1 X48.333
N18300 G3 X48.133 Y170.533 I0. J-0.2
N18305 G1 Y170.333
N18310 G19 G2 Y170.133 Z-7.8 J0. K0.2
N18315 G1 X48.533
N18320 Z-11.5 F333.33
N18325 Y170.333
N18330 Y170.533 F1000.
N18335 G17 G3 X48.333 Y170.733 I-0.2 J0.
N18340 G1 X46.833
N18345 Z-12. F333.33
N18350 X43.6 F1000.
N18355 G3 X42.6 Y169.733 I0. J-1.
N18360 G1 Y166.5
N18365 Z-11.5
N18370 Y163.5
N18375 Z-12. F333.33
N18380 Y160.267 F1000.
N18385 G3 X43.6 Y159.267 I1. J0.
N18390 G1 X46.833
N18395 Z-11.5
N18400 X49.833
N18405 Z-12. F333.33
N18410 X53.067 F1000.
N18415 G3 X54.067 Y160.267 I0. J1.
N18420 G1 Y163.5
N18425 Z-11.5
N18430 Y166.5
N18435 Z-12. F333.33
N18440 Y169.733 F1000.
N18445 G3 X53.067 Y170.733 I-1. J0.
N18450 G1 X49.833
N18455 Z-11.5
N18460 X48.333
N18465 G3 X48.133 Y170.533 I0. J-0.2
N18470 G1 Y170.133
N18475 G0 Z5.
N18480 X36.8 Y164.8
N18485 G1 Z-3.8 F333.33
N18490 G18 G2 X37. Z-4. I0.2 K0.
N18495 G1 X37.2 F1000.
N18500 G17 G3 X37.4 Y165. I0. J0.2
N18505 G1 Y169.733
N18510 G3 X36.4 Y170.733 I-1. J0.
N18515 G1 X26.933
N18520 G3 X25.933 Y169.733 I0. J-1.
N18525 G1 Y160.267
N18530 G3 X26.933 Y159.267 I1. J0.
N18535 G1 X36.4
N18540 G3 X37.4 Y160.267 I0. J1.
N18545 G1 Y165.
N18550 G3 X37.2 Y165.2 I-0.2 J0.
N18555 G1 X37.
N18560 G18 G3 X36.8 Z-3.8 I0. K0.2
N18565 G1 Y164.8
N18570 Z-7.8 F333.33
N18575 G2 X37. Z-8. I0.2 K0.
N18580 G1 X37.2 F1000.
N18585 G17 G3 X37.4 Y165. I0. J0.2
N18590 G1 Y169.733
N18595 G3 X36.4 Y170.733 I-1. J0.
N18600 G1 X26.933
N18605 G3 X25.933 Y169.733 I0. J-1.
N18610 G1 Y160.267
N18615 G3 X26.933 Y159.267 I1. J0.
N18620 G1 X36.4
N18625 G3 X37.4 Y160.267 I0. J1.
N18630 G1 Y165.
N18635 G3 X37.2 Y165.2 I-0.2 J0.
N18640 G1 X37.
N18645 G18 G3 X36.8 Z-7.8 I0. K0.2
N18650 G1 Y164.8
N18655 Z-11.5 F333.33
N18660 X37.
N18665 X37.2 F1000.
N18670 G17 G3 X37.4 Y165. I0. J0.2
N18675 G1 Y166.5
N18680 Z-12. F333.33
N18685 Y169.733 F1000.
N18690 G3 X36.4 Y170.733 I-1. J0.
N18695 G1 X33.167
N18700 Z-11.5
N18705 X30.167
N18710 Z-12. F333.33
N18715 X26.933 F1000.
N18720 G3 X25.933 Y169.733 I0. J-1.
N18725 G1 Y166.5
N18730 Z-11.5
N18735 Y163.5
N18740 Z-12. F333.33
N18745 Y160.267 F1000.
N18750 G3 X26.933 Y159.267 I1. J0.
N18755 G1 X30.167
N18760 Z-11.5
N18765 X33.167
N18770 Z-12. F333.33
N18775 X36.4 F1000.
N18780 G3 X37.4 Y160.267 I0. J1.
N18785 G1 Y163.5
N18790 Z-11.5
N18795 Y165.
N18800 G3 X37.2 Y165.2 I-0.2 J0.
N18805 G1 X36.8
N18810 G0 Z5.
N18815 Y181.467
N18820 G1 Z-3.8 F333.33
N18825 G18 G2 X37. Z-4. I0.2 K0.
N18830 G1 X37.2 F1000.
N18835 G17 G3 X37.4 Y181.667 I0. J0.2
N18840 G1 Y186.4
N18845 G3 X36.4 Y187.4 I-1. J0.
N18850 G1 X26.933
N18855 G3 X25.933 Y186.4 I0. J-1.
N18860 G1 Y176.933
N18865 G3 X26.933 Y175.933 I1. J0.
N18870 G1 X36.4
N18875 G3 X37.4 Y176.933 I0. J1.
N18880 G1 Y181.667
N18885 G3 X37.2 Y181.867 I-0.2 J0.
N18890 G1 X37.
N18895 G18 G3 X36.8 Z-3.8 I0. K0.2
N18900 G1 Y181.467
N18905 Z-7.8 F333.33
N18910 G2 X37. Z-8. I0.2 K0.
N18915 G1 X37.2 F1000.
N18920 G17 G3 X37.4 Y181.667 I0. J0.2
N18925 G1 Y186.4
N18930 G3 X36.4 Y187.4 I-1. J0.
N18935 G1 X26.933
N18940 G3 X25.933 Y186.4 I0. J-1.
N18945 G1 Y176.933
N18950 G3 X26.933 Y175.933 I1. J0.
N18955 G1 X36.4
N18960 G3 X37.4 Y176.933 I0. J1.
N18965 G1 Y181.667
N18970 G3 X37.2 Y181.867 I-0.2 J0.
N18975 G1 X37.
N18980 G18 G3 X36.8 Z-7.8 I0. K0.2
N18985 G1 Y181.467
N18990 Z-11.5 F333.33
N18995 X37.
N19000 X37.2 F1000.
N19005 G17 G3 X37.4 Y181.667 I0. J0.2
N19010 G1 Y183.167
N19015 Z-12. F333.33
N19020 Y186.4 F1000.
N19025 G3 X36.4 Y187.4 I-1. J0.
N19030 G1 X33.167
N19035 Z-11.5
N19040 X30.167
N19045 Z-12. F333.33
N19050 X26.933 F1000.
N19055 G3 X25.933 Y186.4 I0. J-1.
N19060 G1 Y183.167
N19065 Z-11.5
N19070 Y180.167
N19075 Z-12. F333.33
N19080 Y176.933 F1000.
N19085 G3 X26.933 Y175.933 I1. J0.
N19090 G1 X30.167
N19095 Z-11.5
N19100 X33.167
N19105 Z-12. F333.33
N19110 X36.4 F1000.
N19115 G3 X37.4 Y176.933 I0. J1.
N19120 G1 Y180.167
N19125 Z-11.5
N19130 Y181.667
N19135 G3 X37.2 Y181.867 I-0.2 J0.
N19140 G1 X36.8
N19145 G0 Z5.
N19150 Y198.134
N19155 G1 Z-3.8 F333.33
N19160 G18 G2 X37. Z-4. I0.2 K0.
N19165 G1 X37.2 F1000.
N19170 G17 G3 X37.4 Y198.334 I0. J0.2
N19175 G1 Y203.067
N19180 G3 X36.4 Y204.067 I-1. J0.
N19185 G1 X26.933
N19190 G3 X25.933 Y203.067 I0. J-1.
N19195 G1 Y193.6
N19200 G3 X26.933 Y192.6 I1. J0.
N19205 G1 X36.4
N19210 G3 X37.4 Y193.6 I0. J1.
N19215 G1 Y198.334
N19220 G3 X37.2 Y198.534 I-0.2 J0.
N19225 G1 X37.
N19230 G18 G3 X36.8 Z-3.8 I0. K0.2
N19235 G1 Y198.134
N19240 Z-7.8 F333.33
N19245 G2 X37. Z-8. I0.2 K0.
N19250 G1 X37.2 F1000.
N19255 G17 G3 X37.4 Y198.334 I0. J0.2
N19260 G1 Y203.067
N19265 G3 X36.4 Y204.067 I-1. J0.
N19270 G1 X26.933
N19275 G3 X25.933 Y203.067 I0. J-1.
N19280 G1 Y193.6
N19285 G3 X26.933 Y192.6 I1. J0.
N19290 G1 X36.4
N19295 G3 X37.4 Y193.6 I0. J1.
N19300 G1 Y198.334
N19305 G3 X37.2 Y198.534 I-0.2 J0.
N19310 G1 X37.
N19315 G18 G3 X36.8 Z-7.8 I0. K0.2
N19320 G1 Y198.134
N19325 Z-11.5 F333.33
N19330 X37.
N19335 X37.2 F1000.
N19340 G17 G3 X37.4 Y198.334 I0. J0.2
N19345 G1 Y199.833
N19350 Z-12. F333.33
N19355 Y203.067 F1000.
N19360 G3 X36.4 Y204.067 I-1. J0.
N19365 G1 X33.167
N19370 Z-11.5
N19375 X30.167
N19380 Z-12. F333.33
N19385 X26.933 F1000.
N19390 G3 X25.933 Y203.067 I0. J-1.
N19395 G1 Y199.833
N19400 Z-11.5
N19405 Y196.833
N19410 Z-12. F333.33
N19415 Y193.6 F1000.
N19420 G3 X26.933 Y192.6 I1. J0.
N19425 G1 X30.167
N19430 Z-11.5
N19435 X33.167
N19440 Z-12. F333.33
N19445 X36.4 F1000.
N19450 G3 X37.4 Y193.6 I0. J1.
N19455 G1 Y196.833
N19460 Z-11.5
N19465 Y198.334
N19470 G3 X37.2 Y198.534 I-0.2 J0.
N19475 G1 X36.8
N19480 G0 Z5.
N19485 Y148.134
N19490 G1 Z-3.8 F333.33
N19495 G18 G2 X37. Z-4. I0.2 K0.
N19500 G1 X37.2 F1000.
N19505 G17 G3 X37.4 Y148.334 I0. J0.2
N19510 G1 Y153.067
N19515 G3 X36.4 Y154.067 I-1. J0.
N19520 G1 X26.933
N19525 G3 X25.933 Y153.067 I0. J-1.
N19530 G1 Y143.6
N19535 G3 X26.933 Y142.6 I1. J0.
N19540 G1 X36.4
N19545 G3 X37.4 Y143.6 I0. J1.
N19550 G1 Y148.334
N19555 G3 X37.2 Y148.534 I-0.2 J0.
N19560 G1 X37.
N19565 G18 G3 X36.8 Z-3.8 I0. K0.2
N19570 G1 Y148.134
N19575 Z-7.8 F333.33
N19580 G2 X37. Z-8. I0.2 K0.
N19585 G1 X37.2 F1000.
N19590 G17 G3 X37.4 Y148.334 I0. J0.2
N19595 G1 Y153.067
N19600 G3 X36.4 Y154.067 I-1. J0.
N19605 G1 X26.933
N19610 G3 X25.933 Y153.067 I0. J-1.
N19615 G1 Y143.6
N19620 G3 X26.933 Y142.6 I1. J0.
N19625 G1 X36.4
N19630 G3 X37.4 Y143.6 I0. J1.
N19635 G1 Y148.334
N19640 G3 X37.2 Y148.534 I-0.2 J0.
N19645 G1 X37.
N19650 G18 G3 X36.8 Z-7.8 I0. K0.2
N19655 G1 Y148.134
N19660 Z-11.5 F333.33
N19665 X37.
N19670 X37.2 F1000.
N19675 G17 G3 X37.4 Y148.334 I0. J0.2
N19680 G1 Y149.833
N19685 Z-12. F333.33
N19690 Y153.067 F1000.
N19695 G3 X36.4 Y154.067 I-1. J0.
N19700 G1 X33.167
N19705 Z-11.5
N19710 X30.167
N19715 Z-12. F333.33
N19720 X26.933 F1000.
N19725 G3 X25.933 Y153.067 I0. J-1.
N19730 G1 Y149.833
N19735 Z-11.5
N19740 Y146.833
N19745 Z-12. F333.33
N19750 Y143.6 F1000.
N19755 G3 X26.933 Y142.6 I1. J0.
N19760 G1 X30.167
N19765 Z-11.5
N19770 X33.167
N19775 Z-12. F333.33
N19780 X36.4 F1000.
N19785 G3 X37.4 Y143.6 I0. J1.
N19790 G1 Y146.833
N19795 Z-11.5
N19800 Y148.334
N19805 G3 X37.2 Y148.534 I-0.2 J0.
N19810 G1 X36.8
N19815 G0 Z5.
N19820 X53.467 Y148.134
N19825 G1 Z-3.8 F333.33
N19830 G18 G2 X53.667 Z-4. I0.2 K0.
N19835 G1 X53.867 F1000.
N19840 G17 G3 X54.067 Y148.334 I0. J0.2
N19845 G1 Y153.067
N19850 G3 X53.067 Y154.067 I-1. J0.
N19855 G1 X43.6
N19860 G3 X42.6 Y153.067 I0. J-1.
N19865 G1 Y143.6
N19870 G3 X43.6 Y142.6 I1. J0.
N19875 G1 X53.067
N19880 G3 X54.067 Y143.6 I0. J1.
N19885 G1 Y148.334
N19890 G3 X53.867 Y148.534 I-0.2 J0.
N19895 G1 X53.667
N19900 G18 G3 X53.467 Z-3.8 I0. K0.2
N19905 G1 Y148.134
N19910 Z-7.8 F333.33
N19915 G2 X53.667 Z-8. I0.2 K0.
N19920 G1 X53.867 F1000.
N19925 G17 G3 X54.067 Y148.334 I0. J0.2
N19930 G1 Y153.067
N19935 G3 X53.067 Y154.067 I-1. J0.
N19940 G1 X43.6
N19945 G3 X42.6 Y153.067 I0. J-1.
N19950 G1 Y143.6
N19955 G3 X43.6 Y142.6 I1. J0.
N19960 G1 X53.067
N19965 G3 X54.067 Y143.6 I0. J1.
N19970 G1 Y148.334
N19975 G3 X53.867 Y148.534 I-0.2 J0.
N19980 G1 X53.667
N19985 G18 G3 X53.467 Z-7.8 I0. K0.2
N19990 G1 Y148.134
N19995 Z-11.5 F333.33
N20000 X53.667
N20005 X53.867 F1000.
N20010 G17 G3 X54.067 Y148.334 I0. J0.2
N20015 G1 Y149.833
N20020 Z-12. F333.33
N20025 Y153.067 F1000.
N20030 G3 X53.067 Y154.067 I-1. J0.
N20035 G1 X49.833
N20040 Z-11.5
N20045 X46.833
N20050 Z-12. F333.33
N20055 X43.6 F1000.
N20060 G3 X42.6 Y153.067 I0. J-1.
N20065 G1 Y149.833
N20070 Z-11.5
N20075 Y146.833
N20080 Z-12. F333.33
N20085 Y143.6 F1000.
N20090 G3 X43.6 Y142.6 I1. J0.
N20095 G1 X46.833
N20100 Z-11.5
N20105 X49.833
N20110 Z-12. F333.33
N20115 X53.067 F1000.
N20120 G3 X54.067 Y143.6 I0. J1.
N20125 G1 Y146.833
N20130 Z-11.5
N20135 Y148.334
N20140 G3 X53.867 Y148.534 I-0.2 J0.
N20145 G1 X53.467
N20150 G0 Z5.
N20155 X70.133 Y148.133
N20160 G1 Z-3.8 F333.33
N20165 G18 G2 X70.333 Z-4. I0.2 K0.
N20170 G1 X70.533 F1000.
N20175 G17 G3 X70.733 Y148.333 I0. J0.2
N20180 G1 Y153.067
N20185 G3 X69.733 Y154.067 I-1. J0.
N20190 G1 X60.267
N20195 G3 X59.267 Y153.067 I0. J-1.
N20200 G1 Y143.6
N20205 G3 X60.267 Y142.6 I1. J0.
N20210 G1 X69.733
N20215 G3 X70.733 Y143.6 I0. J1.
N20220 G1 Y148.333
N20225 G3 X70.533 Y148.533 I-0.2 J0.
N20230 G1 X70.333
N20235 G18 G3 X70.133 Z-3.8 I0. K0.2
N20240 G1 Y148.133
N20245 Z-7.8 F333.33
N20250 G2 X70.333 Z-8. I0.2 K0.
N20255 G1 X70.533 F1000.
N20260 G17 G3 X70.733 Y148.333 I0. J0.2
N20265 G1 Y153.067
N20270 G3 X69.733 Y154.067 I-1. J0.
N20275 G1 X60.267
N20280 G3 X59.267 Y153.067 I0. J-1.
N20285 G1 Y143.6
N20290 G3 X60.267 Y142.6 I1. J0.
N20295 G1 X69.733
N20300 G3 X70.733 Y143.6 I0. J1.
N20305 G1 Y148.333
N20310 G3 X70.533 Y148.533 I-0.2 J0.
N20315 G1 X70.333
N20320 G18 G3 X70.133 Z-7.8 I0. K0.2
N20325 G1 Y148.133
N20330 Z-11.5 F333.33
N20335 X70.333
N20340 X70.533 F1000.
N20345 G17 G3 X70.733 Y148.333 I0. J0.2
N20350 G1 Y149.833
N20355 Z-12. F333.33
N20360 Y153.067 F1000.
N20365 G3 X69.733 Y154.067 I-1. J0.
N20370 G1 X66.5
N20375 Z-11.5
N20380 X63.5
N20385 Z-12. F333.33
N20390 X60.267 F1000.
N20395 G3 X59.267 Y153.067 I0. J-1.
N20400 G1 Y149.833
N20405 Z-11.5
N20410 Y146.833
N20415 Z-12. F333.33
N20420 Y143.6 F1000.
N20425 G3 X60.267 Y142.6 I1. J0.
N20430 G1 X63.5
N20435 Z-11.5
N20440 X66.5
N20445 Z-12. F333.33
N20450 X69.733 F1000.
N20455 G3 X70.733 Y143.6 I0. J1.
N20460 G1 Y146.833
N20465 Z-11.5
N20470 Y148.333
N20475 G3 X70.533 Y148.533 I-0.2 J0.
N20480 G1 X70.133
N20485 G0 Z5.
N20490 X86.8 Y148.134
N20495 G1 Z-3.8 F333.33
N20500 G18 G2 X87. Z-4. I0.2 K0.
N20505 G1 X87.2 F1000.
N20510 G17 G3 X87.4 Y148.334 I0. J0.2
N20515 G1 Y153.067
N20520 G3 X86.4 Y154.067 I-1. J0.
N20525 G1 X76.933
N20530 G3 X75.933 Y153.067 I0. J-1.
N20535 G1 Y143.6
N20540 G3 X76.933 Y142.6 I1. J0.
N20545 G1 X86.4
N20550 G3 X87.4 Y143.6 I0. J1.
N20555 G1 Y148.334
N20560 G3 X87.2 Y148.534 I-0.2 J0.
N20565 G1 X87.
N20570 G18 G3 X86.8 Z-3.8 I0. K0.2
N20575 G1 Y148.134
N20580 Z-7.8 F333.33
N20585 G2 X87. Z-8. I0.2 K0.
N20590 G1 X87.2 F1000.
N20595 G17 G3 X87.4 Y148.334 I0. J0.2
N20600 G1 Y153.067
N20605 G3 X86.4 Y154.067 I-1. J0.
N20610 G1 X76.933
N20615 G3 X75.933 Y153.067 I0. J-1.
N20620 G1 Y143.6
N20625 G3 X76.933 Y142.6 I1. J0.
N20630 G1 X86.4
N20635 G3 X87.4 Y143.6 I0. J1.
N20640 G1 Y148.334
N20645 G3 X87.2 Y148.534 I-0.2 J0.
N20650 G1 X87.
N20655 G18 G3 X86.8 Z-7.8 I0. K0.2
N20660 G1 Y148.134
N20665 Z-11.5 F333.33
N20670 X87.
N20675 X87.2 F1000.
N20680 G17 G3 X87.4 Y148.334 I0. J0.2
N20685 G1 Y149.833
N20690 Z-12. F333.33
N20695 Y153.067 F1000.
N20700 G3 X86.4 Y154.067 I-1. J0.
N20705 G1 X83.167
N20710 Z-11.5
N20715 X80.167
N20720 Z-12. F333.33
N20725 X76.933 F1000.
N20730 G3 X75.933 Y153.067 I0. J-1.
N20735 G1 Y149.833
N20740 Z-11.5
N20745 Y146.833
N20750 Z-12. F333.33
N20755 Y143.6 F1000.
N20760 G3 X76.933 Y142.6 I1. J0.
N20765 G1 X80.167
N20770 Z-11.5
N20775 X83.167
N20780 Z-12. F333.33
N20785 X86.4 F1000.
N20790 G3 X87.4 Y143.6 I0. J1.
N20795 G1 Y146.833
N20800 Z-11.5
N20805 Y148.334
N20810 G3 X87.2 Y148.534 I-0.2 J0.
N20815 G1 X86.8
N20820 G0 Z5.
N20825 Y131.466
N20830 G1 Z-3.8 F333.33
N20835 G18 G2 X87. Z-4. I0.2 K0.
N20840 G1 X87.2 F1000.
N20845 G17 G3 X87.4 Y131.666 I0. J0.2
N20850 G1 Y136.4
N20855 G3 X86.4 Y137.4 I-1. J0.
N20860 G1 X76.933
N20865 G3 X75.933 Y136.4 I0. J-1.
N20870 G1 Y126.933
N20875 G3 X76.933 Y125.933 I1. J0.
N20880 G1 X86.4
N20885 G3 X87.4 Y126.933 I0. J1.
N20890 G1 Y131.666
N20895 G3 X87.2 Y131.866 I-0.2 J0.
N20900 G1 X87.
N20905 G18 G3 X86.8 Z-3.8 I0. K0.2
N20910 G1 Y131.466
N20915 Z-7.8 F333.33
N20920 G2 X87. Z-8. I0.2 K0.
N20925 G1 X87.2 F1000.
N20930 G17 G3 X87.4 Y131.666 I0. J0.2
N20935 G1 Y136.4
N20940 G3 X86.4 Y137.4 I-1. J0.
N20945 G1 X76.933
N20950 G3 X75.933 Y136.4 I0. J-1.
N20955 G1 Y126.933
N20960 G3 X76.933 Y125.933 I1. J0.
N20965 G1 X86.4
N20970 G3 X87.4 Y126.933 I0. J1.
N20975 G1 Y131.666
N20980 G3 X87.2 Y131.866 I-0.2 J0.
N20985 G1 X87.
N20990 G18 G3 X86.8 Z-7.8 I0. K0.2
N20995 G1 Y131.466
N21000 Z-11.5 F333.33
N21005 X87.
N21010 X87.2 F1000.
N21015 G17 G3 X87.4 Y131.666 I0. J0.2
N21020 G1 Y133.167
N21025 Z-12. F333.33
N21030 Y136.4 F1000.
