%
(1001)
(T1  D=2. CR=0. - ZMIN=-12. - FLAT END MILL)
N10 G90 G94 G17 G91.1
N15 G21
N20 G53 G0 Z0.
(2D CONTOUR1)
N25 T1 M6
N30 S1000 M3
N35 G54
N40 G0 X236.733 Y223.967
N45 G43 Z15. H1
N50 G0 Z10.
N55 G1 Z-3.8 F333.33
N60 G18 G2 X236.933 Z-4. I0.2 K0.
N65 G1 X237.133 F1000.
N70 G17 G3 X237.333 Y224.167 I0. J0.2
N75 G1 Y236.333
N80 G3 X236.333 Y237.333 I-1. J0.
N85 G1 X212.
N90 G3 X211. Y236.333 I0. J-1.
N95 G1 Y212.
N100 G3 X212. Y211. I1. J0.
N105 G1 X236.333
N110 G3 X237.333 Y212. I0. J1.
N115 G1 Y224.167
N120 G3 X237.133 Y224.367 I-0.2 J0.
N125 G1 X236.933
N130 G18 G3 X236.733 Z-3.8 I0. K0.2
N135 G1 Y223.967
N140 Z-7.8 F333.33
N145 G2 X236.933 Z-8. I0.2 K0.
N150 G1 X237.133 F1000.
N155 G17 G3 X237.333 Y224.167 I0. J0.2
N160 G1 Y236.333
N165 G3 X236.333 Y237.333 I-1. J0.
N170 G1 X212.
N175 G3 X211. Y236.333 I0. J-1.
N180 G1 Y212.
N185 G3 X212. Y211. I1. J0.
N190 G1 X236.333
N195 G3 X237.333 Y212. I0. J1.
N200 G1 Y224.167
N205 G3 X237.133 Y224.367 I-0.2 J0.
N210 G1 X236.933
N215 G18 G3 X236.733 Z-7.8 I0. K0.2
N220 G1 Y223.967
N225 Z-11.5 F333.33
N230 X236.933
N235 X237.133 F1000.
N240 G17 G3 X237.333 Y224.167 I0. J0.2
N245 G1 Y226.167
N250 Z-12. F333.33
N255 Y236.333 F1000.
N260 G3 X236.333 Y237.333 I-1. J0.
N265 G1 X226.167
N270 Z-11.5
N275 X222.167
N280 Z-12. F333.33
N285 X212. F1000.
N290 G3 X211. Y236.333 I0. J-1.
N295 G1 Y226.167
N300 Z-11.5
N305 Y222.167
N310 Z-12. F333.33
N315 Y212. F1000.
N320 G3 X212. Y211. I1. J0.
N325 G1 X222.167
N330 Z-11.5
N335 X226.167
N340 Z-12. F333.33
N345 X236.333 F1000.
N350 G3 X237.333 Y212. I0. J1.
N355 G1 Y222.167
N360 Z-11.5
N365 Y224.167
N370 G3 X237.133 Y224.367 I-0.2 J0.
N375 G1 X236.733
N380 G0 Z10.
N385 X257.699 Y236.733
N390 G1 Z-3.8 F333.33
N395 G19 G3 Y236.933 Z-4. J0.2 K0.
N400 G1 Y237.133 F1000.
N405 G17 G3 X257.5 Y237.333 I-0.2 J0.
N410 G1 X245.333
N415 G3 X244.333 Y236.333 I0. J-1.
N420 G1 Y212.
N425 G3 X245.333 Y211. I1. J0.
N430 G1 X269.667
N435 G3 X270.667 Y212. I0. J1.
N440 G1 Y236.333
N445 G3 X269.667 Y237.333 I-1. J0.
N450 G1 X257.5
N455 G3 X257.299 Y237.133 I0. J-0.2
N460 G1 Y236.933
N465 G19 G2 Y236.733 Z-3.8 J0. K0.2
N470 G1 X257.699
N475 Z-7.8 F333.33
N480 G3 Y236.933 Z-8. J0.2 K0.
N485 G1 Y237.133 F1000.
N490 G17 G3 X257.5 Y237.333 I-0.2 J0.
N495 G1 X245.333
N500 G3 X244.333 Y236.333 I0. J-1.
N505 G1 Y212.
N510 G3 X245.333 Y211. I1. J0.
N515 G1 X269.667
N520 G3 X270.667 Y212. I0. J1.
N525 G1 Y236.333
N530 G3 X269.667 Y237.333 I-1. J0.
N535 G1 X257.5
N540 G3 X257.299 Y237.133 I0. J-0.2
N545 G1 Y236.933
N550 G19 G2 Y236.733 Z-7.8 J0. K0.2
N555 G1 X257.699
N560 Z-11.5 F333.33
N565 Y236.933
N570 Y237.133 F1000.
N575 G17 G3 X257.5 Y237.333 I-0.2 J0.
N580 G1 X255.5
N585 Z-12. F333.33
N590 X245.333 F1000.
N595 G3 X244.333 Y236.333 I0. J-1.
N600 G1 Y226.167
N605 Z-11.5
N610 Y222.167
N615 Z-12. F333.33
N620 Y212. F1000.
N625 G3 X245.333 Y211. I1. J0.
N630 G1 X255.5
N635 Z-11.5
N640 X259.5
N645 Z-12. F333.33
N650 X269.667 F1000.
N655 G3 X270.667 Y212. I0. J1.
N660 G1 Y222.167
N665 Z-11.5
N670 Y226.167
N675 Z-12. F333.33
N680 Y236.333 F1000.
N685 G3 X269.667 Y237.333 I-1. J0.
N690 G1 X259.5
N695 Z-11.5
N700 X257.5
N705 G3 X257.299 Y237.133 I0. J-0.2
N710 G1 Y236.733
N715 G0 Z10.
N720 X270.067 Y257.3
N725 G1 Z-3.8 F333.33
N730 G18 G2 X270.267 Z-4. I0.2 K0.
N735 G1 X270.467 F1000.
N740 G17 G3 X270.667 Y257.5 I0. J0.2
N745 G1 Y269.667
N750 G3 X269.667 Y270.667 I-1. J0.
N755 G1 X245.333
N760 G3 X244.333 Y269.667 I0. J-1.
N765 G1 Y245.333
N770 G3 X245.333 Y244.333 I1. J0.
N775 G1 X269.667
N780 G3 X270.667 Y245.333 I0. J1.
N785 G1 Y257.5
N790 G3 X270.467 Y257.7 I-0.2 J0.
N795 G1 X270.267
N800 G18 G3 X270.067 Z-3.8 I0. K0.2
N805 G1 Y257.3
N810 Z-7.8 F333.33
N815 G2 X270.267 Z-8. I0.2 K0.
N820 G1 X270.467 F1000.
N825 G17 G3 X270.667 Y257.5 I0. J0.2
N830 G1 Y269.667
N835 G3 X269.667 Y270.667 I-1. J0.
N840 G1 X245.333
N845 G3 X244.333 Y269.667 I0. J-1.
N850 G1 Y245.333
N855 G3 X245.333 Y244.333 I1. J0.
N860 G1 X269.667
N865 G3 X270.667 Y245.333 I0. J1.
N870 G1 Y257.5
N875 G3 X270.467 Y257.7 I-0.2 J0.
N880 G1 X270.267
N885 G18 G3 X270.067 Z-7.8 I0. K0.2
N890 G1 Y257.3
N895 Z-11.5 F333.33
N900 X270.267
N905 X270.467 F1000.
N910 G17 G3 X270.667 Y257.5 I0. J0.2
N915 G1 Y259.5
N920 Z-12. F333.33
N925 Y269.667 F1000.
N930 G3 X269.667 Y270.667 I-1. J0.
N935 G1 X259.5
N940 Z-11.5
N945 X255.5
N950 Z-12. F333.33
N955 X245.333 F1000.
N960 G3 X244.333 Y269.667 I0. J-1.
N965 G1 Y259.5
N970 Z-11.5
N975 Y255.5
N980 Z-12. F333.33
N985 Y245.333 F1000.
N990 G3 X245.333 Y244.333 I1. J0.
N995 G1 X255.5
N1000 Z-11.5
N1005 X259.5
N1010 Z-12. F333.33
N1015 X269.667 F1000.
N1020 G3 X270.667 Y245.333 I0. J1.
N1025 G1 Y255.5
N1030 Z-11.5
N1035 Y257.5
N1040 G3 X270.467 Y257.7 I-0.2 J0.
N1045 G1 X270.067
N1050 G0 Z10.
N1055 X303.4 Y257.301
N1060 G1 Z-3.8 F333.33
N1065 G18 G2 X303.6 Z-4. I0.2 K0.
N1070 G1 X303.8 F1000.
N1075 G17 G3 X304. Y257.5 I0. J0.2
N1080 G1 Y269.667
N1085 G3 X303. Y270.667 I-1. J0.
N1090 G1 X278.667
N1095 G3 X277.667 Y269.667 I0. J-1.
N1100 G1 Y245.333
N1105 G3 X278.667 Y244.333 I1. J0.
N1110 G1 X303.
N1115 G3 X304. Y245.333 I0. J1.
N1120 G1 Y257.5
N1125 G3 X303.8 Y257.701 I-0.2 J0.
N1130 G1 X303.6
N1135 G18 G3 X303.4 Z-3.8 I0. K0.2
N1140 G1 Y257.301
N1145 Z-7.8 F333.33
N1150 G2 X303.6 Z-8. I0.2 K0.
N1155 G1 X303.8 F1000.
N1160 G17 G3 X304. Y257.5 I0. J0.2
N1165 G1 Y269.667
N1170 G3 X303. Y270.667 I-1. J0.
N1175 G1 X278.667
N1180 G3 X277.667 Y269.667 I0. J-1.
N1185 G1 Y245.333
N1190 G3 X278.667 Y244.333 I1. J0.
N1195 G1 X303.
N1200 G3 X304. Y245.333 I0. J1.
N1205 G1 Y257.5
N1210 G3 X303.8 Y257.701 I-0.2 J0.
N1215 G1 X303.6
N1220 G18 G3 X303.4 Z-7.8 I0. K0.2
N1225 G1 Y257.301
N1230 Z-11.5 F333.33
N1235 X303.6
N1240 X303.8 F1000.
N1245 G17 G3 X304. Y257.5 I0. J0.2
N1250 G1 Y259.5
N1255 Z-12. F333.33
N1260 Y269.667 F1000.
N1265 G3 X303. Y270.667 I-1. J0.
N1270 G1 X292.833
N1275 Z-11.5
N1280 X288.833
N1285 Z-12. F333.33
N1290 X278.667 F1000.
N1295 G3 X277.667 Y269.667 I0. J-1.
N1300 G1 Y259.5
N1305 Z-11.5
N1310 Y255.5
N1315 Z-12. F333.33
N1320 Y245.333 F1000.
N1325 G3 X278.667 Y244.333 I1. J0.
N1330 G1 X288.833
N1335 Z-11.5
N1340 X292.833
N1345 Z-12. F333.33
N1350 X303. F1000.
N1355 G3 X304. Y245.333 I0. J1.
N1360 G1 Y255.5
N1365 Z-11.5
N1370 Y257.5
N1375 G3 X303.8 Y257.701 I-0.2 J0.
N1380 G1 X303.4
N1385 G0 Z10.
N1390 X336.733 Y257.301
N1395 G1 Z-3.8 F333.33
N1400 G18 G2 X336.933 Z-4. I0.2 K0.
N1405 G1 X337.133 F1000.
N1410 G17 G3 X337.333 Y257.5 I0. J0.2
N1415 G1 Y269.667
N1420 G3 X336.333 Y270.667 I-1. J0.
N1425 G1 X312.
N1430 G3 X311. Y269.667 I0. J-1.
N1435 G1 Y245.333
N1440 G3 X312. Y244.333 I1. J0.
N1445 G1 X336.333
N1450 G3 X337.333 Y245.333 I0. J1.
N1455 G1 Y257.5
N1460 G3 X337.133 Y257.701 I-0.2 J0.
N1465 G1 X336.933
N1470 G18 G3 X336.733 Z-3.8 I0. K0.2
N1475 G1 Y257.301
N1480 Z-7.8 F333.33
N1485 G2 X336.933 Z-8. I0.2 K0.
N1490 G1 X337.133 F1000.
N1495 G17 G3 X337.333 Y257.5 I0. J0.2
N1500 G1 Y269.667
N1505 G3 X336.333 Y270.667 I-1. J0.
N1510 G1 X312.
N1515 G3 X311. Y269.667 I0. J-1.
N1520 G1 Y245.333
N1525 G3 X312. Y244.333 I1. J0.
N1530 G1 X336.333
N1535 G3 X337.333 Y245.333 I0. J1.
N1540 G1 Y257.5
N1545 G3 X337.133 Y257.701 I-0.2 J0.
N1550 G1 X336.933
N1555 G18 G3 X336.733 Z-7.8 I0. K0.2
N1560 G1 Y257.301
N1565 Z-11.5 F333.33
N1570 X336.933
N1575 X337.133 F1000.
N1580 G17 G3 X337.333 Y257.5 I0. J0.2
N1585 G1 Y259.5
N1590 Z-12. F333.33
N1595 Y269.667 F1000.
N1600 G3 X336.333 Y270.667 I-1. J0.
N1605 G1 X326.167
N1610 Z-11.5
N1615 X322.167
N1620 Z-12. F333.33
N1625 X312. F1000.
N1630 G3 X311. Y269.667 I0. J-1.
N1635 G1 Y259.5
N1640 Z-11.5
N1645 Y255.5
N1650 Z-12. F333.33
N1655 Y245.333 F1000.
N1660 G3 X312. Y244.333 I1. J0.
N1665 G1 X322.167
N1670 Z-11.5
N1675 X326.167
N1680 Z-12. F333.33
N1685 X336.333 F1000.
N1690 G3 X337.333 Y245.333 I0. J1.
N1695 G1 Y255.5
N1700 Z-11.5
N1705 Y257.5
N1710 G3 X337.133 Y257.701 I-0.2 J0.
N1715 G1 X336.733
N1720 G0 Z10.
N1725 X370.067 Y257.3
N1730 G1 Z-3.8 F333.33
N1735 G18 G2 X370.267 Z-4. I0.2 K0.
N1740 G1 X370.467 F1000.
N1745 G17 G3 X370.667 Y257.5 I0. J0.2
N1750 G1 Y269.667
N1755 G3 X369.667 Y270.667 I-1. J0.
N1760 G1 X345.333
N1765 G3 X344.333 Y269.667 I0. J-1.
N1770 G1 Y245.333
N1775 G3 X345.333 Y244.333 I1. J0.
N1780 G1 X369.667
N1785 G3 X370.667 Y245.333 I0. J1.
N1790 G1 Y257.5
N1795 G3 X370.467 Y257.7 I-0.2 J0.
N1800 G1 X370.267
N1805 G18 G3 X370.067 Z-3.8 I0. K0.2
N1810 G1 Y257.3
N1815 Z-7.8 F333.33
N1820 G2 X370.267 Z-8. I0.2 K0.
N1825 G1 X370.467 F1000.
N1830 G17 G3 X370.667 Y257.5 I0. J0.2
N1835 G1 Y269.667
N1840 G3 X369.667 Y270.667 I-1. J0.
N1845 G1 X345.333
N1850 G3 X344.333 Y269.667 I0. J-1.
N1855 G1 Y245.333
N1860 G3 X345.333 Y244.333 I1. J0.
N1865 G1 X369.667
N1870 G3 X370.667 Y245.333 I0. J1.
N1875 G1 Y257.5
N1880 G3 X370.467 Y257.7 I-0.2 J0.
N1885 G1 X370.267
N1890 G18 G3 X370.067 Z-7.8 I0. K0.2
N1895 G1 Y257.3
N1900 Z-11.5 F333.33
N1905 X370.267
N1910 X370.467 F1000.
N1915 G17 G3 X370.667 Y257.5 I0. J0.2
N1920 G1 Y259.5
N1925 Z-12. F333.33
N1930 Y269.667 F1000.
N1935 G3 X369.667 Y270.667 I-1. J0.
N1940 G1 X359.5
N1945 Z-11.5
N1950 X355.5
N1955 Z-12. F333.33
N1960 X345.333 F1000.
N1965 G3 X344.333 Y269.667 I0. J-1.
N1970 G1 Y259.5
N1975 Z-11.5
N1980 Y255.5
N1985 Z-12. F333.33
N1990 Y245.333 F1000.
N1995 G3 X345.333 Y244.333 I1. J0.
N2000 G1 X355.5
N2005 Z-11.5
N2010 X359.5
N2015 Z-12. F333.33
N2020 X369.667 F1000.
N2025 G3 X370.667 Y245.333 I0. J1.
N2030 G1 Y255.5
N2035 Z-11.5
N2040 Y257.5
N2045 G3 X370.467 Y257.7 I-0.2 J0.
N2050 G1 X370.067
N2055 G0 Z10.
N2060 X403.4 Y257.299
N2065 G1 Z-3.8 F333.33
N2070 G18 G2 X403.6 Z-4. I0.2 K0.
N2075 G1 X403.8 F1000.
N2080 G17 G3 X404. Y257.5 I0. J0.2
N2085 G1 Y269.667
N2090 G3 X403. Y270.667 I-1. J0.
N2095 G1 X378.667
N2100 G3 X377.667 Y269.667 I0. J-1.
N2105 G1 Y245.333
N2110 G3 X378.667 Y244.333 I1. J0.
N2115 G1 X403.
N2120 G3 X404. Y245.333 I0. J1.
N2125 G1 Y257.5
N2130 G3 X403.8 Y257.699 I-0.2 J0.
N2135 G1 X403.6
N2140 G18 G3 X403.4 Z-3.8 I0. K0.2
N2145 G1 Y257.299
N2150 Z-7.8 F333.33
N2155 G2 X403.6 Z-8. I0.2 K0.
N2160 G1 X403.8 F1000.
N2165 G17 G3 X404. Y257.5 I0. J0.2
N2170 G1 Y269.667
N2175 G3 X403. Y270.667 I-1. J0.
N2180 G1 X378.667
N2185 G3 X377.667 Y269.667 I0. J-1.
N2190 G1 Y245.333
N2195 G3 X378.667 Y244.333 I1. J0.
N2200 G1 X403.
N2205 G3 X404. Y245.333 I0. J1.
N2210 G1 Y257.5
N2215 G3 X403.8 Y257.699 I-0.2 J0.
N2220 G1 X403.6
N2225 G18 G3 X403.4 Z-7.8 I0. K0.2
N2230 G1 Y257.299
N2235 Z-11.5 F333.33
N2240 X403.6
N2245 X403.8 F1000.
N2250 G17 G3 X404. Y257.5 I0. J0.2
N2255 G1 Y259.5
N2260 Z-12. F333.33
N2265 Y269.667 F1000.
N2270 G3 X403. Y270.667 I-1. J0.
N2275 G1 X392.833
N2280 Z-11.5
N2285 X388.833
N2290 Z-12. F333.33
N2295 X378.667 F1000.
N2300 G3 X377.667 Y269.667 I0. J-1.
N2305 G1 Y259.5
N2310 Z-11.5
N2315 Y255.5
N2320 Z-12. F333.33
N2325 Y245.333 F1000.
N2330 G3 X378.667 Y244.333 I1. J0.
N2335 G1 X388.833
N2340 Z-11.5
N2345 X392.833
N2350 Z-12. F333.33
N2355 X403. F1000.
N2360 G3 X404. Y245.333 I0. J1.
N2365 G1 Y255.5
N2370 Z-11.5
N2375 Y257.5
N2380 G3 X403.8 Y257.699 I-0.2 J0.
N2385 G1 X403.4
N2390 G0 Z10.
N2395 X436.733 Y257.301
N2400 G1 Z-3.8 F333.33
N2405 G18 G2 X436.933 Z-4. I0.2 K0.
N2410 G1 X437.133 F1000.
N2415 G17 G3 X437.333 Y257.5 I0. J0.2
N2420 G1 Y269.667
N2425 G3 X436.333 Y270.667 I-1. J0.
N2430 G1 X412.
N2435 G3 X411. Y269.667 I0. J-1.
N2440 G1 Y245.333
N2445 G3 X412. Y244.333 I1. J0.
N2450 G1 X436.333
N2455 G3 X437.333 Y245.333 I0. J1.
N2460 G1 Y257.5
N2465 G3 X437.133 Y257.701 I-0.2 J0.
N2470 G1 X436.933
N2475 G18 G3 X436.733 Z-3.8 I0. K0.2
N2480 G1 Y257.301
N2485 Z-7.8 F333.33
N2490 G2 X436.933 Z-8. I0.2 K0.
N2495 G1 X437.133 F1000.
N2500 G17 G3 X437.333 Y257.5 I0. J0.2
N2505 G1 Y269.667
N2510 G3 X436.333 Y270.667 I-1. J0.
N2515 G1 X412.
N2520 G3 X411. Y269.667 I0. J-1.
N2525 G1 Y245.333
N2530 G3 X412. Y244.333 I1. J0.
N2535 G1 X436.333
N2540 G3 X437.333 Y245.333 I0. J1.
N2545 G1 Y257.5
N2550 G3 X437.133 Y257.701 I-0.2 J0.
N2555 G1 X436.933
N2560 G18 G3 X436.733 Z-7.8 I0. K0.2
N2565 G1 Y257.301
N2570 Z-11.5 F333.33
N2575 X436.933
N2580 X437.133 F1000.
N2585 G17 G3 X437.333 Y257.5 I0. J0.2
N2590 G1 Y259.5
N2595 Z-12. F333.33
N2600 Y269.667 F1000.
N2605 G3 X436.333 Y270.667 I-1. J0.
N2610 G1 X426.167
N2615 Z-11.5
N2620 X422.167
N2625 Z-12. F333.33
N2630 X412. F1000.
N2635 G3 X411. Y269.667 I0. J-1.
N2640 G1 Y259.5
N2645 Z-11.5
N2650 Y255.5
N2655 Z-12. F333.33
N2660 Y245.333 F1000.
N2665 G3 X412. Y244.333 I1. J0.
N2670 G1 X422.167
N2675 Z-11.5
N2680 X426.167
N2685 Z-12. F333.33
N2690 X436.333 F1000.
N2695 G3 X437.333 Y245.333 I0. J1.
N2700 G1 Y255.5
N2705 Z-11.5
N2710 Y257.5
N2715 G3 X437.133 Y257.701 I-0.2 J0.
N2720 G1 X436.733
N2725 G0 Z10.
N2730 X365.966 Y475.92
N2735 G1 Z-3.8 F333.33
N2740 X365.967 Y475.914 Z-3.852
N2745 X365.968 Y475.894 Z-3.9
N2750 X365.969 Y475.862 Z-3.941
N2755 X365.972 Y475.82 Z-3.973
N2760 X365.974 Y475.772 Z-3.993
N2765 X365.977 Y475.721 Z-4.
N2770 X365.987 Y475.521 F1000.
N2775 G3 X366.198 Y475.332 I0.2 J0.01
N2780 G1 X366.25 Y475.333
N2785 X448.333
N2790 G2 X449.333 Y474.333 I0. J-1.
N2795 G1 Y0.
N2800 G2 X448.333 Y-1. I-1. J0.
N2805 G1 X0.
N2810 G2 X-1. Y0. I0. J1.
N2815 G1 Y474.333
N2820 G2 X0. Y475.333 I1. J0.
N2825 G1 X82.083
N2830 G2 X83.083 Y474.333 I0. J-1.
N2835 G1 Y444.333
N2840 X141.083
N2845 Y474.333
N2850 G2 X142.083 Y475.333 I1. J0.
N2855 G1 X306.25
N2860 G2 X307.25 Y474.333 I0. J-1.
N2865 G1 Y444.333
N2870 X365.25
N2875 Y474.333
N2880 G2 X366.198 Y475.332 I1. J0.
N2885 G3 X366.387 Y475.542 I-0.01 J0.2
N2890 G1 X366.376 Y475.742
N2895 X366.374 Y475.793 Z-3.993
N2900 X366.371 Y475.841 Z-3.973
N2905 X366.369 Y475.883 Z-3.941
N2910 X366.367 Y475.915 Z-3.9
N2915 X366.366 Y475.934 Z-3.852
N2920 Y475.941 Z-3.8
N2925 X365.966 Y475.92
N2930 Z-7.8 F333.33
N2935 X365.967 Y475.914 Z-7.852
N2940 X365.968 Y475.894 Z-7.9
N2945 X365.969 Y475.862 Z-7.941
N2950 X365.972 Y475.82 Z-7.973
N2955 X365.974 Y475.772 Z-7.993
N2960 X365.977 Y475.721 Z-8.
N2965 X365.987 Y475.521 F1000.
N2970 G3 X366.198 Y475.332 I0.2 J0.01
N2975 G1 X366.25 Y475.333
N2980 X448.333
N2985 G2 X449.333 Y474.333 I0. J-1.
N2990 G1 Y0.
N2995 G2 X448.333 Y-1. I-1. J0.
N3000 G1 X0.
N3005 G2 X-1. Y0. I0. J1.
N3010 G1 Y474.333
N3015 G2 X0. Y475.333 I1. J0.
N3020 G1 X82.083
N3025 G2 X83.083 Y474.333 I0. J-1.
N3030 G1 Y444.333
N3035 X141.083
N3040 Y474.333
N3045 G2 X142.083 Y475.333 I1. J0.
N3050 G1 X306.25
N3055 G2 X307.25 Y474.333 I0. J-1.
N3060 G1 Y444.333
N3065 X365.25
N3070 Y474.333
N3075 G2 X366.198 Y475.332 I1. J0.
N3080 G3 X366.387 Y475.542 I-0.01 J0.2
N3085 G1 X366.376 Y475.742
N3090 X366.374 Y475.793 Z-7.993
N3095 X366.371 Y475.841 Z-7.973
N3100 X366.369 Y475.883 Z-7.941
N3105 X366.367 Y475.915 Z-7.9
N3110 X366.366 Y475.934 Z-7.852
N3115 Y475.941 Z-7.8
N3120 X365.966 Y475.92
N3125 Z-11.8 F333.33
N3130 X365.967 Y475.914 Z-11.852
N3135 X365.968 Y475.894 Z-11.9
N3140 X365.969 Y475.862 Z-11.941
N3145 X365.972 Y475.82 Z-11.973
N3150 X365.974 Y475.772 Z-11.993
N3155 X365.977 Y475.721 Z-12.
N3160 X365.987 Y475.521 F1000.
N3165 G3 X366.198 Y475.332 I0.2 J0.01
N3170 G1 X366.25 Y475.333
N3175 X371.09
N3180 Z-11.5
N3185 X375.09
N3190 Z-12. F333.33
N3195 X384.771 F1000.
N3200 Z-11.5
N3205 X388.771
N3210 Z-12. F333.33
N3215 X398.451 F1000.
N3220 Z-11.5
N3225 X402.451
N3230 Z-12. F333.33
N3235 X412.132 F1000.
N3240 Z-11.5
N3245 X416.132
N3250 Z-12. F333.33
N3255 X425.813 F1000.
N3260 Z-11.5
N3265 X429.813
N3270 Z-12. F333.33
N3275 X439.493 F1000.
N3280 Z-11.5
N3285 X443.493
N3290 Z-12. F333.33
N3295 X448.333 F1000.
N3300 G2 X449.333 Y474.333 I0. J-1.
N3305 G1 Y469.745
N3310 Z-11.5
N3315 Y465.745
N3320 Z-12. F333.33
N3325 Y456.569 F1000.
N3330 Z-11.5
N3335 Y452.569
N3340 Z-12. F333.33
N3345 Y443.394 F1000.
N3350 Z-11.5
N3355 Y439.394
N3360 Z-12. F333.33
N3365 Y430.218 F1000.
N3370 Z-11.5
N3375 Y426.218
N3380 Z-12. F333.33
N3385 Y417.042 F1000.
N3390 Z-11.5
N3395 Y413.042
N3400 Z-12. F333.33
N3405 Y403.866 F1000.
N3410 Z-11.5
N3415 Y399.866
N3420 Z-12. F333.33
N3425 Y390.69 F1000.
N3430 Z-11.5
N3435 Y386.69
N3440 Z-12. F333.33
N3445 Y377.514 F1000.
N3450 Z-11.5
N3455 Y373.514
N3460 Z-12. F333.33
N3465 Y364.338 F1000.
N3470 Z-11.5
N3475 Y360.338
N3480 Z-12. F333.33
N3485 Y351.162 F1000.
N3490 Z-11.5
N3495 Y347.162
N3500 Z-12. F333.33
N3505 Y337.986 F1000.
N3510 Z-11.5
N3515 Y333.986
N3520 Z-12. F333.33
N3525 Y324.81 F1000.
N3530 Z-11.5
N3535 Y320.81
N3540 Z-12. F333.33
N3545 Y311.634 F1000.
N3550 Z-11.5
N3555 Y307.634
N3560 Z-12. F333.33
N3565 Y298.458 F1000.
N3570 Z-11.5
N3575 Y294.458
N3580 Z-12. F333.33
N3585 Y285.282 F1000.
N3590 Z-11.5
N3595 Y281.282
N3600 Z-12. F333.33
N3605 Y272.106 F1000.
N3610 Z-11.5
N3615 Y268.106
N3620 Z-12. F333.33
N3625 Y258.931 F1000.
N3630 Z-11.5
N3635 Y254.931
N3640 Z-12. F333.33
N3645 Y245.755 F1000.
N3650 Z-11.5
N3655 Y241.755
N3660 Z-12. F333.33
N3665 Y232.579 F1000.
N3670 Z-11.5
N3675 Y228.579
N3680 Z-12. F333.33
N3685 Y219.403 F1000.
N3690 Z-11.5
N3695 Y215.403
N3700 Z-12. F333.33
N3705 Y206.227 F1000.
N3710 Z-11.5
N3715 Y202.227
N3720 Z-12. F333.33
N3725 Y193.051 F1000.
N3730 Z-11.5
N3735 Y189.051
N3740 Z-12. F333.33
N3745 Y179.875 F1000.
N3750 Z-11.5
N3755 Y175.875
N3760 Z-12. F333.33
N3765 Y166.699 F1000.
N3770 Z-11.5
N3775 Y162.699
N3780 Z-12. F333.33
N3785 Y153.523 F1000.
N3790 Z-11.5
N3795 Y149.523
N3800 Z-12. F333.33
N3805 Y140.347 F1000.
N3810 Z-11.5
N3815 Y136.347
N3820 Z-12. F333.33
N3825 Y127.171 F1000.
N3830 Z-11.5
N3835 Y123.171
N3840 Z-12. F333.33
N3845 Y113.995 F1000.
N3850 Z-11.5
N3855 Y109.995
N3860 Z-12. F333.33
N3865 Y100.819 F1000.
N3870 Z-11.5
N3875 Y96.819
N3880 Z-12. F333.33
N3885 Y87.644 F1000.
N3890 Z-11.5
N3895 Y83.644
N3900 Z-12. F333.33
N3905 Y74.468 F1000.
N3910 Z-11.5
N3915 Y70.468
N3920 Z-12. F333.33
N3925 Y61.292 F1000.
N3930 Z-11.5
N3935 Y57.292
N3940 Z-12. F333.33
N3945 Y48.116 F1000.
N3950 Z-11.5
N3955 Y44.116
N3960 Z-12. F333.33
N3965 Y34.94 F1000.
N3970 Z-11.5
N3975 Y30.94
N3980 Z-12. F333.33
N3985 Y21.764 F1000.
N3990 Z-11.5
N3995 Y17.764
N4000 Z-12. F333.33
N4005 Y8.588 F1000.
N4010 Z-11.5
N4015 Y4.588
N4020 Z-12. F333.33
N4025 Y0. F1000.
N4030 G2 X448.333 Y-1. I-1. J0.
N4035 G1 X443.74
N4040 Z-11.5
N4045 X439.74
N4050 Z-12. F333.33
N4055 X430.554 F1000.
N4060 Z-11.5
N4065 X426.554
N4070 Z-12. F333.33
N4075 X417.368 F1000.
N4080 Z-11.5
N4085 X413.368
N4090 Z-12. F333.33
N4095 X404.181 F1000.
N4100 Z-11.5
N4105 X400.181
N4110 Z-12. F333.33
N4115 X390.995 F1000.
N4120 Z-11.5
N4125 X386.995
N4130 Z-12. F333.33
N4135 X377.809 F1000.
N4140 Z-11.5
N4145 X373.809
N4150 Z-12. F333.33
N4155 X364.623 F1000.
N4160 Z-11.5
N4165 X360.623
N4170 Z-12. F333.33
N4175 X351.436 F1000.
N4180 Z-11.5
N4185 X347.436
N4190 Z-12. F333.33
N4195 X338.25 F1000.
N4200 Z-11.5
N4205 X334.25
N4210 Z-12. F333.33
N4215 X325.064 F1000.
N4220 Z-11.5
N4225 X321.064
N4230 Z-12. F333.33
N4235 X311.877 F1000.
N4240 Z-11.5
N4245 X307.877
N4250 Z-12. F333.33
N4255 X298.691 F1000.
N4260 Z-11.5
N4265 X294.691
N4270 Z-12. F333.33
N4275 X285.505 F1000.
N4280 Z-11.5
N4285 X281.505
N4290 Z-12. F333.33
N4295 X272.319 F1000.
N4300 Z-11.5
N4305 X268.319
N4310 Z-12. F333.33
N4315 X259.132 F1000.
N4320 Z-11.5
N4325 X255.132
N4330 Z-12. F333.33
N4335 X245.946 F1000.
N4340 Z-11.5
N4345 X241.946
N4350 Z-12. F333.33
N4355 X232.76 F1000.
N4360 Z-11.5
N4365 X228.76
N4370 Z-12. F333.33
N4375 X219.574 F1000.
N4380 Z-11.5
N4385 X215.574
N4390 Z-12. F333.33
N4395 X206.387 F1000.
N4400 Z-11.5
N4405 X202.387
N4410 Z-12. F333.33
N4415 X193.201 F1000.
N4420 Z-11.5
N4425 X189.201
N4430 Z-12. F333.33
N4435 X180.015 F1000.
N4440 Z-11.5
N4445 X176.015
N4450 Z-12. F333.33
N4455 X166.828 F1000.
N4460 Z-11.5
N4465 X162.828
N4470 Z-12. F333.33
N4475 X153.642 F1000.
N4480 Z-11.5
N4485 X149.642
N4490 Z-12. F333.33
N4495 X140.456 F1000.
N4500 Z-11.5
N4505 X136.456
N4510 Z-12. F333.33
N4515 X127.27 F1000.
N4520 Z-11.5
N4525 X123.27
N4530 Z-12. F333.33
N4535 X114.083 F1000.
N4540 Z-11.5
N4545 X110.083
N4550 Z-12. F333.33
N4555 X100.897 F1000.
N4560 Z-11.5
N4565 X96.897
N4570 Z-12. F333.33
N4575 X87.711 F1000.
N4580 Z-11.5
N4585 X83.711
N4590 Z-12. F333.33
N4595 X74.524 F1000.
N4600 Z-11.5
N4605 X70.524
N4610 Z-12. F333.33
N4615 X61.338 F1000.
N4620 Z-11.5
N4625 X57.338
N4630 Z-12. F333.33
N4635 X48.152 F1000.
N4640 Z-11.5
N4645 X44.152
N4650 Z-12. F333.33
N4655 X34.966 F1000.
N4660 Z-11.5
N4665 X30.966
N4670 Z-12. F333.33
N4675 X21.779 F1000.
N4680 Z-11.5
N4685 X17.779
N4690 Z-12. F333.33
N4695 X8.593 F1000.
N4700 Z-11.5
N4705 X4.593
N4710 Z-12. F333.33
N4715 X0. F1000.
N4720 G2 X-1. Y0. I0. J1.
N4725 G1 Y4.588
N4730 Z-11.5
N4735 Y8.588
N4740 Z-12. F333.33
N4745 Y17.764 F1000.
N4750 Z-11.5
N4755 Y21.764
N4760 Z-12. F333.33
N4765 Y30.94 F1000.
N4770 Z-11.5
N4775 Y34.94
N4780 Z-12. F333.33
N4785 Y44.116 F1000.
N4790 Z-11.5
N4795 Y48.116
N4800 Z-12. F333.33
N4805 Y57.292 F1000.
N4810 Z-11.5
N4815 Y61.292
N4820 Z-12. F333.33
N4825 Y70.468 F1000.
N4830 Z-11.5
N4835 Y74.468
N4840 Z-12. F333.33
N4845 Y83.644 F1000.
N4850 Z-11.5
N4855 Y87.644
N4860 Z-12. F333.33
N4865 Y96.819 F1000.
N4870 Z-11.5
N4875 Y100.819
N4880 Z-12. F333.33
N4885 Y109.995 F1000.
N4890 Z-11.5
N4895 Y113.995
N4900 Z-12. F333.33
N4905 Y123.171 F1000.
N4910 Z-11.5
N4915 Y127.171
N4920 Z-12. F333.33
N4925 Y136.347 F1000.
N4930 Z-11.5
N4935 Y140.347
N4940 Z-12. F333.33
N4945 Y149.523 F1000.
N4950 Z-11.5
N4955 Y153.523
N4960 Z-12. F333.33
N4965 Y162.699 F1000.
N4970 Z-11.5
N4975 Y166.699
N4980 Z-12. F333.33
N4985 Y175.875 F1000.
N4990 Z-11.5
N4995 Y179.875
N5000 Z-12. F333.33
N5005 Y189.051 F1000.
N5010 Z-11.5
N5015 Y193.051
N5020 Z-12. F333.33
N5025 Y202.227 F1000.
N5030 Z-11.5
N5035 Y206.227
N5040 Z-12. F333.33
N5045 Y215.403 F1000.
N5050 Z-11.5
N5055 Y219.403
N5060 Z-12. F333.33
N5065 Y228.579 F1000.
N5070 Z-11.5
N5075 Y232.579
N5080 Z-12. F333.33
N5085 Y241.755 F1000.
N5090 Z-11.5
N5095 Y245.755
N5100 Z-12. F333.33
N5105 Y254.931 F1000.
N5110 Z-11.5
N5115 Y258.931
N5120 Z-12. F333.33
N5125 Y268.106 F1000.
N5130 Z-11.5
N5135 Y272.106
N5140 Z-12. F333.33
N5145 Y281.282 F1000.
N5150 Z-11.5
N5155 Y285.282
N5160 Z-12. F333.33
N5165 Y294.458 F1000.
N5170 Z-11.5
N5175 Y298.458
N5180 Z-12. F333.33
N5185 Y307.634 F1000.
N5190 Z-11.5
N5195 Y311.634
N5200 Z-12. F333.33
N5205 Y320.81 F1000.
N5210 Z-11.5
N5215 Y324.81
N5220 Z-12. F333.33
N5225 Y333.986 F1000.
N5230 Z-11.5
N5235 Y337.986
N5240 Z-12. F333.33
N5245 Y347.162 F1000.
N5250 Z-11.5
N5255 Y351.162
N5260 Z-12. F333.33
N5265 Y360.338 F1000.
N5270 Z-11.5
N5275 Y364.338
N5280 Z-12. F333.33
N5285 Y373.514 F1000.
N5290 Z-11.5
N5295 Y377.514
N5300 Z-12. F333.33
N5305 Y386.69 F1000.
N5310 Z-11.5
N5315 Y390.69
N5320 Z-12. F333.33
N5325 Y399.866 F1000.
N5330 Z-11.5
N5335 Y403.866
N5340 Z-12. F333.33
N5345 Y413.042 F1000.
N5350 Z-11.5
N5355 Y417.042
N5360 Z-12. F333.33
N5365 Y426.218 F1000.
N5370 Z-11.5
N5375 Y430.218
N5380 Z-12. F333.33
N5385 Y439.394 F1000.
N5390 Z-11.5
N5395 Y443.394
N5400 Z-12. F333.33
N5405 Y452.569 F1000.
N5410 Z-11.5
N5415 Y456.569
N5420 Z-12. F333.33
N5425 Y465.745 F1000.
N5430 Z-11.5
N5435 Y469.745
N5440 Z-12. F333.33
N5445 Y474.333 F1000.
N5450 G2 X0. Y475.333 I1. J0.
N5455 G1 X4.84
N5460 Z-11.5
N5465 X8.84
N5470 Z-12. F333.33
N5475 X18.521 F1000.
N5480 Z-11.5
N5485 X22.521
N5490 Z-12. F333.33
N5495 X32.201 F1000.
N5500 Z-11.5
N5505 X36.201
N5510 Z-12. F333.33
N5515 X45.882 F1000.
N5520 Z-11.5
N5525 X49.882
N5530 Z-12. F333.33
N5535 X59.563 F1000.
N5540 Z-11.5
N5545 X63.563
N5550 Z-12. F333.33
N5555 X73.243 F1000.
N5560 Z-11.5
N5565 X77.243
N5570 Z-12. F333.33
N5575 X82.083 F1000.
N5580 G2 X83.083 Y474.333 I0. J-1.
N5585 G1 Y468.583
N5590 Z-11.5
N5595 Y464.583
N5600 Z-12. F333.33
N5605 Y453.083 F1000.
N5610 Z-11.5
N5615 Y449.083
N5620 Z-12. F333.33
N5625 Y444.333 F1000.
N5630 X87.583
N5635 Z-11.5
N5640 X91.583
N5645 Z-12. F333.33
N5650 X102.583 F1000.
N5655 Z-11.5
N5660 X106.583
N5665 Z-12. F333.33
N5670 X117.583 F1000.
N5675 Z-11.5
N5680 X121.583
N5685 Z-12. F333.33
N5690 X132.583 F1000.
N5695 Z-11.5
N5700 X136.583
N5705 Z-12. F333.33
N5710 X141.083 F1000.
N5715 Y449.083
N5720 Z-11.5
N5725 Y453.083
N5730 Z-12. F333.33
N5735 Y464.583 F1000.
N5740 Z-11.5
N5745 Y468.583
N5750 Z-12. F333.33
N5755 Y474.333 F1000.
N5760 G2 X142.083 Y475.333 I1. J0.
N5765 G1 X146.924
N5770 Z-11.5
N5775 X150.924
N5780 Z-12. F333.33
N5785 X160.604 F1000.
N5790 Z-11.5
N5795 X164.604
N5800 Z-12. F333.33
N5805 X174.285 F1000.
N5810 Z-11.5
N5815 X178.285
N5820 Z-12. F333.33
N5825 X187.965 F1000.
N5830 Z-11.5
N5835 X191.965
N5840 Z-12. F333.33
N5845 X201.646 F1000.
N5850 Z-11.5
N5855 X205.646
N5860 Z-12. F333.33
N5865 X215.326 F1000.
N5870 Z-11.5
N5875 X219.326
N5880 Z-12. F333.33
N5885 X229.007 F1000.
N5890 Z-11.5
N5895 X233.007
N5900 Z-12. F333.33
N5905 X242.688 F1000.
N5910 Z-11.5
N5915 X246.688
N5920 Z-12. F333.33
N5925 X256.368 F1000.
N5930 Z-11.5
N5935 X260.368
N5940 Z-12. F333.33
N5945 X270.049 F1000.
N5950 Z-11.5
N5955 X274.049
N5960 Z-12. F333.33
N5965 X283.729 F1000.
N5970 Z-11.5
N5975 X287.729
N5980 Z-12. F333.33
N5985 X297.41 F1000.
N5990 Z-11.5
N5995 X301.41
N6000 Z-12. F333.33
N6005 X306.25 F1000.
N6010 G2 X307.25 Y474.333 I0. J-1.
N6015 G1 Y468.583
N6020 Z-11.5
N6025 Y464.583
N6030 Z-12. F333.33
N6035 Y453.083 F1000.
N6040 Z-11.5
N6045 Y449.083
N6050 Z-12. F333.33
N6055 Y444.333 F1000.
N6060 X311.75
N6065 Z-11.5
N6070 X315.75
N6075 Z-12. F333.33
N6080 X326.75 F1000.
N6085 Z-11.5
N6090 X330.75
N6095 Z-12. F333.33
N6100 X341.75 F1000.
N6105 Z-11.5
N6110 X345.75
N6115 Z-12. F333.33
N6120 X356.75 F1000.
N6125 Z-11.5
N6130 X360.75
N6135 Z-12. F333.33
N6140 X365.25 F1000.
N6145 Y449.083
N6150 Z-11.5
N6155 Y453.083
N6160 Z-12. F333.33
N6165 Y464.583 F1000.
N6170 Z-11.5
N6175 Y468.583
N6180 Z-12. F333.33
N6185 Y474.333 F1000.
N6190 G2 X366.198 Y475.332 I1. J0.
N6195 G3 X366.387 Y475.542 I-0.01 J0.2
N6200 G1 X366.376 Y475.742
N6205 X366.374 Y475.793 Z-11.993
N6210 X366.371 Y475.841 Z-11.973
N6215 X366.369 Y475.883 Z-11.941
N6220 X366.367 Y475.915 Z-11.9
N6225 X366.366 Y475.934 Z-11.852
N6230 Y475.941 Z-11.8
N6235 G0 Z10.
N6240 X357.699 Y436.733
N6245 G1 Z-3.8 F333.33
N6250 G19 G3 Y436.933 Z-4. J0.2 K0.
N6255 G1 Y437.133 F1000.
N6260 G17 G3 X357.5 Y437.333 I-0.2 J0.
N6265 G1 X345.333
N6270 G3 X344.333 Y436.333 I0. J-1.
N6275 G1 Y412.
N6280 G3 X345.333 Y411. I1. J0.
N6285 G1 X369.667
N6290 G3 X370.667 Y412. I0. J1.
N6295 G1 Y436.333
N6300 G3 X369.667 Y437.333 I-1. J0.
N6305 G1 X357.5
N6310 G3 X357.299 Y437.133 I0. J-0.2
N6315 G1 Y436.933
N6320 G19 G2 Y436.733 Z-3.8 J0. K0.2
N6325 G1 X357.699
N6330 Z-7.8 F333.33
N6335 G3 Y436.933 Z-8. J0.2 K0.
N6340 G1 Y437.133 F1000.
N6345 G17 G3 X357.5 Y437.333 I-0.2 J0.
N6350 G1 X345.333
N6355 G3 X344.333 Y436.333 I0. J-1.
N6360 G1 Y412.
N6365 G3 X345.333 Y411. I1. J0.
N6370 G1 X369.667
N6375 G3 X370.667 Y412. I0. J1.
N6380 G1 Y436.333
N6385 G3 X369.667 Y437.333 I-1. J0.
N6390 G1 X357.5
N6395 G3 X357.299 Y437.133 I0. J-0.2
N6400 G1 Y436.933
N6405 G19 G2 Y436.733 Z-7.8 J0. K0.2
N6410 G1 X357.699
N6415 Z-11.5 F333.33
N6420 Y436.933
N6425 Y437.133 F1000.
N6430 G17 G3 X357.5 Y437.333 I-0.2 J0.
N6435 G1 X355.5
N6440 Z-12. F333.33
N6445 X345.333 F1000.
N6450 G3 X344.333 Y436.333 I0. J-1.
N6455 G1 Y426.167
N6460 Z-11.5
N6465 Y422.167
N6470 Z-12. F333.33
N6475 Y412. F1000.
N6480 G3 X345.333 Y411. I1. J0.
N6485 G1 X355.5
N6490 Z-11.5
N6495 X359.5
N6500 Z-12. F333.33
N6505 X369.667 F1000.
N6510 G3 X370.667 Y412. I0. J1.
N6515 G1 Y422.167
N6520 Z-11.5
N6525 Y426.167
N6530 Z-12. F333.33
N6535 Y436.333 F1000.
N6540 G3 X369.667 Y437.333 I-1. J0.
N6545 G1 X359.5
N6550 Z-11.5
N6555 X357.5
N6560 G3 X357.299 Y437.133 I0. J-0.2
N6565 G1 Y436.733
N6570 G0 Z10.
N6575 X336.733 Y423.966
N6580 G1 Z-3.8 F333.33
N6585 G18 G2 X336.933 Z-4. I0.2 K0.
N6590 G1 X337.133 F1000.
N6595 G17 G3 X337.333 Y424.167 I0. J0.2
N6600 G1 Y436.333
N6605 G3 X336.333 Y437.333 I-1. J0.
N6610 G1 X312.
N6615 G3 X311. Y436.333 I0. J-1.
N6620 G1 Y412.
N6625 G3 X312. Y411. I1. J0.
N6630 G1 X336.333
N6635 G3 X337.333 Y412. I0. J1.
N6640 G1 Y424.167
N6645 G3 X337.133 Y424.366 I-0.2 J0.
N6650 G1 X336.933
N6655 G18 G3 X336.733 Z-3.8 I0. K0.2
N6660 G1 Y423.966
N6665 Z-7.8 F333.33
N6670 G2 X336.933 Z-8. I0.2 K0.
N6675 G1 X337.133 F1000.
N6680 G17 G3 X337.333 Y424.167 I0. J0.2
N6685 G1 Y436.333
N6690 G3 X336.333 Y437.333 I-1. J0.
N6695 G1 X312.
N6700 G3 X311. Y436.333 I0. J-1.
N6705 G1 Y412.
N6710 G3 X312. Y411. I1. J0.
N6715 G1 X336.333
N6720 G3 X337.333 Y412. I0. J1.
N6725 G1 Y424.167
N6730 G3 X337.133 Y424.366 I-0.2 J0.
N6735 G1 X336.933
N6740 G18 G3 X336.733 Z-7.8 I0. K0.2
N6745 G1 Y423.966
N6750 Z-11.5 F333.33
N6755 X336.933
N6760 X337.133 F1000.
N6765 G17 G3 X337.333 Y424.167 I0. J0.2
N6770 G1 Y426.167
N6775 Z-12. F333.33
N6780 Y436.333 F1000.
N6785 G3 X336.333 Y437.333 I-1. J0.
N6790 G1 X326.167
N6795 Z-11.5
N6800 X322.167
N6805 Z-12. F333.33
N6810 X312. F1000.
N6815 G3 X311. Y436.333 I0. J-1.
N6820 G1 Y426.167
N6825 Z-11.5
N6830 Y422.167
N6835 Z-12. F333.33
N6840 Y412. F1000.
N6845 G3 X312. Y411. I1. J0.
N6850 G1 X322.167
N6855 Z-11.5
N6860 X326.167
N6865 Z-12. F333.33
N6870 X336.333 F1000.
N6875 G3 X337.333 Y412. I0. J1.
N6880 G1 Y422.167
N6885 Z-11.5
N6890 Y424.167
N6895 G3 X337.133 Y424.366 I-0.2 J0.
N6900 G1 X336.733
N6905 G0 Z10.
N6910 Y390.634
N6915 G1 Z-3.8 F333.33
N6920 G18 G2 X336.933 Z-4. I0.2 K0.
N6925 G1 X337.133 F1000.
N6930 G17 G3 X337.333 Y390.833 I0. J0.2
N6935 G1 Y403.
N6940 G3 X336.333 Y404. I-1. J0.
N6945 G1 X312.
N6950 G3 X311. Y403. I0. J-1.
N6955 G1 Y378.667
N6960 G3 X312. Y377.667 I1. J0.
N6965 G1 X336.333
N6970 G3 X337.333 Y378.667 I0. J1.
N6975 G1 Y390.833
N6980 G3 X337.133 Y391.034 I-0.2 J0.
N6985 G1 X336.933
N6990 G18 G3 X336.733 Z-3.8 I0. K0.2
N6995 G1 Y390.634
N7000 Z-7.8 F333.33
N7005 G2 X336.933 Z-8. I0.2 K0.
N7010 G1 X337.133 F1000.
N7015 G17 G3 X337.333 Y390.833 I0. J0.2
N7020 G1 Y403.
N7025 G3 X336.333 Y404. I-1. J0.
N7030 G1 X312.
N7035 G3 X311. Y403. I0. J-1.
N7040 G1 Y378.667
N7045 G3 X312. Y377.667 I1. J0.
N7050 G1 X336.333
N7055 G3 X337.333 Y378.667 I0. J1.
N7060 G1 Y390.833
N7065 G3 X337.133 Y391.034 I-0.2 J0.
N7070 G1 X336.933
N7075 G18 G3 X336.733 Z-7.8 I0. K0.2
N7080 G1 Y390.634
N7085 Z-11.5 F333.33
N7090 X336.933
N7095 X337.133 F1000.
N7100 G17 G3 X337.333 Y390.833 I0. J0.2
N7105 G1 Y392.833
N7110 Z-12. F333.33
N7115 Y403. F1000.
N7120 G3 X336.333 Y404. I-1. J0.
N7125 G1 X326.167
N7130 Z-11.5
N7135 X322.167
N7140 Z-12. F333.33
N7145 X312. F1000.
N7150 G3 X311. Y403. I0. J-1.
N7155 G1 Y392.833
N7160 Z-11.5
N7165 Y388.833
N7170 Z-12. F333.33
N7175 Y378.667 F1000.
N7180 G3 X312. Y377.667 I1. J0.
N7185 G1 X322.167
N7190 Z-11.5
N7195 X326.167
N7200 Z-12. F333.33
N7205 X336.333 F1000.
N7210 G3 X337.333 Y378.667 I0. J1.
N7215 G1 Y388.833
N7220 Z-11.5
N7225 Y390.833
N7230 G3 X337.133 Y391.034 I-0.2 J0.
N7235 G1 X336.733
N7240 G0 Z10.
N7245 X370.067 Y390.634
N7250 G1 Z-3.8 F333.33
N7255 G18 G2 X370.267 Z-4. I0.2 K0.
N7260 G1 X370.467 F1000.
N7265 G17 G3 X370.667 Y390.833 I0. J0.2
N7270 G1 Y403.
N7275 G3 X369.667 Y404. I-1. J0.
N7280 G1 X345.333
N7285 G3 X344.333 Y403. I0. J-1.
N7290 G1 Y378.667
N7295 G3 X345.333 Y377.667 I1. J0.
N7300 G1 X369.667
N7305 G3 X370.667 Y378.667 I0. J1.
N7310 G1 Y390.833
N7315 G3 X370.467 Y391.034 I-0.2 J0.
N7320 G1 X370.267
N7325 G18 G3 X370.067 Z-3.8 I0. K0.2
N7330 G1 Y390.634
N7335 Z-7.8 F333.33
N7340 G2 X370.267 Z-8. I0.2 K0.
N7345 G1 X370.467 F1000.
N7350 G17 G3 X370.667 Y390.833 I0. J0.2
N7355 G1 Y403.
N7360 G3 X369.667 Y404. I-1. J0.
N7365 G1 X345.333
N7370 G3 X344.333 Y403. I0. J-1.
N7375 G1 Y378.667
N7380 G3 X345.333 Y377.667 I1. J0.
N7385 G1 X369.667
N7390 G3 X370.667 Y378.667 I0. J1.
N7395 G1 Y390.833
N7400 G3 X370.467 Y391.034 I-0.2 J0.
N7405 G1 X370.267
N7410 G18 G3 X370.067 Z-7.8 I0. K0.2
N7415 G1 Y390.634
N7420 Z-11.5 F333.33
N7425 X370.267
N7430 X370.467 F1000.
N7435 G17 G3 X370.667 Y390.833 I0. J0.2
N7440 G1 Y392.833
N7445 Z-12. F333.33
N7450 Y403. F1000.
N7455 G3 X369.667 Y404. I-1. J0.
N7460 G1 X359.5
N7465 Z-11.5
N7470 X355.5
N7475 Z-12. F333.33
N7480 X345.333 F1000.
N7485 G3 X344.333 Y403. I0. J-1.
N7490 G1 Y392.833
N7495 Z-11.5
N7500 Y388.833
N7505 Z-12. F333.33
N7510 Y378.667 F1000.
N7515 G3 X345.333 Y377.667 I1. J0.
N7520 G1 X355.5
N7525 Z-11.5
N7530 X359.5
N7535 Z-12. F333.33
N7540 X369.667 F1000.
N7545 G3 X370.667 Y378.667 I0. J1.
N7550 G1 Y388.833
N7555 Z-11.5
N7560 Y390.833
N7565 G3 X370.467 Y391.034 I-0.2 J0.
N7570 G1 X370.067
N7575 G0 Z10.
N7580 X403.4 Y390.634
N7585 G1 Z-3.8 F333.33
N7590 G18 G2 X403.6 Z-4. I0.2 K0.
N7595 G1 X403.8 F1000.
N7600 G17 G3 X404. Y390.833 I0. J0.2
N7605 G1 Y403.
N7610 G3 X403. Y404. I-1. J0.
N7615 G1 X378.667
N7620 G3 X377.667 Y403. I0. J-1.
N7625 G1 Y378.667
N7630 G3 X378.667 Y377.667 I1. J0.
N7635 G1 X403.
N7640 G3 X404. Y378.667 I0. J1.
N7645 G1 Y390.833
N7650 G3 X403.8 Y391.034 I-0.2 J0.
N7655 G1 X403.6
N7660 G18 G3 X403.4 Z-3.8 I0. K0.2
N7665 G1 Y390.634
N7670 Z-7.8 F333.33
N7675 G2 X403.6 Z-8. I0.2 K0.
N7680 G1 X403.8 F1000.
N7685 G17 G3 X404. Y390.833 I0. J0.2
N7690 G1 Y403.
N7695 G3 X403. Y404. I-1. J0.
N7700 G1 X378.667
N7705 G3 X377.667 Y403. I0. J-1.
N7710 G1 Y378.667
N7715 G3 X378.667 Y377.667 I1. J0.
N7720 G1 X403.
N7725 G3 X404. Y378.667 I0. J1.
N7730 G1 Y390.833
N7735 G3 X403.8 Y391.034 I-0.2 J0.
N7740 G1 X403.6
N7745 G18 G3 X403.4 Z-7.8 I0. K0.2
N7750 G1 Y390.634
N7755 Z-11.5 F333.33
N7760 X403.6
N7765 X403.8 F1000.
N7770 G17 G3 X404. Y390.833 I0. J0.2
N7775 G1 Y392.833
N7780 Z-12. F333.33
N7785 Y403. F1000.
N7790 G3 X403. Y404. I-1. J0.
N7795 G1 X392.833
N7800 Z-11.5
N7805 X388.833
N7810 Z-12. F333.33
N7815 X378.667 F1000.
N7820 G3 X377.667 Y403. I0. J-1.
N7825 G1 Y392.833
N7830 Z-11.5
N7835 Y388.833
N7840 Z-12. F333.33
N7845 Y378.667 F1000.
N7850 G3 X378.667 Y377.667 I1. J0.
N7855 G1 X388.833
N7860 Z-11.5
N7865 X392.833
N7870 Z-12. F333.33
N7875 X403. F1000.
N7880 G3 X404. Y378.667 I0. J1.
N7885 G1 Y388.833
N7890 Z-11.5
N7895 Y390.833
N7900 G3 X403.8 Y391.034 I-0.2 J0.
N7905 G1 X403.4
N7910 G0 Z10.
N7915 X436.733 Y390.634
N7920 G1 Z-3.8 F333.33
N7925 G18 G2 X436.933 Z-4. I0.2 K0.
N7930 G1 X437.133 F1000.
N7935 G17 G3 X437.333 Y390.833 I0. J0.2
N7940 G1 Y403.
N7945 G3 X436.333 Y404. I-1. J0.
N7950 G1 X412.
N7955 G3 X411. Y403. I0. J-1.
N7960 G1 Y378.667
N7965 G3 X412. Y377.667 I1. J0.
N7970 G1 X436.333
N7975 G3 X437.333 Y378.667 I0. J1.
N7980 G1 Y390.833
N7985 G3 X437.133 Y391.034 I-0.2 J0.
N7990 G1 X436.933
N7995 G18 G3 X436.733 Z-3.8 I0. K0.2
N8000 G1 Y390.634
N8005 Z-7.8 F333.33
N8010 G2 X436.933 Z-8. I0.2 K0.
N8015 G1 X437.133 F1000.
N8020 G17 G3 X437.333 Y390.833 I0. J0.2
N8025 G1 Y403.
N8030 G3 X436.333 Y404. I-1. J0.
N8035 G1 X412.
N8040 G3 X411. Y403. I0. J-1.
N8045 G1 Y378.667
N8050 G3 X412. Y377.667 I1. J0.
N8055 G1 X436.333
N8060 G3 X437.333 Y378.667 I0. J1.
N8065 G1 Y390.833
N8070 G3 X437.133 Y391.034 I-0.2 J0.
N8075 G1 X436.933
N8080 G18 G3 X436.733 Z-7.8 I0. K0.2
N8085 G1 Y390.634
N8090 Z-11.5 F333.33
N8095 X436.933
N8100 X437.133 F1000.
N8105 G17 G3 X437.333 Y390.833 I0. J0.2
N8110 G1 Y392.833
N8115 Z-12. F333.33
N8120 Y403. F1000.
N8125 G3 X436.333 Y404. I-1. J0.
N8130 G1 X426.167
N8135 Z-11.5
N8140 X422.167
N8145 Z-12. F333.33
N8150 X412. F1000.
N8155 G3 X411. Y403. I0. J-1.
N8160 G1 Y392.833
N8165 Z-11.5
N8170 Y388.833
N8175 Z-12. F333.33
N8180 Y378.667 F1000.
N8185 G3 X412. Y377.667 I1. J0.
N8190 G1 X422.167
N8195 Z-11.5
N8200 X426.167
N8205 Z-12. F333.33
N8210 X436.333 F1000.
N8215 G3 X437.333 Y378.667 I0. J1.
N8220 G1 Y388.833
N8225 Z-11.5
N8230 Y390.833
N8235 G3 X437.133 Y391.034 I-0.2 J0.
N8240 G1 X436.733
N8245 G0 Z10.
N8250 Y423.966
N8255 G1 Z-3.8 F333.33
N8260 G18 G2 X436.933 Z-4. I0.2 K0.
N8265 G1 X437.133 F1000.
N8270 G17 G3 X437.333 Y424.167 I0. J0.2
N8275 G1 Y436.333
N8280 G3 X436.333 Y437.333 I-1. J0.
N8285 G1 X412.
N8290 G3 X411. Y436.333 I0. J-1.
N8295 G1 Y412.
N8300 G3 X412. Y411. I1. J0.
N8305 G1 X436.333
N8310 G3 X437.333 Y412. I0. J1.
N8315 G1 Y424.167
N8320 G3 X437.133 Y424.366 I-0.2 J0.
N8325 G1 X436.933
N8330 G18 G3 X436.733 Z-3.8 I0. K0.2
N8335 G1 Y423.966
N8340 Z-7.8 F333.33
N8345 G2 X436.933 Z-8. I0.2 K0.
N8350 G1 X437.133 F1000.
N8355 G17 G3 X437.333 Y424.167 I0. J0.2
N8360 G1 Y436.333
N8365 G3 X436.333 Y437.333 I-1. J0.
N8370 G1 X412.
N8375 G3 X411. Y436.333 I0. J-1.
N8380 G1 Y412.
N8385 G3 X412. Y411. I1. J0.
N8390 G1 X436.333
N8395 G3 X437.333 Y412. I0. J1.
N8400 G1 Y424.167
N8405 G3 X437.133 Y424.366 I-0.2 J0.
N8410 G1 X436.933
N8415 G18 G3 X436.733 Z-7.8 I0. K0.2
N8420 G1 Y423.966
N8425 Z-11.5 F333.33
N8430 X436.933
N8435 X437.133 F1000.
N8440 G17 G3 X437.333 Y424.167 I0. J0.2
N8445 G1 Y426.167
N8450 Z-12. F333.33
N8455 Y436.333 F1000.
N8460 G3 X436.333 Y437.333 I-1. J0.
N8465 G1 X426.167
N8470 Z-11.5
N8475 X422.167
N8480 Z-12. F333.33
N8485 X412. F1000.
N8490 G3 X411. Y436.333 I0. J-1.
N8495 G1 Y426.167
N8500 Z-11.5
N8505 Y422.167
N8510 Z-12. F333.33
N8515 Y412. F1000.
N8520 G3 X412. Y411. I1. J0.
N8525 G1 X422.167
N8530 Z-11.5
N8535 X426.167
N8540 Z-12. F333.33
N8545 X436.333 F1000.
N8550 G3 X437.333 Y412. I0. J1.
N8555 G1 Y422.167
N8560 Z-11.5
N8565 Y424.167
N8570 G3 X437.133 Y424.366 I-0.2 J0.
N8575 G1 X436.733
N8580 G0 Z10.
N8585 X403.4 Y423.966
N8590 G1 Z-3.8 F333.33
N8595 G18 G2 X403.6 Z-4. I0.2 K0.
N8600 G1 X403.8 F1000.
N8605 G17 G3 X404. Y424.167 I0. J0.2
N8610 G1 Y436.333
N8615 G3 X403. Y437.333 I-1. J0.
N8620 G1 X378.667
N8625 G3 X377.667 Y436.333 I0. J-1.
N8630 G1 Y412.
N8635 G3 X378.667 Y411. I1. J0.
N8640 G1 X403.
N8645 G3 X404. Y412. I0. J1.
N8650 G1 Y424.167
N8655 G3 X403.8 Y424.366 I-0.2 J0.
N8660 G1 X403.6
N8665 G18 G3 X403.4 Z-3.8 I0. K0.2
N8670 G1 Y423.966
N8675 Z-7.8 F333.33
N8680 G2 X403.6 Z-8. I0.2 K0.
N8685 G1 X403.8 F1000.
N8690 G17 G3 X404. Y424.167 I0. J0.2
N8695 G1 Y436.333
N8700 G3 X403. Y437.333 I-1. J0.
N8705 G1 X378.667
N8710 G3 X377.667 Y436.333 I0. J-1.
N8715 G1 Y412.
N8720 G3 X378.667 Y411. I1. J0.
N8725 G1 X403.
N8730 G3 X404. Y412. I0. J1.
N8735 G1 Y424.167
N8740 G3 X403.8 Y424.366 I-0.2 J0.
N8745 G1 X403.6
N8750 G18 G3 X403.4 Z-7.8 I0. K0.2
N8755 G1 Y423.966
N8760 Z-11.5 F333.33
N8765 X403.6
N8770 X403.8 F1000.
N8775 G17 G3 X404. Y424.167 I0. J0.2
N8780 G1 Y426.167
N8785 Z-12. F333.33
N8790 Y436.333 F1000.
N8795 G3 X403. Y437.333 I-1. J0.
N8800 G1 X392.833
N8805 Z-11.5
N8810 X388.833
N8815 Z-12. F333.33
N8820 X378.667 F1000.
N8825 G3 X377.667 Y436.333 I0. J-1.
N8830 G1 Y426.167
N8835 Z-11.5
N8840 Y422.167
N8845 Z-12. F333.33
N8850 Y412. F1000.
N8855 G3 X378.667 Y411. I1. J0.
N8860 G1 X388.833
N8865 Z-11.5
N8870 X392.833
N8875 Z-12. F333.33
N8880 X403. F1000.
N8885 G3 X404. Y412. I0. J1.
N8890 G1 Y422.167
N8895 Z-11.5
N8900 Y424.167
N8905 G3 X403.8 Y424.366 I-0.2 J0.
N8910 G1 X403.4
N8915 G0 Z10.
N8920 Y357.299
N8925 G1 Z-3.8 F333.33
N8930 G18 G2 X403.6 Z-4. I0.2 K0.
N8935 G1 X403.8 F1000.
N8940 G17 G3 X404. Y357.5 I0. J0.2
N8945 G1 Y369.667
N8950 G3 X403. Y370.667 I-1. J0.
N8955 G1 X378.667
N8960 G3 X377.667 Y369.667 I0. J-1.
N8965 G1 Y345.333
N8970 G3 X378.667 Y344.333 I1. J0.
N8975 G1 X403.
N8980 G3 X404. Y345.333 I0. J1.
N8985 G1 Y357.5
N8990 G3 X403.8 Y357.699 I-0.2 J0.
N8995 G1 X403.6
N9000 G18 G3 X403.4 Z-3.8 I0. K0.2
N9005 G1 Y357.299
N9010 Z-7.8 F333.33
N9015 G2 X403.6 Z-8. I0.2 K0.
N9020 G1 X403.8 F1000.
N9025 G17 G3 X404. Y357.5 I0. J0.2
N9030 G1 Y369.667
N9035 G3 X403. Y370.667 I-1. J0.
N9040 G1 X378.667
N9045 G3 X377.667 Y369.667 I0. J-1.
N9050 G1 Y345.333
N9055 G3 X378.667 Y344.333 I1. J0.
N9060 G1 X403.
N9065 G3 X404. Y345.333 I0. J1.
N9070 G1 Y357.5
N9075 G3 X403.8 Y357.699 I-0.2 J0.
N9080 G1 X403.6
N9085 G18 G3 X403.4 Z-7.8 I0. K0.2
N9090 G1 Y357.299
N9095 Z-11.5 F333.33
N9100 X403.6
N9105 X403.8 F1000.
N9110 G17 G3 X404. Y357.5 I0. J0.2
N9115 G1 Y359.5
N9120 Z-12. F333.33
N9125 Y369.667 F1000.
N9130 G3 X403. Y370.667 I-1. J0.
N9135 G1 X392.833
N9140 Z-11.5
N9145 X388.833
N9150 Z-12. F333.33
N9155 X378.667 F1000.
N9160 G3 X377.667 Y369.667 I0. J-1.
N9165 G1 Y359.5
N9170 Z-11.5
N9175 Y355.5
N9180 Z-12. F333.33
N9185 Y345.333 F1000.
N9190 G3 X378.667 Y344.333 I1. J0.
N9195 G1 X388.833
N9200 Z-11.5
N9205 X392.833
N9210 Z-12. F333.33
N9215 X403. F1000.
N9220 G3 X404. Y345.333 I0. J1.
N9225 G1 Y355.5
N9230 Z-11.5
N9235 Y357.5
N9240 G3 X403.8 Y357.699 I-0.2 J0.
N9245 G1 X403.4
N9250 G0 Z10.
N9255 X436.733 Y357.301
N9260 G1 Z-3.8 F333.33
N9265 G18 G2 X436.933 Z-4. I0.2 K0.
N9270 G1 X437.133 F1000.
N9275 G17 G3 X437.333 Y357.5 I0. J0.2
N9280 G1 Y369.667
N9285 G3 X436.333 Y370.667 I-1. J0.
N9290 G1 X412.
N9295 G3 X411. Y369.667 I0. J-1.
N9300 G1 Y345.333
N9305 G3 X412. Y344.333 I1. J0.
N9310 G1 X436.333
N9315 G3 X437.333 Y345.333 I0. J1.
N9320 G1 Y357.5
N9325 G3 X437.133 Y357.701 I-0.2 J0.
N9330 G1 X436.933
N9335 G18 G3 X436.733 Z-3.8 I0. K0.2
N9340 G1 Y357.301
N9345 Z-7.8 F333.33
N9350 G2 X436.933 Z-8. I0.2 K0.
N9355 G1 X437.133 F1000.
N9360 G17 G3 X437.333 Y357.5 I0. J0.2
N9365 G1 Y369.667
N9370 G3 X436.333 Y370.667 I-1. J0.
N9375 G1 X412.
N9380 G3 X411. Y369.667 I0. J-1.
N9385 G1 Y345.333
N9390 G3 X412. Y344.333 I1. J0.
N9395 G1 X436.333
N9400 G3 X437.333 Y345.333 I0. J1.
N9405 G1 Y357.5
N9410 G3 X437.133 Y357.701 I-0.2 J0.
N9415 G1 X436.933
N9420 G18 G3 X436.733 Z-7.8 I0. K0.2
N9425 G1 Y357.301
N9430 Z-11.5 F333.33
N9435 X436.933
N9440 X437.133 F1000.
N9445 G17 G3 X437.333 Y357.5 I0. J0.2
N9450 G1 Y359.5
N9455 Z-12. F333.33
N9460 Y369.667 F1000.
N9465 G3 X436.333 Y370.667 I-1. J0.
N9470 G1 X426.167
N9475 Z-11.5
N9480 X422.167
N9485 Z-12. F333.33
N9490 X412. F1000.
N9495 G3 X411. Y369.667 I0. J-1.
N9500 G1 Y359.5
N9505 Z-11.5
N9510 Y355.5
N9515 Z-12. F333.33
N9520 Y345.333 F1000.
N9525 G3 X412. Y344.333 I1. J0.
N9530 G1 X422.167
N9535 Z-11.5
N9540 X426.167
N9545 Z-12. F333.33
N9550 X436.333 F1000.
N9555 G3 X437.333 Y345.333 I0. J1.
N9560 G1 Y355.5
N9565 Z-11.5
N9570 Y357.5
N9575 G3 X437.133 Y357.701 I-0.2 J0.
N9580 G1 X436.733
N9585 G0 Z10.
N9590 Y323.966
N9595 G1 Z-3.8 F333.33
N9600 G18 G2 X436.933 Z-4. I0.2 K0.
N9605 G1 X437.133 F1000.
N9610 G17 G3 X437.333 Y324.167 I0. J0.2
N9615 G1 Y336.333
N9620 G3 X436.333 Y337.333 I-1. J0.
N9625 G1 X412.
N9630 G3 X411. Y336.333 I0. J-1.
N9635 G1 Y312.
N9640 G3 X412. Y311. I1. J0.
N9645 G1 X436.333
N9650 G3 X437.333 Y312. I0. J1.
N9655 G1 Y324.167
N9660 G3 X437.133 Y324.366 I-0.2 J0.
N9665 G1 X436.933
N9670 G18 G3 X436.733 Z-3.8 I0. K0.2
N9675 G1 Y323.966
N9680 Z-7.8 F333.33
N9685 G2 X436.933 Z-8. I0.2 K0.
N9690 G1 X437.133 F1000.
N9695 G17 G3 X437.333 Y324.167 I0. J0.2
N9700 G1 Y336.333
N9705 G3 X436.333 Y337.333 I-1. J0.
N9710 G1 X412.
N9715 G3 X411. Y336.333 I0. J-1.
N9720 G1 Y312.
N9725 G3 X412. Y311. I1. J0.
N9730 G1 X436.333
N9735 G3 X437.333 Y312. I0. J1.
N9740 G1 Y324.167
N9745 G3 X437.133 Y324.366 I-0.2 J0.
N9750 G1 X436.933
N9755 G18 G3 X436.733 Z-7.8 I0. K0.2
N9760 G1 Y323.966
N9765 Z-11.5 F333.33
N9770 X436.933
N9775 X437.133 F1000.
N9780 G17 G3 X437.333 Y324.167 I0. J0.2
N9785 G1 Y326.167
N9790 Z-12. F333.33
N9795 Y336.333 F1000.
N9800 G3 X436.333 Y337.333 I-1. J0.
N9805 G1 X426.167
N9810 Z-11.5
N9815 X422.167
N9820 Z-12. F333.33
N9825 X412. F1000.
N9830 G3 X411. Y336.333 I0. J-1.
N9835 G1 Y326.167
N9840 Z-11.5
N9845 Y322.167
N9850 Z-12. F333.33
N9855 Y312. F1000.
N9860 G3 X412. Y311. I1. J0.
N9865 G1 X422.167
N9870 Z-11.5
N9875 X426.167
N9880 Z-12. F333.33
N9885 X436.333 F1000.
N9890 G3 X437.333 Y312. I0. J1.
N9895 G1 Y322.167
N9900 Z-11.5
N9905 Y324.167
N9910 G3 X437.133 Y324.366 I-0.2 J0.
N9915 G1 X436.733
N9920 G0 Z10.
N9925 Y290.634
N9930 G1 Z-3.8 F333.33
N9935 G18 G2 X436.933 Z-4. I0.2 K0.
N9940 G1 X437.133 F1000.
N9945 G17 G3 X437.333 Y290.833 I0. J0.2
N9950 G1 Y303.
N9955 G3 X436.333 Y304. I-1. J0.
N9960 G1 X412.
N9965 G3 X411. Y303. I0. J-1.
N9970 G1 Y278.667
N9975 G3 X412. Y277.667 I1. J0.
N9980 G1 X436.333
N9985 G3 X437.333 Y278.667 I0. J1.
N9990 G1 Y290.833
N9995 G3 X437.133 Y291.034 I-0.2 J0.
N10000 G1 X436.933
N10005 G18 G3 X436.733 Z-3.8 I0. K0.2
N10010 G1 Y290.634
N10015 Z-7.8 F333.33
N10020 G2 X436.933 Z-8. I0.2 K0.
N10025 G1 X437.133 F1000.
N10030 G17 G3 X437.333 Y290.833 I0. J0.2
N10035 G1 Y303.
N10040 G3 X436.333 Y304. I-1. J0.
N10045 G1 X412.
N10050 G3 X411. Y303. I0. J-1.
N10055 G1 Y278.667
N10060 G3 X412. Y277.667 I1. J0.
N10065 G1 X436.333
N10070 G3 X437.333 Y278.667 I0. J1.
N10075 G1 Y290.833
N10080 G3 X437.133 Y291.034 I-0.2 J0.
N10085 G1 X436.933
N10090 G18 G3 X436.733 Z-7.8 I0. K0.2
N10095 G1 Y290.634
N10100 Z-11.5 F333.33
N10105 X436.933
N10110 X437.133 F1000.
N10115 G17 G3 X437.333 Y290.833 I0. J0.2
N10120 G1 Y292.833
N10125 Z-12. F333.33
N10130 Y303. F1000.
N10135 G3 X436.333 Y304. I-1. J0.
N10140 G1 X426.167
N10145 Z-11.5
N10150 X422.167
N10155 Z-12. F333.33
N10160 X412. F1000.
N10165 G3 X411. Y303. I0. J-1.
N10170 G1 Y292.833
N10175 Z-11.5
N10180 Y288.833
N10185 Z-12. F333.33
N10190 Y278.667 F1000.
N10195 G3 X412. Y277.667 I1. J0.
N10200 G1 X422.167
N10205 Z-11.5
N10210 X426.167
N10215 Z-12. F333.33
N10220 X436.333 F1000.
N10225 G3 X437.333 Y278.667 I0. J1.
N10230 G1 Y288.833
N10235 Z-11.5
N10240 Y290.833
N10245 G3 X437.133 Y291.034 I-0.2 J0.
N10250 G1 X436.733
N10255 G0 Z10.
N10260 X403.4 Y290.634
N10265 G1 Z-3.8 F333.33
N10270 G18 G2 X403.6 Z-4. I0.2 K0.
N10275 G1 X403.8 F1000.
N10280 G17 G3 X404. Y290.833 I0. J0.2
N10285 G1 Y303.
N10290 G3 X403. Y304. I-1. J0.
N10295 G1 X378.667
N10300 G3 X377.667 Y303. I0. J-1.
N10305 G1 Y278.667
N10310 G3 X378.667 Y277.667 I1. J0.
N10315 G1 X403.
N10320 G3 X404. Y278.667 I0. J1.
N10325 G1 Y290.833
N10330 G3 X403.8 Y291.034 I-0.2 J0.
N10335 G1 X403.6
N10340 G18 G3 X403.4 Z-3.8 I0. K0.2
N10345 G1 Y290.634
N10350 Z-7.8 F333.33
N10355 G2 X403.6 Z-8. I0.2 K0.
N10360 G1 X403.8 F1000.
N10365 G17 G3 X404. Y290.833 I0. J0.2
N10370 G1 Y303.
N10375 G3 X403. Y304. I-1. J0.
N10380 G1 X378.667
N10385 G3 X377.667 Y303. I0. J-1.
N10390 G1 Y278.667
N10395 G3 X378.667 Y277.667 I1. J0.
N10400 G1 X403.
N10405 G3 X404. Y278.667 I0. J1.
N10410 G1 Y290.833
N10415 G3 X403.8 Y291.034 I-0.2 J0.
N10420 G1 X403.6
N10425 G18 G3 X403.4 Z-7.8 I0. K0.2
N10430 G1 Y290.634
N10435 Z-11.5 F333.33
N10440 X403.6
N10445 X403.8 F1000.
N10450 G17 G3 X404. Y290.833 I0. J0.2
N10455 G1 Y292.833
N10460 Z-12. F333.33
N10465 Y303. F1000.
N10470 G3 X403. Y304. I-1. J0.
N10475 G1 X392.833
N10480 Z-11.5
N10485 X388.833
N10490 Z-12. F333.33
N10495 X378.667 F1000.
N10500 G3 X377.667 Y303. I0. J-1.
N10505 G1 Y292.833
N10510 Z-11.5
N10515 Y288.833
N10520 Z-12. F333.33
N10525 Y278.667 F1000.
N10530 G3 X378.667 Y277.667 I1. J0.
N10535 G1 X388.833
N10540 Z-11.5
N10545 X392.833
N10550 Z-12. F333.33
N10555 X403. F1000.
N10560 G3 X404. Y278.667 I0. J1.
N10565 G1 Y288.833
N10570 Z-11.5
N10575 Y290.833
N10580 G3 X403.8 Y291.034 I-0.2 J0.
N10585 G1 X403.4
N10590 G0 Z10.
N10595 Y323.966
N10600 G1 Z-3.8 F333.33
N10605 G18 G2 X403.6 Z-4. I0.2 K0.
N10610 G1 X403.8 F1000.
N10615 G17 G3 X404. Y324.167 I0. J0.2
N10620 G1 Y336.333
N10625 G3 X403. Y337.333 I-1. J0.
N10630 G1 X378.667
N10635 G3 X377.667 Y336.333 I0. J-1.
N10640 G1 Y312.
N10645 G3 X378.667 Y311. I1. J0.
N10650 G1 X403.
N10655 G3 X404. Y312. I0. J1.
N10660 G1 Y324.167
N10665 G3 X403.8 Y324.366 I-0.2 J0.
N10670 G1 X403.6
N10675 G18 G3 X403.4 Z-3.8 I0. K0.2
N10680 G1 Y323.966
N10685 Z-7.8 F333.33
N10690 G2 X403.6 Z-8. I0.2 K0.
N10695 G1 X403.8 F1000.
N10700 G17 G3 X404. Y324.167 I0. J0.2
N10705 G1 Y336.333
N10710 G3 X403. Y337.333 I-1. J0.
N10715 G1 X378.667
N10720 G3 X377.667 Y336.333 I0. J-1.
N10725 G1 Y312.
N10730 G3 X378.667 Y311. I1. J0.
N10735 G1 X403.
N10740 G3 X404. Y312. I0. J1.
N10745 G1 Y324.167
N10750 G3 X403.8 Y324.366 I-0.2 J0.
N10755 G1 X403.6
N10760 G18 G3 X403.4 Z-7.8 I0. K0.2
N10765 G1 Y323.966
N10770 Z-11.5 F333.33
N10775 X403.6
N10780 X403.8 F1000.
N10785 G17 G3 X404. Y324.167 I0. J0.2
N10790 G1 Y326.167
N10795 Z-12. F333.33
N10800 Y336.333 F1000.
N10805 G3 X403. Y337.333 I-1. J0.
N10810 G1 X392.833
N10815 Z-11.5
N10820 X388.833
N10825 Z-12. F333.33
N10830 X378.667 F1000.
N10835 G3 X377.667 Y336.333 I0. J-1.
N10840 G1 Y326.167
N10845 Z-11.5
N10850 Y322.167
N10855 Z-12. F333.33
N10860 Y312. F1000.
N10865 G3 X378.667 Y311. I1. J0.
N10870 G1 X388.833
N10875 Z-11.5
N10880 X392.833
N10885 Z-12. F333.33
N10890 X403. F1000.
N10895 G3 X404. Y312. I0. J1.
N10900 G1 Y322.167
N10905 Z-11.5
N10910 Y324.167
N10915 G3 X403.8 Y324.366 I-0.2 J0.
N10920 G1 X403.4
N10925 G0 Z10.
N10930 X370.067 Y323.966
N10935 G1 Z-3.8 F333.33
N10940 G18 G2 X370.267 Z-4. I0.2 K0.
N10945 G1 X370.467 F1000.
N10950 G17 G3 X370.667 Y324.167 I0. J0.2
N10955 G1 Y336.333
N10960 G3 X369.667 Y337.333 I-1. J0.
N10965 G1 X345.333
N10970 G3 X344.333 Y336.333 I0. J-1.
N10975 G1 Y312.
N10980 G3 X345.333 Y311. I1. J0.
N10985 G1 X369.667
N10990 G3 X370.667 Y312. I0. J1.
N10995 G1 Y324.167
N11000 G3 X370.467 Y324.366 I-0.2 J0.
N11005 G1 X370.267
N11010 G18 G3 X370.067 Z-3.8 I0. K0.2
N11015 G1 Y323.966
N11020 Z-7.8 F333.33
N11025 G2 X370.267 Z-8. I0.2 K0.
N11030 G1 X370.467 F1000.
N11035 G17 G3 X370.667 Y324.167 I0. J0.2
N11040 G1 Y336.333
N11045 G3 X369.667 Y337.333 I-1. J0.
N11050 G1 X345.333
N11055 G3 X344.333 Y336.333 I0. J-1.
N11060 G1 Y312.
N11065 G3 X345.333 Y311. I1. J0.
N11070 G1 X369.667
N11075 G3 X370.667 Y312. I0. J1.
N11080 G1 Y324.167
N11085 G3 X370.467 Y324.366 I-0.2 J0.
N11090 G1 X370.267
N11095 G18 G3 X370.067 Z-7.8 I0. K0.2
N11100 G1 Y323.966
N11105 Z-11.5 F333.33
N11110 X370.267
N11115 X370.467 F1000.
N11120 G17 G3 X370.667 Y324.167 I0. J0.2
N11125 G1 Y326.167
N11130 Z-12. F333.33
N11135 Y336.333 F1000.
N11140 G3 X369.667 Y337.333 I-1. J0.
N11145 G1 X359.5
N11150 Z-11.5
N11155 X355.5
N11160 Z-12. F333.33
N11165 X345.333 F1000.
N11170 G3 X344.333 Y336.333 I0. J-1.
N11175 G1 Y326.167
N11180 Z-11.5
N11185 Y322.167
N11190 Z-12. F333.33
N11195 Y312. F1000.
N11200 G3 X345.333 Y311. I1. J0.
N11205 G1 X355.5
N11210 Z-11.5
N11215 X359.5
N11220 Z-12. F333.33
N11225 X369.667 F1000.
N11230 G3 X370.667 Y312. I0. J1.
N11235 G1 Y322.167
N11240 Z-11.5
N11245 Y324.167
N11250 G3 X370.467 Y324.366 I-0.2 J0.
N11255 G1 X370.067
N11260 G0 Z10.
N11265 Y357.3
N11270 G1 Z-3.8 F333.33
N11275 G18 G2 X370.267 Z-4. I0.2 K0.
N11280 G1 X370.467 F1000.
N11285 G17 G3 X370.667 Y357.5 I0. J0.2
N11290 G1 Y369.667
N11295 G3 X369.667 Y370.667 I-1. J0.
N11300 G1 X345.333
N11305 G3 X344.333 Y369.667 I0. J-1.
N11310 G1 Y345.333
N11315 G3 X345.333 Y344.333 I1. J0.
N11320 G1 X369.667
N11325 G3 X370.667 Y345.333 I0. J1.
N11330 G1 Y357.5
N11335 G3 X370.467 Y357.7 I-0.2 J0.
N11340 G1 X370.267
N11345 G18 G3 X370.067 Z-3.8 I0. K0.2
N11350 G1 Y357.3
N11355 Z-7.8 F333.33
N11360 G2 X370.267 Z-8. I0.2 K0.
N11365 G1 X370.467 F1000.
N11370 G17 G3 X370.667 Y357.5 I0. J0.2
N11375 G1 Y369.667
N11380 G3 X369.667 Y370.667 I-1. J0.
N11385 G1 X345.333
N11390 G3 X344.333 Y369.667 I0. J-1.
N11395 G1 Y345.333
N11400 G3 X345.333 Y344.333 I1. J0.
N11405 G1 X369.667
N11410 G3 X370.667 Y345.333 I0. J1.
N11415 G1 Y357.5
N11420 G3 X370.467 Y357.7 I-0.2 J0.
N11425 G1 X370.267
N11430 G18 G3 X370.067 Z-7.8 I0. K0.2
N11435 G1 Y357.3
N11440 Z-11.5 F333.33
N11445 X370.267
N11450 X370.467 F1000.
N11455 G17 G3 X370.667 Y357.5 I0. J0.2
N11460 G1 Y359.5
N11465 Z-12. F333.33
N11470 Y369.667 F1000.
N11475 G3 X369.667 Y370.667 I-1. J0.
N11480 G1 X359.5
N11485 Z-11.5
N11490 X355.5
N11495 Z-12. F333.33
N11500 X345.333 F1000.
N11505 G3 X344.333 Y369.667 I0. J-1.
N11510 G1 Y359.5
N11515 Z-11.5
N11520 Y355.5
N11525 Z-12. F333.33
N11530 Y345.333 F1000.
N11535 G3 X345.333 Y344.333 I1. J0.
N11540 G1 X355.5
N11545 Z-11.5
N11550 X359.5
N11555 Z-12. F333.33
N11560 X369.667 F1000.
N11565 G3 X370.667 Y345.333 I0. J1.
N11570 G1 Y355.5
N11575 Z-11.5
N11580 Y357.5
N11585 G3 X370.467 Y357.7 I-0.2 J0.
N11590 G1 X370.067
N11595 G0 Z10.
N11600 X336.733 Y357.301
N11605 G1 Z-3.8 F333.33
N11610 G18 G2 X336.933 Z-4. I0.2 K0.
N11615 G1 X337.133 F1000.
N11620 G17 G3 X337.333 Y357.5 I0. J0.2
N11625 G1 Y369.667
N11630 G3 X336.333 Y370.667 I-1. J0.
N11635 G1 X312.
N11640 G3 X311. Y369.667 I0. J-1.
N11645 G1 Y345.333
N11650 G3 X312. Y344.333 I1. J0.
N11655 G1 X336.333
N11660 G3 X337.333 Y345.333 I0. J1.
N11665 G1 Y357.5
N11670 G3 X337.133 Y357.701 I-0.2 J0.
N11675 G1 X336.933
N11680 G18 G3 X336.733 Z-3.8 I0. K0.2
N11685 G1 Y357.301
N11690 Z-7.8 F333.33
N11695 G2 X336.933 Z-8. I0.2 K0.
N11700 G1 X337.133 F1000.
N11705 G17 G3 X337.333 Y357.5 I0. J0.2
N11710 G1 Y369.667
N11715 G3 X336.333 Y370.667 I-1. J0.
N11720 G1 X312.
N11725 G3 X311. Y369.667 I0. J-1.
N11730 G1 Y345.333
N11735 G3 X312. Y344.333 I1. J0.
N11740 G1 X336.333
N11745 G3 X337.333 Y345.333 I0. J1.
N11750 G1 Y357.5
N11755 G3 X337.133 Y357.701 I-0.2 J0.
N11760 G1 X336.933
N11765 G18 G3 X336.733 Z-7.8 I0. K0.2
N11770 G1 Y357.301
N11775 Z-11.5 F333.33
N11780 X336.933
N11785 X337.133 F1000.
N11790 G17 G3 X337.333 Y357.5 I0. J0.2
N11795 G1 Y359.5
N11800 Z-12. F333.33
N11805 Y369.667 F1000.
N11810 G3 X336.333 Y370.667 I-1. J0.
N11815 G1 X326.167
N11820 Z-11.5
N11825 X322.167
N11830 Z-12. F333.33
N11835 X312. F1000.
N11840 G3 X311. Y369.667 I0. J-1.
N11845 G1 Y359.5
N11850 Z-11.5
N11855 Y355.5
N11860 Z-12. F333.33
N11865 Y345.333 F1000.
N11870 G3 X312. Y344.333 I1. J0.
N11875 G1 X322.167
N11880 Z-11.5
N11885 X326.167
N11890 Z-12. F333.33
N11895 X336.333 F1000.
N11900 G3 X337.333 Y345.333 I0. J1.
N11905 G1 Y355.5
N11910 Z-11.5
N11915 Y357.5
N11920 G3 X337.133 Y357.701 I-0.2 J0.
N11925 G1 X336.733
N11930 G0 Z10.
N11935 Y323.966
N11940 G1 Z-3.8 F333.33
N11945 G18 G2 X336.933 Z-4. I0.2 K0.
N11950 G1 X337.133 F1000.
N11955 G17 G3 X337.333 Y324.167 I0. J0.2
N11960 G1 Y336.333
N11965 G3 X336.333 Y337.333 I-1. J0.
N11970 G1 X312.
N11975 G3 X311. Y336.333 I0. J-1.
N11980 G1 Y312.
N11985 G3 X312. Y311. I1. J0.
N11990 G1 X336.333
N11995 G3 X337.333 Y312. I0. J1.
N12000 G1 Y324.167
N12005 G3 X337.133 Y324.366 I-0.2 J0.
N12010 G1 X336.933
N12015 G18 G3 X336.733 Z-3.8 I0. K0.2
N12020 G1 Y323.966
N12025 Z-7.8 F333.33
N12030 G2 X336.933 Z-8. I0.2 K0.
N12035 G1 X337.133 F1000.
N12040 G17 G3 X337.333 Y324.167 I0. J0.2
N12045 G1 Y336.333
N12050 G3 X336.333 Y337.333 I-1. J0.
N12055 G1 X312.
N12060 G3 X311. Y336.333 I0. J-1.
N12065 G1 Y312.
N12070 G3 X312. Y311. I1. J0.
N12075 G1 X336.333
N12080 G3 X337.333 Y312. I0. J1.
N12085 G1 Y324.167
N12090 G3 X337.133 Y324.366 I-0.2 J0.
N12095 G1 X336.933
N12100 G18 G3 X336.733 Z-7.8 I0. K0.2
N12105 G1 Y323.966
N12110 Z-11.5 F333.33
N12115 X336.933
N12120 X337.133 F1000.
N12125 G17 G3 X337.333 Y324.167 I0. J0.2
N12130 G1 Y326.167
N12135 Z-12. F333.33
N12140 Y336.333 F1000.
N12145 G3 X336.333 Y337.333 I-1. J0.
N12150 G1 X326.167
N12155 Z-11.5
N12160 X322.167
N12165 Z-12. F333.33
N12170 X312. F1000.
N12175 G3 X311. Y336.333 I0. J-1.
N12180 G1 Y326.167
N12185 Z-11.5
N12190 Y322.167
N12195 Z-12. F333.33
N12200 Y312. F1000.
N12205 G3 X312. Y311. I1. J0.
N12210 G1 X322.167
N12215 Z-11.5
N12220 X326.167
N12225 Z-12. F333.33
N12230 X336.333 F1000.
N12235 G3 X337.333 Y312. I0. J1.
N12240 G1 Y322.167
N12245 Z-11.5
N12250 Y324.167
N12255 G3 X337.133 Y324.366 I-0.2 J0.
N12260 G1 X336.733
N12265 G0 Z10.
N12270 Y290.634
N12275 G1 Z-3.8 F333.33
N12280 G18 G2 X336.933 Z-4. I0.2 K0.
N12285 G1 X337.133 F1000.
N12290 G17 G3 X337.333 Y290.833 I0. J0.2
N12295 G1 Y303.
N12300 G3 X336.333 Y304. I-1. J0.
N12305 G1 X312.
N12310 G3 X311. Y303. I0. J-1.
N12315 G1 Y278.667
N12320 G3 X312. Y277.667 I1. J0.
N12325 G1 X336.333
N12330 G3 X337.333 Y278.667 I0. J1.
N12335 G1 Y290.833
N12340 G3 X337.133 Y291.034 I-0.2 J0.
N12345 G1 X336.933
N12350 G18 G3 X336.733 Z-3.8 I0. K0.2
N12355 G1 Y290.634
N12360 Z-7.8 F333.33
N12365 G2 X336.933 Z-8. I0.2 K0.
N12370 G1 X337.133 F1000.
N12375 G17 G3 X337.333 Y290.833 I0. J0.2
N12380 G1 Y303.
N12385 G3 X336.333 Y304. I-1. J0.
N12390 G1 X312.
N12395 G3 X311. Y303. I0. J-1.
N12400 G1 Y278.667
N12405 G3 X312. Y277.667 I1. J0.
N12410 G1 X336.333
N12415 G3 X337.333 Y278.667 I0. J1.
N12420 G1 Y290.833
N12425 G3 X337.133 Y291.034 I-0.2 J0.
N12430 G1 X336.933
N12435 G18 G3 X336.733 Z-7.8 I0. K0.2
N12440 G1 Y290.634
N12445 Z-11.5 F333.33
N12450 X336.933
N12455 X337.133 F1000.
N12460 G17 G3 X337.333 Y290.833 I0. J0.2
N12465 G1 Y292.833
N12470 Z-12. F333.33
N12475 Y303. F1000.
N12480 G3 X336.333 Y304. I-1. J0.
N12485 G1 X326.167
N12490 Z-11.5
N12495 X322.167
N12500 Z-12. F333.33
N12505 X312. F1000.
N12510 G3 X311. Y303. I0. J-1.
N12515 G1 Y292.833
N12520 Z-11.5
N12525 Y288.833
N12530 Z-12. F333.33
N12535 Y278.667 F1000.
N12540 G3 X312. Y277.667 I1. J0.
N12545 G1 X322.167
N12550 Z-11.5
N12555 X326.167
N12560 Z-12. F333.33
N12565 X336.333 F1000.
N12570 G3 X337.333 Y278.667 I0. J1.
N12575 G1 Y288.833
N12580 Z-11.5
N12585 Y290.833
N12590 G3 X337.133 Y291.034 I-0.2 J0.
N12595 G1 X336.733
N12600 G0 Z10.
N12605 X370.067 Y290.634
N12610 G1 Z-3.8 F333.33
N12615 G18 G2 X370.267 Z-4. I0.2 K0.
N12620 G1 X370.467 F1000.
N12625 G17 G3 X370.667 Y290.833 I0. J0.2
N12630 G1 Y303.
N12635 G3 X369.667 Y304. I-1. J0.
N12640 G1 X345.333
N12645 G3 X344.333 Y303. I0. J-1.
N12650 G1 Y278.667
N12655 G3 X345.333 Y277.667 I1. J0.
N12660 G1 X369.667
N12665 G3 X370.667 Y278.667 I0. J1.
N12670 G1 Y290.833
N12675 G3 X370.467 Y291.034 I-0.2 J0.
N12680 G1 X370.267
N12685 G18 G3 X370.067 Z-3.8 I0. K0.2
N12690 G1 Y290.634
N12695 Z-7.8 F333.33
N12700 G2 X370.267 Z-8. I0.2 K0.
N12705 G1 X370.467 F1000.
N12710 G17 G3 X370.667 Y290.833 I0. J0.2
N12715 G1 Y303.
N12720 G3 X369.667 Y304. I-1. J0.
N12725 G1 X345.333
N12730 G3 X344.333 Y303. I0. J-1.
N12735 G1 Y278.667
N12740 G3 X345.333 Y277.667 I1. J0.
N12745 G1 X369.667
N12750 G3 X370.667 Y278.667 I0. J1.
N12755 G1 Y290.833
N12760 G3 X370.467 Y291.034 I-0.2 J0.
N12765 G1 X370.267
N12770 G18 G3 X370.067 Z-7.8 I0. K0.2
N12775 G1 Y290.634
N12780 Z-11.5 F333.33
N12785 X370.267
N12790 X370.467 F1000.
N12795 G17 G3 X370.667 Y290.833 I0. J0.2
N12800 G1 Y292.833
N12805 Z-12. F333.33
N12810 Y303. F1000.
N12815 G3 X369.667 Y304. I-1. J0.
N12820 G1 X359.5
N12825 Z-11.5
N12830 X355.5
N12835 Z-12. F333.33
N12840 X345.333 F1000.
N12845 G3 X344.333 Y303. I0. J-1.
N12850 G1 Y292.833
N12855 Z-11.5
N12860 Y288.833
N12865 Z-12. F333.33
N12870 Y278.667 F1000.
N12875 G3 X345.333 Y277.667 I1. J0.
N12880 G1 X355.5
N12885 Z-11.5
N12890 X359.5
N12895 Z-12. F333.33
N12900 X369.667 F1000.
N12905 G3 X370.667 Y278.667 I0. J1.
N12910 G1 Y288.833
N12915 Z-11.5
N12920 Y290.833
N12925 G3 X370.467 Y291.034 I-0.2 J0.
N12930 G1 X370.067
N12935 G0 Z10.
N12940 Y223.967
N12945 G1 Z-3.8 F333.33
N12950 G18 G2 X370.267 Z-4. I0.2 K0.
N12955 G1 X370.467 F1000.
N12960 G17 G3 X370.667 Y224.167 I0. J0.2
N12965 G1 Y236.333
N12970 G3 X369.667 Y237.333 I-1. J0.
N12975 G1 X345.333
N12980 G3 X344.333 Y236.333 I0. J-1.
N12985 G1 Y212.
N12990 G3 X345.333 Y211. I1. J0.
N12995 G1 X369.667
N13000 G3 X370.667 Y212. I0. J1.
N13005 G1 Y224.167
N13010 G3 X370.467 Y224.367 I-0.2 J0.
N13015 G1 X370.267
N13020 G18 G3 X370.067 Z-3.8 I0. K0.2
N13025 G1 Y223.967
N13030 Z-7.8 F333.33
N13035 G2 X370.267 Z-8. I0.2 K0.
N13040 G1 X370.467 F1000.
N13045 G17 G3 X370.667 Y224.167 I0. J0.2
N13050 G1 Y236.333
N13055 G3 X369.667 Y237.333 I-1. J0.
N13060 G1 X345.333
N13065 G3 X344.333 Y236.333 I0. J-1.
N13070 G1 Y212.
N13075 G3 X345.333 Y211. I1. J0.
N13080 G1 X369.667
N13085 G3 X370.667 Y212. I0. J1.
N13090 G1 Y224.167
N13095 G3 X370.467 Y224.367 I-0.2 J0.
N13100 G1 X370.267
N13105 G18 G3 X370.067 Z-7.8 I0. K0.2
N13110 G1 Y223.967
N13115 Z-11.5 F333.33
N13120 X370.267
N13125 X370.467 F1000.
N13130 G17 G3 X370.667 Y224.167 I0. J0.2
N13135 G1 Y226.167
N13140 Z-12. F333.33
N13145 Y236.333 F1000.
N13150 G3 X369.667 Y237.333 I-1. J0.
N13155 G1 X359.5
N13160 Z-11.5
N13165 X355.5
N13170 Z-12. F333.33
N13175 X345.333 F1000.
N13180 G3 X344.333 Y236.333 I0. J-1.
N13185 G1 Y226.167
N13190 Z-11.5
N13195 Y222.167
N13200 Z-12. F333.33
N13205 Y212. F1000.
N13210 G3 X345.333 Y211. I1. J0.
N13215 G1 X355.5
N13220 Z-11.5
N13225 X359.5
N13230 Z-12. F333.33
N13235 X369.667 F1000.
N13240 G3 X370.667 Y212. I0. J1.
N13245 G1 Y222.167
N13250 Z-11.5
N13255 Y224.167
N13260 G3 X370.467 Y224.367 I-0.2 J0.
N13265 G1 X370.067
N13270 G0 Z10.
N13275 X403.4 Y223.967
N13280 G1 Z-3.8 F333.33
N13285 G18 G2 X403.6 Z-4. I0.2 K0.
N13290 G1 X403.8 F1000.
N13295 G17 G3 X404. Y224.167 I0. J0.2
N13300 G1 Y236.333
N13305 G3 X403. Y237.333 I-1. J0.
N13310 G1 X378.667
N13315 G3 X377.667 Y236.333 I0. J-1.
N13320 G1 Y212.
N13325 G3 X378.667 Y211. I1. J0.
N13330 G1 X403.
N13335 G3 X404. Y212. I0. J1.
N13340 G1 Y224.167
N13345 G3 X403.8 Y224.367 I-0.2 J0.
N13350 G1 X403.6
N13355 G18 G3 X403.4 Z-3.8 I0. K0.2
N13360 G1 Y223.967
N13365 Z-7.8 F333.33
N13370 G2 X403.6 Z-8. I0.2 K0.
N13375 G1 X403.8 F1000.
N13380 G17 G3 X404. Y224.167 I0. J0.2
N13385 G1 Y236.333
N13390 G3 X403. Y237.333 I-1. J0.
N13395 G1 X378.667
N13400 G3 X377.667 Y236.333 I0. J-1.
N13405 G1 Y212.
N13410 G3 X378.667 Y211. I1. J0.
N13415 G1 X403.
N13420 G3 X404. Y212. I0. J1.
N13425 G1 Y224.167
N13430 G3 X403.8 Y224.367 I-0.2 J0.
N13435 G1 X403.6
N13440 G18 G3 X403.4 Z-7.8 I0. K0.2
N13445 G1 Y223.967
N13450 Z-11.5 F333.33
N13455 X403.6
N13460 X403.8 F1000.
N13465 G17 G3 X404. Y224.167 I0. J0.2
N13470 G1 Y226.167
N13475 Z-12. F333.33
N13480 Y236.333 F1000.
N13485 G3 X403. Y237.333 I-1. J0.
N13490 G1 X392.833
N13495 Z-11.5
N13500 X388.833
N13505 Z-12. F333.33
N13510 X378.667 F1000.
N13515 G3 X377.667 Y236.333 I0. J-1.
N13520 G1 Y226.167
N13525 Z-11.5
N13530 Y222.167
N13535 Z-12. F333.33
N13540 Y212. F1000.
N13545 G3 X378.667 Y211. I1. J0.
N13550 G1 X388.833
N13555 Z-11.5
N13560 X392.833
N13565 Z-12. F333.33
N13570 X403. F1000.
N13575 G3 X404. Y212. I0. J1.
N13580 G1 Y222.167
N13585 Z-11.5
N13590 Y224.167
N13595 G3 X403.8 Y224.367 I-0.2 J0.
N13600 G1 X403.4
N13605 G0 Z10.
N13610 X436.733 Y223.967
N13615 G1 Z-3.8 F333.33
N13620 G18 G2 X436.933 Z-4. I0.2 K0.
N13625 G1 X437.133 F1000.
N13630 G17 G3 X437.333 Y224.167 I0. J0.2
N13635 G1 Y236.333
N13640 G3 X436.333 Y237.333 I-1. J0.
N13645 G1 X412.
N13650 G3 X411. Y236.333 I0. J-1.
N13655 G1 Y212.
N13660 G3 X412. Y211. I1. J0.
N13665 G1 X436.333
N13670 G3 X437.333 Y212. I0. J1.
N13675 G1 Y224.167
N13680 G3 X437.133 Y224.367 I-0.2 J0.
N13685 G1 X436.933
N13690 G18 G3 X436.733 Z-3.8 I0. K0.2
N13695 G1 Y223.967
N13700 Z-7.8 F333.33
N13705 G2 X436.933 Z-8. I0.2 K0.
N13710 G1 X437.133 F1000.
N13715 G17 G3 X437.333 Y224.167 I0. J0.2
N13720 G1 Y236.333
N13725 G3 X436.333 Y237.333 I-1. J0.
N13730 G1 X412.
N13735 G3 X411. Y236.333 I0. J-1.
N13740 G1 Y212.
N13745 G3 X412. Y211. I1. J0.
N13750 G1 X436.333
N13755 G3 X437.333 Y212. I0. J1.
N13760 G1 Y224.167
N13765 G3 X437.133 Y224.367 I-0.2 J0.
N13770 G1 X436.933
N13775 G18 G3 X436.733 Z-7.8 I0. K0.2
N13780 G1 Y223.967
N13785 Z-11.5 F333.33
N13790 X436.933
N13795 X437.133 F1000.
N13800 G17 G3 X437.333 Y224.167 I0. J0.2
N13805 G1 Y226.167
N13810 Z-12. F333.33
N13815 Y236.333 F1000.
N13820 G3 X436.333 Y237.333 I-1. J0.
N13825 G1 X426.167
N13830 Z-11.5
N13835 X422.167
N13840 Z-12. F333.33
N13845 X412. F1000.
N13850 G3 X411. Y236.333 I0. J-1.
N13855 G1 Y226.167
N13860 Z-11.5
N13865 Y222.167
N13870 Z-12. F333.33
N13875 Y212. F1000.
N13880 G3 X412. Y211. I1. J0.
N13885 G1 X422.167
N13890 Z-11.5
N13895 X426.167
N13900 Z-12. F333.33
N13905 X436.333 F1000.
N13910 G3 X437.333 Y212. I0. J1.
N13915 G1 Y222.167
N13920 Z-11.5
N13925 Y224.167
N13930 G3 X437.133 Y224.367 I-0.2 J0.
N13935 G1 X436.733
N13940 G0 Z10.
N13945 Y190.633
N13950 G1 Z-3.8 F333.33
N13955 G18 G2 X436.933 Z-4. I0.2 K0.
N13960 G1 X437.133 F1000.
N13965 G17 G3 X437.333 Y190.833 I0. J0.2
N13970 G1 Y203.
N13975 G3 X436.333 Y204. I-1. J0.
N13980 G1 X412.
N13985 G3 X411. Y203. I0. J-1.
N13990 G1 Y178.667
N13995 G3 X412. Y177.667 I1. J0.
N14000 G1 X436.333
N14005 G3 X437.333 Y178.667 I0. J1.
N14010 G1 Y190.833
N14015 G3 X437.133 Y191.033 I-0.2 J0.
N14020 G1 X436.933
N14025 G18 G3 X436.733 Z-3.8 I0. K0.2
N14030 G1 Y190.633
N14035 Z-7.8 F333.33
N14040 G2 X436.933 Z-8. I0.2 K0.
N14045 G1 X437.133 F1000.
N14050 G17 G3 X437.333 Y190.833 I0. J0.2
N14055 G1 Y203.
N14060 G3 X436.333 Y204. I-1. J0.
N14065 G1 X412.
N14070 G3 X411. Y203. I0. J-1.
N14075 G1 Y178.667
N14080 G3 X412. Y177.667 I1. J0.
N14085 G1 X436.333
N14090 G3 X437.333 Y178.667 I0. J1.
N14095 G1 Y190.833
N14100 G3 X437.133 Y191.033 I-0.2 J0.
N14105 G1 X436.933
N14110 G18 G3 X436.733 Z-7.8 I0. K0.2
N14115 G1 Y190.633
N14120 Z-11.5 F333.33
N14125 X436.933
N14130 X437.133 F1000.
N14135 G17 G3 X437.333 Y190.833 I0. J0.2
N14140 G1 Y192.833
N14145 Z-12. F333.33
N14150 Y203. F1000.
N14155 G3 X436.333 Y204. I-1. J0.
N14160 G1 X426.167
N14165 Z-11.5
N14170 X422.167
N14175 Z-12. F333.33
N14180 X412. F1000.
N14185 G3 X411. Y203. I0. J-1.
N14190 G1 Y192.833
N14195 Z-11.5
N14200 Y188.833
N14205 Z-12. F333.33
N14210 Y178.667 F1000.
N14215 G3 X412. Y177.667 I1. J0.
N14220 G1 X422.167
N14225 Z-11.5
N14230 X426.167
N14235 Z-12. F333.33
N14240 X436.333 F1000.
N14245 G3 X437.333 Y178.667 I0. J1.
N14250 G1 Y188.833
N14255 Z-11.5
N14260 Y190.833
N14265 G3 X437.133 Y191.033 I-0.2 J0.
N14270 G1 X436.733
N14275 G0 Z10.
N14280 Y157.299
N14285 G1 Z-3.8 F333.33
N14290 G18 G2 X436.933 Z-4. I0.2 K0.
N14295 G1 X437.133 F1000.
N14300 G17 G3 X437.333 Y157.499 I0. J0.2
N14305 G1 Y169.667
N14310 G3 X436.333 Y170.667 I-1. J0.
N14315 G1 X412.
N14320 G3 X411. Y169.667 I0. J-1.
N14325 G1 Y145.333
N14330 G3 X412. Y144.333 I1. J0.
N14335 G1 X436.333
N14340 G3 X437.333 Y145.333 I0. J1.
N14345 G1 Y157.499
N14350 G3 X437.133 Y157.699 I-0.2 J0.
N14355 G1 X436.933
N14360 G18 G3 X436.733 Z-3.8 I0. K0.2
N14365 G1 Y157.299
N14370 Z-7.8 F333.33
N14375 G2 X436.933 Z-8. I0.2 K0.
N14380 G1 X437.133 F1000.
N14385 G17 G3 X437.333 Y157.499 I0. J0.2
N14390 G1 Y169.667
N14395 G3 X436.333 Y170.667 I-1. J0.
N14400 G1 X412.
N14405 G3 X411. Y169.667 I0. J-1.
N14410 G1 Y145.333
N14415 G3 X412. Y144.333 I1. J0.
N14420 G1 X436.333
N14425 G3 X437.333 Y145.333 I0. J1.
N14430 G1 Y157.499
N14435 G3 X437.133 Y157.699 I-0.2 J0.
N14440 G1 X436.933
N14445 G18 G3 X436.733 Z-7.8 I0. K0.2
N14450 G1 Y157.299
N14455 Z-11.5 F333.33
N14460 X436.933
N14465 X437.133 F1000.
N14470 G17 G3 X437.333 Y157.499 I0. J0.2
N14475 G1 Y159.5
N14480 Z-12. F333.33
N14485 Y169.667 F1000.
N14490 G3 X436.333 Y170.667 I-1. J0.
N14495 G1 X426.167
N14500 Z-11.5
N14505 X422.167
N14510 Z-12. F333.33
N14515 X412. F1000.
N14520 G3 X411. Y169.667 I0. J-1.
N14525 G1 Y159.5
N14530 Z-11.5
N14535 Y155.5
N14540 Z-12. F333.33
N14545 Y145.333 F1000.
N14550 G3 X412. Y144.333 I1. J0.
N14555 G1 X422.167
N14560 Z-11.5
N14565 X426.167
N14570 Z-12. F333.33
N14575 X436.333 F1000.
N14580 G3 X437.333 Y145.333 I0. J1.
N14585 G1 Y155.5
N14590 Z-11.5
N14595 Y157.499
N14600 G3 X437.133 Y157.699 I-0.2 J0.
N14605 G1 X436.733
N14610 G0 Z10.
N14615 Y123.966
N14620 G1 Z-3.8 F333.33
N14625 G18 G2 X436.933 Z-4. I0.2 K0.
N14630 G1 X437.133 F1000.
N14635 G17 G3 X437.333 Y124.166 I0. J0.2
N14640 G1 Y136.333
N14645 G3 X436.333 Y137.333 I-1. J0.
N14650 G1 X412.
N14655 G3 X411. Y136.333 I0. J-1.
N14660 G1 Y112.
N14665 G3 X412. Y111. I1. J0.
N14670 G1 X436.333
N14675 G3 X437.333 Y112. I0. J1.
N14680 G1 Y124.166
N14685 G3 X437.133 Y124.367 I-0.2 J0.
N14690 G1 X436.933
N14695 G18 G3 X436.733 Z-3.8 I0. K0.2
N14700 G1 Y123.966
N14705 Z-7.8 F333.33
N14710 G2 X436.933 Z-8. I0.2 K0.
N14715 G1 X437.133 F1000.
N14720 G17 G3 X437.333 Y124.166 I0. J0.2
N14725 G1 Y136.333
N14730 G3 X436.333 Y137.333 I-1. J0.
N14735 G1 X412.
N14740 G3 X411. Y136.333 I0. J-1.
N14745 G1 Y112.
N14750 G3 X412. Y111. I1. J0.
N14755 G1 X436.333
N14760 G3 X437.333 Y112. I0. J1.
N14765 G1 Y124.166
N14770 G3 X437.133 Y124.367 I-0.2 J0.
N14775 G1 X436.933
N14780 G18 G3 X436.733 Z-7.8 I0. K0.2
N14785 G1 Y123.966
N14790 Z-11.5 F333.33
N14795 X436.933
N14800 X437.133 F1000.
N14805 G17 G3 X437.333 Y124.166 I0. J0.2
N14810 G1 Y126.167
N14815 Z-12. F333.33
N14820 Y136.333 F1000.
N14825 G3 X436.333 Y137.333 I-1. J0.
N14830 G1 X426.167
N14835 Z-11.5
N14840 X422.167
N14845 Z-12. F333.33
N14850 X412. F1000.
N14855 G3 X411. Y136.333 I0. J-1.
N14860 G1 Y126.167
N14865 Z-11.5
N14870 Y122.167
N14875 Z-12. F333.33
N14880 Y112. F1000.
N14885 G3 X412. Y111. I1. J0.
N14890 G1 X422.167
N14895 Z-11.5
N14900 X426.167
N14905 Z-12. F333.33
N14910 X436.333 F1000.
N14915 G3 X437.333 Y112. I0. J1.
N14920 G1 Y122.167
N14925 Z-11.5
N14930 Y124.166
N14935 G3 X437.133 Y124.367 I-0.2 J0.
N14940 G1 X436.733
N14945 G0 Z10.
N14950 Y90.633
N14955 G1 Z-3.8 F333.33
N14960 G18 G2 X436.933 Z-4. I0.2 K0.
N14965 G1 X437.133 F1000.
N14970 G17 G3 X437.333 Y90.834 I0. J0.2
N14975 G1 Y103.
N14980 G3 X436.333 Y104. I-1. J0.
N14985 G1 X412.
N14990 G3 X411. Y103. I0. J-1.
N14995 G1 Y78.667
N15000 G3 X412. Y77.667 I1. J0.
N15005 G1 X436.333
N15010 G3 X437.333 Y78.667 I0. J1.
N15015 G1 Y90.834
N15020 G3 X437.133 Y91.034 I-0.2 J0.
N15025 G1 X436.933
N15030 G18 G3 X436.733 Z-3.8 I0. K0.2
N15035 G1 Y90.633
N15040 Z-7.8 F333.33
N15045 G2 X436.933 Z-8. I0.2 K0.
N15050 G1 X437.133 F1000.
N15055 G17 G3 X437.333 Y90.834 I0. J0.2
N15060 G1 Y103.
N15065 G3 X436.333 Y104. I-1. J0.
N15070 G1 X412.
N15075 G3 X411. Y103. I0. J-1.
N15080 G1 Y78.667
N15085 G3 X412. Y77.667 I1. J0.
N15090 G1 X436.333
N15095 G3 X437.333 Y78.667 I0. J1.
N15100 G1 Y90.834
N15105 G3 X437.133 Y91.034 I-0.2 J0.
N15110 G1 X436.933
N15115 G18 G3 X436.733 Z-7.8 I0. K0.2
N15120 G1 Y90.633
N15125 Z-11.5 F333.33
N15130 X436.933
N15135 X437.133 F1000.
N15140 G17 G3 X437.333 Y90.834 I0. J0.2
N15145 G1 Y92.833
N15150 Z-12. F333.33
N15155 Y103. F1000.
N15160 G3 X436.333 Y104. I-1. J0.
N15165 G1 X426.167
N15170 Z-11.5
N15175 X422.167
N15180 Z-12. F333.33
N15185 X412. F1000.
N15190 G3 X411. Y103. I0. J-1.
N15195 G1 Y92.833
N15200 Z-11.5
N15205 Y88.833
N15210 Z-12. F333.33
N15215 Y78.667 F1000.
N15220 G3 X412. Y77.667 I1. J0.
N15225 G1 X422.167
N15230 Z-11.5
N15235 X426.167
N15240 Z-12. F333.33
N15245 X436.333 F1000.
N15250 G3 X437.333 Y78.667 I0. J1.
N15255 G1 Y88.833
N15260 Z-11.5
N15265 Y90.834
N15270 G3 X437.133 Y91.034 I-0.2 J0.
N15275 G1 X436.733
N15280 G0 Z10.
N15285 Y57.3
N15290 G1 Z-3.8 F333.33
N15295 G18 G2 X436.933 Z-4. I0.2 K0.
N15300 G1 X437.133 F1000.
N15305 G17 G3 X437.333 Y57.5 I0. J0.2
N15310 G1 Y69.667
N15315 G3 X436.333 Y70.667 I-1. J0.
N15320 G1 X412.
N15325 G3 X411. Y69.667 I0. J-1.
N15330 G1 Y45.333
N15335 G3 X412. Y44.333 I1. J0.
N15340 G1 X436.333
N15345 G3 X437.333 Y45.333 I0. J1.
N15350 G1 Y57.5
N15355 G3 X437.133 Y57.7 I-0.2 J0.
N15360 G1 X436.933
N15365 G18 G3 X436.733 Z-3.8 I0. K0.2
N15370 G1 Y57.3
N15375 Z-7.8 F333.33
N15380 G2 X436.933 Z-8. I0.2 K0.
N15385 G1 X437.133 F1000.
N15390 G17 G3 X437.333 Y57.5 I0. J0.2
N15395 G1 Y69.667
N15400 G3 X436.333 Y70.667 I-1. J0.
N15405 G1 X412.
N15410 G3 X411. Y69.667 I0. J-1.
N15415 G1 Y45.333
N15420 G3 X412. Y44.333 I1. J0.
N15425 G1 X436.333
N15430 G3 X437.333 Y45.333 I0. J1.
N15435 G1 Y57.5
N15440 G3 X437.133 Y57.7 I-0.2 J0.
N15445 G1 X436.933
N15450 G18 G3 X436.733 Z-7.8 I0. K0.2
N15455 G1 Y57.3
N15460 Z-11.5 F333.33
N15465 X436.933
N15470 X437.133 F1000.
N15475 G17 G3 X437.333 Y57.5 I0. J0.2
N15480 G1 Y59.5
N15485 Z-12. F333.33
N15490 Y69.667 F1000.
N15495 G3 X436.333 Y70.667 I-1. J0.
N15500 G1 X426.167
N15505 Z-11.5
N15510 X422.167
N15515 Z-12. F333.33
N15520 X412. F1000.
N15525 G3 X411. Y69.667 I0. J-1.
N15530 G1 Y59.5
N15535 Z-11.5
N15540 Y55.5
N15545 Z-12. F333.33
N15550 Y45.333 F1000.
N15555 G3 X412. Y44.333 I1. J0.
N15560 G1 X422.167
N15565 Z-11.5
N15570 X426.167
N15575 Z-12. F333.33
N15580 X436.333 F1000.
N15585 G3 X437.333 Y45.333 I0. J1.
N15590 G1 Y55.5
N15595 Z-11.5
N15600 Y57.5
N15605 G3 X437.133 Y57.7 I-0.2 J0.
N15610 G1 X436.733
N15615 G0 Z10.
N15620 Y23.967
N15625 G1 Z-3.8 F333.33
N15630 G18 G2 X436.933 Z-4. I0.2 K0.
N15635 G1 X437.133 F1000.
N15640 G17 G3 X437.333 Y24.167 I0. J0.2
N15645 G1 Y36.333
N15650 G3 X436.333 Y37.333 I-1. J0.
N15655 G1 X412.
N15660 G3 X411. Y36.333 I0. J-1.
N15665 G1 Y12.
N15670 G3 X412. Y11. I1. J0.
N15675 G1 X436.333
N15680 G3 X437.333 Y12. I0. J1.
N15685 G1 Y24.167
N15690 G3 X437.133 Y24.367 I-0.2 J0.
N15695 G1 X436.933
N15700 G18 G3 X436.733 Z-3.8 I0. K0.2
N15705 G1 Y23.967
N15710 Z-7.8 F333.33
N15715 G2 X436.933 Z-8. I0.2 K0.
N15720 G1 X437.133 F1000.
N15725 G17 G3 X437.333 Y24.167 I0. J0.2
N15730 G1 Y36.333
N15735 G3 X436.333 Y37.333 I-1. J0.
N15740 G1 X412.
N15745 G3 X411. Y36.333 I0. J-1.
N15750 G1 Y12.
N15755 G3 X412. Y11. I1. J0.
N15760 G1 X436.333
N15765 G3 X437.333 Y12. I0. J1.
N15770 G1 Y24.167
N15775 G3 X437.133 Y24.367 I-0.2 J0.
N15780 G1 X436.933
N15785 G18 G3 X436.733 Z-7.8 I0. K0.2
N15790 G1 Y23.967
N15795 Z-11.5 F333.33
N15800 X436.933
N15805 X437.133 F1000.
N15810 G17 G3 X437.333 Y24.167 I0. J0.2
N15815 G1 Y26.167
N15820 Z-12. F333.33
N15825 Y36.333 F1000.
N15830 G3 X436.333 Y37.333 I-1. J0.
N15835 G1 X426.167
N15840 Z-11.5
N15845 X422.167
N15850 Z-12. F333.33
N15855 X412. F1000.
N15860 G3 X411. Y36.333 I0. J-1.
N15865 G1 Y26.167
N15870 Z-11.5
N15875 Y22.167
N15880 Z-12. F333.33
N15885 Y12. F1000.
N15890 G3 X412. Y11. I1. J0.
N15895 G1 X422.167
N15900 Z-11.5
N15905 X426.167
N15910 Z-12. F333.33
N15915 X436.333 F1000.
N15920 G3 X437.333 Y12. I0. J1.
N15925 G1 Y22.167
N15930 Z-11.5
N15935 Y24.167
N15940 G3 X437.133 Y24.367 I-0.2 J0.
N15945 G1 X436.733
N15950 G0 Z10.
N15955 X403.4 Y23.967
N15960 G1 Z-3.8 F333.33
N15965 G18 G2 X403.6 Z-4. I0.2 K0.
N15970 G1 X403.8 F1000.
N15975 G17 G3 X404. Y24.167 I0. J0.2
N15980 G1 Y36.333
N15985 G3 X403. Y37.333 I-1. J0.
N15990 G1 X378.667
N15995 G3 X377.667 Y36.333 I0. J-1.
N16000 G1 Y12.
N16005 G3 X378.667 Y11. I1. J0.
N16010 G1 X403.
N16015 G3 X404. Y12. I0. J1.
N16020 G1 Y24.167
N16025 G3 X403.8 Y24.367 I-0.2 J0.
N16030 G1 X403.6
N16035 G18 G3 X403.4 Z-3.8 I0. K0.2
N16040 G1 Y23.967
N16045 Z-7.8 F333.33
N16050 G2 X403.6 Z-8. I0.2 K0.
N16055 G1 X403.8 F1000.
N16060 G17 G3 X404. Y24.167 I0. J0.2
N16065 G1 Y36.333
N16070 G3 X403. Y37.333 I-1. J0.
N16075 G1 X378.667
N16080 G3 X377.667 Y36.333 I0. J-1.
N16085 G1 Y12.
N16090 G3 X378.667 Y11. I1. J0.
N16095 G1 X403.
N16100 G3 X404. Y12. I0. J1.
N16105 G1 Y24.167
N16110 G3 X403.8 Y24.367 I-0.2 J0.
N16115 G1 X403.6
N16120 G18 G3 X403.4 Z-7.8 I0. K0.2
N16125 G1 Y23.967
N16130 Z-11.5 F333.33
N16135 X403.6
N16140 X403.8 F1000.
N16145 G17 G3 X404. Y24.167 I0. J0.2
N16150 G1 Y26.167
N16155 Z-12. F333.33
N16160 Y36.333 F1000.
N16165 G3 X403. Y37.333 I-1. J0.
N16170 G1 X392.833
N16175 Z-11.5
N16180 X388.833
N16185 Z-12. F333.33
N16190 X378.667 F1000.
N16195 G3 X377.667 Y36.333 I0. J-1.
N16200 G1 Y26.167
N16205 Z-11.5
N16210 Y22.167
N16215 Z-12. F333.33
N16220 Y12. F1000.
N16225 G3 X378.667 Y11. I1. J0.
N16230 G1 X388.833
N16235 Z-11.5
N16240 X392.833
N16245 Z-12. F333.33
N16250 X403. F1000.
N16255 G3 X404. Y12. I0. J1.
N16260 G1 Y22.167
N16265 Z-11.5
N16270 Y24.167
N16275 G3 X403.8 Y24.367 I-0.2 J0.
N16280 G1 X403.4
N16285 G0 Z10.
N16290 Y57.3
N16295 G1 Z-3.8 F333.33
N16300 G18 G2 X403.6 Z-4. I0.2 K0.
N16305 G1 X403.8 F1000.
N16310 G17 G3 X404. Y57.5 I0. J0.2
N16315 G1 Y69.667
N16320 G3 X403. Y70.667 I-1. J0.
N16325 G1 X378.667
N16330 G3 X377.667 Y69.667 I0. J-1.
N16335 G1 Y45.333
N16340 G3 X378.667 Y44.333 I1. J0.
N16345 G1 X403.
N16350 G3 X404. Y45.333 I0. J1.
N16355 G1 Y57.5
N16360 G3 X403.8 Y57.7 I-0.2 J0.
N16365 G1 X403.6
N16370 G18 G3 X403.4 Z-3.8 I0. K0.2
N16375 G1 Y57.3
N16380 Z-7.8 F333.33
N16385 G2 X403.6 Z-8. I0.2 K0.
N16390 G1 X403.8 F1000.
N16395 G17 G3 X404. Y57.5 I0. J0.2
N16400 G1 Y69.667
N16405 G3 X403. Y70.667 I-1. J0.
N16410 G1 X378.667
N16415 G3 X377.667 Y69.667 I0. J-1.
N16420 G1 Y45.333
N16425 G3 X378.667 Y44.333 I1. J0.
N16430 G1 X403.
N16435 G3 X404. Y45.333 I0. J1.
N16440 G1 Y57.5
N16445 G3 X403.8 Y57.7 I-0.2 J0.
N16450 G1 X403.6
N16455 G18 G3 X403.4 Z-7.8 I0. K0.2
N16460 G1 Y57.3
N16465 Z-11.5 F333.33
N16470 X403.6
N16475 X403.8 F1000.
N16480 G17 G3 X404. Y57.5 I0. J0.2
N16485 G1 Y59.5
N16490 Z-12. F333.33
N16495 Y69.667 F1000.
N16500 G3 X403. Y70.667 I-1. J0.
N16505 G1 X392.833
N16510 Z-11.5
N16515 X388.833
N16520 Z-12. F333.33
N16525 X378.667 F1000.
N16530 G3 X377.667 Y69.667 I0. J-1.
N16535 G1 Y59.5
N16540 Z-11.5
N16545 Y55.5
N16550 Z-12. F333.33
N16555 Y45.333 F1000.
N16560 G3 X378.667 Y44.333 I1. J0.
N16565 G1 X388.833
N16570 Z-11.5
N16575 X392.833
N16580 Z-12. F333.33
N16585 X403. F1000.
N16590 G3 X404. Y45.333 I0. J1.
N16595 G1 Y55.5
N16600 Z-11.5
N16605 Y57.5
N16610 G3 X403.8 Y57.7 I-0.2 J0.
N16615 G1 X403.4
N16620 G0 Z10.
N16625 Y90.633
N16630 G1 Z-3.8 F333.33
N16635 G18 G2 X403.6 Z-4. I0.2 K0.
N16640 G1 X403.8 F1000.
N16645 G17 G3 X404. Y90.834 I0. J0.2
N16650 G1 Y103.
N16655 G3 X403. Y104. I-1. J0.
N16660 G1 X378.667
N16665 G3 X377.667 Y103. I0. J-1.
N16670 G1 Y78.667
N16675 G3 X378.667 Y77.667 I1. J0.
N16680 G1 X403.
N16685 G3 X404. Y78.667 I0. J1.
N16690 G1 Y90.834
N16695 G3 X403.8 Y91.034 I-0.2 J0.
N16700 G1 X403.6
N16705 G18 G3 X403.4 Z-3.8 I0. K0.2
N16710 G1 Y90.633
N16715 Z-7.8 F333.33
N16720 G2 X403.6 Z-8. I0.2 K0.
N16725 G1 X403.8 F1000.
N16730 G17 G3 X404. Y90.834 I0. J0.2
N16735 G1 Y103.
N16740 G3 X403. Y104. I-1. J0.
N16745 G1 X378.667
N16750 G3 X377.667 Y103. I0. J-1.
N16755 G1 Y78.667
N16760 G3 X378.667 Y77.667 I1. J0.
N16765 G1 X403.
N16770 G3 X404. Y78.667 I0. J1.
N16775 G1 Y90.834
N16780 G3 X403.8 Y91.034 I-0.2 J0.
N16785 G1 X403.6
N16790 G18 G3 X403.4 Z-7.8 I0. K0.2
N16795 G1 Y90.633
N16800 Z-11.5 F333.33
N16805 X403.6
N16810 X403.8 F1000.
N16815 G17 G3 X404. Y90.834 I0. J0.2
N16820 G1 Y92.833
N16825 Z-12. F333.33
N16830 Y103. F1000.
N16835 G3 X403. Y104. I-1. J0.
N16840 G1 X392.833
N16845 Z-11.5
N16850 X388.833
N16855 Z-12. F333.33
N16860 X378.667 F1000.
N16865 G3 X377.667 Y103. I0. J-1.
N16870 G1 Y92.833
N16875 Z-11.5
N16880 Y88.833
N16885 Z-12. F333.33
N16890 Y78.667 F1000.
N16895 G3 X378.667 Y77.667 I1. J0.
N16900 G1 X388.833
N16905 Z-11.5
N16910 X392.833
N16915 Z-12. F333.33
N16920 X403. F1000.
N16925 G3 X404. Y78.667 I0. J1.
N16930 G1 Y88.833
N16935 Z-11.5
N16940 Y90.834
N16945 G3 X403.8 Y91.034 I-0.2 J0.
N16950 G1 X403.4
N16955 G0 Z10.
N16960 Y123.966
N16965 G1 Z-3.8 F333.33
N16970 G18 G2 X403.6 Z-4. I0.2 K0.
N16975 G1 X403.8 F1000.
N16980 G17 G3 X404. Y124.166 I0. J0.2
N16985 G1 Y136.333
N16990 G3 X403. Y137.333 I-1. J0.
N16995 G1 X378.667
N17000 G3 X377.667 Y136.333 I0. J-1.
N17005 G1 Y112.
N17010 G3 X378.667 Y111. I1. J0.
N17015 G1 X403.
N17020 G3 X404. Y112. I0. J1.
N17025 G1 Y124.166
N17030 G3 X403.8 Y124.367 I-0.2 J0.
N17035 G1 X403.6
N17040 G18 G3 X403.4 Z-3.8 I0. K0.2
N17045 G1 Y123.966
N17050 Z-7.8 F333.33
N17055 G2 X403.6 Z-8. I0.2 K0.
N17060 G1 X403.8 F1000.
N17065 G17 G3 X404. Y124.166 I0. J0.2
N17070 G1 Y136.333
N17075 G3 X403. Y137.333 I-1. J0.
N17080 G1 X378.667
N17085 G3 X377.667 Y136.333 I0. J-1.
N17090 G1 Y112.
N17095 G3 X378.667 Y111. I1. J0.
N17100 G1 X403.
N17105 G3 X404. Y112. I0. J1.
N17110 G1 Y124.166
N17115 G3 X403.8 Y124.367 I-0.2 J0.
N17120 G1 X403.6
N17125 G18 G3 X403.4 Z-7.8 I0. K0.2
N17130 G1 Y123.966
N17135 Z-11.5 F333.33
N17140 X403.6
N17145 X403.8 F1000.
N17150 G17 G3 X404. Y124.166 I0. J0.2
N17155 G1 Y126.167
N17160 Z-12. F333.33
N17165 Y136.333 F1000.
N17170 G3 X403. Y137.333 I-1. J0.
N17175 G1 X392.833
N17180 Z-11.5
N17185 X388.833
N17190 Z-12. F333.33
N17195 X378.667 F1000.
N17200 G3 X377.667 Y136.333 I0. J-1.
N17205 G1 Y126.167
N17210 Z-11.5
N17215 Y122.167
N17220 Z-12. F333.33
N17225 Y112. F1000.
N17230 G3 X378.667 Y111. I1. J0.
N17235 G1 X388.833
N17240 Z-11.5
N17245 X392.833
N17250 Z-12. F333.33
N17255 X403. F1000.
N17260 G3 X404. Y112. I0. J1.
N17265 G1 Y122.167
N17270 Z-11.5
N17275 Y124.166
N17280 G3 X403.8 Y124.367 I-0.2 J0.
N17285 G1 X403.4
N17290 G0 Z10.
N17295 Y157.299
N17300 G1 Z-3.8 F333.33
N17305 G18 G2 X403.6 Z-4. I0.2 K0.
N17310 G1 X403.8 F1000.
N17315 G17 G3 X404. Y157.499 I0. J0.2
N17320 G1 Y169.667
N17325 G3 X403. Y170.667 I-1. J0.
N17330 G1 X378.667
N17335 G3 X377.667 Y169.667 I0. J-1.
N17340 G1 Y145.333
N17345 G3 X378.667 Y144.333 I1. J0.
N17350 G1 X403.
N17355 G3 X404. Y145.333 I0. J1.
N17360 G1 Y157.499
N17365 G3 X403.8 Y157.699 I-0.2 J0.
N17370 G1 X403.6
N17375 G18 G3 X403.4 Z-3.8 I0. K0.2
N17380 G1 Y157.299
N17385 Z-7.8 F333.33
N17390 G2 X403.6 Z-8. I0.2 K0.
N17395 G1 X403.8 F1000.
N17400 G17 G3 X404. Y157.499 I0. J0.2
N17405 G1 Y169.667
N17410 G3 X403. Y170.667 I-1. J0.
N17415 G1 X378.667
N17420 G3 X377.667 Y169.667 I0. J-1.
N17425 G1 Y145.333
N17430 G3 X378.667 Y144.333 I1. J0.
N17435 G1 X403.
N17440 G3 X404. Y145.333 I0. J1.
N17445 G1 Y157.499
N17450 G3 X403.8 Y157.699 I-0.2 J0.
N17455 G1 X403.6
N17460 G18 G3 X403.4 Z-7.8 I0. K0.2
N17465 G1 Y157.299
N17470 Z-11.5 F333.33
N17475 X403.6
N17480 X403.8 F1000.
N17485 G17 G3 X404. Y157.499 I0. J0.2
N17490 G1 Y159.5
N17495 Z-12. F333.33
N17500 Y169.667 F1000.
N17505 G3 X403. Y170.667 I-1. J0.
N17510 G1 X392.833
N17515 Z-11.5
N17520 X388.833
N17525 Z-12. F333.33
N17530 X378.667 F1000.
N17535 G3 X377.667 Y169.667 I0. J-1.
N17540 G1 Y159.5
N17545 Z-11.5
N17550 Y155.5
N17555 Z-12. F333.33
N17560 Y145.333 F1000.
N17565 G3 X378.667 Y144.333 I1. J0.
N17570 G1 X388.833
N17575 Z-11.5
N17580 X392.833
N17585 Z-12. F333.33
N17590 X403. F1000.
N17595 G3 X404. Y145.333 I0. J1.
N17600 G1 Y155.5
N17605 Z-11.5
N17610 Y157.499
N17615 G3 X403.8 Y157.699 I-0.2 J0.
N17620 G1 X403.4
N17625 G0 Z10.
N17630 Y190.633
N17635 G1 Z-3.8 F333.33
N17640 G18 G2 X403.6 Z-4. I0.2 K0.
N17645 G1 X403.8 F1000.
N17650 G17 G3 X404. Y190.833 I0. J0.2
N17655 G1 Y203.
N17660 G3 X403. Y204. I-1. J0.
N17665 G1 X378.667
N17670 G3 X377.667 Y203. I0. J-1.
N17675 G1 Y178.667
N17680 G3 X378.667 Y177.667 I1. J0.
N17685 G1 X403.
N17690 G3 X404. Y178.667 I0. J1.
N17695 G1 Y190.833
N17700 G3 X403.8 Y191.033 I-0.2 J0.
N17705 G1 X403.6
N17710 G18 G3 X403.4 Z-3.8 I0. K0.2
N17715 G1 Y190.633
N17720 Z-7.8 F333.33
N17725 G2 X403.6 Z-8. I0.2 K0.
N17730 G1 X403.8 F1000.
N17735 G17 G3 X404. Y190.833 I0. J0.2
N17740 G1 Y203.
N17745 G3 X403. Y204. I-1. J0.
N17750 G1 X378.667
N17755 G3 X377.667 Y203. I0. J-1.
N17760 G1 Y178.667
N17765 G3 X378.667 Y177.667 I1. J0.
N17770 G1 X403.
N17775 G3 X404. Y178.667 I0. J1.
N17780 G1 Y190.833
N17785 G3 X403.8 Y191.033 I-0.2 J0.
N17790 G1 X403.6
N17795 G18 G3 X403.4 Z-7.8 I0. K0.2
N17800 G1 Y190.633
N17805 Z-11.5 F333.33
N17810 X403.6
N17815 X403.8 F1000.
N17820 G17 G3 X404. Y190.833 I0. J0.2
N17825 G1 Y192.833
N17830 Z-12. F333.33
N17835 Y203. F1000.
N17840 G3 X403. Y204. I-1. J0.
N17845 G1 X392.833
N17850 Z-11.5
N17855 X388.833
N17860 Z-12. F333.33
N17865 X378.667 F1000.
N17870 G3 X377.667 Y203. I0. J-1.
N17875 G1 Y192.833
N17880 Z-11.5
N17885 Y188.833
N17890 Z-12. F333.33
N17895 Y178.667 F1000.
N17900 G3 X378.667 Y177.667 I1. J0.
N17905 G1 X388.833
N17910 Z-11.5
N17915 X392.833
N17920 Z-12. F333.33
N17925 X403. F1000.
N17930 G3 X404. Y178.667 I0. J1.
N17935 G1 Y188.833
N17940 Z-11.5
N17945 Y190.833
N17950 G3 X403.8 Y191.033 I-0.2 J0.
N17955 G1 X403.4
N17960 G0 Z10.
N17965 X370.067 Y190.633
N17970 G1 Z-3.8 F333.33
N17975 G18 G2 X370.267 Z-4. I0.2 K0.
N17980 G1 X370.467 F1000.
N17985 G17 G3 X370.667 Y190.833 I0. J0.2
N17990 G1 Y203.
N17995 G3 X369.667 Y204. I-1. J0.
N18000 G1 X345.333
N18005 G3 X344.333 Y203. I0. J-1.
N18010 G1 Y178.667
N18015 G3 X345.333 Y177.667 I1. J0.
N18020 G1 X369.667
N18025 G3 X370.667 Y178.667 I0. J1.
N18030 G1 Y190.833
N18035 G3 X370.467 Y191.033 I-0.2 J0.
N18040 G1 X370.267
N18045 G18 G3 X370.067 Z-3.8 I0. K0.2
N18050 G1 Y190.633
N18055 Z-7.8 F333.33
N18060 G2 X370.267 Z-8. I0.2 K0.
N18065 G1 X370.467 F1000.
N18070 G17 G3 X370.667 Y190.833 I0. J0.2
N18075 G1 Y203.
N18080 G3 X369.667 Y204. I-1. J0.
N18085 G1 X345.333
N18090 G3 X344.333 Y203. I0. J-1.
N18095 G1 Y178.667
N18100 G3 X345.333 Y177.667 I1. J0.
N18105 G1 X369.667
N18110 G3 X370.667 Y178.667 I0. J1.
N18115 G1 Y190.833
N18120 G3 X370.467 Y191.033 I-0.2 J0.
N18125 G1 X370.267
N18130 G18 G3 X370.067 Z-7.8 I0. K0.2
N18135 G1 Y190.633
N18140 Z-11.5 F333.33
N18145 X370.267
N18150 X370.467 F1000.
N18155 G17 G3 X370.667 Y190.833 I0. J0.2
N18160 G1 Y192.833
N18165 Z-12. F333.33
N18170 Y203. F1000.
N18175 G3 X369.667 Y204. I-1. J0.
N18180 G1 X359.5
N18185 Z-11.5
N18190 X355.5
N18195 Z-12. F333.33
N18200 X345.333 F1000.
N18205 G3 X344.333 Y203. I0. J-1.
N18210 G1 Y192.833
N18215 Z-11.5
N18220 Y188.833
N18225 Z-12. F333.33
N18230 Y178.667 F1000.
N18235 G3 X345.333 Y177.667 I1. J0.
N18240 G1 X355.5
N18245 Z-11.5
N18250 X359.5
N18255 Z-12. F333.33
N18260 X369.667 F1000.
N18265 G3 X370.667 Y178.667 I0. J1.
N18270 G1 Y188.833
N18275 Z-11.5
N18280 Y190.833
N18285 G3 X370.467 Y191.033 I-0.2 J0.
N18290 G1 X370.067
N18295 G0 Z10.
N18300 Y157.3
N18305 G1 Z-3.8 F333.33
N18310 G18 G2 X370.267 Z-4. I0.2 K0.
N18315 G1 X370.467 F1000.
N18320 G17 G3 X370.667 Y157.5 I0. J0.2
N18325 G1 Y169.667
N18330 G3 X369.667 Y170.667 I-1. J0.
N18335 G1 X345.333
N18340 G3 X344.333 Y169.667 I0. J-1.
N18345 G1 Y145.333
N18350 G3 X345.333 Y144.333 I1. J0.
N18355 G1 X369.667
N18360 G3 X370.667 Y145.333 I0. J1.
N18365 G1 Y157.5
N18370 G3 X370.467 Y157.7 I-0.2 J0.
N18375 G1 X370.267
N18380 G18 G3 X370.067 Z-3.8 I0. K0.2
N18385 G1 Y157.3
N18390 Z-7.8 F333.33
N18395 G2 X370.267 Z-8. I0.2 K0.
N18400 G1 X370.467 F1000.
N18405 G17 G3 X370.667 Y157.5 I0. J0.2
N18410 G1 Y169.667
N18415 G3 X369.667 Y170.667 I-1. J0.
N18420 G1 X345.333
N18425 G3 X344.333 Y169.667 I0. J-1.
N18430 G1 Y145.333
N18435 G3 X345.333 Y144.333 I1. J0.
N18440 G1 X369.667
N18445 G3 X370.667 Y145.333 I0. J1.
N18450 G1 Y157.5
N18455 G3 X370.467 Y157.7 I-0.2 J0.
N18460 G1 X370.267
N18465 G18 G3 X370.067 Z-7.8 I0. K0.2
N18470 G1 Y157.3
N18475 Z-11.5 F333.33
N18480 X370.267
N18485 X370.467 F1000.
N18490 G17 G3 X370.667 Y157.5 I0. J0.2
N18495 G1 Y159.5
N18500 Z-12. F333.33
N18505 Y169.667 F1000.
N18510 G3 X369.667 Y170.667 I-1. J0.
N18515 G1 X359.5
N18520 Z-11.5
N18525 X355.5
N18530 Z-12. F333.33
N18535 X345.333 F1000.
N18540 G3 X344.333 Y169.667 I0. J-1.
N18545 G1 Y159.5
N18550 Z-11.5
N18555 Y155.5
N18560 Z-12. F333.33
N18565 Y145.333 F1000.
N18570 G3 X345.333 Y144.333 I1. J0.
N18575 G1 X355.5
N18580 Z-11.5
N18585 X359.5
N18590 Z-12. F333.33
N18595 X369.667 F1000.
N18600 G3 X370.667 Y145.333 I0. J1.
N18605 G1 Y155.5
N18610 Z-11.5
N18615 Y157.5
N18620 G3 X370.467 Y157.7 I-0.2 J0.
N18625 G1 X370.067
N18630 G0 Z10.
N18635 X357.699 Y136.733
N18640 G1 Z-3.8 F333.33
N18645 G19 G3 Y136.933 Z-4. J0.2 K0.
N18650 G1 Y137.133 F1000.
N18655 G17 G3 X357.5 Y137.333 I-0.2 J0.
N18660 G1 X345.333
N18665 G3 X344.333 Y136.333 I0. J-1.
N18670 G1 Y112.
N18675 G3 X345.333 Y111. I1. J0.
N18680 G1 X369.667
N18685 G3 X370.667 Y112. I0. J1.
N18690 G1 Y136.333
N18695 G3 X369.667 Y137.333 I-1. J0.
N18700 G1 X357.5
N18705 G3 X357.299 Y137.133 I0. J-0.2
N18710 G1 Y136.933
N18715 G19 G2 Y136.733 Z-3.8 J0. K0.2
N18720 G1 X357.699
N18725 Z-7.8 F333.33
N18730 G3 Y136.933 Z-8. J0.2 K0.
N18735 G1 Y137.133 F1000.
N18740 G17 G3 X357.5 Y137.333 I-0.2 J0.
N18745 G1 X345.333
N18750 G3 X344.333 Y136.333 I0. J-1.
N18755 G1 Y112.
N18760 G3 X345.333 Y111. I1. J0.
N18765 G1 X369.667
N18770 G3 X370.667 Y112. I0. J1.
N18775 G1 Y136.333
N18780 G3 X369.667 Y137.333 I-1. J0.
N18785 G1 X357.5
N18790 G3 X357.299 Y137.133 I0. J-0.2
N18795 G1 Y136.933
N18800 G19 G2 Y136.733 Z-7.8 J0. K0.2
N18805 G1 X357.699
N18810 Z-11.5 F333.33
N18815 Y136.933
N18820 Y137.133 F1000.
N18825 G17 G3 X357.5 Y137.333 I-0.2 J0.
N18830 G1 X355.5
N18835 Z-12. F333.33
N18840 X345.333 F1000.
N18845 G3 X344.333 Y136.333 I0. J-1.
N18850 G1 Y126.167
N18855 Z-11.5
N18860 Y122.167
N18865 Z-12. F333.33
N18870 Y112. F1000.
N18875 G3 X345.333 Y111. I1. J0.
N18880 G1 X355.5
N18885 Z-11.5
N18890 X359.5
N18895 Z-12. F333.33
N18900 X369.667 F1000.
N18905 G3 X370.667 Y112. I0. J1.
N18910 G1 Y122.167
N18915 Z-11.5
N18920 Y126.167
N18925 Z-12. F333.33
N18930 Y136.333 F1000.
N18935 G3 X369.667 Y137.333 I-1. J0.
N18940 G1 X359.5
N18945 Z-11.5
N18950 X357.5
N18955 G3 X357.299 Y137.133 I0. J-0.2
N18960 G1 Y136.733
N18965 G0 Z10.
N18970 X336.733 Y123.966
N18975 G1 Z-3.8 F333.33
N18980 G18 G2 X336.933 Z-4. I0.2 K0.
N18985 G1 X337.133 F1000.
N18990 G17 G3 X337.333 Y124.166 I0. J0.2
N18995 G1 Y136.333
N19000 G3 X336.333 Y137.333 I-1. J0.
N19005 G1 X312.
N19010 G3 X311. Y136.333 I0. J-1.
N19015 G1 Y112.
N19020 G3 X312. Y111. I1. J0.
N19025 G1 X336.333
N19030 G3 X337.333 Y112. I0. J1.
N19035 G1 Y124.166
N19040 G3 X337.133 Y124.367 I-0.2 J0.
N19045 G1 X336.933
N19050 G18 G3 X336.733 Z-3.8 I0. K0.2
N19055 G1 Y123.966
N19060 Z-7.8 F333.33
N19065 G2 X336.933 Z-8. I0.2 K0.
N19070 G1 X337.133 F1000.
N19075 G17 G3 X337.333 Y124.166 I0. J0.2
N19080 G1 Y136.333
N19085 G3 X336.333 Y137.333 I-1. J0.
N19090 G1 X312.
N19095 G3 X311. Y136.333 I0. J-1.
N19100 G1 Y112.
N19105 G3 X312. Y111. I1. J0.
N19110 G1 X336.333
N19115 G3 X337.333 Y112. I0. J1.
N19120 G1 Y124.166
N19125 G3 X337.133 Y124.367 I-0.2 J0.
N19130 G1 X336.933
N19135 G18 G3 X336.733 Z-7.8 I0. K0.2
N19140 G1 Y123.966
N19145 Z-11.5 F333.33
N19150 X336.933
N19155 X337.133 F1000.
N19160 G17 G3 X337.333 Y124.166 I0. J0.2
N19165 G1 Y126.167
N19170 Z-12. F333.33
N19175 Y136.333 F1000.
N19180 G3 X336.333 Y137.333 I-1. J0.
N19185 G1 X326.167
N19190 Z-11.5
N19195 X322.167
N19200 Z-12. F333.33
N19205 X312. F1000.
N19210 G3 X311. Y136.333 I0. J-1.
N19215 G1 Y126.167
N19220 Z-11.5
N19225 Y122.167
N19230 Z-12. F333.33
N19235 Y112. F1000.
N19240 G3 X312. Y111. I1. J0.
N19245 G1 X322.167
N19250 Z-11.5
N19255 X326.167
N19260 Z-12. F333.33
N19265 X336.333 F1000.
N19270 G3 X337.333 Y112. I0. J1.
N19275 G1 Y122.167
N19280 Z-11.5
N19285 Y124.166
N19290 G3 X337.133 Y124.367 I-0.2 J0.
N19295 G1 X336.733
N19300 G0 Z10.
N19305 Y157.299
N19310 G1 Z-3.8 F333.33
N19315 G18 G2 X336.933 Z-4. I0.2 K0.
N19320 G1 X337.133 F1000.
N19325 G17 G3 X337.333 Y157.499 I0. J0.2
N19330 G1 Y169.667
N19335 G3 X336.333 Y170.667 I-1. J0.
N19340 G1 X312.
N19345 G3 X311. Y169.667 I0. J-1.
N19350 G1 Y145.333
N19355 G3 X312. Y144.333 I1. J0.
N19360 G1 X336.333
N19365 G3 X337.333 Y145.333 I0. J1.
N19370 G1 Y157.499
N19375 G3 X337.133 Y157.699 I-0.2 J0.
N19380 G1 X336.933
N19385 G18 G3 X336.733 Z-3.8 I0. K0.2
N19390 G1 Y157.299
N19395 Z-7.8 F333.33
N19400 G2 X336.933 Z-8. I0.2 K0.
N19405 G1 X337.133 F1000.
N19410 G17 G3 X337.333 Y157.499 I0. J0.2
N19415 G1 Y169.667
N19420 G3 X336.333 Y170.667 I-1. J0.
N19425 G1 X312.
N19430 G3 X311. Y169.667 I0. J-1.
N19435 G1 Y145.333
N19440 G3 X312. Y144.333 I1. J0.
N19445 G1 X336.333
N19450 G3 X337.333 Y145.333 I0. J1.
N19455 G1 Y157.499
N19460 G3 X337.133 Y157.699 I-0.2 J0.
N19465 G1 X336.933
N19470 G18 G3 X336.733 Z-7.8 I0. K0.2
N19475 G1 Y157.299
N19480 Z-11.5 F333.33
N19485 X336.933
N19490 X337.133 F1000.
N19495 G17 G3 X337.333 Y157.499 I0. J0.2
N19500 G1 Y159.5
N19505 Z-12. F333.33
N19510 Y169.667 F1000.
N19515 G3 X336.333 Y170.667 I-1. J0.
N19520 G1 X326.167
N19525 Z-11.5
N19530 X322.167
N19535 Z-12. F333.33
N19540 X312. F1000.
N19545 G3 X311. Y169.667 I0. J-1.
N19550 G1 Y159.5
N19555 Z-11.5
N19560 Y155.5
N19565 Z-12. F333.33
N19570 Y145.333 F1000.
N19575 G3 X312. Y144.333 I1. J0.
N19580 G1 X322.167
N19585 Z-11.5
N19590 X326.167
N19595 Z-12. F333.33
N19600 X336.333 F1000.
N19605 G3 X337.333 Y145.333 I0. J1.
N19610 G1 Y155.5
N19615 Z-11.5
N19620 Y157.499
N19625 G3 X337.133 Y157.699 I-0.2 J0.
N19630 G1 X336.733
N19635 G0 Z10.
N19640 Y190.633
N19645 G1 Z-3.8 F333.33
N19650 G18 G2 X336.933 Z-4. I0.2 K0.
N19655 G1 X337.133 F1000.
N19660 G17 G3 X337.333 Y190.833 I0. J0.2
N19665 G1 Y203.
N19670 G3 X336.333 Y204. I-1. J0.
N19675 G1 X312.
N19680 G3 X311. Y203. I0. J-1.
N19685 G1 Y178.667
N19690 G3 X312. Y177.667 I1. J0.
N19695 G1 X336.333
N19700 G3 X337.333 Y178.667 I0. J1.
N19705 G1 Y190.833
N19710 G3 X337.133 Y191.033 I-0.2 J0.
N19715 G1 X336.933
N19720 G18 G3 X336.733 Z-3.8 I0. K0.2
N19725 G1 Y190.633
N19730 Z-7.8 F333.33
N19735 G2 X336.933 Z-8. I0.2 K0.
N19740 G1 X337.133 F1000.
N19745 G17 G3 X337.333 Y190.833 I0. J0.2
N19750 G1 Y203.
N19755 G3 X336.333 Y204. I-1. J0.
N19760 G1 X312.
N19765 G3 X311. Y203. I0. J-1.
N19770 G1 Y178.667
N19775 G3 X312. Y177.667 I1. J0.
N19780 G1 X336.333
N19785 G3 X337.333 Y178.667 I0. J1.
N19790 G1 Y190.833
N19795 G3 X337.133 Y191.033 I-0.2 J0.
N19800 G1 X336.933
N19805 G18 G3 X336.733 Z-7.8 I0. K0.2
N19810 G1 Y190.633
N19815 Z-11.5 F333.33
N19820 X336.933
N19825 X337.133 F1000.
N19830 G17 G3 X337.333 Y190.833 I0. J0.2
N19835 G1 Y192.833
N19840 Z-12. F333.33
N19845 Y203. F1000.
N19850 G3 X336.333 Y204. I-1. J0.
N19855 G1 X326.167
N19860 Z-11.5
N19865 X322.167
N19870 Z-12. F333.33
N19875 X312. F1000.
N19880 G3 X311. Y203. I0. J-1.
N19885 G1 Y192.833
N19890 Z-11.5
N19895 Y188.833
N19900 Z-12. F333.33
N19905 Y178.667 F1000.
N19910 G3 X312. Y177.667 I1. J0.
N19915 G1 X322.167
N19920 Z-11.5
N19925 X326.167
N19930 Z-12. F333.33
N19935 X336.333 F1000.
N19940 G3 X337.333 Y178.667 I0. J1.
N19945 G1 Y188.833
N19950 Z-11.5
N19955 Y190.833
N19960 G3 X337.133 Y191.033 I-0.2 J0.
N19965 G1 X336.733
N19970 G0 Z10.
N19975 Y223.967
N19980 G1 Z-3.8 F333.33
N19985 G18 G2 X336.933 Z-4. I0.2 K0.
N19990 G1 X337.133 F1000.
N19995 G17 G3 X337.333 Y224.167 I0. J0.2
N20000 G1 Y236.333
N20005 G3 X336.333 Y237.333 I-1. J0.
N20010 G1 X312.
N20015 G3 X311. Y236.333 I0. J-1.
N20020 G1 Y212.
N20025 G3 X312. Y211. I1. J0.
N20030 G1 X336.333
N20035 G3 X337.333 Y212. I0. J1.
N20040 G1 Y224.167
N20045 G3 X337.133 Y224.367 I-0.2 J0.
N20050 G1 X336.933
N20055 G18 G3 X336.733 Z-3.8 I0. K0.2
N20060 G1 Y223.967
N20065 Z-7.8 F333.33
N20070 G2 X336.933 Z-8. I0.2 K0.
N20075 G1 X337.133 F1000.
N20080 G17 G3 X337.333 Y224.167 I0. J0.2
N20085 G1 Y236.333
N20090 G3 X336.333 Y237.333 I-1. J0.
N20095 G1 X312.
N20100 G3 X311. Y236.333 I0. J-1.
N20105 G1 Y212.
N20110 G3 X312. Y211. I1. J0.
N20115 G1 X336.333
N20120 G3 X337.333 Y212. I0. J1.
N20125 G1 Y224.167
N20130 G3 X337.133 Y224.367 I-0.2 J0.
N20135 G1 X336.933
N20140 G18 G3 X336.733 Z-7.8 I0. K0.2
N20145 G1 Y223.967
N20150 Z-11.5 F333.33
N20155 X336.933
N20160 X337.133 F1000.
N20165 G17 G3 X337.333 Y224.167 I0. J0.2
N20170 G1 Y226.167
N20175 Z-12. F333.33
N20180 Y236.333 F1000.
N20185 G3 X336.333 Y237.333 I-1. J0.
N20190 G1 X326.167
N20195 Z-11.5
N20200 X322.167
N20205 Z-12. F333.33
N20210 X312. F1000.
N20215 G3 X311. Y236.333 I0. J-1.
N20220 G1 Y226.167
N20225 Z-11.5
N20230 Y222.167
N20235 Z-12. F333.33
N20240 Y212. F1000.
N20245 G3 X312. Y211. I1. J0.
N20250 G1 X322.167
N20255 Z-11.5
N20260 X326.167
N20265 Z-12. F333.33
N20270 X336.333 F1000.
N20275 G3 X337.333 Y212. I0. J1.
N20280 G1 Y222.167
N20285 Z-11.5
N20290 Y224.167
N20295 G3 X337.133 Y224.367 I-0.2 J0.
N20300 G1 X336.733
N20305 G0 Z10.
N20310 X303.4 Y223.967
N20315 G1 Z-3.8 F333.33
N20320 G18 G2 X303.6 Z-4. I0.2 K0.
N20325 G1 X303.8 F1000.
N20330 G17 G3 X304. Y224.167 I0. J0.2
N20335 G1 Y236.333
N20340 G3 X303. Y237.333 I-1. J0.
N20345 G1 X278.667
N20350 G3 X277.667 Y236.333 I0. J-1.
N20355 G1 Y212.
N20360 G3 X278.667 Y211. I1. J0.
N20365 G1 X303.
N20370 G3 X304. Y212. I0. J1.
N20375 G1 Y224.167
N20380 G3 X303.8 Y224.367 I-0.2 J0.
N20385 G1 X303.6
N20390 G18 G3 X303.4 Z-3.8 I0. K0.2
N20395 G1 Y223.967
N20400 Z-7.8 F333.33
N20405 G2 X303.6 Z-8. I0.2 K0.
N20410 G1 X303.8 F1000.
N20415 G17 G3 X304. Y224.167 I0. J0.2
N20420 G1 Y236.333
N20425 G3 X303. Y237.333 I-1. J0.
N20430 G1 X278.667
N20435 G3 X277.667 Y236.333 I0. J-1.
N20440 G1 Y212.
N20445 G3 X278.667 Y211. I1. J0.
N20450 G1 X303.
N20455 G3 X304. Y212. I0. J1.
N20460 G1 Y224.167
N20465 G3 X303.8 Y224.367 I-0.2 J0.
N20470 G1 X303.6
N20475 G18 G3 X303.4 Z-7.8 I0. K0.2
N20480 G1 Y223.967
N20485 Z-11.5 F333.33
N20490 X303.6
N20495 X303.8 F1000.
N20500 G17 G3 X304. Y224.167 I0. J0.2
N20505 G1 Y226.167
N20510 Z-12. F333.33
N20515 Y236.333 F1000.
N20520 G3 X303. Y237.333 I-1. J0.
N20525 G1 X292.833
N20530 Z-11.5
N20535 X288.833
N20540 Z-12. F333.33
N20545 X278.667 F1000.
N20550 G3 X277.667 Y236.333 I0. J-1.
N20555 G1 Y226.167
N20560 Z-11.5
N20565 Y222.167
N20570 Z-12. F333.33
N20575 Y212. F1000.
N20580 G3 X278.667 Y211. I1. J0.
N20585 G1 X288.833
N20590 Z-11.5
N20595 X292.833
N20600 Z-12. F333.33
N20605 X303. F1000.
N20610 G3 X304. Y212. I0. J1.
N20615 G1 Y222.167
N20620 Z-11.5
N20625 Y224.167
N20630 G3 X303.8 Y224.367 I-0.2 J0.
N20635 G1 X303.4
N20640 G0 Z10.
N20645 Y190.633
N20650 G1 Z-3.8 F333.33
N20655 G18 G2 X303.6 Z-4. I0.2 K0.
N20660 G1 X303.8 F1000.
N20665 G17 G3 X304. Y190.833 I0. J0.2
N20670 G1 Y203.
N20675 G3 X303. Y204. I-1. J0.
N20680 G1 X278.667
N20685 G3 X277.667 Y203. I0. J-1.
N20690 G1 Y178.667
N20695 G3 X278.667 Y177.667 I1. J0.
N20700 G1 X303.
N20705 G3 X304. Y178.667 I0. J1.
N20710 G1 Y190.833
N20715 G3 X303.8 Y191.033 I-0.2 J0.
N20720 G1 X303.6
N20725 G18 G3 X303.4 Z-3.8 I0. K0.2
N20730 G1 Y190.633
N20735 Z-7.8 F333.33
N20740 G2 X303.6 Z-8. I0.2 K0.
N20745 G1 X303.8 F1000.
N20750 G17 G3 X304. Y190.833 I0. J0.2
N20755 G1 Y203.
N20760 G3 X303. Y204. I-1. J0.
N20765 G1 X278.667
N20770 G3 X277.667 Y203. I0. J-1.
N20775 G1 Y178.667
N20780 G3 X278.667 Y177.667 I1. J0.
N20785 G1 X303.
N20790 G3 X304. Y178.667 I0. J1.
N20795 G1 Y190.833
N20800 G3 X303.8 Y191.033 I-0.2 J0.
N20805 G1 X303.6
N20810 G18 G3 X303.4 Z-7.8 I0. K0.2
N20815 G1 Y190.633
N20820 Z-11.5 F333.33
N20825 X303.6
N20830 X303.8 F1000.
N20835 G17 G3 X304. Y190.833 I0. J0.2
N20840 G1 Y192.833
N20845 Z-12. F333.33
N20850 Y203. F1000.
N20855 G3 X303. Y204. I-1. J0.
N20860 G1 X292.833
N20865 Z-11.5
N20870 X288.833
N20875 Z-12. F333.33
N20880 X278.667 F1000.
N20885 G3 X277.667 Y203. I0. J-1.
N20890 G1 Y192.833
N20895 Z-11.5
N20900 Y188.833
N20905 Z-12. F333.33
N20910 Y178.667 F1000.
N20915 G3 X278.667 Y177.667 I1. J0.
N20920 G1 X288.833
N20925 Z-11.5
N20930 X292.833
N20935 Z-12. F333.33
N20940 X303. F1000.
N20945 G3 X304. Y178.667 I0. J1.
N20950 G1 Y188.833
N20955 Z-11.5
N20960 Y190.833
N20965 G3 X303.8 Y191.033 I-0.2 J0.
N20970 G1 X303.4
N20975 G0 Z10.
N20980 Y157.301
N20985 G1 Z-3.8 F333.33
N20990 G18 G2 X303.6 Z-4. I0.2 K0.
N20995 G1 X303.8 F1000.
N21000 G17 G3 X304. Y157.501 I0. J0.2
N21005 G1 Y169.667
N21010 G3 X303. Y170.667 I-1. J0.
N21015 G1 X278.667
N21020 G3 X277.667 Y169.667 I0. J-1.
N21025 G1 Y145.333
N21030 G3 X278.667 Y144.333 I1. J0.
N21035 G1 X303.
N21040 G3 X304. Y145.333 I0. J1.
N21045 G1 Y157.501
N21050 G3 X303.8 Y157.701 I-0.2 J0.
N21055 G1 X303.6
N21060 G18 G3 X303.4 Z-3.8 I0. K0.2
N21065 G1 Y157.301
N21070 Z-7.8 F333.33
N21075 G2 X303.6 Z-8. I0.2 K0.
N21080 G1 X303.8 F1000.
N21085 G17 G3 X304. Y157.501 I0. J0.2
N21090 G1 Y169.667
N21095 G3 X303. Y170.667 I-1. J0.
N21100 G1 X278.667
N21105 G3 X277.667 Y169.667 I0. J-1.
N21110 G1 Y145.333
N21115 G3 X278.667 Y144.333 I1. J0.
N21120 G1 X303.
N21125 G3 X304. Y145.333 I0. J1.
N21130 G1 Y157.501
N21135 G3 X303.8 Y157.701 I-0.2 J0.
N21140 G1 X303.6
N21145 G18 G3 X303.4 Z-7.8 I0. K0.2
N21150 G1 Y157.301
N21155 Z-11.5 F333.33
N21160 X303.6
N21165 X303.8 F1000.
N21170 G17 G3 X304. Y157.501 I0. J0.2
N21175 G1 Y159.5
N21180 Z-12. F333.33
N21185 Y169.667 F1000.
N21190 G3 X303. Y170.667 I-1. J0.
N21195 G1 X292.833
N21200 Z-11.5
N21205 X288.833
N21210 Z-12. F333.33
N21215 X278.667 F1000.
N21220 G3 X277.667 Y169.667 I0. J-1.
N21225 G1 Y159.5
N21230 Z-11.5
N21235 Y155.5
N21240 Z-12. F333.33
N21245 Y145.333 F1000.
N21250 G3 X278.667 Y144.333 I1. J0.
N21255 G1 X288.833
N21260 Z-11.5
N21265 X292.833
N21270 Z-12. F333.33
N21275 X303. F1000.
N21280 G3 X304. Y145.333 I0. J1.
N21285 G1 Y155.5
N21290 Z-11.5
N21295 Y157.501
N21300 G3 X303.8 Y157.701 I-0.2 J0.
N21305 G1 X303.4
N21310 G0 Z10.
N21315 Y123.966
N21320 G1 Z-3.8 F333.33
N21325 G18 G2 X303.6 Z-4. I0.2 K0.
N21330 G1 X303.8 F1000.
N21335 G17 G3 X304. Y124.166 I0. J0.2
N21340 G1 Y136.333
N21345 G3 X303. Y137.333 I-1. J0.
N21350 G1 X278.667
N21355 G3 X277.667 Y136.333 I0. J-1.
N21360 G1 Y112.
N21365 G3 X278.667 Y111. I1. J0.
N21370 G1 X303.
N21375 G3 X304. Y112. I0. J1.
N21380 G1 Y124.166
N21385 G3 X303.8 Y124.367 I-0.2 J0.
N21390 G1 X303.6
N21395 G18 G3 X303.4 Z-3.8 I0. K0.2
N21400 G1 Y123.966
N21405 Z-7.8 F333.33
N21410 G2 X303.6 Z-8. I0.2 K0.
N21415 G1 X303.8 F1000.
N21420 G17 G3 X304. Y124.166 I0. J0.2
N21425 G1 Y136.333
N21430 G3 X303. Y137.333 I-1. J0.
N21435 G1 X278.667
N21440 G3 X277.667 Y136.333 I0. J-1.
N21445 G1 Y112.
N21450 G3 X278.667 Y111. I1. J0.
N21455 G1 X303.
N21460 G3 X304. Y112. I0. J1.
N21465 G1 Y124.166
N21470 G3 X303.8 Y124.367 I-0.2 J0.
N21475 G1 X303.6
N21480 G18 G3 X303.4 Z-7.8 I0. K0.2
N21485 G1 Y123.966
N21490 Z-11.5 F333.33
N21495 X303.6
N21500 X303.8 F1000.
N21505 G17 G3 X304. Y124.166 I0. J0.2
N21510 G1 Y126.167
N21515 Z-12. F333.33
N21520 Y136.333 F1000.
N21525 G3 X303. Y137.333 I-1. J0.
N21530 G1 X292.833
N21535 Z-11.5
N21540 X288.833
N21545 Z-12. F333.33
N21550 X278.667 F1000.
N21555 G3 X277.667 Y136.333 I0. J-1.
N21560 G1 Y126.167
N21565 Z-11.5
N21570 Y122.167
N21575 Z-12. F333.33
N21580 Y112. F1000.
N21585 G3 X278.667 Y111. I1. J0.
N21590 G1 X288.833
N21595 Z-11.5
N21600 X292.833
N21605 Z-12. F333.33
N21610 X303. F1000.
N21615 G3 X304. Y112. I0. J1.
N21620 G1 Y122.167
N21625 Z-11.5
N21630 Y124.166
N21635 G3 X303.8 Y124.367 I-0.2 J0.
N21640 G1 X303.4
N21645 G0 Z10.
N21650 Y90.633
N21655 G1 Z-3.8 F333.33
N21660 G18 G2 X303.6 Z-4. I0.2 K0.
N21665 G1 X303.8 F1000.
N21670 G17 G3 X304. Y90.834 I0. J0.2
N21675 G1 Y103.
N21680 G3 X303. Y104. I-1. J0.
N21685 G1 X278.667
N21690 G3 X277.667 Y103. I0. J-1.
N21695 G1 Y78.667
N21700 G3 X278.667 Y77.667 I1. J0.
N21705 G1 X303.
