%
(LEDSCHOTTEN_13_13_DEEL2.NGC)
(T1  D=3.175 CR=0. - ZMIN=0. - FLAT END MILL)
N10 G90 G94 G17 G91.1
N15 G21
(2D POCKET3 2)
N20 T1 M6
N25 S10000 M3
N30 M8
N35 G54
N40 G0 X14.826 Y231.288
N45 G43 Z27. H1
N50 G0 Z17.
N55 G1 Z8.286 F1000.
N60 X14.819 Y231.29 Z8.222
N65 X14.798 Y231.293 Z8.162
N70 X14.764 Y231.298 Z8.108
N75 X14.72 Y231.305 Z8.062
N80 X14.666 Y231.314 Z8.028
N85 X14.606 Y231.323 Z8.007
N90 X14.544 Y231.333 Z8.
N95 X9.856 Y232.076
N100 X9.806 Y232.079
N105 X0.
N110 X-1.473
N115 G3 X-1.673 Y231.88 I0. J-0.2
N120 G1 Y229.455
N125 G3 X-1.473 Y229.255 I0.2 J0.
N130 G1 X8.333
N135 X9.806
N140 S5000
N145 X-1.473 Z6. F333.33
N150 S10000
N155 X8.333 F1000.
N160 X9.806
N165 G3 X10.006 Y229.454 I0. J0.2
N170 G1 Y231.88
N175 G3 X9.806 Y232.079 I-0.2 J0.
N180 G1 X0.
N185 X-1.473
N190 X-1.523 Y232.076
N195 X-3.091 Y231.827
N200 X-3.16 Y231.816 Z6.008
N205 X-3.227 Y231.806 Z6.031
N210 X-3.286 Y231.796 Z6.069
N215 X-3.336 Y231.788 Z6.12
N220 X-3.373 Y231.783 Z6.18
N225 X-3.396 Y231.779 Z6.247
N230 X-3.404 Y231.778 Z6.318
N235 G0 Z27.
N240 X47.296 Y232.031
N245 Z17.
N250 G1 Z8.286 F1000.
N255 X47.289 Y232.032 Z8.222
N260 X47.268 Y232.035 Z8.162
N265 X47.234 Y232.041 Z8.108
N270 X47.189 Y232.048 Z8.062
N275 X47.136 Y232.056 Z8.028
N280 X47.076 Y232.066 Z8.007
N285 X47.014 Y232.076 Z8.
N290 X46.964 Y232.079
N295 X38.333
N300 X36.86
N305 G3 X36.66 Y231.88 I0. J-0.2
N310 G1 X36.653 Y229.455
N315 G3 X36.853 Y229.255 I0.2 J-0.001
N320 G1 X52.37
N325 S5000
N330 X36.853 Z6. F333.33
N335 S10000
N340 X52.37 F1000.
N345 G3 X52.452 Y229.637 I0. J0.2
N350 G1 X47.046 Y232.062
N355 X47.006 Y232.075
N360 X46.964 Y232.079
N365 X38.333
N370 X36.86
N375 X36.811 Y232.076
N380 X35.243 Y231.827
N385 X35.173 Y231.816 Z6.008
N390 X35.107 Y231.806 Z6.031
N395 X35.047 Y231.796 Z6.069
N400 X34.998 Y231.788 Z6.12
N405 X34.96 Y231.783 Z6.18
N410 X34.937 Y231.779 Z6.247
N415 X34.929 Y231.778 Z6.318
N420 G0 Z27.
N425 X440.853 Y230.325
N430 Z17.
N435 G1 Z8.286 F1000.
N440 X440.86 Y230.324 Z8.222
N445 X440.881 Y230.321 Z8.162
N450 X440.914 Y230.315 Z8.108
N455 X440.959 Y230.308 Z8.062
N460 X441.013 Y230.3 Z8.028
N465 X441.072 Y230.29 Z8.007
N470 X441.135 Y230.28 Z8.
N475 X447.588 Y229.258
N480 X447.637 Y229.255
N485 X461.667
N490 X463.14
N495 G3 X463.34 Y229.454 I0. J0.2
N500 G1 X463.347 Y231.879
N505 G3 X463.147 Y232.079 I-0.2 J0.001
N510 G1 X453.042
N515 X453.005 Y232.076
N520 X452.969 Y232.066
N525 X446.934 Y229.69
N530 G3 X446.992 Y229.305 I0.073 J-0.186
N535 G1 X447.062 Y229.299 Z7.992
N540 X447.129 Y229.294 Z7.969
N545 X447.189 Y229.289 Z7.931
N550 X447.239 Y229.285 Z7.88
N555 X447.277 Y229.282 Z7.82
N560 X447.301 Y229.281 Z7.753
N565 X447.309 Y229.28 Z7.682
N570 Z6.318
N575 X447.316 Y229.279 Z6.247
N580 X447.34 Y229.277 Z6.18
N585 X447.378 Y229.274 Z6.12
N590 X447.428 Y229.271 Z6.069
N595 X447.488 Y229.266 Z6.031
N600 X447.555 Y229.261 Z6.008
N605 X447.625 Y229.255 Z6.
N610 X447.637
N615 X461.667
N620 X463.14
N625 G3 X463.34 Y229.454 I0. J0.2
N630 G1 X463.347 Y231.879
N635 G3 X463.147 Y232.079 I-0.2 J0.001
N640 G1 X453.042
N645 X452.992 Y232.076
N650 X451.424 Y231.827
N655 X451.355 Y231.816 Z6.008
N660 X451.288 Y231.806 Z6.031
N665 X451.229 Y231.796 Z6.069
N670 X451.179 Y231.788 Z6.12
N675 X451.142 Y231.783 Z6.18
N680 X451.119 Y231.779 Z6.247
N685 X451.111 Y231.778 Z6.318
N690 G0 Z27.
N695 X476.031 Y198.704
N700 Z17.
N705 G1 Z8.286 F1000.
N710 X476.032 Y198.711 Z8.222
N715 X476.035 Y198.732 Z8.162
N720 X476.041 Y198.766 Z8.108
N725 X476.048 Y198.81 Z8.062
N730 X476.056 Y198.864 Z8.028
N735 X476.066 Y198.923 Z8.007
N740 X476.076 Y198.986 Z8.
N745 X476.079 Y199.036
N750 Y207.667
N755 Y209.14
N760 G3 X475.88 Y209.34 I-0.2 J0.
N765 G1 X473.455 Y209.347
N770 G3 X473.254 Y209.147 I-0.001 J-0.2
N775 G1 Y193.631
N780 G3 X473.634 Y193.541 I0.2 J0.
N785 G1 X476.009 Y198.317
N790 X476.023 Y198.353
N795 X476.029 Y198.391
N800 X476.035 Y198.461 Z7.992
N805 X476.04 Y198.528 Z7.969
N810 X476.045 Y198.588 Z7.931
N815 X476.049 Y198.638 Z7.88
N820 X476.052 Y198.676 Z7.82
N825 X476.053 Y198.699 Z7.753
N830 X476.054 Y198.707 Z7.682
N835 Z6.318
N840 X476.055 Y198.715 Z6.247
N845 X476.057 Y198.738 Z6.18
N850 X476.06 Y198.776 Z6.12
N855 X476.063 Y198.826 Z6.069
N860 X476.068 Y198.886 Z6.031
N865 X476.073 Y198.953 Z6.008
N870 X476.079 Y199.024 Z6.
N875 Y199.036
N880 Y207.667
N885 Y209.14
N890 G3 X475.88 Y209.34 I-0.2 J0.
N895 G1 X473.455 Y209.347
N900 G3 X473.254 Y209.147 I-0.001 J-0.2
N905 G1 Y193.631
N910 X473.258 Y193.581
N915 X473.507 Y192.013
N920 X473.518 Y191.943 Z6.008
N925 X473.528 Y191.877 Z6.031
N930 X473.538 Y191.817 Z6.069
N935 X473.546 Y191.768 Z6.12
N940 X473.552 Y191.73 Z6.18
N945 X473.555 Y191.707 Z6.247
N950 X473.556 Y191.699 Z6.318
N955 G0 Z27.
N960 X29.875 Y232.079
N965 Z17.
N970 G1 Z14.807 F1000.
N975 S5000
N980 G18 G3 X29.64 Z14.5 I-0.318 K0. F333.33
N985 G1 X9.921 Z9.216
N990 Y229.255 Z8.459
N995 X11.635 Z8.
N1000 S10000
N1005 X36.746 F1000.
N1010 Y232.079
N1015 X9.921
N1020 Y229.255
N1025 X11.635
N1030 S5000
N1035 X27.448 Z4. F333.33
N1040 S10000
N1045 X36.746 F1000.
N1050 Y232.079
N1055 X9.921
N1060 Y229.255
N1065 X27.448
N1070 S5000
N1075 X36.746 Z1.648 F333.33
N1080 Y232.079 Z0.934
N1085 X33.055 Z0.
N1090 S10000
N1095 X9.921 F1000.
N1100 Y229.255
N1105 X27.448
N1110 X36.746
N1115 Y232.079
N1120 X33.055
N1125 X32.995 Y232.074 Z0.012
N1130 X32.936 Y232.057 Z0.024
N1135 X32.89 Y232.034 Z0.059
N1140 X32.849 Y232.003 Z0.093
N1145 X32.802 Y231.953 Z0.196
N1150 X32.788 Y231.934 Z0.317
N1155 G0 Z17.
N1160 X14.559 Y215.767
N1165 G1 Z14.807 F1000.
N1170 S5000
N1175 X14.544 Y215.741 Z14.672 F333.33
N1180 X14.505 Y215.667 Z14.563
N1185 X14.456 Y215.555 Z14.5
N1190 G17 G3 X17.26 Y214.445 Z13.23 I1.402 J-0.555
N1195 X14.456 Y215.555 Z11.961 I-1.402 J0.555
N1200 X17.26 Y214.445 Z10.691 I1.402 J-0.555
N1205 X14.456 Y215.555 Z9.422 I-1.402 J0.555
N1210 X17.26 Y214.445 Z8.152 I1.402 J-0.555
N1215 X17.366 Y215. Z8. I-1.402 J0.555
N1220 X15.604 I-0.881 J0.
N1225 S10000
N1230 X17.413 I0.904 J0. F1000.
N1235 X12.587 I-2.413 J0.
N1240 X17.413 I2.413 J0.
N1245 G1 X17.405 Y215.053
N1250 X17.385 Y215.102
N1255 X17.351 Y215.144
N1260 X17.308 Y215.175
N1265 X17.259 Y215.195
N1270 X14.74 Y215.791
N1275 X14.687 Y215.797
N1280 X14.635 Y215.788
N1285 X14.587 Y215.766
N1290 X14.546 Y215.732
N1295 X14.516 Y215.688
N1300 S5000
N1305 G3 X17.2 Y214.312 Z6.73 I1.342 J-0.688 F333.33
N1310 X14.516 Y215.688 Z5.461 I-1.342 J0.688
N1315 X17.2 Y214.312 Z4.191 I1.342 J-0.688
N1320 X17.366 Y215. Z4. I-1.342 J0.688
N1325 X15.604 I-0.881 J0.
N1330 S10000
N1335 X17.413 I0.904 J0. F1000.
N1340 X12.587 I-2.413 J0.
N1345 X17.413 I2.413 J0.
N1350 G1 X17.405 Y215.053
N1355 X17.385 Y215.102
N1360 X17.351 Y215.144
N1365 X17.308 Y215.175
N1370 X17.259 Y215.195
N1375 X14.74 Y215.791
N1380 X14.687 Y215.797
N1385 X14.635 Y215.788
N1390 X14.587 Y215.766
N1395 X14.546 Y215.732
N1400 X14.516 Y215.688
N1405 S5000
N1410 G3 X17.2 Y214.312 Z2.73 I1.342 J-0.688 F333.33
N1415 X14.516 Y215.688 Z1.461 I-1.342 J0.688
N1420 X17.2 Y214.312 Z0.191 I1.342 J-0.688
N1425 X17.366 Y215. Z0. I-1.342 J0.688
N1430 X15.604 I-0.881 J0.
N1435 S10000
N1440 X17.413 I0.904 J0. F1000.
N1445 X12.587 I-2.413 J0.
N1450 X17.413 I2.413 J0.
N1455 G1 X17.407 Y215.06 Z0.012
N1460 X17.39 Y215.119 Z0.024
N1465 X17.367 Y215.165 Z0.059
N1470 X17.336 Y215.206 Z0.093
N1475 X17.286 Y215.253 Z0.196
N1480 X17.267 Y215.267 Z0.317
N1485 G0 Z17.
N1490 X474.82 Y229.386
N1495 G1 Z14.807 F1000.
N1500 S5000
N1505 X474.835 Y229.412 Z14.672 F333.33
N1510 X474.874 Y229.486 Z14.563
N1515 X474.924 Y229.597 Z14.5
N1520 G3 X472.12 Y230.708 Z13.23 I-1.402 J0.555
N1525 X474.924 Y229.597 Z11.961 I1.402 J-0.555
N1530 X472.12 Y230.708 Z10.691 I-1.402 J0.555
N1535 X474.924 Y229.597 Z9.422 I1.402 J-0.555
N1540 X472.12 Y230.708 Z8.152 I-1.402 J0.555
N1545 X472.014 Y230.152 Z8. I1.402 J-0.555
N1550 X474.651 I1.319 J0.
N1555 S10000
N1560 G1 Y230.332 F1000.
N1565 G3 X474.332 Y230.651 I-0.319 J0.
N1570 G1 X472.908
N1575 X472.87 Y230.645
N1580 X472.837 Y230.626
N1585 X472.811 Y230.597
N1590 X472.797 Y230.562
N1595 X472.796 Y230.523
N1600 X472.808 Y230.487
N1605 X472.831 Y230.456
N1610 X472.863 Y230.435
N1615 G2 X474.435 Y228.863 I-1.196 J-2.768
N1620 G1 X474.456 Y228.831
N1625 X474.487 Y228.808
N1630 X474.523 Y228.796
N1635 X474.562 Y228.797
N1640 X474.597 Y228.811
N1645 X474.626 Y228.837
N1650 X474.645 Y228.87
N1655 X474.651 Y228.908
N1660 Y230.152
N1665 G2 X475.122 Y231.086 I1.163 J0.
N1670 G3 X474.794 Y232.079 I-0.328 J0.442
N1675 G1 X463.254
N1680 Y229.255
N1685 X471.667
N1690 G2 X473.254 Y227.667 I0. J-1.587
N1695 G1 Y209.255
N1700 X476.079
N1705 Y232.079
N1710 X474.794
N1715 X474.749 Y232.073
N1720 X474.709 Y232.055
N1725 X474.675 Y232.026
N1730 X474.65 Y231.988
N1735 X474.637 Y231.945
N1740 X474.636 Y231.901
N1745 X474.748 Y230.997
N1750 X474.65 Y229.849
N1755 X474.698 Y229.492
N1760 X474.71 Y229.458
N1765 X474.736 Y229.431
N1770 X474.77 Y229.418
N1775 X474.807 Y229.419
N1780 X474.84 Y229.436
N1785 X474.864 Y229.464
N1790 S5000
N1795 G3 X472.18 Y230.84 Z6.73 I-1.342 J0.688 F333.33
N1800 X474.864 Y229.464 Z5.461 I1.342 J-0.688
N1805 X472.18 Y230.84 Z4.191 I-1.342 J0.688
N1810 X472.014 Y230.152 Z4. I1.342 J-0.688
N1815 X474.651 I1.319 J0.
N1820 S10000
N1825 G1 Y230.332 F1000.
N1830 G3 X474.332 Y230.651 I-0.319 J0.
N1835 G1 X472.908
N1840 X472.87 Y230.645
N1845 X472.837 Y230.626
N1850 X472.811 Y230.597
N1855 X472.797 Y230.562
N1860 X472.796 Y230.523
N1865 X472.808 Y230.487
N1870 X472.831 Y230.456
N1875 X472.863 Y230.435
N1880 G2 X474.435 Y228.863 I-1.196 J-2.768
N1885 G1 X474.456 Y228.831
N1890 X474.487 Y228.808
N1895 X474.523 Y228.796
N1900 X474.562 Y228.797
N1905 X474.597 Y228.811
N1910 X474.626 Y228.837
N1915 X474.645 Y228.87
N1920 X474.651 Y228.908
N1925 Y230.152
N1930 G2 X475.122 Y231.086 I1.163 J0.
N1935 G3 X474.794 Y232.079 I-0.328 J0.442
N1940 G1 X463.254
N1945 Y229.255
N1950 X471.667
N1955 G2 X473.254 Y227.667 I0. J-1.587
N1960 G1 Y209.255
N1965 X476.079
N1970 Y232.079
N1975 X474.794
N1980 X474.749 Y232.073
N1985 X474.709 Y232.055
N1990 X474.675 Y232.026
N1995 X474.65 Y231.988
N2000 X474.637 Y231.945
N2005 X474.636 Y231.901
N2010 X474.748 Y230.997
N2015 X474.65 Y229.849
N2020 X474.698 Y229.492
N2025 X474.71 Y229.458
N2030 X474.736 Y229.431
N2035 X474.77 Y229.418
N2040 X474.807 Y229.419
N2045 X474.84 Y229.436
N2050 X474.864 Y229.464
N2055 S5000
N2060 G3 X472.18 Y230.84 Z2.73 I-1.342 J0.688 F333.33
N2065 X474.864 Y229.464 Z1.461 I1.342 J-0.688
N2070 X472.18 Y230.84 Z0.191 I-1.342 J0.688
N2075 X472.014 Y230.152 Z0. I1.342 J-0.688
N2080 X474.651 I1.319 J0.
N2085 S10000
N2090 G1 Y230.332 F1000.
N2095 G3 X474.332 Y230.651 I-0.319 J0.
N2100 G1 X472.908
N2105 X472.87 Y230.645
N2110 X472.837 Y230.626
N2115 X472.811 Y230.597
N2120 X472.797 Y230.562
N2125 X472.796 Y230.523
N2130 X472.808 Y230.487
N2135 X472.831 Y230.456
N2140 X472.863 Y230.435
N2145 G2 X474.435 Y228.863 I-1.196 J-2.768
N2150 G1 X474.456 Y228.831
N2155 X474.487 Y228.808
N2160 X474.523 Y228.796
N2165 X474.562 Y228.797
N2170 X474.597 Y228.811
N2175 X474.626 Y228.837
N2180 X474.645 Y228.87
N2185 X474.651 Y228.908
N2190 Y230.152
N2195 G2 X475.122 Y231.086 I1.163 J0.
N2200 G3 X474.794 Y232.079 I-0.328 J0.442
N2205 G1 X463.254
N2210 Y229.255
N2215 X471.667
N2220 G2 X473.254 Y227.667 I0. J-1.587
N2225 G1 Y209.255
N2230 X476.079
N2235 Y232.079
N2240 X474.794
N2245 X474.733 Y232.074 Z0.012
N2250 X474.675 Y232.057 Z0.024
N2255 X474.629 Y232.034 Z0.059
N2260 X474.587 Y232.003 Z0.093
N2265 X474.54 Y231.953 Z0.196
N2270 X474.526 Y231.934 Z0.317
N2275 G0 Z27.
(2D CONTOUR4 2)
N2280 S12000 M3
N2285 M8
N2290 G0 X250.317 Y111.627
N2295 Z27.
N2300 Z17.
N2305 G1 Z8.317 F333.33
N2310 G19 G3 Y111.945 Z8. J0.318 K0. F1000.
N2315 G1 Y112.262
N2320 G17 G3 X250. Y112.579 I-0.318 J0.
N2325 G1 X237.833 F1100.
N2330 G3 X237.421 Y112.167 I0. J-0.412
N2335 G1 Y87.833
N2340 G3 X237.833 Y87.421 I0.412 J0.
N2345 G1 X262.167
N2350 G3 X262.579 Y87.833 I0. J0.412
N2355 G1 Y112.167
N2360 G3 X262.167 Y112.579 I-0.413 J0.
N2365 G1 X250.
N2370 G3 X249.682 Y112.262 I0. J-0.317 F1000.
N2375 G1 Y111.945
N2380 G19 G2 Y111.627 Z8.317 J0. K0.318
N2385 G1 X250.317 F1100.
N2390 Z4.317 F333.33
N2395 G3 Y111.945 Z4. J0.318 K0. F1000.
N2400 G1 Y112.262
N2405 G17 G3 X250. Y112.579 I-0.318 J0.
N2410 G1 X237.833 F1100.
N2415 G3 X237.421 Y112.167 I0. J-0.412
N2420 G1 Y87.833
N2425 G3 X237.833 Y87.421 I0.412 J0.
N2430 G1 X262.167
N2435 G3 X262.579 Y87.833 I0. J0.412
N2440 G1 Y112.167
N2445 G3 X262.167 Y112.579 I-0.413 J0.
N2450 G1 X250.
N2455 G3 X249.682 Y112.262 I0. J-0.317 F1000.
N2460 G1 Y111.945
N2465 G19 G2 Y111.627 Z4.317 J0. K0.318
N2470 G1 X250.317 F1100.
N2475 Z1. F333.33
N2480 Z17. F1000.
N2485 Z1. F333.33
N2490 Y111.945 F1000.
N2495 Y112.262
N2500 G17 G3 X250. Y112.579 I-0.318 J0.
N2505 G1 X247.663 F1100.
N2510 Z0. F333.33
N2515 X237.833 F1100.
N2520 G3 X237.421 Y112.167 I0. J-0.412
N2525 G1 Y102.338
N2530 Z1.
N2535 Y97.662
N2540 Z0. F333.33
N2545 Y87.833 F1100.
N2550 G3 X237.833 Y87.421 I0.412 J0.
N2555 G1 X247.663
N2560 Z1.
N2565 X252.337
N2570 Z0. F333.33
N2575 X262.167 F1100.
N2580 G3 X262.579 Y87.833 I0. J0.412
N2585 G1 Y97.662
N2590 Z1.
N2595 Y102.338
N2600 Z0. F333.33
N2605 Y112.167 F1100.
N2610 G3 X262.167 Y112.579 I-0.413 J0.
N2615 G1 X252.337
N2620 Z1.
N2625 X250.
N2630 G3 X249.682 Y112.262 I0. J-0.317 F1000.
N2635 G1 Y111.627
N2640 G0 Z17.
N2645 X261.627 Y133.016
N2650 G1 Z8.317 F333.33
N2655 G18 G2 X261.944 Z8. I0.317 K0. F1000.
N2660 G1 X262.262
N2665 G17 G3 X262.579 Y133.333 I0. J0.317
N2670 G1 Y145.5 F1100.
N2675 G3 X262.167 Y145.913 I-0.413 J0.
N2680 G1 X237.833
N2685 G3 X237.421 Y145.5 I0. J-0.413
N2690 G1 Y121.167
N2695 G3 X237.833 Y120.755 I0.412 J0.
N2700 G1 X262.167
N2705 G3 X262.579 Y121.167 I0. J0.412
N2710 G1 Y133.333
N2715 G3 X262.262 Y133.651 I-0.318 J0. F1000.
N2720 G1 X261.944
N2725 G18 G3 X261.627 Z8.317 I0. K0.318
N2730 G1 Y133.016 F1100.
N2735 Z4.317 F333.33
N2740 G2 X261.944 Z4. I0.317 K0. F1000.
N2745 G1 X262.262
N2750 G17 G3 X262.579 Y133.333 I0. J0.317
N2755 G1 Y145.5 F1100.
N2760 G3 X262.167 Y145.913 I-0.413 J0.
N2765 G1 X237.833
N2770 G3 X237.421 Y145.5 I0. J-0.413
N2775 G1 Y121.167
N2780 G3 X237.833 Y120.755 I0.412 J0.
N2785 G1 X262.167
N2790 G3 X262.579 Y121.167 I0. J0.412
N2795 G1 Y133.333
N2800 G3 X262.262 Y133.651 I-0.318 J0. F1000.
N2805 G1 X261.944
N2810 G18 G3 X261.627 Z4.317 I0. K0.318
N2815 G1 Y133.016 F1100.
N2820 Z1. F333.33
N2825 Z17. F1000.
N2830 Z1. F333.33
N2835 X261.944 F1000.
N2840 X262.262
N2845 G17 G3 X262.579 Y133.333 I0. J0.317
N2850 G1 Y135.671 F1100.
N2855 Z0. F333.33
N2860 Y145.5 F1100.
N2865 G3 X262.167 Y145.913 I-0.413 J0.
N2870 G1 X252.337
N2875 Z1.
N2880 X247.663
N2885 Z0. F333.33
N2890 X237.833 F1100.
N2895 G3 X237.421 Y145.5 I0. J-0.413
N2900 G1 Y135.671
N2905 Z1.
N2910 Y130.995
N2915 Z0. F333.33
N2920 Y121.167 F1100.
N2925 G3 X237.833 Y120.755 I0.412 J0.
N2930 G1 X247.663
N2935 Z1.
N2940 X252.337
N2945 Z0. F333.33
N2950 X262.167 F1100.
N2955 G3 X262.579 Y121.167 I0. J0.412
N2960 G1 Y130.995
N2965 Z1.
N2970 Y133.333
N2975 G3 X262.262 Y133.651 I-0.318 J0. F1000.
N2980 G1 X261.627
N2985 G0 Z17.
N2990 X294.96 Y133.016
N2995 G1 Z8.317 F333.33
N3000 G18 G2 X295.277 Z8. I0.318 K0. F1000.
N3005 G1 X295.595
N3010 G17 G3 X295.913 Y133.333 I0. J0.317
N3015 G1 Y145.5 F1100.
N3020 G3 X295.5 Y145.913 I-0.413 J0.
N3025 G1 X271.167
N3030 G3 X270.754 Y145.5 I0. J-0.413
N3035 G1 Y121.167
N3040 G3 X271.167 Y120.755 I0.413 J0.
N3045 G1 X295.5
N3050 G3 X295.913 Y121.167 I0. J0.412
N3055 G1 Y133.333
N3060 G3 X295.595 Y133.651 I-0.318 J0. F1000.
N3065 G1 X295.277
N3070 G18 G3 X294.96 Z8.317 I0. K0.318
N3075 G1 Y133.016 F1100.
N3080 Z4.317 F333.33
N3085 G2 X295.277 Z4. I0.318 K0. F1000.
N3090 G1 X295.595
N3095 G17 G3 X295.913 Y133.333 I0. J0.317
N3100 G1 Y145.5 F1100.
N3105 G3 X295.5 Y145.913 I-0.413 J0.
N3110 G1 X271.167
N3115 G3 X270.754 Y145.5 I0. J-0.413
N3120 G1 Y121.167
N3125 G3 X271.167 Y120.755 I0.413 J0.
N3130 G1 X295.5
N3135 G3 X295.913 Y121.167 I0. J0.412
N3140 G1 Y133.333
N3145 G3 X295.595 Y133.651 I-0.318 J0. F1000.
N3150 G1 X295.277
N3155 G18 G3 X294.96 Z4.317 I0. K0.318
N3160 G1 Y133.016 F1100.
N3165 Z1. F333.33
N3170 Z17. F1000.
N3175 Z1. F333.33
N3180 X295.277 F1000.
N3185 X295.595
N3190 G17 G3 X295.913 Y133.333 I0. J0.317
N3195 G1 Y135.671 F1100.
N3200 Z0. F333.33
N3205 Y145.5 F1100.
N3210 G3 X295.5 Y145.913 I-0.413 J0.
N3215 G1 X285.671
N3220 Z1.
N3225 X280.996
N3230 Z0. F333.33
N3235 X271.167 F1100.
N3240 G3 X270.754 Y145.5 I0. J-0.413
N3245 G1 Y135.671
N3250 Z1.
N3255 Y130.995
N3260 Z0. F333.33
N3265 Y121.167 F1100.
N3270 G3 X271.167 Y120.755 I0.413 J0.
N3275 G1 X280.996
N3280 Z1.
N3285 X285.671
N3290 Z0. F333.33
N3295 X295.5 F1100.
N3300 G3 X295.913 Y121.167 I0. J0.412
N3305 G1 Y130.995
N3310 Z1.
N3315 Y133.333
N3320 G3 X295.595 Y133.651 I-0.318 J0. F1000.
N3325 G1 X294.96
N3330 G0 Z17.
N3335 X328.293 Y133.016
N3340 G1 Z8.317 F333.33
N3345 G18 G2 X328.611 Z8. I0.318 K0. F1000.
N3350 G1 X328.928
N3355 G17 G3 X329.246 Y133.333 I0. J0.317
N3360 G1 Y145.5 F1100.
N3365 G3 X328.833 Y145.913 I-0.413 J0.
N3370 G1 X304.5
N3375 G3 X304.087 Y145.5 I0. J-0.413
N3380 G1 Y121.167
N3385 G3 X304.5 Y120.755 I0.413 J0.
N3390 G1 X328.833
N3395 G3 X329.246 Y121.167 I0. J0.412
N3400 G1 Y133.333
N3405 G3 X328.928 Y133.651 I-0.318 J0. F1000.
N3410 G1 X328.611
N3415 G18 G3 X328.293 Z8.317 I0. K0.318
N3420 G1 Y133.016 F1100.
N3425 Z4.317 F333.33
N3430 G2 X328.611 Z4. I0.318 K0. F1000.
N3435 G1 X328.928
N3440 G17 G3 X329.246 Y133.333 I0. J0.317
N3445 G1 Y145.5 F1100.
N3450 G3 X328.833 Y145.913 I-0.413 J0.
N3455 G1 X304.5
N3460 G3 X304.087 Y145.5 I0. J-0.413
N3465 G1 Y121.167
N3470 G3 X304.5 Y120.755 I0.413 J0.
N3475 G1 X328.833
N3480 G3 X329.246 Y121.167 I0. J0.412
N3485 G1 Y133.333
N3490 G3 X328.928 Y133.651 I-0.318 J0. F1000.
N3495 G1 X328.611
N3500 G18 G3 X328.293 Z4.317 I0. K0.318
N3505 G1 Y133.016 F1100.
N3510 Z1. F333.33
N3515 Z17. F1000.
N3520 Z1. F333.33
N3525 X328.611 F1000.
N3530 X328.928
N3535 G17 G3 X329.246 Y133.333 I0. J0.317
N3540 G1 Y135.671 F1100.
N3545 Z0. F333.33
N3550 Y145.5 F1100.
N3555 G3 X328.833 Y145.913 I-0.413 J0.
N3560 G1 X319.004
N3565 Z1.
N3570 X314.329
N3575 Z0. F333.33
N3580 X304.5 F1100.
N3585 G3 X304.087 Y145.5 I0. J-0.413
N3590 G1 Y135.671
N3595 Z1.
N3600 Y130.995
N3605 Z0. F333.33
N3610 Y121.167 F1100.
N3615 G3 X304.5 Y120.755 I0.413 J0.
N3620 G1 X314.329
N3625 Z1.
N3630 X319.004
N3635 Z0. F333.33
N3640 X328.833 F1100.
N3645 G3 X329.246 Y121.167 I0. J0.412
N3650 G1 Y130.995
N3655 Z1.
N3660 Y133.333
N3665 G3 X328.928 Y133.651 I-0.318 J0. F1000.
N3670 G1 X328.293
N3675 G0 Z17.
N3680 X361.627 Y133.016
N3685 G1 Z8.317 F333.33
N3690 G18 G2 X361.944 Z8. I0.317 K0. F1000.
N3695 G1 X362.262
N3700 G17 G3 X362.579 Y133.333 I0. J0.317
N3705 G1 Y145.5 F1100.
N3710 G3 X362.167 Y145.913 I-0.413 J0.
N3715 G1 X337.833
N3720 G3 X337.421 Y145.5 I0. J-0.413
N3725 G1 Y121.167
N3730 G3 X337.833 Y120.755 I0.413 J0.
N3735 G1 X362.167
N3740 G3 X362.579 Y121.167 I0. J0.412
N3745 G1 Y133.333
N3750 G3 X362.262 Y133.651 I-0.318 J0. F1000.
N3755 G1 X361.944
N3760 G18 G3 X361.627 Z8.317 I0. K0.318
N3765 G1 Y133.016 F1100.
N3770 Z4.317 F333.33
N3775 G2 X361.944 Z4. I0.317 K0. F1000.
N3780 G1 X362.262
N3785 G17 G3 X362.579 Y133.333 I0. J0.317
N3790 G1 Y145.5 F1100.
N3795 G3 X362.167 Y145.913 I-0.413 J0.
N3800 G1 X337.833
N3805 G3 X337.421 Y145.5 I0. J-0.413
N3810 G1 Y121.167
N3815 G3 X337.833 Y120.755 I0.413 J0.
N3820 G1 X362.167
N3825 G3 X362.579 Y121.167 I0. J0.412
N3830 G1 Y133.333
N3835 G3 X362.262 Y133.651 I-0.318 J0. F1000.
N3840 G1 X361.944
N3845 G18 G3 X361.627 Z4.317 I0. K0.318
N3850 G1 Y133.016 F1100.
N3855 Z1. F333.33
N3860 Z17. F1000.
N3865 Z1. F333.33
N3870 X361.944 F1000.
N3875 X362.262
N3880 G17 G3 X362.579 Y133.333 I0. J0.317
N3885 G1 Y135.671 F1100.
N3890 Z0. F333.33
N3895 Y145.5 F1100.
N3900 G3 X362.167 Y145.913 I-0.413 J0.
N3905 G1 X352.337
N3910 Z1.
N3915 X347.663
N3920 Z0. F333.33
N3925 X337.833 F1100.
N3930 G3 X337.421 Y145.5 I0. J-0.413
N3935 G1 Y135.671
N3940 Z1.
N3945 Y130.995
N3950 Z0. F333.33
N3955 Y121.167 F1100.
N3960 G3 X337.833 Y120.755 I0.413 J0.
N3965 G1 X347.663
N3970 Z1.
N3975 X352.337
N3980 Z0. F333.33
N3985 X362.167 F1100.
N3990 G3 X362.579 Y121.167 I0. J0.412
N3995 G1 Y130.995
N4000 Z1.
N4005 Y133.333
N4010 G3 X362.262 Y133.651 I-0.318 J0. F1000.
N4015 G1 X361.627
N4020 G0 Z17.
N4025 X394.96 Y133.016
N4030 G1 Z8.317 F333.33
N4035 G18 G2 X395.277 Z8. I0.318 K0. F1000.
N4040 G1 X395.595
N4045 G17 G3 X395.913 Y133.333 I0. J0.317
N4050 G1 Y145.5 F1100.
N4055 G3 X395.5 Y145.913 I-0.413 J0.
N4060 G1 X371.167
N4065 G3 X370.754 Y145.5 I0. J-0.413
N4070 G1 Y121.167
N4075 G3 X371.167 Y120.755 I0.413 J0.
N4080 G1 X395.5
N4085 G3 X395.913 Y121.167 I0. J0.412
N4090 G1 Y133.333
N4095 G3 X395.595 Y133.651 I-0.318 J0. F1000.
N4100 G1 X395.277
N4105 G18 G3 X394.96 Z8.317 I0. K0.318
N4110 G1 Y133.016 F1100.
N4115 Z4.317 F333.33
N4120 G2 X395.277 Z4. I0.318 K0. F1000.
N4125 G1 X395.595
N4130 G17 G3 X395.913 Y133.333 I0. J0.317
N4135 G1 Y145.5 F1100.
N4140 G3 X395.5 Y145.913 I-0.413 J0.
N4145 G1 X371.167
N4150 G3 X370.754 Y145.5 I0. J-0.413
N4155 G1 Y121.167
N4160 G3 X371.167 Y120.755 I0.413 J0.
N4165 G1 X395.5
N4170 G3 X395.913 Y121.167 I0. J0.412
N4175 G1 Y133.333
N4180 G3 X395.595 Y133.651 I-0.318 J0. F1000.
N4185 G1 X395.277
N4190 G18 G3 X394.96 Z4.317 I0. K0.318
N4195 G1 Y133.016 F1100.
N4200 Z1. F333.33
N4205 Z17. F1000.
N4210 Z1. F333.33
N4215 X395.277 F1000.
N4220 X395.595
N4225 G17 G3 X395.913 Y133.333 I0. J0.317
N4230 G1 Y135.671 F1100.
N4235 Z0. F333.33
N4240 Y145.5 F1100.
N4245 G3 X395.5 Y145.913 I-0.413 J0.
N4250 G1 X385.671
N4255 Z1.
N4260 X380.996
N4265 Z0. F333.33
N4270 X371.167 F1100.
N4275 G3 X370.754 Y145.5 I0. J-0.413
N4280 G1 Y135.671
N4285 Z1.
N4290 Y130.995
N4295 Z0. F333.33
N4300 Y121.167 F1100.
N4305 G3 X371.167 Y120.755 I0.413 J0.
N4310 G1 X380.996
N4315 Z1.
N4320 X385.671
N4325 Z0. F333.33
N4330 X395.5 F1100.
N4335 G3 X395.913 Y121.167 I0. J0.412
N4340 G1 Y130.995
N4345 Z1.
N4350 Y133.333
N4355 G3 X395.595 Y133.651 I-0.318 J0. F1000.
N4360 G1 X394.96
N4365 G0 Z17.
N4370 X428.293 Y133.016
N4375 G1 Z8.317 F333.33
N4380 G18 G2 X428.611 Z8. I0.318 K0. F1000.
N4385 G1 X428.928
N4390 G17 G3 X429.246 Y133.333 I0. J0.317
N4395 G1 Y145.5 F1100.
N4400 G3 X428.833 Y145.913 I-0.413 J0.
N4405 G1 X404.5
N4410 G3 X404.087 Y145.5 I0. J-0.413
N4415 G1 Y121.167
N4420 G3 X404.5 Y120.755 I0.413 J0.
N4425 G1 X428.833
N4430 G3 X429.246 Y121.167 I0. J0.412
N4435 G1 Y133.333
N4440 G3 X428.928 Y133.651 I-0.318 J0. F1000.
N4445 G1 X428.611
N4450 G18 G3 X428.293 Z8.317 I0. K0.318
N4455 G1 Y133.016 F1100.
N4460 Z4.317 F333.33
N4465 G2 X428.611 Z4. I0.318 K0. F1000.
N4470 G1 X428.928
N4475 G17 G3 X429.246 Y133.333 I0. J0.317
N4480 G1 Y145.5 F1100.
N4485 G3 X428.833 Y145.913 I-0.413 J0.
N4490 G1 X404.5
N4495 G3 X404.087 Y145.5 I0. J-0.413
N4500 G1 Y121.167
N4505 G3 X404.5 Y120.755 I0.413 J0.
N4510 G1 X428.833
N4515 G3 X429.246 Y121.167 I0. J0.412
N4520 G1 Y133.333
N4525 G3 X428.928 Y133.651 I-0.318 J0. F1000.
N4530 G1 X428.611
N4535 G18 G3 X428.293 Z4.317 I0. K0.318
N4540 G1 Y133.016 F1100.
N4545 Z1. F333.33
N4550 Z17. F1000.
N4555 Z1. F333.33
N4560 X428.611 F1000.
N4565 X428.928
N4570 G17 G3 X429.246 Y133.333 I0. J0.317
N4575 G1 Y135.671 F1100.
N4580 Z0. F333.33
N4585 Y145.5 F1100.
N4590 G3 X428.833 Y145.913 I-0.413 J0.
N4595 G1 X419.004
N4600 Z1.
N4605 X414.329
N4610 Z0. F333.33
N4615 X404.5 F1100.
N4620 G3 X404.087 Y145.5 I0. J-0.413
N4625 G1 Y135.671
N4630 Z1.
N4635 Y130.995
N4640 Z0. F333.33
N4645 Y121.167 F1100.
N4650 G3 X404.5 Y120.755 I0.413 J0.
N4655 G1 X414.329
N4660 Z1.
N4665 X419.004
N4670 Z0. F333.33
N4675 X428.833 F1100.
N4680 G3 X429.246 Y121.167 I0. J0.412
N4685 G1 Y130.995
N4690 Z1.
N4695 Y133.333
N4700 G3 X428.928 Y133.651 I-0.318 J0. F1000.
N4705 G1 X428.293
N4710 G0 Z17.
N4715 X450.317 Y144.96
N4720 G1 Z8.317 F333.33
N4725 G19 G3 Y145.277 Z8. J0.317 K0. F1000.
N4730 G1 Y145.595
N4735 G17 G3 X450. Y145.913 I-0.317 J0.
N4740 G1 X437.833 F1100.
N4745 G3 X437.421 Y145.5 I0. J-0.413
N4750 G1 Y121.167
N4755 G3 X437.833 Y120.755 I0.413 J0.
N4760 G1 X462.167
N4765 G3 X462.579 Y121.167 I0. J0.412
N4770 G1 Y145.5
N4775 G3 X462.167 Y145.913 I-0.413 J0.
N4780 G1 X450.
N4785 G3 X449.682 Y145.595 I0. J-0.318 F1000.
N4790 G1 Y145.277
N4795 G19 G2 Y144.96 Z8.317 J0. K0.318
N4800 G1 X450.317 F1100.
N4805 Z4.317 F333.33
N4810 G3 Y145.277 Z4. J0.317 K0. F1000.
N4815 G1 Y145.595
N4820 G17 G3 X450. Y145.913 I-0.317 J0.
N4825 G1 X437.833 F1100.
N4830 G3 X437.421 Y145.5 I0. J-0.413
N4835 G1 Y121.167
N4840 G3 X437.833 Y120.755 I0.413 J0.
N4845 G1 X462.167
N4850 G3 X462.579 Y121.167 I0. J0.412
N4855 G1 Y145.5
N4860 G3 X462.167 Y145.913 I-0.413 J0.
N4865 G1 X450.
N4870 G3 X449.682 Y145.595 I0. J-0.318 F1000.
N4875 G1 Y145.277
N4880 G19 G2 Y144.96 Z4.317 J0. K0.318
N4885 G1 X450.317 F1100.
N4890 Z1. F333.33
N4895 Z17. F1000.
N4900 Z1. F333.33
N4905 Y145.277 F1000.
N4910 Y145.595
N4915 G17 G3 X450. Y145.913 I-0.317 J0.
N4920 G1 X447.663 F1100.
N4925 Z0. F333.33
N4930 X437.833 F1100.
N4935 G3 X437.421 Y145.5 I0. J-0.413
N4940 G1 Y135.671
N4945 Z1.
N4950 Y130.995
N4955 Z0. F333.33
N4960 Y121.167 F1100.
N4965 G3 X437.833 Y120.755 I0.413 J0.
N4970 G1 X447.663
N4975 Z1.
N4980 X452.337
N4985 Z0. F333.33
N4990 X462.167 F1100.
N4995 G3 X462.579 Y121.167 I0. J0.412
N5000 G1 Y130.995
N5005 Z1.
N5010 Y135.671
N5015 Z0. F333.33
N5020 Y145.5 F1100.
N5025 G3 X462.167 Y145.913 I-0.413 J0.
N5030 G1 X452.337
N5035 Z1.
N5040 X450.
N5045 G3 X449.682 Y145.595 I0. J-0.318 F1000.
N5050 G1 Y144.96
N5055 G0 Z17.
N5060 Y155.04
N5065 G1 Z8.317 F333.33
N5070 G19 G2 Y154.723 Z8. J-0.317 K0. F1000.
N5075 G1 Y154.405
N5080 G17 G3 X450. Y154.087 I0.318 J0.
N5085 G1 X462.167 F1100.
N5090 G3 X462.579 Y154.5 I0. J0.413
N5095 G1 Y178.833
N5100 G3 X462.167 Y179.245 I-0.413 J0.
N5105 G1 X437.833
N5110 G3 X437.421 Y178.833 I0. J-0.413
N5115 G1 Y154.5
N5120 G3 X437.833 Y154.087 I0.413 J0.
N5125 G1 X450.
N5130 G3 X450.317 Y154.405 I0. J0.318 F1000.
N5135 G1 Y154.723
N5140 G19 G3 Y155.04 Z8.317 J0. K0.318
N5145 G1 X449.682 F1100.
N5150 Z4.317 F333.33
N5155 G2 Y154.723 Z4. J-0.317 K0. F1000.
N5160 G1 Y154.405
N5165 G17 G3 X450. Y154.087 I0.318 J0.
N5170 G1 X462.167 F1100.
N5175 G3 X462.579 Y154.5 I0. J0.413
N5180 G1 Y178.833
N5185 G3 X462.167 Y179.245 I-0.413 J0.
N5190 G1 X437.833
N5195 G3 X437.421 Y178.833 I0. J-0.413
N5200 G1 Y154.5
N5205 G3 X437.833 Y154.087 I0.413 J0.
N5210 G1 X450.
N5215 G3 X450.317 Y154.405 I0. J0.318 F1000.
N5220 G1 Y154.723
N5225 G19 G3 Y155.04 Z4.317 J0. K0.318
N5230 G1 X449.682 F1100.
N5235 Z1. F333.33
N5240 Z17. F1000.
N5245 Z1. F333.33
N5250 Y154.723 F1000.
N5255 Y154.405
N5260 G17 G3 X450. Y154.087 I0.318 J0.
N5265 G1 X452.337 F1100.
N5270 Z0. F333.33
N5275 X462.167 F1100.
N5280 G3 X462.579 Y154.5 I0. J0.413
N5285 G1 Y164.329
N5290 Z1.
N5295 Y169.005
N5300 Z0. F333.33
N5305 Y178.833 F1100.
N5310 G3 X462.167 Y179.245 I-0.413 J0.
N5315 G1 X452.337
N5320 Z1.
N5325 X447.663
N5330 Z0. F333.33
N5335 X437.833 F1100.
N5340 G3 X437.421 Y178.833 I0. J-0.413
N5345 G1 Y169.005
N5350 Z1.
N5355 Y164.329
N5360 Z0. F333.33
N5365 Y154.5 F1100.
N5370 G3 X437.833 Y154.087 I0.413 J0.
N5375 G1 X447.663
N5380 Z1.
N5385 X450.
N5390 G3 X450.317 Y154.405 I0. J0.318 F1000.
N5395 G1 Y155.04
N5400 G0 Z17.
N5405 X428.293 Y166.349
N5410 G1 Z8.317 F333.33
N5415 G18 G2 X428.611 Z8. I0.318 K0. F1000.
N5420 G1 X428.928
N5425 G17 G3 X429.246 Y166.667 I0. J0.318
N5430 G1 Y178.833 F1100.
N5435 G3 X428.833 Y179.245 I-0.413 J0.
N5440 G1 X404.5
N5445 G3 X404.087 Y178.833 I0. J-0.413
N5450 G1 Y154.5
N5455 G3 X404.5 Y154.087 I0.413 J0.
N5460 G1 X428.833
N5465 G3 X429.246 Y154.5 I0. J0.413
N5470 G1 Y166.667
N5475 G3 X428.928 Y166.984 I-0.318 J0. F1000.
N5480 G1 X428.611
N5485 G18 G3 X428.293 Z8.317 I0. K0.318
N5490 G1 Y166.349 F1100.
N5495 Z4.317 F333.33
N5500 G2 X428.611 Z4. I0.318 K0. F1000.
N5505 G1 X428.928
N5510 G17 G3 X429.246 Y166.667 I0. J0.318
N5515 G1 Y178.833 F1100.
N5520 G3 X428.833 Y179.245 I-0.413 J0.
N5525 G1 X404.5
N5530 G3 X404.087 Y178.833 I0. J-0.413
N5535 G1 Y154.5
N5540 G3 X404.5 Y154.087 I0.413 J0.
N5545 G1 X428.833
N5550 G3 X429.246 Y154.5 I0. J0.413
N5555 G1 Y166.667
N5560 G3 X428.928 Y166.984 I-0.318 J0. F1000.
N5565 G1 X428.611
N5570 G18 G3 X428.293 Z4.317 I0. K0.318
N5575 G1 Y166.349 F1100.
N5580 Z1. F333.33
N5585 Z17. F1000.
N5590 Z1. F333.33
N5595 X428.611 F1000.
N5600 X428.928
N5605 G17 G3 X429.246 Y166.667 I0. J0.318
N5610 G1 Y169.005 F1100.
N5615 Z0. F333.33
N5620 Y178.833 F1100.
N5625 G3 X428.833 Y179.245 I-0.413 J0.
N5630 G1 X419.004
N5635 Z1.
N5640 X414.329
N5645 Z0. F333.33
N5650 X404.5 F1100.
N5655 G3 X404.087 Y178.833 I0. J-0.413
N5660 G1 Y169.005
N5665 Z1.
N5670 Y164.329
N5675 Z0. F333.33
N5680 Y154.5 F1100.
N5685 G3 X404.5 Y154.087 I0.413 J0.
N5690 G1 X414.329
N5695 Z1.
N5700 X419.004
N5705 Z0. F333.33
N5710 X428.833 F1100.
N5715 G3 X429.246 Y154.5 I0. J0.413
N5720 G1 Y164.329
N5725 Z1.
N5730 Y166.667
N5735 G3 X428.928 Y166.984 I-0.318 J0. F1000.
N5740 G1 X428.293
N5745 G0 Z17.
N5750 Y199.682
N5755 G1 Z8.317 F333.33
N5760 G18 G2 X428.611 Z8. I0.318 K0. F1000.
N5765 G1 X428.928
N5770 G17 G3 X429.246 Y199.999 I0. J0.317
N5775 G1 Y212.167 F1100.
N5780 G3 X428.833 Y212.579 I-0.413 J0.
N5785 G1 X404.5
N5790 G3 X404.087 Y212.167 I0. J-0.412
N5795 G1 Y187.833
N5800 G3 X404.5 Y187.421 I0.413 J0.
N5805 G1 X428.833
N5810 G3 X429.246 Y187.833 I0. J0.412
N5815 G1 Y199.999
N5820 G3 X428.928 Y200.317 I-0.318 J0. F1000.
N5825 G1 X428.611
N5830 G18 G3 X428.293 Z8.317 I0. K0.318
N5835 G1 Y199.682 F1100.
N5840 Z4.317 F333.33
N5845 G2 X428.611 Z4. I0.318 K0. F1000.
N5850 G1 X428.928
N5855 G17 G3 X429.246 Y199.999 I0. J0.317
N5860 G1 Y212.167 F1100.
N5865 G3 X428.833 Y212.579 I-0.413 J0.
N5870 G1 X404.5
N5875 G3 X404.087 Y212.167 I0. J-0.412
N5880 G1 Y187.833
N5885 G3 X404.5 Y187.421 I0.413 J0.
N5890 G1 X428.833
N5895 G3 X429.246 Y187.833 I0. J0.412
N5900 G1 Y199.999
N5905 G3 X428.928 Y200.317 I-0.318 J0. F1000.
N5910 G1 X428.611
N5915 G18 G3 X428.293 Z4.317 I0. K0.318
N5920 G1 Y199.682 F1100.
N5925 Z1. F333.33
N5930 Z17. F1000.
N5935 Z1. F333.33
N5940 X428.611 F1000.
N5945 X428.928
N5950 G17 G3 X429.246 Y199.999 I0. J0.317
N5955 G1 Y202.337 F1100.
N5960 Z0. F333.33
N5965 Y212.167 F1100.
N5970 G3 X428.833 Y212.579 I-0.413 J0.
N5975 G1 X419.004
N5980 Z1.
N5985 X414.329
N5990 Z0. F333.33
N5995 X404.5 F1100.
N6000 G3 X404.087 Y212.167 I0. J-0.412
N6005 G1 Y202.337
N6010 Z1.
N6015 Y197.663
N6020 Z0. F333.33
N6025 Y187.833 F1100.
N6030 G3 X404.5 Y187.421 I0.413 J0.
N6035 G1 X414.329
N6040 Z1.
N6045 X419.004
N6050 Z0. F333.33
N6055 X428.833 F1100.
N6060 G3 X429.246 Y187.833 I0. J0.412
N6065 G1 Y197.663
N6070 Z1.
N6075 Y199.999
N6080 G3 X428.928 Y200.317 I-0.318 J0. F1000.
N6085 G1 X428.293
N6090 G0 Z17.
N6095 X461.627 Y199.682
N6100 G1 Z8.317 F333.33
N6105 G18 G2 X461.944 Z8. I0.317 K0. F1000.
N6110 G1 X462.262
N6115 G17 G3 X462.579 Y200. I0. J0.318
N6120 G1 Y212.167 F1100.
N6125 G3 X462.167 Y212.579 I-0.413 J0.
N6130 G1 X437.833
N6135 G3 X437.421 Y212.167 I0. J-0.412
N6140 G1 Y187.833
N6145 G3 X437.833 Y187.421 I0.413 J0.
N6150 G1 X462.167
N6155 G3 X462.579 Y187.833 I0. J0.412
N6160 G1 Y200.
N6165 G3 X462.262 Y200.318 I-0.318 J0. F1000.
N6170 G1 X461.944
N6175 G18 G3 X461.627 Z8.317 I0. K0.318
N6180 G1 Y199.682 F1100.
N6185 Z4.317 F333.33
N6190 G2 X461.944 Z4. I0.317 K0. F1000.
N6195 G1 X462.262
N6200 G17 G3 X462.579 Y200. I0. J0.318
N6205 G1 Y212.167 F1100.
N6210 G3 X462.167 Y212.579 I-0.413 J0.
N6215 G1 X437.833
N6220 G3 X437.421 Y212.167 I0. J-0.412
N6225 G1 Y187.833
N6230 G3 X437.833 Y187.421 I0.413 J0.
N6235 G1 X462.167
N6240 G3 X462.579 Y187.833 I0. J0.412
N6245 G1 Y200.
N6250 G3 X462.262 Y200.318 I-0.318 J0. F1000.
N6255 G1 X461.944
N6260 G18 G3 X461.627 Z4.317 I0. K0.318
N6265 G1 Y199.682 F1100.
N6270 Z1. F333.33
N6275 Z17. F1000.
N6280 Z1. F333.33
N6285 X461.944 F1000.
N6290 X462.262
N6295 G17 G3 X462.579 Y200. I0. J0.318
N6300 G1 Y202.337 F1100.
N6305 Z0. F333.33
N6310 Y212.167 F1100.
N6315 G3 X462.167 Y212.579 I-0.413 J0.
N6320 G1 X452.337
N6325 Z1.
N6330 X447.663
N6335 Z0. F333.33
N6340 X437.833 F1100.
N6345 G3 X437.421 Y212.167 I0. J-0.412
N6350 G1 Y202.337
N6355 Z1.
N6360 Y197.663
N6365 Z0. F333.33
N6370 Y187.833 F1100.
N6375 G3 X437.833 Y187.421 I0.413 J0.
N6380 G1 X447.663
N6385 Z1.
N6390 X452.337
N6395 Z0. F333.33
N6400 X462.167 F1100.
N6405 G3 X462.579 Y187.833 I0. J0.412
N6410 G1 Y197.663
N6415 Z1.
N6420 Y200.
N6425 G3 X462.262 Y200.318 I-0.318 J0. F1000.
N6430 G1 X461.627
N6435 G0 Z17.
N6440 X394.96 Y199.682
N6445 G1 Z8.317 F333.33
N6450 G18 G2 X395.277 Z8. I0.318 K0. F1000.
N6455 G1 X395.595
N6460 G17 G3 X395.913 Y199.999 I0. J0.317
N6465 G1 Y212.167 F1100.
N6470 G3 X395.5 Y212.579 I-0.413 J0.
N6475 G1 X371.167
N6480 G3 X370.754 Y212.167 I0. J-0.412
N6485 G1 Y187.833
N6490 G3 X371.167 Y187.421 I0.413 J0.
N6495 G1 X395.5
N6500 G3 X395.913 Y187.833 I0. J0.412
N6505 G1 Y199.999
N6510 G3 X395.595 Y200.317 I-0.318 J0. F1000.
N6515 G1 X395.277
N6520 G18 G3 X394.96 Z8.317 I0. K0.318
N6525 G1 Y199.682 F1100.
N6530 Z4.317 F333.33
N6535 G2 X395.277 Z4. I0.318 K0. F1000.
N6540 G1 X395.595
N6545 G17 G3 X395.913 Y199.999 I0. J0.317
N6550 G1 Y212.167 F1100.
N6555 G3 X395.5 Y212.579 I-0.413 J0.
N6560 G1 X371.167
N6565 G3 X370.754 Y212.167 I0. J-0.412
N6570 G1 Y187.833
N6575 G3 X371.167 Y187.421 I0.413 J0.
N6580 G1 X395.5
N6585 G3 X395.913 Y187.833 I0. J0.412
N6590 G1 Y199.999
N6595 G3 X395.595 Y200.317 I-0.318 J0. F1000.
N6600 G1 X395.277
N6605 G18 G3 X394.96 Z4.317 I0. K0.318
N6610 G1 Y199.682 F1100.
N6615 Z1. F333.33
N6620 Z17. F1000.
N6625 Z1. F333.33
N6630 X395.277 F1000.
N6635 X395.595
N6640 G17 G3 X395.913 Y199.999 I0. J0.317
N6645 G1 Y202.337 F1100.
N6650 Z0. F333.33
N6655 Y212.167 F1100.
N6660 G3 X395.5 Y212.579 I-0.413 J0.
N6665 G1 X385.671
N6670 Z1.
N6675 X380.996
N6680 Z0. F333.33
N6685 X371.167 F1100.
N6690 G3 X370.754 Y212.167 I0. J-0.412
N6695 G1 Y202.337
N6700 Z1.
N6705 Y197.663
N6710 Z0. F333.33
N6715 Y187.833 F1100.
N6720 G3 X371.167 Y187.421 I0.413 J0.
N6725 G1 X380.996
N6730 Z1.
N6735 X385.671
N6740 Z0. F333.33
N6745 X395.5 F1100.
N6750 G3 X395.913 Y187.833 I0. J0.412
N6755 G1 Y197.663
N6760 Z1.
N6765 Y199.999
N6770 G3 X395.595 Y200.317 I-0.318 J0. F1000.
N6775 G1 X394.96
N6780 G0 Z17.
N6785 Y166.349
N6790 G1 Z8.317 F333.33
N6795 G18 G2 X395.277 Z8. I0.318 K0. F1000.
N6800 G1 X395.595
N6805 G17 G3 X395.913 Y166.667 I0. J0.318
N6810 G1 Y178.833 F1100.
N6815 G3 X395.5 Y179.245 I-0.413 J0.
N6820 G1 X371.167
N6825 G3 X370.754 Y178.833 I0. J-0.413
N6830 G1 Y154.5
N6835 G3 X371.167 Y154.087 I0.413 J0.
N6840 G1 X395.5
N6845 G3 X395.913 Y154.5 I0. J0.413
N6850 G1 Y166.667
N6855 G3 X395.595 Y166.984 I-0.318 J0. F1000.
N6860 G1 X395.277
N6865 G18 G3 X394.96 Z8.317 I0. K0.318
N6870 G1 Y166.349 F1100.
N6875 Z4.317 F333.33
N6880 G2 X395.277 Z4. I0.318 K0. F1000.
N6885 G1 X395.595
N6890 G17 G3 X395.913 Y166.667 I0. J0.318
N6895 G1 Y178.833 F1100.
N6900 G3 X395.5 Y179.245 I-0.413 J0.
N6905 G1 X371.167
N6910 G3 X370.754 Y178.833 I0. J-0.413
N6915 G1 Y154.5
N6920 G3 X371.167 Y154.087 I0.413 J0.
N6925 G1 X395.5
N6930 G3 X395.913 Y154.5 I0. J0.413
N6935 G1 Y166.667
N6940 G3 X395.595 Y166.984 I-0.318 J0. F1000.
N6945 G1 X395.277
N6950 G18 G3 X394.96 Z4.317 I0. K0.318
N6955 G1 Y166.349 F1100.
N6960 Z1. F333.33
N6965 Z17. F1000.
N6970 Z1. F333.33
N6975 X395.277 F1000.
N6980 X395.595
N6985 G17 G3 X395.913 Y166.667 I0. J0.318
N6990 G1 Y169.005 F1100.
N6995 Z0. F333.33
N7000 Y178.833 F1100.
N7005 G3 X395.5 Y179.245 I-0.413 J0.
N7010 G1 X385.671
N7015 Z1.
N7020 X380.996
N7025 Z0. F333.33
N7030 X371.167 F1100.
N7035 G3 X370.754 Y178.833 I0. J-0.413
N7040 G1 Y169.005
N7045 Z1.
N7050 Y164.329
N7055 Z0. F333.33
N7060 Y154.5 F1100.
N7065 G3 X371.167 Y154.087 I0.413 J0.
N7070 G1 X380.996
N7075 Z1.
N7080 X385.671
N7085 Z0. F333.33
N7090 X395.5 F1100.
N7095 G3 X395.913 Y154.5 I0. J0.413
N7100 G1 Y164.329
N7105 Z1.
N7110 Y166.667
N7115 G3 X395.595 Y166.984 I-0.318 J0. F1000.
N7120 G1 X394.96
N7125 G0 Z17.
N7130 X349.682 Y155.04
N7135 G1 Z8.317 F333.33
N7140 G19 G2 Y154.723 Z8. J-0.317 K0. F1000.
N7145 G1 Y154.405
N7150 G17 G3 X350. Y154.087 I0.318 J0.
N7155 G1 X362.167 F1100.
N7160 G3 X362.579 Y154.5 I0. J0.413
N7165 G1 Y178.833
N7170 G3 X362.167 Y179.245 I-0.413 J0.
N7175 G1 X337.833
N7180 G3 X337.421 Y178.833 I0. J-0.413
N7185 G1 Y154.5
N7190 G3 X337.833 Y154.087 I0.413 J0.
N7195 G1 X350.
N7200 G3 X350.317 Y154.405 I0. J0.318 F1000.
N7205 G1 Y154.723
N7210 G19 G3 Y155.04 Z8.317 J0. K0.318
N7215 G1 X349.682 F1100.
N7220 Z4.317 F333.33
N7225 G2 Y154.723 Z4. J-0.317 K0. F1000.
N7230 G1 Y154.405
N7235 G17 G3 X350. Y154.087 I0.318 J0.
N7240 G1 X362.167 F1100.
N7245 G3 X362.579 Y154.5 I0. J0.413
N7250 G1 Y178.833
N7255 G3 X362.167 Y179.245 I-0.413 J0.
N7260 G1 X337.833
N7265 G3 X337.421 Y178.833 I0. J-0.413
N7270 G1 Y154.5
N7275 G3 X337.833 Y154.087 I0.413 J0.
N7280 G1 X350.
N7285 G3 X350.317 Y154.405 I0. J0.318 F1000.
N7290 G1 Y154.723
N7295 G19 G3 Y155.04 Z4.317 J0. K0.318
N7300 G1 X349.682 F1100.
N7305 Z1. F333.33
N7310 Z17. F1000.
N7315 Z1. F333.33
N7320 Y154.723 F1000.
N7325 Y154.405
N7330 G17 G3 X350. Y154.087 I0.318 J0.
N7335 G1 X352.337 F1100.
N7340 Z0. F333.33
N7345 X362.167 F1100.
N7350 G3 X362.579 Y154.5 I0. J0.413
N7355 G1 Y164.329
N7360 Z1.
N7365 Y169.005
N7370 Z0. F333.33
N7375 Y178.833 F1100.
N7380 G3 X362.167 Y179.245 I-0.413 J0.
N7385 G1 X352.337
N7390 Z1.
N7395 X347.663
N7400 Z0. F333.33
N7405 X337.833 F1100.
N7410 G3 X337.421 Y178.833 I0. J-0.413
N7415 G1 Y169.005
N7420 Z1.
N7425 Y164.329
N7430 Z0. F333.33
N7435 Y154.5 F1100.
N7440 G3 X337.833 Y154.087 I0.413 J0.
N7445 G1 X347.663
N7450 Z1.
N7455 X350.
N7460 G3 X350.317 Y154.405 I0. J0.318 F1000.
N7465 G1 Y155.04
N7470 G0 Z17.
N7475 X328.293 Y166.349
N7480 G1 Z8.317 F333.33
N7485 G18 G2 X328.611 Z8. I0.318 K0. F1000.
N7490 G1 X328.928
N7495 G17 G3 X329.246 Y166.667 I0. J0.318
N7500 G1 Y178.833 F1100.
N7505 G3 X328.833 Y179.245 I-0.413 J0.
N7510 G1 X304.5
N7515 G3 X304.087 Y178.833 I0. J-0.413
N7520 G1 Y154.5
N7525 G3 X304.5 Y154.087 I0.413 J0.
N7530 G1 X328.833
N7535 G3 X329.246 Y154.5 I0. J0.413
N7540 G1 Y166.667
N7545 G3 X328.928 Y166.984 I-0.318 J0. F1000.
N7550 G1 X328.611
N7555 G18 G3 X328.293 Z8.317 I0. K0.318
N7560 G1 Y166.349 F1100.
N7565 Z4.317 F333.33
N7570 G2 X328.611 Z4. I0.318 K0. F1000.
N7575 G1 X328.928
N7580 G17 G3 X329.246 Y166.667 I0. J0.318
N7585 G1 Y178.833 F1100.
N7590 G3 X328.833 Y179.245 I-0.413 J0.
N7595 G1 X304.5
N7600 G3 X304.087 Y178.833 I0. J-0.413
N7605 G1 Y154.5
N7610 G3 X304.5 Y154.087 I0.413 J0.
N7615 G1 X328.833
N7620 G3 X329.246 Y154.5 I0. J0.413
N7625 G1 Y166.667
N7630 G3 X328.928 Y166.984 I-0.318 J0. F1000.
N7635 G1 X328.611
N7640 G18 G3 X328.293 Z4.317 I0. K0.318
N7645 G1 Y166.349 F1100.
N7650 Z1. F333.33
N7655 Z17. F1000.
N7660 Z1. F333.33
N7665 X328.611 F1000.
N7670 X328.928
N7675 G17 G3 X329.246 Y166.667 I0. J0.318
N7680 G1 Y169.005 F1100.
N7685 Z0. F333.33
N7690 Y178.833 F1100.
N7695 G3 X328.833 Y179.245 I-0.413 J0.
N7700 G1 X319.004
N7705 Z1.
N7710 X314.329
N7715 Z0. F333.33
N7720 X304.5 F1100.
N7725 G3 X304.087 Y178.833 I0. J-0.413
N7730 G1 Y169.005
N7735 Z1.
N7740 Y164.329
N7745 Z0. F333.33
N7750 Y154.5 F1100.
N7755 G3 X304.5 Y154.087 I0.413 J0.
N7760 G1 X314.329
N7765 Z1.
N7770 X319.004
N7775 Z0. F333.33
N7780 X328.833 F1100.
N7785 G3 X329.246 Y154.5 I0. J0.413
N7790 G1 Y164.329
N7795 Z1.
N7800 Y166.667
N7805 G3 X328.928 Y166.984 I-0.318 J0. F1000.
N7810 G1 X328.293
N7815 G0 Z17.
N7820 Y199.683
N7825 G1 Z8.317 F333.33
N7830 G18 G2 X328.611 Z8. I0.318 K0. F1000.
N7835 G1 X328.928
N7840 G17 G3 X329.246 Y200.001 I0. J0.318
N7845 G1 Y212.167 F1100.
N7850 G3 X328.833 Y212.579 I-0.413 J0.
N7855 G1 X304.5
N7860 G3 X304.087 Y212.167 I0. J-0.412
N7865 G1 Y187.833
N7870 G3 X304.5 Y187.421 I0.413 J0.
N7875 G1 X328.833
N7880 G3 X329.246 Y187.833 I0. J0.412
N7885 G1 Y200.001
N7890 G3 X328.928 Y200.318 I-0.318 J0. F1000.
N7895 G1 X328.611
N7900 G18 G3 X328.293 Z8.317 I0. K0.318
N7905 G1 Y199.683 F1100.
N7910 Z4.317 F333.33
N7915 G2 X328.611 Z4. I0.318 K0. F1000.
N7920 G1 X328.928
N7925 G17 G3 X329.246 Y200.001 I0. J0.318
N7930 G1 Y212.167 F1100.
N7935 G3 X328.833 Y212.579 I-0.413 J0.
N7940 G1 X304.5
N7945 G3 X304.087 Y212.167 I0. J-0.412
N7950 G1 Y187.833
N7955 G3 X304.5 Y187.421 I0.413 J0.
N7960 G1 X328.833
N7965 G3 X329.246 Y187.833 I0. J0.412
N7970 G1 Y200.001
N7975 G3 X328.928 Y200.318 I-0.318 J0. F1000.
N7980 G1 X328.611
N7985 G18 G3 X328.293 Z4.317 I0. K0.318
N7990 G1 Y199.683 F1100.
N7995 Z1. F333.33
N8000 Z17. F1000.
N8005 Z1. F333.33
N8010 X328.611 F1000.
N8015 X328.928
N8020 G17 G3 X329.246 Y200.001 I0. J0.318
N8025 G1 Y202.337 F1100.
N8030 Z0. F333.33
N8035 Y212.167 F1100.
N8040 G3 X328.833 Y212.579 I-0.413 J0.
N8045 G1 X319.004
N8050 Z1.
N8055 X314.329
N8060 Z0. F333.33
N8065 X304.5 F1100.
N8070 G3 X304.087 Y212.167 I0. J-0.412
N8075 G1 Y202.337
N8080 Z1.
N8085 Y197.663
N8090 Z0. F333.33
N8095 Y187.833 F1100.
N8100 G3 X304.5 Y187.421 I0.413 J0.
N8105 G1 X314.329
N8110 Z1.
N8115 X319.004
N8120 Z0. F333.33
N8125 X328.833 F1100.
N8130 G3 X329.246 Y187.833 I0. J0.412
N8135 G1 Y197.663
N8140 Z1.
N8145 Y200.001
N8150 G3 X328.928 Y200.318 I-0.318 J0. F1000.
N8155 G1 X328.293
N8160 G0 Z17.
N8165 X361.627 Y199.682
N8170 G1 Z8.317 F333.33
N8175 G18 G2 X361.944 Z8. I0.317 K0. F1000.
N8180 G1 X362.262
N8185 G17 G3 X362.579 Y200. I0. J0.318
N8190 G1 Y212.167 F1100.
N8195 G3 X362.167 Y212.579 I-0.413 J0.
N8200 G1 X337.833
N8205 G3 X337.421 Y212.167 I0. J-0.412
N8210 G1 Y187.833
N8215 G3 X337.833 Y187.421 I0.413 J0.
N8220 G1 X362.167
N8225 G3 X362.579 Y187.833 I0. J0.412
N8230 G1 Y200.
N8235 G3 X362.262 Y200.318 I-0.318 J0. F1000.
N8240 G1 X361.944
N8245 G18 G3 X361.627 Z8.317 I0. K0.318
N8250 G1 Y199.682 F1100.
N8255 Z4.317 F333.33
N8260 G2 X361.944 Z4. I0.317 K0. F1000.
N8265 G1 X362.262
N8270 G17 G3 X362.579 Y200. I0. J0.318
N8275 G1 Y212.167 F1100.
N8280 G3 X362.167 Y212.579 I-0.413 J0.
N8285 G1 X337.833
N8290 G3 X337.421 Y212.167 I0. J-0.412
N8295 G1 Y187.833
N8300 G3 X337.833 Y187.421 I0.413 J0.
N8305 G1 X362.167
N8310 G3 X362.579 Y187.833 I0. J0.412
N8315 G1 Y200.
N8320 G3 X362.262 Y200.318 I-0.318 J0. F1000.
N8325 G1 X361.944
N8330 G18 G3 X361.627 Z4.317 I0. K0.318
N8335 G1 Y199.682 F1100.
N8340 Z1. F333.33
N8345 Z17. F1000.
N8350 Z1. F333.33
N8355 X361.944 F1000.
N8360 X362.262
N8365 G17 G3 X362.579 Y200. I0. J0.318
N8370 G1 Y202.337 F1100.
N8375 Z0. F333.33
N8380 Y212.167 F1100.
N8385 G3 X362.167 Y212.579 I-0.413 J0.
N8390 G1 X352.337
N8395 Z1.
N8400 X347.663
N8405 Z0. F333.33
N8410 X337.833 F1100.
N8415 G3 X337.421 Y212.167 I0. J-0.412
N8420 G1 Y202.337
N8425 Z1.
N8430 Y197.663
N8435 Z0. F333.33
N8440 Y187.833 F1100.
N8445 G3 X337.833 Y187.421 I0.413 J0.
N8450 G1 X347.663
N8455 Z1.
N8460 X352.337
N8465 Z0. F333.33
N8470 X362.167 F1100.
N8475 G3 X362.579 Y187.833 I0. J0.412
N8480 G1 Y197.663
N8485 Z1.
N8490 Y200.
N8495 G3 X362.262 Y200.318 I-0.318 J0. F1000.
N8500 G1 X361.627
N8505 G0 Z17.
N8510 X294.96 Y199.682
N8515 G1 Z8.317 F333.33
N8520 G18 G2 X295.277 Z8. I0.318 K0. F1000.
N8525 G1 X295.595
N8530 G17 G3 X295.913 Y199.999 I0. J0.317
N8535 G1 Y212.167 F1100.
N8540 G3 X295.5 Y212.579 I-0.413 J0.
N8545 G1 X271.167
N8550 G3 X270.754 Y212.167 I0. J-0.412
N8555 G1 Y187.833
N8560 G3 X271.167 Y187.421 I0.413 J0.
N8565 G1 X295.5
N8570 G3 X295.913 Y187.833 I0. J0.412
N8575 G1 Y199.999
N8580 G3 X295.595 Y200.317 I-0.318 J0. F1000.
N8585 G1 X295.277
N8590 G18 G3 X294.96 Z8.317 I0. K0.318
N8595 G1 Y199.682 F1100.
N8600 Z4.317 F333.33
N8605 G2 X295.277 Z4. I0.318 K0. F1000.
N8610 G1 X295.595
N8615 G17 G3 X295.913 Y199.999 I0. J0.317
N8620 G1 Y212.167 F1100.
N8625 G3 X295.5 Y212.579 I-0.413 J0.
N8630 G1 X271.167
N8635 G3 X270.754 Y212.167 I0. J-0.412
N8640 G1 Y187.833
N8645 G3 X271.167 Y187.421 I0.413 J0.
N8650 G1 X295.5
N8655 G3 X295.913 Y187.833 I0. J0.412
N8660 G1 Y199.999
N8665 G3 X295.595 Y200.317 I-0.318 J0. F1000.
N8670 G1 X295.277
N8675 G18 G3 X294.96 Z4.317 I0. K0.318
N8680 G1 Y199.682 F1100.
N8685 Z1. F333.33
N8690 Z17. F1000.
N8695 Z1. F333.33
N8700 X295.277 F1000.
N8705 X295.595
N8710 G17 G3 X295.913 Y199.999 I0. J0.317
N8715 G1 Y202.337 F1100.
N8720 Z0. F333.33
N8725 Y212.167 F1100.
N8730 G3 X295.5 Y212.579 I-0.413 J0.
N8735 G1 X285.671
N8740 Z1.
N8745 X280.996
N8750 Z0. F333.33
N8755 X271.167 F1100.
N8760 G3 X270.754 Y212.167 I0. J-0.412
N8765 G1 Y202.337
N8770 Z1.
N8775 Y197.663
N8780 Z0. F333.33
N8785 Y187.833 F1100.
N8790 G3 X271.167 Y187.421 I0.413 J0.
N8795 G1 X280.996
N8800 Z1.
N8805 X285.671
N8810 Z0. F333.33
N8815 X295.5 F1100.
N8820 G3 X295.913 Y187.833 I0. J0.412
N8825 G1 Y197.663
N8830 Z1.
N8835 Y199.999
N8840 G3 X295.595 Y200.317 I-0.318 J0. F1000.
N8845 G1 X294.96
N8850 G0 Z17.
N8855 Y166.349
N8860 G1 Z8.317 F333.33
N8865 G18 G2 X295.277 Z8. I0.318 K0. F1000.
N8870 G1 X295.595
N8875 G17 G3 X295.913 Y166.667 I0. J0.318
N8880 G1 Y178.833 F1100.
N8885 G3 X295.5 Y179.245 I-0.413 J0.
N8890 G1 X271.167
N8895 G3 X270.754 Y178.833 I0. J-0.413
N8900 G1 Y154.5
N8905 G3 X271.167 Y154.087 I0.413 J0.
N8910 G1 X295.5
N8915 G3 X295.913 Y154.5 I0. J0.413
N8920 G1 Y166.667
N8925 G3 X295.595 Y166.984 I-0.318 J0. F1000.
N8930 G1 X295.277
N8935 G18 G3 X294.96 Z8.317 I0. K0.318
N8940 G1 Y166.349 F1100.
N8945 Z4.317 F333.33
N8950 G2 X295.277 Z4. I0.318 K0. F1000.
N8955 G1 X295.595
N8960 G17 G3 X295.913 Y166.667 I0. J0.318
N8965 G1 Y178.833 F1100.
N8970 G3 X295.5 Y179.245 I-0.413 J0.
N8975 G1 X271.167
N8980 G3 X270.754 Y178.833 I0. J-0.413
N8985 G1 Y154.5
N8990 G3 X271.167 Y154.087 I0.413 J0.
N8995 G1 X295.5
N9000 G3 X295.913 Y154.5 I0. J0.413
N9005 G1 Y166.667
N9010 G3 X295.595 Y166.984 I-0.318 J0. F1000.
N9015 G1 X295.277
N9020 G18 G3 X294.96 Z4.317 I0. K0.318
N9025 G1 Y166.349 F1100.
N9030 Z1. F333.33
N9035 Z17. F1000.
N9040 Z1. F333.33
N9045 X295.277 F1000.
N9050 X295.595
N9055 G17 G3 X295.913 Y166.667 I0. J0.318
N9060 G1 Y169.005 F1100.
N9065 Z0. F333.33
N9070 Y178.833 F1100.
N9075 G3 X295.5 Y179.245 I-0.413 J0.
N9080 G1 X285.671
N9085 Z1.
N9090 X280.996
N9095 Z0. F333.33
N9100 X271.167 F1100.
N9105 G3 X270.754 Y178.833 I0. J-0.413
N9110 G1 Y169.005
N9115 Z1.
N9120 Y164.329
N9125 Z0. F333.33
N9130 Y154.5 F1100.
N9135 G3 X271.167 Y154.087 I0.413 J0.
N9140 G1 X280.996
N9145 Z1.
N9150 X285.671
N9155 Z0. F333.33
N9160 X295.5 F1100.
N9165 G3 X295.913 Y154.5 I0. J0.413
N9170 G1 Y164.329
N9175 Z1.
N9180 Y166.667
N9185 G3 X295.595 Y166.984 I-0.318 J0. F1000.
N9190 G1 X294.96
N9195 G0 Z17.
N9200 X250.317 Y178.293
N9205 G1 Z8.317 F333.33
N9210 G19 G3 Y178.611 Z8. J0.318 K0. F1000.
N9215 G1 Y178.928
N9220 G17 G3 X249.999 Y179.245 I-0.318 J0.
N9225 G1 X237.833 F1100.
N9230 G3 X237.421 Y178.833 I0. J-0.413
N9235 G1 Y154.5
N9240 G3 X237.833 Y154.087 I0.412 J0.
N9245 G1 X262.167
N9250 G3 X262.579 Y154.5 I0. J0.413
N9255 G1 Y178.833
N9260 G3 X262.167 Y179.245 I-0.413 J0.
N9265 G1 X249.999
N9270 G3 X249.682 Y178.928 I0. J-0.318 F1000.
N9275 G1 Y178.611
N9280 G19 G2 Y178.293 Z8.317 J0. K0.318
N9285 G1 X250.317 F1100.
N9290 Z4.317 F333.33
N9295 G3 Y178.611 Z4. J0.318 K0. F1000.
N9300 G1 Y178.928
N9305 G17 G3 X249.999 Y179.245 I-0.318 J0.
N9310 G1 X237.833 F1100.
N9315 G3 X237.421 Y178.833 I0. J-0.413
N9320 G1 Y154.5
N9325 G3 X237.833 Y154.087 I0.412 J0.
N9330 G1 X262.167
N9335 G3 X262.579 Y154.5 I0. J0.413
N9340 G1 Y178.833
N9345 G3 X262.167 Y179.245 I-0.413 J0.
N9350 G1 X249.999
N9355 G3 X249.682 Y178.928 I0. J-0.318 F1000.
N9360 G1 Y178.611
N9365 G19 G2 Y178.293 Z4.317 J0. K0.318
N9370 G1 X250.317 F1100.
N9375 Z1. F333.33
N9380 Z17. F1000.
N9385 Z1. F333.33
N9390 Y178.611 F1000.
N9395 Y178.928
N9400 G17 G3 X249.999 Y179.245 I-0.318 J0.
N9405 G1 X247.663 F1100.
N9410 Z0. F333.33
N9415 X237.833 F1100.
N9420 G3 X237.421 Y178.833 I0. J-0.413
N9425 G1 Y169.005
N9430 Z1.
N9435 Y164.329
N9440 Z0. F333.33
N9445 Y154.5 F1100.
N9450 G3 X237.833 Y154.087 I0.412 J0.
N9455 G1 X247.663
N9460 Z1.
N9465 X252.337
N9470 Z0. F333.33
N9475 X262.167 F1100.
N9480 G3 X262.579 Y154.5 I0. J0.413
N9485 G1 Y164.329
N9490 Z1.
N9495 Y169.005
N9500 Z0. F333.33
N9505 Y178.833 F1100.
N9510 G3 X262.167 Y179.245 I-0.413 J0.
N9515 G1 X252.337
N9520 Z1.
N9525 X249.999
N9530 G3 X249.682 Y178.928 I0. J-0.318 F1000.
N9535 G1 Y178.293
N9540 G0 Z17.
N9545 X261.627 Y199.682
N9550 G1 Z8.317 F333.33
N9555 G18 G2 X261.944 Z8. I0.317 K0. F1000.
N9560 G1 X262.262
N9565 G17 G3 X262.579 Y200. I0. J0.318
N9570 G1 Y212.167 F1100.
N9575 G3 X262.167 Y212.579 I-0.413 J0.
N9580 G1 X237.833
N9585 G3 X237.421 Y212.167 I0. J-0.412
N9590 G1 Y187.833
N9595 G3 X237.833 Y187.421 I0.412 J0.
N9600 G1 X262.167
N9605 G3 X262.579 Y187.833 I0. J0.412
N9610 G1 Y200.
N9615 G3 X262.262 Y200.318 I-0.318 J0. F1000.
N9620 G1 X261.944
N9625 G18 G3 X261.627 Z8.317 I0. K0.318
N9630 G1 Y199.682 F1100.
N9635 Z4.317 F333.33
N9640 G2 X261.944 Z4. I0.317 K0. F1000.
N9645 G1 X262.262
N9650 G17 G3 X262.579 Y200. I0. J0.318
N9655 G1 Y212.167 F1100.
N9660 G3 X262.167 Y212.579 I-0.413 J0.
N9665 G1 X237.833
N9670 G3 X237.421 Y212.167 I0. J-0.412
N9675 G1 Y187.833
N9680 G3 X237.833 Y187.421 I0.412 J0.
N9685 G1 X262.167
N9690 G3 X262.579 Y187.833 I0. J0.412
N9695 G1 Y200.
N9700 G3 X262.262 Y200.318 I-0.318 J0. F1000.
N9705 G1 X261.944
N9710 G18 G3 X261.627 Z4.317 I0. K0.318
N9715 G1 Y199.682 F1100.
N9720 Z1. F333.33
N9725 Z17. F1000.
N9730 Z1. F333.33
N9735 X261.944 F1000.
N9740 X262.262
N9745 G17 G3 X262.579 Y200. I0. J0.318
N9750 G1 Y202.337 F1100.
N9755 Z0. F333.33
N9760 Y212.167 F1100.
N9765 G3 X262.167 Y212.579 I-0.413 J0.
N9770 G1 X252.337
N9775 Z1.
N9780 X247.663
N9785 Z0. F333.33
N9790 X237.833 F1100.
N9795 G3 X237.421 Y212.167 I0. J-0.412
N9800 G1 Y202.337
N9805 Z1.
N9810 Y197.663
N9815 Z0. F333.33
N9820 Y187.833 F1100.
N9825 G3 X237.833 Y187.421 I0.412 J0.
N9830 G1 X247.663
N9835 Z1.
N9840 X252.337
N9845 Z0. F333.33
N9850 X262.167 F1100.
N9855 G3 X262.579 Y187.833 I0. J0.412
N9860 G1 Y197.663
N9865 Z1.
N9870 Y200.
N9875 G3 X262.262 Y200.318 I-0.318 J0. F1000.
N9880 G1 X261.627
N9885 G0 Z17.
N9890 X228.293 Y199.682
N9895 G1 Z8.317 F333.33
N9900 G18 G2 X228.611 Z8. I0.318 K0. F1000.
N9905 G1 X228.928
N9910 G17 G3 X229.245 Y199.999 I0. J0.317
N9915 G1 Y212.167 F1100.
N9920 G3 X228.833 Y212.579 I-0.413 J0.
N9925 G1 X204.5
N9930 G3 X204.087 Y212.167 I0. J-0.412
N9935 G1 Y187.833
N9940 G3 X204.5 Y187.421 I0.413 J0.
N9945 G1 X228.833
N9950 G3 X229.245 Y187.833 I0. J0.412
N9955 G1 Y199.999
N9960 G3 X228.928 Y200.317 I-0.318 J0. F1000.
N9965 G1 X228.611
N9970 G18 G3 X228.293 Z8.317 I0. K0.318
N9975 G1 Y199.682 F1100.
N9980 Z4.317 F333.33
N9985 G2 X228.611 Z4. I0.318 K0. F1000.
N9990 G1 X228.928
N9995 G17 G3 X229.245 Y199.999 I0. J0.317
N10000 G1 Y212.167 F1100.
N10005 G3 X228.833 Y212.579 I-0.413 J0.
N10010 G1 X204.5
N10015 G3 X204.087 Y212.167 I0. J-0.412
N10020 G1 Y187.833
N10025 G3 X204.5 Y187.421 I0.413 J0.
N10030 G1 X228.833
N10035 G3 X229.245 Y187.833 I0. J0.412
N10040 G1 Y199.999
N10045 G3 X228.928 Y200.317 I-0.318 J0. F1000.
N10050 G1 X228.611
N10055 G18 G3 X228.293 Z4.317 I0. K0.318
N10060 G1 Y199.682 F1100.
N10065 Z1. F333.33
N10070 Z17. F1000.
N10075 Z1. F333.33
N10080 X228.611 F1000.
N10085 X228.928
N10090 G17 G3 X229.245 Y199.999 I0. J0.317
N10095 G1 Y202.337 F1100.
N10100 Z0. F333.33
N10105 Y212.167 F1100.
N10110 G3 X228.833 Y212.579 I-0.413 J0.
N10115 G1 X219.005
N10120 Z1.
N10125 X214.329
N10130 Z0. F333.33
N10135 X204.5 F1100.
N10140 G3 X204.087 Y212.167 I0. J-0.412
N10145 G1 Y202.337
N10150 Z1.
N10155 Y197.663
N10160 Z0. F333.33
N10165 Y187.833 F1100.
N10170 G3 X204.5 Y187.421 I0.413 J0.
N10175 G1 X214.329
N10180 Z1.
N10185 X219.005
N10190 Z0. F333.33
N10195 X228.833 F1100.
N10200 G3 X229.245 Y187.833 I0. J0.412
N10205 G1 Y197.663
N10210 Z1.
N10215 Y199.999
N10220 G3 X228.928 Y200.317 I-0.318 J0. F1000.
N10225 G1 X228.293
N10230 G0 Z17.
N10235 Y166.349
N10240 G1 Z8.317 F333.33
N10245 G18 G2 X228.611 Z8. I0.318 K0. F1000.
N10250 G1 X228.928
N10255 G17 G3 X229.245 Y166.667 I0. J0.318
N10260 G1 Y178.833 F1100.
N10265 G3 X228.833 Y179.245 I-0.413 J0.
N10270 G1 X204.5
N10275 G3 X204.087 Y178.833 I0. J-0.413
N10280 G1 Y154.5
N10285 G3 X204.5 Y154.087 I0.413 J0.
N10290 G1 X228.833
N10295 G3 X229.245 Y154.5 I0. J0.413
N10300 G1 Y166.667
N10305 G3 X228.928 Y166.984 I-0.318 J0. F1000.
N10310 G1 X228.611
N10315 G18 G3 X228.293 Z8.317 I0. K0.318
N10320 G1 Y166.349 F1100.
N10325 Z4.317 F333.33
N10330 G2 X228.611 Z4. I0.318 K0. F1000.
N10335 G1 X228.928
N10340 G17 G3 X229.245 Y166.667 I0. J0.318
N10345 G1 Y178.833 F1100.
N10350 G3 X228.833 Y179.245 I-0.413 J0.
N10355 G1 X204.5
N10360 G3 X204.087 Y178.833 I0. J-0.413
N10365 G1 Y154.5
N10370 G3 X204.5 Y154.087 I0.413 J0.
N10375 G1 X228.833
N10380 G3 X229.245 Y154.5 I0. J0.413
N10385 G1 Y166.667
N10390 G3 X228.928 Y166.984 I-0.318 J0. F1000.
N10395 G1 X228.611
N10400 G18 G3 X228.293 Z4.317 I0. K0.318
N10405 G1 Y166.349 F1100.
N10410 Z1. F333.33
N10415 Z17. F1000.
N10420 Z1. F333.33
N10425 X228.611 F1000.
N10430 X228.928
N10435 G17 G3 X229.245 Y166.667 I0. J0.318
N10440 G1 Y169.005 F1100.
N10445 Z0. F333.33
N10450 Y178.833 F1100.
N10455 G3 X228.833 Y179.245 I-0.413 J0.
N10460 G1 X219.005
N10465 Z1.
N10470 X214.329
N10475 Z0. F333.33
N10480 X204.5 F1100.
N10485 G3 X204.087 Y178.833 I0. J-0.413
N10490 G1 Y169.005
N10495 Z1.
N10500 Y164.329
N10505 Z0. F333.33
N10510 Y154.5 F1100.
N10515 G3 X204.5 Y154.087 I0.413 J0.
N10520 G1 X214.329
N10525 Z1.
N10530 X219.005
N10535 Z0. F333.33
N10540 X228.833 F1100.
N10545 G3 X229.245 Y154.5 I0. J0.413
N10550 G1 Y164.329
N10555 Z1.
N10560 Y166.667
N10565 G3 X228.928 Y166.984 I-0.318 J0. F1000.
N10570 G1 X228.293
N10575 G0 Z17.
N10580 Y133.016
N10585 G1 Z8.317 F333.33
N10590 G18 G2 X228.611 Z8. I0.318 K0. F1000.
N10595 G1 X228.928
N10600 G17 G3 X229.245 Y133.333 I0. J0.317
N10605 G1 Y145.5 F1100.
N10610 G3 X228.833 Y145.913 I-0.413 J0.
N10615 G1 X204.5
N10620 G3 X204.087 Y145.5 I0. J-0.413
N10625 G1 Y121.167
N10630 G3 X204.5 Y120.755 I0.413 J0.
N10635 G1 X228.833
N10640 G3 X229.245 Y121.167 I0. J0.412
N10645 G1 Y133.333
N10650 G3 X228.928 Y133.651 I-0.318 J0. F1000.
N10655 G1 X228.611
N10660 G18 G3 X228.293 Z8.317 I0. K0.318
N10665 G1 Y133.016 F1100.
N10670 Z4.317 F333.33
N10675 G2 X228.611 Z4. I0.318 K0. F1000.
N10680 G1 X228.928
N10685 G17 G3 X229.245 Y133.333 I0. J0.317
N10690 G1 Y145.5 F1100.
N10695 G3 X228.833 Y145.913 I-0.413 J0.
N10700 G1 X204.5
N10705 G3 X204.087 Y145.5 I0. J-0.413
N10710 G1 Y121.167
N10715 G3 X204.5 Y120.755 I0.413 J0.
N10720 G1 X228.833
N10725 G3 X229.245 Y121.167 I0. J0.412
N10730 G1 Y133.333
N10735 G3 X228.928 Y133.651 I-0.318 J0. F1000.
N10740 G1 X228.611
N10745 G18 G3 X228.293 Z4.317 I0. K0.318
N10750 G1 Y133.016 F1100.
N10755 Z1. F333.33
N10760 Z17. F1000.
N10765 Z1. F333.33
N10770 X228.611 F1000.
N10775 X228.928
N10780 G17 G3 X229.245 Y133.333 I0. J0.317
N10785 G1 Y135.671 F1100.
N10790 Z0. F333.33
N10795 Y145.5 F1100.
N10800 G3 X228.833 Y145.913 I-0.413 J0.
N10805 G1 X219.005
N10810 Z1.
N10815 X214.329
N10820 Z0. F333.33
N10825 X204.5 F1100.
N10830 G3 X204.087 Y145.5 I0. J-0.413
N10835 G1 Y135.671
N10840 Z1.
N10845 Y130.995
N10850 Z0. F333.33
N10855 Y121.167 F1100.
N10860 G3 X204.5 Y120.755 I0.413 J0.
N10865 G1 X214.329
N10870 Z1.
N10875 X219.005
N10880 Z0. F333.33
N10885 X228.833 F1100.
N10890 G3 X229.245 Y121.167 I0. J0.412
N10895 G1 Y130.995
N10900 Z1.
N10905 Y133.333
N10910 G3 X228.928 Y133.651 I-0.318 J0. F1000.
N10915 G1 X228.293
N10920 G0 Z17.
N10925 Y99.682
N10930 G1 Z8.317 F333.33
N10935 G18 G2 X228.611 Z8. I0.318 K0. F1000.
N10940 G1 X228.928
N10945 G17 G3 X229.245 Y100. I0. J0.318
N10950 G1 Y112.167 F1100.
N10955 G3 X228.833 Y112.579 I-0.413 J0.
N10960 G1 X204.5
N10965 G3 X204.087 Y112.167 I0. J-0.412
N10970 G1 Y87.833
N10975 G3 X204.5 Y87.421 I0.413 J0.
N10980 G1 X228.833
N10985 G3 X229.245 Y87.833 I0. J0.412
N10990 G1 Y100.
N10995 G3 X228.928 Y100.317 I-0.318 J0. F1000.
N11000 G1 X228.611
N11005 G18 G3 X228.293 Z8.317 I0. K0.318
N11010 G1 Y99.682 F1100.
N11015 Z4.317 F333.33
N11020 G2 X228.611 Z4. I0.318 K0. F1000.
N11025 G1 X228.928
N11030 G17 G3 X229.245 Y100. I0. J0.318
N11035 G1 Y112.167 F1100.
N11040 G3 X228.833 Y112.579 I-0.413 J0.
N11045 G1 X204.5
N11050 G3 X204.087 Y112.167 I0. J-0.412
N11055 G1 Y87.833
N11060 G3 X204.5 Y87.421 I0.413 J0.
N11065 G1 X228.833
N11070 G3 X229.245 Y87.833 I0. J0.412
N11075 G1 Y100.
N11080 G3 X228.928 Y100.317 I-0.318 J0. F1000.
N11085 G1 X228.611
N11090 G18 G3 X228.293 Z4.317 I0. K0.318
N11095 G1 Y99.682 F1100.
N11100 Z1. F333.33
N11105 Z17. F1000.
N11110 Z1. F333.33
N11115 X228.611 F1000.
N11120 X228.928
N11125 G17 G3 X229.245 Y100. I0. J0.318
N11130 G1 Y102.338 F1100.
N11135 Z0. F333.33
N11140 Y112.167 F1100.
N11145 G3 X228.833 Y112.579 I-0.413 J0.
N11150 G1 X219.005
N11155 Z1.
N11160 X214.329
N11165 Z0. F333.33
N11170 X204.5 F1100.
N11175 G3 X204.087 Y112.167 I0. J-0.412
N11180 G1 Y102.338
N11185 Z1.
N11190 Y97.662
N11195 Z0. F333.33
N11200 Y87.833 F1100.
N11205 G3 X204.5 Y87.421 I0.413 J0.
N11210 G1 X214.329
N11215 Z1.
N11220 X219.005
N11225 Z0. F333.33
N11230 X228.833 F1100.
N11235 G3 X229.245 Y87.833 I0. J0.412
N11240 G1 Y97.662
N11245 Z1.
N11250 Y100.
N11255 G3 X228.928 Y100.317 I-0.318 J0. F1000.
N11260 G1 X228.293
N11265 G0 Z17.
N11270 Y66.349
N11275 G1 Z8.317 F333.33
N11280 G18 G2 X228.611 Z8. I0.318 K0. F1000.
N11285 G1 X228.928
N11290 G17 G3 X229.245 Y66.667 I0. J0.318
N11295 G1 Y78.833 F1100.
N11300 G3 X228.833 Y79.246 I-0.413 J0.
N11305 G1 X204.5
N11310 G3 X204.087 Y78.833 I0. J-0.412
N11315 G1 Y54.5
N11320 G3 X204.5 Y54.088 I0.413 J0.
N11325 G1 X228.833
N11330 G3 X229.245 Y54.5 I0. J0.412
N11335 G1 Y66.667
N11340 G3 X228.928 Y66.984 I-0.318 J0. F1000.
N11345 G1 X228.611
N11350 G18 G3 X228.293 Z8.317 I0. K0.318
N11355 G1 Y66.349 F1100.
N11360 Z4.317 F333.33
N11365 G2 X228.611 Z4. I0.318 K0. F1000.
N11370 G1 X228.928
N11375 G17 G3 X229.245 Y66.667 I0. J0.318
N11380 G1 Y78.833 F1100.
N11385 G3 X228.833 Y79.246 I-0.413 J0.
N11390 G1 X204.5
N11395 G3 X204.087 Y78.833 I0. J-0.412
N11400 G1 Y54.5
N11405 G3 X204.5 Y54.088 I0.413 J0.
N11410 G1 X228.833
N11415 G3 X229.245 Y54.5 I0. J0.412
N11420 G1 Y66.667
N11425 G3 X228.928 Y66.984 I-0.318 J0. F1000.
N11430 G1 X228.611
N11435 G18 G3 X228.293 Z4.317 I0. K0.318
N11440 G1 Y66.349 F1100.
N11445 Z1. F333.33
N11450 Z17. F1000.
N11455 Z1. F333.33
N11460 X228.611 F1000.
N11465 X228.928
N11470 G17 G3 X229.245 Y66.667 I0. J0.318
N11475 G1 Y69.004 F1100.
N11480 Z0. F333.33
N11485 Y78.833 F1100.
N11490 G3 X228.833 Y79.246 I-0.413 J0.
N11495 G1 X219.005
N11500 Z1.
N11505 X214.329
N11510 Z0. F333.33
N11515 X204.5 F1100.
N11520 G3 X204.087 Y78.833 I0. J-0.412
N11525 G1 Y69.004
N11530 Z1.
N11535 Y64.329
N11540 Z0. F333.33
N11545 Y54.5 F1100.
N11550 G3 X204.5 Y54.088 I0.413 J0.
N11555 G1 X214.329
N11560 Z1.
N11565 X219.005
N11570 Z0. F333.33
N11575 X228.833 F1100.
N11580 G3 X229.245 Y54.5 I0. J0.412
N11585 G1 Y64.329
N11590 Z1.
N11595 Y66.667
N11600 G3 X228.928 Y66.984 I-0.318 J0. F1000.
N11605 G1 X228.293
N11610 G0 Z17.
N11615 X261.627 Y66.349
N11620 G1 Z8.317 F333.33
N11625 G18 G2 X261.944 Z8. I0.317 K0. F1000.
N11630 G1 X262.262
N11635 G17 G3 X262.579 Y66.667 I0. J0.317
N11640 G1 Y78.833 F1100.
N11645 G3 X262.167 Y79.246 I-0.413 J0.
N11650 G1 X237.833
N11655 G3 X237.421 Y78.833 I0. J-0.412
N11660 G1 Y54.5
N11665 G3 X237.833 Y54.088 I0.412 J0.
N11670 G1 X262.167
N11675 G3 X262.579 Y54.5 I0. J0.412
N11680 G1 Y66.667
N11685 G3 X262.262 Y66.984 I-0.318 J0. F1000.
N11690 G1 X261.944
N11695 G18 G3 X261.627 Z8.317 I0. K0.318
N11700 G1 Y66.349 F1100.
N11705 Z4.317 F333.33
N11710 G2 X261.944 Z4. I0.317 K0. F1000.
N11715 G1 X262.262
N11720 G17 G3 X262.579 Y66.667 I0. J0.317
N11725 G1 Y78.833 F1100.
N11730 G3 X262.167 Y79.246 I-0.413 J0.
N11735 G1 X237.833
N11740 G3 X237.421 Y78.833 I0. J-0.412
N11745 G1 Y54.5
N11750 G3 X237.833 Y54.088 I0.412 J0.
N11755 G1 X262.167
N11760 G3 X262.579 Y54.5 I0. J0.412
N11765 G1 Y66.667
N11770 G3 X262.262 Y66.984 I-0.318 J0. F1000.
N11775 G1 X261.944
N11780 G18 G3 X261.627 Z4.317 I0. K0.318
N11785 G1 Y66.349 F1100.
N11790 Z1. F333.33
N11795 Z17. F1000.
N11800 Z1. F333.33
N11805 X261.944 F1000.
N11810 X262.262
N11815 G17 G3 X262.579 Y66.667 I0. J0.317
N11820 G1 Y69.004 F1100.
N11825 Z0. F333.33
N11830 Y78.833 F1100.
N11835 G3 X262.167 Y79.246 I-0.413 J0.
N11840 G1 X252.337
N11845 Z1.
N11850 X247.663
N11855 Z0. F333.33
N11860 X237.833 F1100.
N11865 G3 X237.421 Y78.833 I0. J-0.412
N11870 G1 Y69.004
N11875 Z1.
N11880 Y64.329
N11885 Z0. F333.33
N11890 Y54.5 F1100.
N11895 G3 X237.833 Y54.088 I0.412 J0.
N11900 G1 X247.663
N11905 Z1.
N11910 X252.337
N11915 Z0. F333.33
N11920 X262.167 F1100.
N11925 G3 X262.579 Y54.5 I0. J0.412
N11930 G1 Y64.329
N11935 Z1.
N11940 Y66.667
N11945 G3 X262.262 Y66.984 I-0.318 J0. F1000.
N11950 G1 X261.627
N11955 G0 Z17.
N11960 X294.96 Y66.349
N11965 G1 Z8.317 F333.33
N11970 G18 G2 X295.277 Z8. I0.318 K0. F1000.
N11975 G1 X295.595
N11980 G17 G3 X295.913 Y66.667 I0. J0.318
N11985 G1 Y78.833 F1100.
N11990 G3 X295.5 Y79.246 I-0.413 J0.
N11995 G1 X271.167
N12000 G3 X270.754 Y78.833 I0. J-0.412
N12005 G1 Y54.5
N12010 G3 X271.167 Y54.088 I0.413 J0.
N12015 G1 X295.5
N12020 G3 X295.913 Y54.5 I0. J0.412
N12025 G1 Y66.667
N12030 G3 X295.595 Y66.984 I-0.318 J0. F1000.
N12035 G1 X295.277
N12040 G18 G3 X294.96 Z8.317 I0. K0.318
N12045 G1 Y66.349 F1100.
N12050 Z4.317 F333.33
N12055 G2 X295.277 Z4. I0.318 K0. F1000.
N12060 G1 X295.595
N12065 G17 G3 X295.913 Y66.667 I0. J0.318
N12070 G1 Y78.833 F1100.
N12075 G3 X295.5 Y79.246 I-0.413 J0.
N12080 G1 X271.167
N12085 G3 X270.754 Y78.833 I0. J-0.412
N12090 G1 Y54.5
N12095 G3 X271.167 Y54.088 I0.413 J0.
N12100 G1 X295.5
N12105 G3 X295.913 Y54.5 I0. J0.412
N12110 G1 Y66.667
N12115 G3 X295.595 Y66.984 I-0.318 J0. F1000.
N12120 G1 X295.277
N12125 G18 G3 X294.96 Z4.317 I0. K0.318
N12130 G1 Y66.349 F1100.
N12135 Z1. F333.33
N12140 Z17. F1000.
N12145 Z1. F333.33
N12150 X295.277 F1000.
N12155 X295.595
N12160 G17 G3 X295.913 Y66.667 I0. J0.318
N12165 G1 Y69.004 F1100.
N12170 Z0. F333.33
N12175 Y78.833 F1100.
N12180 G3 X295.5 Y79.246 I-0.413 J0.
N12185 G1 X285.671
N12190 Z1.
N12195 X280.996
N12200 Z0. F333.33
N12205 X271.167 F1100.
N12210 G3 X270.754 Y78.833 I0. J-0.412
N12215 G1 Y69.004
N12220 Z1.
N12225 Y64.329
N12230 Z0. F333.33
N12235 Y54.5 F1100.
N12240 G3 X271.167 Y54.088 I0.413 J0.
N12245 G1 X280.996
N12250 Z1.
N12255 X285.671
N12260 Z0. F333.33
N12265 X295.5 F1100.
N12270 G3 X295.913 Y54.5 I0. J0.412
N12275 G1 Y64.329
N12280 Z1.
N12285 Y66.667
N12290 G3 X295.595 Y66.984 I-0.318 J0. F1000.
N12295 G1 X294.96
N12300 G0 Z17.
N12305 X328.293 Y66.349
N12310 G1 Z8.317 F333.33
N12315 G18 G2 X328.611 Z8. I0.318 K0. F1000.
N12320 G1 X328.928
N12325 G17 G3 X329.246 Y66.667 I0. J0.318
N12330 G1 Y78.833 F1100.
N12335 G3 X328.833 Y79.246 I-0.413 J0.
N12340 G1 X304.5
N12345 G3 X304.087 Y78.833 I0. J-0.412
N12350 G1 Y54.5
N12355 G3 X304.5 Y54.088 I0.413 J0.
N12360 G1 X328.833
N12365 G3 X329.246 Y54.5 I0. J0.412
N12370 G1 Y66.667
N12375 G3 X328.928 Y66.984 I-0.318 J0. F1000.
N12380 G1 X328.611
N12385 G18 G3 X328.293 Z8.317 I0. K0.318
N12390 G1 Y66.349 F1100.
N12395 Z4.317 F333.33
N12400 G2 X328.611 Z4. I0.318 K0. F1000.
N12405 G1 X328.928
N12410 G17 G3 X329.246 Y66.667 I0. J0.318
N12415 G1 Y78.833 F1100.
N12420 G3 X328.833 Y79.246 I-0.413 J0.
N12425 G1 X304.5
N12430 G3 X304.087 Y78.833 I0. J-0.412
N12435 G1 Y54.5
N12440 G3 X304.5 Y54.088 I0.413 J0.
N12445 G1 X328.833
N12450 G3 X329.246 Y54.5 I0. J0.412
N12455 G1 Y66.667
N12460 G3 X328.928 Y66.984 I-0.318 J0. F1000.
N12465 G1 X328.611
N12470 G18 G3 X328.293 Z4.317 I0. K0.318
N12475 G1 Y66.349 F1100.
N12480 Z1. F333.33
N12485 Z17. F1000.
N12490 Z1. F333.33
N12495 X328.611 F1000.
N12500 X328.928
N12505 G17 G3 X329.246 Y66.667 I0. J0.318
N12510 G1 Y69.004 F1100.
N12515 Z0. F333.33
N12520 Y78.833 F1100.
N12525 G3 X328.833 Y79.246 I-0.413 J0.
N12530 G1 X319.004
N12535 Z1.
N12540 X314.329
N12545 Z0. F333.33
N12550 X304.5 F1100.
N12555 G3 X304.087 Y78.833 I0. J-0.412
N12560 G1 Y69.004
N12565 Z1.
N12570 Y64.329
N12575 Z0. F333.33
N12580 Y54.5 F1100.
N12585 G3 X304.5 Y54.088 I0.413 J0.
N12590 G1 X314.329
N12595 Z1.
N12600 X319.004
N12605 Z0. F333.33
N12610 X328.833 F1100.
N12615 G3 X329.246 Y54.5 I0. J0.412
N12620 G1 Y64.329
N12625 Z1.
N12630 Y66.667
N12635 G3 X328.928 Y66.984 I-0.318 J0. F1000.
N12640 G1 X328.293
N12645 G0 Z17.
N12650 X350.317 Y78.293
N12655 G1 Z8.317 F333.33
N12660 G19 G3 Y78.611 Z8. J0.318 K0. F1000.
N12665 G1 Y78.928
N12670 G17 G3 X350. Y79.246 I-0.317 J0.
N12675 G1 X337.833 F1100.
N12680 G3 X337.421 Y78.833 I0. J-0.412
N12685 G1 Y54.5
N12690 G3 X337.833 Y54.088 I0.413 J0.
N12695 G1 X362.167
N12700 G3 X362.579 Y54.5 I0. J0.412
N12705 G1 Y78.833
N12710 G3 X362.167 Y79.246 I-0.413 J0.
N12715 G1 X350.
N12720 G3 X349.682 Y78.928 I0. J-0.317 F1000.
N12725 G1 Y78.611
N12730 G19 G2 Y78.293 Z8.317 J0. K0.318
N12735 G1 X350.317 F1100.
N12740 Z4.317 F333.33
N12745 G3 Y78.611 Z4. J0.318 K0. F1000.
N12750 G1 Y78.928
N12755 G17 G3 X350. Y79.246 I-0.317 J0.
N12760 G1 X337.833 F1100.
N12765 G3 X337.421 Y78.833 I0. J-0.412
N12770 G1 Y54.5
N12775 G3 X337.833 Y54.088 I0.413 J0.
N12780 G1 X362.167
N12785 G3 X362.579 Y54.5 I0. J0.412
N12790 G1 Y78.833
N12795 G3 X362.167 Y79.246 I-0.413 J0.
N12800 G1 X350.
N12805 G3 X349.682 Y78.928 I0. J-0.317 F1000.
N12810 G1 Y78.611
N12815 G19 G2 Y78.293 Z4.317 J0. K0.318
N12820 G1 X350.317 F1100.
N12825 Z1. F333.33
N12830 Z17. F1000.
N12835 Z1. F333.33
N12840 Y78.611 F1000.
N12845 Y78.928
N12850 G17 G3 X350. Y79.246 I-0.317 J0.
N12855 G1 X347.663 F1100.
N12860 Z0. F333.33
N12865 X337.833 F1100.
N12870 G3 X337.421 Y78.833 I0. J-0.412
N12875 G1 Y69.004
N12880 Z1.
N12885 Y64.329
N12890 Z0. F333.33
N12895 Y54.5 F1100.
N12900 G3 X337.833 Y54.088 I0.413 J0.
N12905 G1 X347.663
N12910 Z1.
N12915 X352.337
N12920 Z0. F333.33
N12925 X362.167 F1100.
N12930 G3 X362.579 Y54.5 I0. J0.412
N12935 G1 Y64.329
N12940 Z1.
N12945 Y69.004
N12950 Z0. F333.33
N12955 Y78.833 F1100.
N12960 G3 X362.167 Y79.246 I-0.413 J0.
N12965 G1 X352.337
N12970 Z1.
N12975 X350.
N12980 G3 X349.682 Y78.928 I0. J-0.317 F1000.
N12985 G1 Y78.293
N12990 G0 Z17.
N12995 X350.317 Y111.627
N13000 G1 Z8.317 F333.33
N13005 G19 G3 Y111.945 Z8. J0.318 K0. F1000.
N13010 G1 Y112.262
N13015 G17 G3 X350. Y112.579 I-0.318 J0.
N13020 G1 X337.833 F1100.
N13025 G3 X337.421 Y112.167 I0. J-0.412
N13030 G1 Y87.833
N13035 G3 X337.833 Y87.421 I0.413 J0.
N13040 G1 X362.167
N13045 G3 X362.579 Y87.833 I0. J0.412
N13050 G1 Y112.167
N13055 G3 X362.167 Y112.579 I-0.413 J0.
N13060 G1 X350.
N13065 G3 X349.682 Y112.262 I0. J-0.317 F1000.
N13070 G1 Y111.945
N13075 G19 G2 Y111.627 Z8.317 J0. K0.318
N13080 G1 X350.317 F1100.
N13085 Z4.317 F333.33
N13090 G3 Y111.945 Z4. J0.318 K0. F1000.
N13095 G1 Y112.262
N13100 G17 G3 X350. Y112.579 I-0.318 J0.
N13105 G1 X337.833 F1100.
N13110 G3 X337.421 Y112.167 I0. J-0.412
N13115 G1 Y87.833
N13120 G3 X337.833 Y87.421 I0.413 J0.
N13125 G1 X362.167
N13130 G3 X362.579 Y87.833 I0. J0.412
N13135 G1 Y112.167
N13140 G3 X362.167 Y112.579 I-0.413 J0.
N13145 G1 X350.
N13150 G3 X349.682 Y112.262 I0. J-0.317 F1000.
N13155 G1 Y111.945
N13160 G19 G2 Y111.627 Z4.317 J0. K0.318
N13165 G1 X350.317 F1100.
N13170 Z1. F333.33
N13175 Z17. F1000.
N13180 Z1. F333.33
N13185 Y111.945 F1000.
N13190 Y112.262
N13195 G17 G3 X350. Y112.579 I-0.318 J0.
N13200 G1 X347.663 F1100.
N13205 Z0. F333.33
N13210 X337.833 F1100.
N13215 G3 X337.421 Y112.167 I0. J-0.412
N13220 G1 Y102.338
N13225 Z1.
N13230 Y97.662
N13235 Z0. F333.33
N13240 Y87.833 F1100.
N13245 G3 X337.833 Y87.421 I0.413 J0.
N13250 G1 X347.663
N13255 Z1.
N13260 X352.337
N13265 Z0. F333.33
N13270 X362.167 F1100.
N13275 G3 X362.579 Y87.833 I0. J0.412
N13280 G1 Y97.662
N13285 Z1.
N13290 Y102.338
N13295 Z0. F333.33
N13300 Y112.167 F1100.
N13305 G3 X362.167 Y112.579 I-0.413 J0.
N13310 G1 X352.337
N13315 Z1.
N13320 X350.
N13325 G3 X349.682 Y112.262 I0. J-0.317 F1000.
N13330 G1 Y111.627
N13335 G0 Z17.
N13340 X328.293 Y99.683
N13345 G1 Z8.317 F333.33
N13350 G18 G2 X328.611 Z8. I0.318 K0. F1000.
N13355 G1 X328.928
N13360 G17 G3 X329.246 Y100.001 I0. J0.318
N13365 G1 Y112.167 F1100.
N13370 G3 X328.833 Y112.579 I-0.413 J0.
N13375 G1 X304.5
N13380 G3 X304.087 Y112.167 I0. J-0.412
N13385 G1 Y87.833
N13390 G3 X304.5 Y87.421 I0.413 J0.
N13395 G1 X328.833
N13400 G3 X329.246 Y87.833 I0. J0.412
N13405 G1 Y100.001
N13410 G3 X328.928 Y100.318 I-0.318 J0. F1000.
N13415 G1 X328.611
N13420 G18 G3 X328.293 Z8.317 I0. K0.318
N13425 G1 Y99.683 F1100.
N13430 Z4.317 F333.33
N13435 G2 X328.611 Z4. I0.318 K0. F1000.
N13440 G1 X328.928
N13445 G17 G3 X329.246 Y100.001 I0. J0.318
N13450 G1 Y112.167 F1100.
N13455 G3 X328.833 Y112.579 I-0.413 J0.
N13460 G1 X304.5
N13465 G3 X304.087 Y112.167 I0. J-0.412
N13470 G1 Y87.833
N13475 G3 X304.5 Y87.421 I0.413 J0.
N13480 G1 X328.833
N13485 G3 X329.246 Y87.833 I0. J0.412
N13490 G1 Y100.001
N13495 G3 X328.928 Y100.318 I-0.318 J0. F1000.
N13500 G1 X328.611
N13505 G18 G3 X328.293 Z4.317 I0. K0.318
N13510 G1 Y99.683 F1100.
N13515 Z1. F333.33
N13520 Z17. F1000.
N13525 Z1. F333.33
N13530 X328.611 F1000.
N13535 X328.928
N13540 G17 G3 X329.246 Y100.001 I0. J0.318
N13545 G1 Y102.338 F1100.
N13550 Z0. F333.33
N13555 Y112.167 F1100.
N13560 G3 X328.833 Y112.579 I-0.413 J0.
N13565 G1 X319.004
N13570 Z1.
N13575 X314.329
N13580 Z0. F333.33
N13585 X304.5 F1100.
N13590 G3 X304.087 Y112.167 I0. J-0.412
N13595 G1 Y102.338
N13600 Z1.
N13605 Y97.662
N13610 Z0. F333.33
N13615 Y87.833 F1100.
N13620 G3 X304.5 Y87.421 I0.413 J0.
N13625 G1 X314.329
N13630 Z1.
N13635 X319.004
N13640 Z0. F333.33
N13645 X328.833 F1100.
N13650 G3 X329.246 Y87.833 I0. J0.412
N13655 G1 Y97.662
N13660 Z1.
N13665 Y100.001
N13670 G3 X328.928 Y100.318 I-0.318 J0. F1000.
N13675 G1 X328.293
N13680 G0 Z17.
N13685 X294.96 Y99.683
N13690 G1 Z8.317 F333.33
N13695 G18 G2 X295.277 Z8. I0.318 K0. F1000.
N13700 G1 X295.595
N13705 G17 G3 X295.913 Y100.001 I0. J0.318
N13710 G1 Y112.167 F1100.
N13715 G3 X295.5 Y112.579 I-0.413 J0.
N13720 G1 X271.167
N13725 G3 X270.754 Y112.167 I0. J-0.412
N13730 G1 Y87.833
N13735 G3 X271.167 Y87.421 I0.413 J0.
N13740 G1 X295.5
N13745 G3 X295.913 Y87.833 I0. J0.412
N13750 G1 Y100.001
N13755 G3 X295.595 Y100.318 I-0.318 J0. F1000.
N13760 G1 X295.277
N13765 G18 G3 X294.96 Z8.317 I0. K0.318
N13770 G1 Y99.683 F1100.
N13775 Z4.317 F333.33
N13780 G2 X295.277 Z4. I0.318 K0. F1000.
N13785 G1 X295.595
N13790 G17 G3 X295.913 Y100.001 I0. J0.318
N13795 G1 Y112.167 F1100.
N13800 G3 X295.5 Y112.579 I-0.413 J0.
N13805 G1 X271.167
N13810 G3 X270.754 Y112.167 I0. J-0.412
N13815 G1 Y87.833
N13820 G3 X271.167 Y87.421 I0.413 J0.
N13825 G1 X295.5
N13830 G3 X295.913 Y87.833 I0. J0.412
N13835 G1 Y100.001
N13840 G3 X295.595 Y100.318 I-0.318 J0. F1000.
N13845 G1 X295.277
N13850 G18 G3 X294.96 Z4.317 I0. K0.318
N13855 G1 Y99.683 F1100.
N13860 Z1. F333.33
N13865 Z17. F1000.
N13870 Z1. F333.33
N13875 X295.277 F1000.
N13880 X295.595
N13885 G17 G3 X295.913 Y100.001 I0. J0.318
N13890 G1 Y102.338 F1100.
N13895 Z0. F333.33
N13900 Y112.167 F1100.
N13905 G3 X295.5 Y112.579 I-0.413 J0.
N13910 G1 X285.671
N13915 Z1.
N13920 X280.996
N13925 Z0. F333.33
N13930 X271.167 F1100.
N13935 G3 X270.754 Y112.167 I0. J-0.412
N13940 G1 Y102.338
N13945 Z1.
N13950 Y97.662
N13955 Z0. F333.33
N13960 Y87.833 F1100.
N13965 G3 X271.167 Y87.421 I0.413 J0.
N13970 G1 X280.996
N13975 Z1.
N13980 X285.671
N13985 Z0. F333.33
N13990 X295.5 F1100.
N13995 G3 X295.913 Y87.833 I0. J0.412
N14000 G1 Y97.662
N14005 Z1.
N14010 Y100.001
N14015 G3 X295.595 Y100.318 I-0.318 J0. F1000.
N14020 G1 X294.96
N14025 G0 Z17.
N14030 Y33.016
N14035 G1 Z8.317 F333.33
N14040 G18 G2 X295.277 Z8. I0.318 K0. F1000.
N14045 G1 X295.595
N14050 G17 G3 X295.913 Y33.333 I0. J0.317
N14055 G1 Y45.5 F1100.
N14060 G3 X295.5 Y45.912 I-0.413 J0.
N14065 G1 X271.167
N14070 G3 X270.754 Y45.5 I0. J-0.412
N14075 G1 Y21.167
N14080 G3 X271.167 Y20.754 I0.413 J0.
N14085 G1 X295.5
N14090 G3 X295.913 Y21.167 I0. J0.413
N14095 G1 Y33.333
N14100 G3 X295.595 Y33.651 I-0.318 J0. F1000.
N14105 G1 X295.277
N14110 G18 G3 X294.96 Z8.317 I0. K0.318
N14115 G1 Y33.016 F1100.
N14120 Z4.317 F333.33
N14125 G2 X295.277 Z4. I0.318 K0. F1000.
N14130 G1 X295.595
N14135 G17 G3 X295.913 Y33.333 I0. J0.317
N14140 G1 Y45.5 F1100.
N14145 G3 X295.5 Y45.912 I-0.413 J0.
N14150 G1 X271.167
N14155 G3 X270.754 Y45.5 I0. J-0.412
N14160 G1 Y21.167
N14165 G3 X271.167 Y20.754 I0.413 J0.
N14170 G1 X295.5
N14175 G3 X295.913 Y21.167 I0. J0.413
N14180 G1 Y33.333
N14185 G3 X295.595 Y33.651 I-0.318 J0. F1000.
N14190 G1 X295.277
N14195 G18 G3 X294.96 Z4.317 I0. K0.318
N14200 G1 Y33.016 F1100.
N14205 Z1. F333.33
N14210 Z17. F1000.
N14215 Z1. F333.33
N14220 X295.277 F1000.
N14225 X295.595
N14230 G17 G3 X295.913 Y33.333 I0. J0.317
N14235 G1 Y35.671 F1100.
N14240 Z0. F333.33
N14245 Y45.5 F1100.
N14250 G3 X295.5 Y45.912 I-0.413 J0.
N14255 G1 X285.671
N14260 Z1.
N14265 X280.996
N14270 Z0. F333.33
N14275 X271.167 F1100.
N14280 G3 X270.754 Y45.5 I0. J-0.412
N14285 G1 Y35.671
N14290 Z1.
N14295 Y30.996
N14300 Z0. F333.33
N14305 Y21.167 F1100.
N14310 G3 X271.167 Y20.754 I0.413 J0.
N14315 G1 X280.996
N14320 Z1.
N14325 X285.671
N14330 Z0. F333.33
N14335 X295.5 F1100.
N14340 G3 X295.913 Y21.167 I0. J0.413
N14345 G1 Y30.996
N14350 Z1.
N14355 Y33.333
N14360 G3 X295.595 Y33.651 I-0.318 J0. F1000.
N14365 G1 X294.96
N14370 G0 Z17.
N14375 X328.293 Y33.016
N14380 G1 Z8.317 F333.33
N14385 G18 G2 X328.611 Z8. I0.318 K0. F1000.
N14390 G1 X328.928
N14395 G17 G3 X329.246 Y33.333 I0. J0.318
N14400 G1 Y45.5 F1100.
N14405 G3 X328.833 Y45.912 I-0.413 J0.
N14410 G1 X304.5
N14415 G3 X304.087 Y45.5 I0. J-0.412
N14420 G1 Y21.167
N14425 G3 X304.5 Y20.754 I0.413 J0.
N14430 G1 X328.833
N14435 G3 X329.246 Y21.167 I0. J0.413
N14440 G1 Y33.333
N14445 G3 X328.928 Y33.651 I-0.318 J0. F1000.
N14450 G1 X328.611
N14455 G18 G3 X328.293 Z8.317 I0. K0.318
N14460 G1 Y33.016 F1100.
N14465 Z4.317 F333.33
N14470 G2 X328.611 Z4. I0.318 K0. F1000.
N14475 G1 X328.928
N14480 G17 G3 X329.246 Y33.333 I0. J0.318
N14485 G1 Y45.5 F1100.
N14490 G3 X328.833 Y45.912 I-0.413 J0.
N14495 G1 X304.5
N14500 G3 X304.087 Y45.5 I0. J-0.412
N14505 G1 Y21.167
N14510 G3 X304.5 Y20.754 I0.413 J0.
N14515 G1 X328.833
N14520 G3 X329.246 Y21.167 I0. J0.413
N14525 G1 Y33.333
N14530 G3 X328.928 Y33.651 I-0.318 J0. F1000.
N14535 G1 X328.611
N14540 G18 G3 X328.293 Z4.317 I0. K0.318
N14545 G1 Y33.016 F1100.
N14550 Z1. F333.33
N14555 Z17. F1000.
N14560 Z1. F333.33
N14565 X328.611 F1000.
N14570 X328.928
N14575 G17 G3 X329.246 Y33.333 I0. J0.318
N14580 G1 Y35.671 F1100.
N14585 Z0. F333.33
N14590 Y45.5 F1100.
N14595 G3 X328.833 Y45.912 I-0.413 J0.
N14600 G1 X319.004
N14605 Z1.
N14610 X314.329
N14615 Z0. F333.33
N14620 X304.5 F1100.
N14625 G3 X304.087 Y45.5 I0. J-0.412
N14630 G1 Y35.671
N14635 Z1.
N14640 Y30.996
N14645 Z0. F333.33
N14650 Y21.167 F1100.
N14655 G3 X304.5 Y20.754 I0.413 J0.
N14660 G1 X314.329
N14665 Z1.
N14670 X319.004
N14675 Z0. F333.33
N14680 X328.833 F1100.
N14685 G3 X329.246 Y21.167 I0. J0.413
N14690 G1 Y30.996
N14695 Z1.
N14700 Y33.333
N14705 G3 X328.928 Y33.651 I-0.318 J0. F1000.
N14710 G1 X328.293
N14715 G0 Z17.
N14720 X350.317 Y44.96
N14725 G1 Z8.317 F333.33
N14730 G19 G3 Y45.278 Z8. J0.318 K0. F1000.
N14735 G1 Y45.595
N14740 G17 G3 X350. Y45.912 I-0.317 J0.
N14745 G1 X337.833 F1100.
N14750 G3 X337.421 Y45.5 I0. J-0.412
N14755 G1 Y21.167
N14760 G3 X337.833 Y20.754 I0.413 J0.
N14765 G1 X362.167
N14770 G3 X362.579 Y21.167 I0. J0.413
N14775 G1 Y45.5
N14780 G3 X362.167 Y45.912 I-0.413 J0.
N14785 G1 X350.
N14790 G3 X349.682 Y45.595 I0. J-0.317 F1000.
N14795 G1 Y45.278
N14800 G19 G2 Y44.96 Z8.317 J0. K0.318
N14805 G1 X350.317 F1100.
N14810 Z4.317 F333.33
N14815 G3 Y45.278 Z4. J0.318 K0. F1000.
N14820 G1 Y45.595
N14825 G17 G3 X350. Y45.912 I-0.317 J0.
N14830 G1 X337.833 F1100.
N14835 G3 X337.421 Y45.5 I0. J-0.412
N14840 G1 Y21.167
N14845 G3 X337.833 Y20.754 I0.413 J0.
N14850 G1 X362.167
N14855 G3 X362.579 Y21.167 I0. J0.413
N14860 G1 Y45.5
N14865 G3 X362.167 Y45.912 I-0.413 J0.
N14870 G1 X350.
N14875 G3 X349.682 Y45.595 I0. J-0.317 F1000.
N14880 G1 Y45.278
N14885 G19 G2 Y44.96 Z4.317 J0. K0.318
N14890 G1 X350.317 F1100.
N14895 Z1. F333.33
N14900 Z17. F1000.
N14905 Z1. F333.33
N14910 Y45.278 F1000.
N14915 Y45.595
N14920 G17 G3 X350. Y45.912 I-0.317 J0.
N14925 G1 X347.663 F1100.
N14930 Z0. F333.33
N14935 X337.833 F1100.
N14940 G3 X337.421 Y45.5 I0. J-0.412
N14945 G1 Y35.671
N14950 Z1.
N14955 Y30.996
N14960 Z0. F333.33
N14965 Y21.167 F1100.
N14970 G3 X337.833 Y20.754 I0.413 J0.
N14975 G1 X347.663
N14980 Z1.
N14985 X352.337
N14990 Z0. F333.33
N14995 X362.167 F1100.
N15000 G3 X362.579 Y21.167 I0. J0.413
N15005 G1 Y30.996
N15010 Z1.
N15015 Y35.671
N15020 Z0. F333.33
N15025 Y45.5 F1100.
N15030 G3 X362.167 Y45.912 I-0.413 J0.
N15035 G1 X352.337
N15040 Z1.
N15045 X350.
N15050 G3 X349.682 Y45.595 I0. J-0.317 F1000.
N15055 G1 Y44.96
N15060 G0 Z17.
N15065 X394.96 Y33.016
N15070 G1 Z8.317 F333.33
N15075 G18 G2 X395.277 Z8. I0.318 K0. F1000.
N15080 G1 X395.595
N15085 G17 G3 X395.913 Y33.333 I0. J0.317
N15090 G1 Y45.5 F1100.
N15095 G3 X395.5 Y45.912 I-0.413 J0.
N15100 G1 X371.167
N15105 G3 X370.754 Y45.5 I0. J-0.412
N15110 G1 Y21.167
N15115 G3 X371.167 Y20.754 I0.413 J0.
N15120 G1 X395.5
N15125 G3 X395.913 Y21.167 I0. J0.413
N15130 G1 Y33.333
N15135 G3 X395.595 Y33.651 I-0.318 J0. F1000.
N15140 G1 X395.277
N15145 G18 G3 X394.96 Z8.317 I0. K0.318
N15150 G1 Y33.016 F1100.
N15155 Z4.317 F333.33
N15160 G2 X395.277 Z4. I0.318 K0. F1000.
N15165 G1 X395.595
N15170 G17 G3 X395.913 Y33.333 I0. J0.317
N15175 G1 Y45.5 F1100.
N15180 G3 X395.5 Y45.912 I-0.413 J0.
N15185 G1 X371.167
N15190 G3 X370.754 Y45.5 I0. J-0.412
N15195 G1 Y21.167
N15200 G3 X371.167 Y20.754 I0.413 J0.
N15205 G1 X395.5
N15210 G3 X395.913 Y21.167 I0. J0.413
N15215 G1 Y33.333
N15220 G3 X395.595 Y33.651 I-0.318 J0. F1000.
N15225 G1 X395.277
N15230 G18 G3 X394.96 Z4.317 I0. K0.318
N15235 G1 Y33.016 F1100.
N15240 Z1. F333.33
N15245 Z17. F1000.
N15250 Z1. F333.33
N15255 X395.277 F1000.
N15260 X395.595
N15265 G17 G3 X395.913 Y33.333 I0. J0.317
N15270 G1 Y35.671 F1100.
N15275 Z0. F333.33
N15280 Y45.5 F1100.
N15285 G3 X395.5 Y45.912 I-0.413 J0.
N15290 G1 X385.671
N15295 Z1.
N15300 X380.996
N15305 Z0. F333.33
N15310 X371.167 F1100.
N15315 G3 X370.754 Y45.5 I0. J-0.412
N15320 G1 Y35.671
N15325 Z1.
N15330 Y30.996
N15335 Z0. F333.33
N15340 Y21.167 F1100.
N15345 G3 X371.167 Y20.754 I0.413 J0.
N15350 G1 X380.996
N15355 Z1.
N15360 X385.671
N15365 Z0. F333.33
N15370 X395.5 F1100.
N15375 G3 X395.913 Y21.167 I0. J0.413
N15380 G1 Y30.996
N15385 Z1.
N15390 Y33.333
N15395 G3 X395.595 Y33.651 I-0.318 J0. F1000.
N15400 G1 X394.96
N15405 G0 Z17.
N15410 X428.293 Y33.016
N15415 G1 Z8.317 F333.33
N15420 G18 G2 X428.611 Z8. I0.318 K0. F1000.
N15425 G1 X428.928
N15430 G17 G3 X429.246 Y33.333 I0. J0.318
N15435 G1 Y45.5 F1100.
N15440 G3 X428.833 Y45.912 I-0.413 J0.
N15445 G1 X404.5
N15450 G3 X404.087 Y45.5 I0. J-0.412
N15455 G1 Y21.167
N15460 G3 X404.5 Y20.754 I0.413 J0.
N15465 G1 X428.833
N15470 G3 X429.246 Y21.167 I0. J0.413
N15475 G1 Y33.333
N15480 G3 X428.928 Y33.651 I-0.318 J0. F1000.
N15485 G1 X428.611
N15490 G18 G3 X428.293 Z8.317 I0. K0.318
N15495 G1 Y33.016 F1100.
N15500 Z4.317 F333.33
N15505 G2 X428.611 Z4. I0.318 K0. F1000.
N15510 G1 X428.928
N15515 G17 G3 X429.246 Y33.333 I0. J0.318
N15520 G1 Y45.5 F1100.
N15525 G3 X428.833 Y45.912 I-0.413 J0.
N15530 G1 X404.5
N15535 G3 X404.087 Y45.5 I0. J-0.412
N15540 G1 Y21.167
N15545 G3 X404.5 Y20.754 I0.413 J0.
N15550 G1 X428.833
N15555 G3 X429.246 Y21.167 I0. J0.413
N15560 G1 Y33.333
N15565 G3 X428.928 Y33.651 I-0.318 J0. F1000.
N15570 G1 X428.611
N15575 G18 G3 X428.293 Z4.317 I0. K0.318
N15580 G1 Y33.016 F1100.
N15585 Z1. F333.33
N15590 Z17. F1000.
N15595 Z1. F333.33
N15600 X428.611 F1000.
N15605 X428.928
N15610 G17 G3 X429.246 Y33.333 I0. J0.318
N15615 G1 Y35.671 F1100.
N15620 Z0. F333.33
N15625 Y45.5 F1100.
N15630 G3 X428.833 Y45.912 I-0.413 J0.
N15635 G1 X419.004
N15640 Z1.
N15645 X414.329
N15650 Z0. F333.33
N15655 X404.5 F1100.
N15660 G3 X404.087 Y45.5 I0. J-0.412
N15665 G1 Y35.671
N15670 Z1.
N15675 Y30.996
N15680 Z0. F333.33
N15685 Y21.167 F1100.
N15690 G3 X404.5 Y20.754 I0.413 J0.
N15695 G1 X414.329
N15700 Z1.
N15705 X419.004
N15710 Z0. F333.33
N15715 X428.833 F1100.
N15720 G3 X429.246 Y21.167 I0. J0.413
N15725 G1 Y30.996
N15730 Z1.
N15735 Y33.333
N15740 G3 X428.928 Y33.651 I-0.318 J0. F1000.
N15745 G1 X428.293
N15750 G0 Z17.
N15755 X450.317 Y44.96
N15760 G1 Z8.317 F333.33
N15765 G19 G3 Y45.278 Z8. J0.318 K0. F1000.
N15770 G1 Y45.595
N15775 G17 G3 X450. Y45.912 I-0.317 J0.
N15780 G1 X437.833 F1100.
N15785 G3 X437.421 Y45.5 I0. J-0.412
N15790 G1 Y21.167
N15795 G3 X437.833 Y20.754 I0.413 J0.
N15800 G1 X462.167
N15805 G3 X462.579 Y21.167 I0. J0.413
N15810 G1 Y45.5
N15815 G3 X462.167 Y45.912 I-0.413 J0.
N15820 G1 X450.
N15825 G3 X449.682 Y45.595 I0. J-0.317 F1000.
N15830 G1 Y45.278
N15835 G19 G2 Y44.96 Z8.317 J0. K0.318
N15840 G1 X450.317 F1100.
N15845 Z4.317 F333.33
N15850 G3 Y45.278 Z4. J0.318 K0. F1000.
N15855 G1 Y45.595
N15860 G17 G3 X450. Y45.912 I-0.317 J0.
N15865 G1 X437.833 F1100.
N15870 G3 X437.421 Y45.5 I0. J-0.412
N15875 G1 Y21.167
N15880 G3 X437.833 Y20.754 I0.413 J0.
N15885 G1 X462.167
N15890 G3 X462.579 Y21.167 I0. J0.413
N15895 G1 Y45.5
N15900 G3 X462.167 Y45.912 I-0.413 J0.
N15905 G1 X450.
N15910 G3 X449.682 Y45.595 I0. J-0.317 F1000.
N15915 G1 Y45.278
N15920 G19 G2 Y44.96 Z4.317 J0. K0.318
N15925 G1 X450.317 F1100.
N15930 Z1. F333.33
N15935 Z17. F1000.
N15940 Z1. F333.33
N15945 Y45.278 F1000.
N15950 Y45.595
N15955 G17 G3 X450. Y45.912 I-0.317 J0.
N15960 G1 X447.663 F1100.
N15965 Z0. F333.33
N15970 X437.833 F1100.
N15975 G3 X437.421 Y45.5 I0. J-0.412
N15980 G1 Y35.671
N15985 Z1.
N15990 Y30.996
N15995 Z0. F333.33
N16000 Y21.167 F1100.
N16005 G3 X437.833 Y20.754 I0.413 J0.
N16010 G1 X447.663
N16015 Z1.
N16020 X452.337
N16025 Z0. F333.33
N16030 X462.167 F1100.
N16035 G3 X462.579 Y21.167 I0. J0.413
N16040 G1 Y30.996
N16045 Z1.
N16050 Y35.671
N16055 Z0. F333.33
N16060 Y45.5 F1100.
N16065 G3 X462.167 Y45.912 I-0.413 J0.
N16070 G1 X452.337
N16075 Z1.
N16080 X450.
N16085 G3 X449.682 Y45.595 I0. J-0.317 F1000.
N16090 G1 Y44.96
N16095 G0 Z17.
N16100 X450.317 Y78.293
N16105 G1 Z8.317 F333.33
N16110 G19 G3 Y78.611 Z8. J0.318 K0. F1000.
N16115 G1 Y78.928
N16120 G17 G3 X450. Y79.246 I-0.317 J0.
N16125 G1 X437.833 F1100.
N16130 G3 X437.421 Y78.833 I0. J-0.412
N16135 G1 Y54.5
N16140 G3 X437.833 Y54.088 I0.413 J0.
N16145 G1 X462.167
N16150 G3 X462.579 Y54.5 I0. J0.412
N16155 G1 Y78.833
N16160 G3 X462.167 Y79.246 I-0.413 J0.
N16165 G1 X450.
N16170 G3 X449.682 Y78.928 I0. J-0.317 F1000.
N16175 G1 Y78.611
N16180 G19 G2 Y78.293 Z8.317 J0. K0.318
N16185 G1 X450.317 F1100.
N16190 Z4.317 F333.33
N16195 G3 Y78.611 Z4. J0.318 K0. F1000.
N16200 G1 Y78.928
N16205 G17 G3 X450. Y79.246 I-0.317 J0.
N16210 G1 X437.833 F1100.
N16215 G3 X437.421 Y78.833 I0. J-0.412
N16220 G1 Y54.5
N16225 G3 X437.833 Y54.088 I0.413 J0.
N16230 G1 X462.167
N16235 G3 X462.579 Y54.5 I0. J0.412
N16240 G1 Y78.833
N16245 G3 X462.167 Y79.246 I-0.413 J0.
N16250 G1 X450.
N16255 G3 X449.682 Y78.928 I0. J-0.317 F1000.
N16260 G1 Y78.611
N16265 G19 G2 Y78.293 Z4.317 J0. K0.318
N16270 G1 X450.317 F1100.
N16275 Z1. F333.33
N16280 Z17. F1000.
N16285 Z1. F333.33
N16290 Y78.611 F1000.
N16295 Y78.928
N16300 G17 G3 X450. Y79.246 I-0.317 J0.
N16305 G1 X447.663 F1100.
N16310 Z0. F333.33
N16315 X437.833 F1100.
N16320 G3 X437.421 Y78.833 I0. J-0.412
N16325 G1 Y69.004
N16330 Z1.
N16335 Y64.329
N16340 Z0. F333.33
N16345 Y54.5 F1100.
N16350 G3 X437.833 Y54.088 I0.413 J0.
N16355 G1 X447.663
N16360 Z1.
N16365 X452.337
N16370 Z0. F333.33
N16375 X462.167 F1100.
N16380 G3 X462.579 Y54.5 I0. J0.412
N16385 G1 Y64.329
N16390 Z1.
N16395 Y69.004
N16400 Z0. F333.33
N16405 Y78.833 F1100.
N16410 G3 X462.167 Y79.246 I-0.413 J0.
N16415 G1 X452.337
N16420 Z1.
N16425 X450.
N16430 G3 X449.682 Y78.928 I0. J-0.317 F1000.
N16435 G1 Y78.293
N16440 G0 Z17.
N16445 Y88.373
N16450 G1 Z8.317 F333.33
N16455 G19 G2 Y88.056 Z8. J-0.317 K0. F1000.
N16460 G1 Y87.738
N16465 G17 G3 X450. Y87.421 I0.318 J0.
N16470 G1 X462.167 F1100.
N16475 G3 X462.579 Y87.833 I0. J0.412
N16480 G1 Y112.167
N16485 G3 X462.167 Y112.579 I-0.413 J0.
N16490 G1 X437.833
N16495 G3 X437.421 Y112.167 I0. J-0.412
N16500 G1 Y87.833
N16505 G3 X437.833 Y87.421 I0.413 J0.
N16510 G1 X450.
N16515 G3 X450.317 Y87.738 I0. J0.317 F1000.
N16520 G1 Y88.056
N16525 G19 G3 Y88.373 Z8.317 J0. K0.318
N16530 G1 X449.682 F1100.
N16535 Z4.317 F333.33
N16540 G2 Y88.056 Z4. J-0.317 K0. F1000.
N16545 G1 Y87.738
N16550 G17 G3 X450. Y87.421 I0.318 J0.
N16555 G1 X462.167 F1100.
N16560 G3 X462.579 Y87.833 I0. J0.412
N16565 G1 Y112.167
N16570 G3 X462.167 Y112.579 I-0.413 J0.
N16575 G1 X437.833
N16580 G3 X437.421 Y112.167 I0. J-0.412
N16585 G1 Y87.833
N16590 G3 X437.833 Y87.421 I0.413 J0.
N16595 G1 X450.
N16600 G3 X450.317 Y87.738 I0. J0.317 F1000.
N16605 G1 Y88.056
N16610 G19 G3 Y88.373 Z4.317 J0. K0.318
N16615 G1 X449.682 F1100.
N16620 Z1. F333.33
N16625 Z17. F1000.
N16630 Z1. F333.33
N16635 Y88.056 F1000.
N16640 Y87.738
N16645 G17 G3 X450. Y87.421 I0.318 J0.
N16650 G1 X452.337 F1100.
N16655 Z0. F333.33
N16660 X462.167 F1100.
N16665 G3 X462.579 Y87.833 I0. J0.412
N16670 G1 Y97.662
N16675 Z1.
N16680 Y102.338
N16685 Z0. F333.33
N16690 Y112.167 F1100.
N16695 G3 X462.167 Y112.579 I-0.413 J0.
N16700 G1 X452.337
N16705 Z1.
N16710 X447.663
N16715 Z0. F333.33
N16720 X437.833 F1100.
N16725 G3 X437.421 Y112.167 I0. J-0.412
N16730 G1 Y102.338
N16735 Z1.
N16740 Y97.662
N16745 Z0. F333.33
N16750 Y87.833 F1100.
N16755 G3 X437.833 Y87.421 I0.413 J0.
N16760 G1 X447.663
N16765 Z1.
N16770 X450.
N16775 G3 X450.317 Y87.738 I0. J0.317 F1000.
N16780 G1 Y88.373
N16785 G0 Z17.
N16790 X428.293 Y99.683
N16795 G1 Z8.317 F333.33
N16800 G18 G2 X428.611 Z8. I0.318 K0. F1000.
N16805 G1 X428.928
N16810 G17 G3 X429.246 Y100.001 I0. J0.318
N16815 G1 Y112.167 F1100.
N16820 G3 X428.833 Y112.579 I-0.413 J0.
N16825 G1 X404.5
N16830 G3 X404.087 Y112.167 I0. J-0.412
N16835 G1 Y87.833
N16840 G3 X404.5 Y87.421 I0.413 J0.
N16845 G1 X428.833
N16850 G3 X429.246 Y87.833 I0. J0.412
N16855 G1 Y100.001
N16860 G3 X428.928 Y100.318 I-0.318 J0. F1000.
N16865 G1 X428.611
N16870 G18 G3 X428.293 Z8.317 I0. K0.318
N16875 G1 Y99.683 F1100.
N16880 Z4.317 F333.33
N16885 G2 X428.611 Z4. I0.318 K0. F1000.
N16890 G1 X428.928
N16895 G17 G3 X429.246 Y100.001 I0. J0.318
N16900 G1 Y112.167 F1100.
N16905 G3 X428.833 Y112.579 I-0.413 J0.
N16910 G1 X404.5
N16915 G3 X404.087 Y112.167 I0. J-0.412
N16920 G1 Y87.833
N16925 G3 X404.5 Y87.421 I0.413 J0.
N16930 G1 X428.833
N16935 G3 X429.246 Y87.833 I0. J0.412
N16940 G1 Y100.001
N16945 G3 X428.928 Y100.318 I-0.318 J0. F1000.
N16950 G1 X428.611
N16955 G18 G3 X428.293 Z4.317 I0. K0.318
N16960 G1 Y99.683 F1100.
N16965 Z1. F333.33
N16970 Z17. F1000.
N16975 Z1. F333.33
N16980 X428.611 F1000.
N16985 X428.928
N16990 G17 G3 X429.246 Y100.001 I0. J0.318
N16995 G1 Y102.338 F1100.
N17000 Z0. F333.33
N17005 Y112.167 F1100.
N17010 G3 X428.833 Y112.579 I-0.413 J0.
N17015 G1 X419.004
N17020 Z1.
N17025 X414.329
N17030 Z0. F333.33
N17035 X404.5 F1100.
N17040 G3 X404.087 Y112.167 I0. J-0.412
N17045 G1 Y102.338
N17050 Z1.
N17055 Y97.662
N17060 Z0. F333.33
N17065 Y87.833 F1100.
N17070 G3 X404.5 Y87.421 I0.413 J0.
N17075 G1 X414.329
N17080 Z1.
N17085 X419.004
N17090 Z0. F333.33
N17095 X428.833 F1100.
N17100 G3 X429.246 Y87.833 I0. J0.412
N17105 G1 Y97.662
N17110 Z1.
N17115 Y100.001
N17120 G3 X428.928 Y100.318 I-0.318 J0. F1000.
N17125 G1 X428.293
N17130 G0 Z17.
N17135 Y66.349
N17140 G1 Z8.317 F333.33
N17145 G18 G2 X428.611 Z8. I0.318 K0. F1000.
N17150 G1 X428.928
N17155 G17 G3 X429.246 Y66.666 I0. J0.317
N17160 G1 Y78.833 F1100.
N17165 G3 X428.833 Y79.246 I-0.413 J0.
N17170 G1 X404.5
N17175 G3 X404.087 Y78.833 I0. J-0.412
N17180 G1 Y54.5
N17185 G3 X404.5 Y54.088 I0.413 J0.
N17190 G1 X428.833
N17195 G3 X429.246 Y54.5 I0. J0.412
N17200 G1 Y66.666
N17205 G3 X428.928 Y66.984 I-0.318 J0. F1000.
N17210 G1 X428.611
N17215 G18 G3 X428.293 Z8.317 I0. K0.318
N17220 G1 Y66.349 F1100.
N17225 Z4.317 F333.33
N17230 G2 X428.611 Z4. I0.318 K0. F1000.
N17235 G1 X428.928
N17240 G17 G3 X429.246 Y66.666 I0. J0.317
N17245 G1 Y78.833 F1100.
N17250 G3 X428.833 Y79.246 I-0.413 J0.
N17255 G1 X404.5
N17260 G3 X404.087 Y78.833 I0. J-0.412
N17265 G1 Y54.5
N17270 G3 X404.5 Y54.088 I0.413 J0.
N17275 G1 X428.833
N17280 G3 X429.246 Y54.5 I0. J0.412
N17285 G1 Y66.666
N17290 G3 X428.928 Y66.984 I-0.318 J0. F1000.
N17295 G1 X428.611
N17300 G18 G3 X428.293 Z4.317 I0. K0.318
N17305 G1 Y66.349 F1100.
N17310 Z1. F333.33
N17315 Z17. F1000.
N17320 Z1. F333.33
N17325 X428.611 F1000.
N17330 X428.928
N17335 G17 G3 X429.246 Y66.666 I0. J0.317
N17340 G1 Y69.004 F1100.
N17345 Z0. F333.33
N17350 Y78.833 F1100.
N17355 G3 X428.833 Y79.246 I-0.413 J0.
N17360 G1 X419.004
N17365 Z1.
N17370 X414.329
N17375 Z0. F333.33
N17380 X404.5 F1100.
N17385 G3 X404.087 Y78.833 I0. J-0.412
N17390 G1 Y69.004
N17395 Z1.
N17400 Y64.329
N17405 Z0. F333.33
N17410 Y54.5 F1100.
N17415 G3 X404.5 Y54.088 I0.413 J0.
N17420 G1 X414.329
N17425 Z1.
N17430 X419.004
N17435 Z0. F333.33
N17440 X428.833 F1100.
N17445 G3 X429.246 Y54.5 I0. J0.412
N17450 G1 Y64.329
N17455 Z1.
N17460 Y66.666
N17465 G3 X428.928 Y66.984 I-0.318 J0. F1000.
N17470 G1 X428.293
N17475 G0 Z17.
N17480 X394.96 Y66.349
N17485 G1 Z8.317 F333.33
N17490 G18 G2 X395.277 Z8. I0.318 K0. F1000.
N17495 G1 X395.595
N17500 G17 G3 X395.913 Y66.667 I0. J0.318
N17505 G1 Y78.833 F1100.
N17510 G3 X395.5 Y79.246 I-0.413 J0.
N17515 G1 X371.167
N17520 G3 X370.754 Y78.833 I0. J-0.412
N17525 G1 Y54.5
N17530 G3 X371.167 Y54.088 I0.413 J0.
N17535 G1 X395.5
N17540 G3 X395.913 Y54.5 I0. J0.412
N17545 G1 Y66.667
N17550 G3 X395.595 Y66.984 I-0.318 J0. F1000.
N17555 G1 X395.277
N17560 G18 G3 X394.96 Z8.317 I0. K0.318
N17565 G1 Y66.349 F1100.
N17570 Z4.317 F333.33
N17575 G2 X395.277 Z4. I0.318 K0. F1000.
N17580 G1 X395.595
N17585 G17 G3 X395.913 Y66.667 I0. J0.318
N17590 G1 Y78.833 F1100.
N17595 G3 X395.5 Y79.246 I-0.413 J0.
N17600 G1 X371.167
N17605 G3 X370.754 Y78.833 I0. J-0.412
N17610 G1 Y54.5
N17615 G3 X371.167 Y54.088 I0.413 J0.
N17620 G1 X395.5
N17625 G3 X395.913 Y54.5 I0. J0.412
N17630 G1 Y66.667
N17635 G3 X395.595 Y66.984 I-0.318 J0. F1000.
N17640 G1 X395.277
N17645 G18 G3 X394.96 Z4.317 I0. K0.318
N17650 G1 Y66.349 F1100.
N17655 Z1. F333.33
N17660 Z17. F1000.
N17665 Z1. F333.33
N17670 X395.277 F1000.
N17675 X395.595
N17680 G17 G3 X395.913 Y66.667 I0. J0.318
N17685 G1 Y69.004 F1100.
N17690 Z0. F333.33
N17695 Y78.833 F1100.
N17700 G3 X395.5 Y79.246 I-0.413 J0.
N17705 G1 X385.671
N17710 Z1.
N17715 X380.996
N17720 Z0. F333.33
N17725 X371.167 F1100.
N17730 G3 X370.754 Y78.833 I0. J-0.412
N17735 G1 Y69.004
N17740 Z1.
N17745 Y64.329
N17750 Z0. F333.33
N17755 Y54.5 F1100.
N17760 G3 X371.167 Y54.088 I0.413 J0.
N17765 G1 X380.996
N17770 Z1.
N17775 X385.671
N17780 Z0. F333.33
N17785 X395.5 F1100.
N17790 G3 X395.913 Y54.5 I0. J0.412
N17795 G1 Y64.329
N17800 Z1.
N17805 Y66.667
N17810 G3 X395.595 Y66.984 I-0.318 J0. F1000.
N17815 G1 X394.96
N17820 G0 Z17.
N17825 Y99.682
N17830 G1 Z8.317 F333.33
N17835 G18 G2 X395.277 Z8. I0.318 K0. F1000.
N17840 G1 X395.595
N17845 G17 G3 X395.913 Y100. I0. J0.318
N17850 G1 Y112.167 F1100.
N17855 G3 X395.5 Y112.579 I-0.413 J0.
N17860 G1 X371.167
N17865 G3 X370.754 Y112.167 I0. J-0.412
N17870 G1 Y87.833
N17875 G3 X371.167 Y87.421 I0.413 J0.
N17880 G1 X395.5
N17885 G3 X395.913 Y87.833 I0. J0.412
N17890 G1 Y100.
N17895 G3 X395.595 Y100.317 I-0.318 J0. F1000.
N17900 G1 X395.277
N17905 G18 G3 X394.96 Z8.317 I0. K0.318
N17910 G1 Y99.682 F1100.
N17915 Z4.317 F333.33
N17920 G2 X395.277 Z4. I0.318 K0. F1000.
N17925 G1 X395.595
N17930 G17 G3 X395.913 Y100. I0. J0.318
N17935 G1 Y112.167 F1100.
N17940 G3 X395.5 Y112.579 I-0.413 J0.
N17945 G1 X371.167
N17950 G3 X370.754 Y112.167 I0. J-0.412
N17955 G1 Y87.833
N17960 G3 X371.167 Y87.421 I0.413 J0.
N17965 G1 X395.5
N17970 G3 X395.913 Y87.833 I0. J0.412
N17975 G1 Y100.
N17980 G3 X395.595 Y100.317 I-0.318 J0. F1000.
N17985 G1 X395.277
N17990 G18 G3 X394.96 Z4.317 I0. K0.318
N17995 G1 Y99.682 F1100.
N18000 Z1. F333.33
N18005 Z17. F1000.
N18010 Z1. F333.33
N18015 X395.277 F1000.
N18020 X395.595
N18025 G17 G3 X395.913 Y100. I0. J0.318
N18030 G1 Y102.338 F1100.
N18035 Z0. F333.33
N18040 Y112.167 F1100.
N18045 G3 X395.5 Y112.579 I-0.413 J0.
N18050 G1 X385.671
N18055 Z1.
N18060 X380.996
N18065 Z0. F333.33
N18070 X371.167 F1100.
N18075 G3 X370.754 Y112.167 I0. J-0.412
N18080 G1 Y102.338
N18085 Z1.
N18090 Y97.662
N18095 Z0. F333.33
N18100 Y87.833 F1100.
N18105 G3 X371.167 Y87.421 I0.413 J0.
N18110 G1 X380.996
N18115 Z1.
N18120 X385.671
N18125 Z0. F333.33
N18130 X395.5 F1100.
N18135 G3 X395.913 Y87.833 I0. J0.412
N18140 G1 Y97.662
N18145 Z1.
N18150 Y100.
N18155 G3 X395.595 Y100.317 I-0.318 J0. F1000.
N18160 G1 X394.96
N18165 G0 Z17.
N18170 X250.317 Y44.96
N18175 G1 Z8.317 F333.33
N18180 G19 G3 Y45.278 Z8. J0.318 K0. F1000.
N18185 G1 Y45.595
N18190 G17 G3 X250. Y45.912 I-0.318 J0.
N18195 G1 X237.833 F1100.
N18200 G3 X237.421 Y45.5 I0. J-0.412
N18205 G1 Y21.167
N18210 G3 X237.833 Y20.754 I0.412 J0.
N18215 G1 X262.167
N18220 G3 X262.579 Y21.167 I0. J0.413
N18225 G1 Y45.5
N18230 G3 X262.167 Y45.912 I-0.413 J0.
N18235 G1 X250.
N18240 G3 X249.682 Y45.595 I0. J-0.317 F1000.
N18245 G1 Y45.278
N18250 G19 G2 Y44.96 Z8.317 J0. K0.318
N18255 G1 X250.317 F1100.
N18260 Z4.317 F333.33
N18265 G3 Y45.278 Z4. J0.318 K0. F1000.
N18270 G1 Y45.595
N18275 G17 G3 X250. Y45.912 I-0.318 J0.
N18280 G1 X237.833 F1100.
N18285 G3 X237.421 Y45.5 I0. J-0.412
N18290 G1 Y21.167
N18295 G3 X237.833 Y20.754 I0.412 J0.
N18300 G1 X262.167
N18305 G3 X262.579 Y21.167 I0. J0.413
N18310 G1 Y45.5
N18315 G3 X262.167 Y45.912 I-0.413 J0.
N18320 G1 X250.
N18325 G3 X249.682 Y45.595 I0. J-0.317 F1000.
N18330 G1 Y45.278
N18335 G19 G2 Y44.96 Z4.317 J0. K0.318
N18340 G1 X250.317 F1100.
N18345 Z1. F333.33
N18350 Z17. F1000.
N18355 Z1. F333.33
N18360 Y45.278 F1000.
N18365 Y45.595
N18370 G17 G3 X250. Y45.912 I-0.318 J0.
N18375 G1 X247.663 F1100.
N18380 Z0. F333.33
N18385 X237.833 F1100.
N18390 G3 X237.421 Y45.5 I0. J-0.412
N18395 G1 Y35.671
N18400 Z1.
N18405 Y30.996
N18410 Z0. F333.33
N18415 Y21.167 F1100.
N18420 G3 X237.833 Y20.754 I0.412 J0.
N18425 G1 X247.663
N18430 Z1.
N18435 X252.337
N18440 Z0. F333.33
N18445 X262.167 F1100.
N18450 G3 X262.579 Y21.167 I0. J0.413
N18455 G1 Y30.996
N18460 Z1.
N18465 Y35.671
N18470 Z0. F333.33
N18475 Y45.5 F1100.
N18480 G3 X262.167 Y45.912 I-0.413 J0.
N18485 G1 X252.337
N18490 Z1.
N18495 X250.
N18500 G3 X249.682 Y45.595 I0. J-0.317 F1000.
N18505 G1 Y44.96
N18510 G0 Z17.
N18515 X228.293 Y33.016
N18520 G1 Z8.317 F333.33
N18525 G18 G2 X228.611 Z8. I0.318 K0. F1000.
N18530 G1 X228.928
N18535 G17 G3 X229.245 Y33.333 I0. J0.317
N18540 G1 Y45.5 F1100.
N18545 G3 X228.833 Y45.912 I-0.413 J0.
N18550 G1 X204.5
N18555 G3 X204.087 Y45.5 I0. J-0.412
N18560 G1 Y21.167
N18565 G3 X204.5 Y20.754 I0.413 J0.
N18570 G1 X228.833
N18575 G3 X229.245 Y21.167 I0. J0.413
N18580 G1 Y33.333
N18585 G3 X228.928 Y33.651 I-0.318 J0. F1000.
N18590 G1 X228.611
N18595 G18 G3 X228.293 Z8.317 I0. K0.318
N18600 G1 Y33.016 F1100.
N18605 Z4.317 F333.33
N18610 G2 X228.611 Z4. I0.318 K0. F1000.
N18615 G1 X228.928
N18620 G17 G3 X229.245 Y33.333 I0. J0.317
N18625 G1 Y45.5 F1100.
N18630 G3 X228.833 Y45.912 I-0.413 J0.
N18635 G1 X204.5
N18640 G3 X204.087 Y45.5 I0. J-0.412
N18645 G1 Y21.167
N18650 G3 X204.5 Y20.754 I0.413 J0.
N18655 G1 X228.833
N18660 G3 X229.245 Y21.167 I0. J0.413
N18665 G1 Y33.333
N18670 G3 X228.928 Y33.651 I-0.318 J0. F1000.
N18675 G1 X228.611
N18680 G18 G3 X228.293 Z4.317 I0. K0.318
N18685 G1 Y33.016 F1100.
N18690 Z1. F333.33
N18695 Z17. F1000.
N18700 Z1. F333.33
N18705 X228.611 F1000.
N18710 X228.928
N18715 G17 G3 X229.245 Y33.333 I0. J0.317
N18720 G1 Y35.671 F1100.
N18725 Z0. F333.33
N18730 Y45.5 F1100.
N18735 G3 X228.833 Y45.912 I-0.413 J0.
N18740 G1 X219.005
N18745 Z1.
N18750 X214.329
N18755 Z0. F333.33
N18760 X204.5 F1100.
N18765 G3 X204.087 Y45.5 I0. J-0.412
N18770 G1 Y35.671
N18775 Z1.
N18780 Y30.996
N18785 Z0. F333.33
N18790 Y21.167 F1100.
N18795 G3 X204.5 Y20.754 I0.413 J0.
N18800 G1 X214.329
N18805 Z1.
N18810 X219.005
N18815 Z0. F333.33
N18820 X228.833 F1100.
N18825 G3 X229.245 Y21.167 I0. J0.413
N18830 G1 Y30.996
N18835 Z1.
N18840 Y33.333
N18845 G3 X228.928 Y33.651 I-0.318 J0. F1000.
N18850 G1 X228.293
N18855 G0 Z17.
N18860 X194.96 Y33.016
N18865 G1 Z8.317 F333.33
N18870 G18 G2 X195.277 Z8. I0.317 K0. F1000.
N18875 G1 X195.595
N18880 G17 G3 X195.913 Y33.333 I0. J0.318
N18885 G1 Y45.5 F1100.
N18890 G3 X195.5 Y45.912 I-0.413 J0.
N18895 G1 X171.167
N18900 G3 X170.755 Y45.5 I0. J-0.412
N18905 G1 Y21.167
N18910 G3 X171.167 Y20.754 I0.413 J0.
N18915 G1 X195.5
N18920 G3 X195.913 Y21.167 I0. J0.413
N18925 G1 Y33.333
N18930 G3 X195.595 Y33.651 I-0.318 J0. F1000.
N18935 G1 X195.277
N18940 G18 G3 X194.96 Z8.317 I0. K0.318
N18945 G1 Y33.016 F1100.
N18950 Z4.317 F333.33
N18955 G2 X195.277 Z4. I0.317 K0. F1000.
N18960 G1 X195.595
N18965 G17 G3 X195.913 Y33.333 I0. J0.318
N18970 G1 Y45.5 F1100.
N18975 G3 X195.5 Y45.912 I-0.413 J0.
N18980 G1 X171.167
N18985 G3 X170.755 Y45.5 I0. J-0.412
N18990 G1 Y21.167
N18995 G3 X171.167 Y20.754 I0.413 J0.
N19000 G1 X195.5
N19005 G3 X195.913 Y21.167 I0. J0.413
N19010 G1 Y33.333
N19015 G3 X195.595 Y33.651 I-0.318 J0. F1000.
N19020 G1 X195.277
N19025 G18 G3 X194.96 Z4.317 I0. K0.318
N19030 G1 Y33.016 F1100.
N19035 Z1. F333.33
N19040 Z17. F1000.
N19045 Z1. F333.33
N19050 X195.277 F1000.
N19055 X195.595
N19060 G17 G3 X195.913 Y33.333 I0. J0.318
N19065 G1 Y35.671 F1100.
N19070 Z0. F333.33
N19075 Y45.5 F1100.
N19080 G3 X195.5 Y45.912 I-0.413 J0.
N19085 G1 X185.671
N19090 Z1.
N19095 X180.995
N19100 Z0. F333.33
N19105 X171.167 F1100.
N19110 G3 X170.755 Y45.5 I0. J-0.412
N19115 G1 Y35.671
N19120 Z1.
N19125 Y30.996
N19130 Z0. F333.33
N19135 Y21.167 F1100.
N19140 G3 X171.167 Y20.754 I0.413 J0.
N19145 G1 X180.995
N19150 Z1.
N19155 X185.671
N19160 Z0. F333.33
N19165 X195.5 F1100.
N19170 G3 X195.913 Y21.167 I0. J0.413
N19175 G1 Y30.996
N19180 Z1.
N19185 Y33.333
N19190 G3 X195.595 Y33.651 I-0.318 J0. F1000.
N19195 G1 X194.96
N19200 G0 Z17.
N19205 Y66.349
N19210 G1 Z8.317 F333.33
N19215 G18 G2 X195.277 Z8. I0.317 K0. F1000.
N19220 G1 X195.595
N19225 G17 G3 X195.913 Y66.666 I0. J0.317
N19230 G1 Y78.833 F1100.
N19235 G3 X195.5 Y79.246 I-0.413 J0.
N19240 G1 X171.167
N19245 G3 X170.755 Y78.833 I0. J-0.412
N19250 G1 Y54.5
N19255 G3 X171.167 Y54.088 I0.413 J0.
N19260 G1 X195.5
N19265 G3 X195.913 Y54.5 I0. J0.412
N19270 G1 Y66.666
N19275 G3 X195.595 Y66.984 I-0.318 J0. F1000.
N19280 G1 X195.277
N19285 G18 G3 X194.96 Z8.317 I0. K0.318
N19290 G1 Y66.349 F1100.
N19295 Z4.317 F333.33
N19300 G2 X195.277 Z4. I0.317 K0. F1000.
N19305 G1 X195.595
N19310 G17 G3 X195.913 Y66.666 I0. J0.317
N19315 G1 Y78.833 F1100.
N19320 G3 X195.5 Y79.246 I-0.413 J0.
N19325 G1 X171.167
N19330 G3 X170.755 Y78.833 I0. J-0.412
N19335 G1 Y54.5
N19340 G3 X171.167 Y54.088 I0.413 J0.
N19345 G1 X195.5
N19350 G3 X195.913 Y54.5 I0. J0.412
N19355 G1 Y66.666
N19360 G3 X195.595 Y66.984 I-0.318 J0. F1000.
N19365 G1 X195.277
N19370 G18 G3 X194.96 Z4.317 I0. K0.318
N19375 G1 Y66.349 F1100.
N19380 Z1. F333.33
N19385 Z17. F1000.
N19390 Z1. F333.33
N19395 X195.277 F1000.
N19400 X195.595
N19405 G17 G3 X195.913 Y66.666 I0. J0.317
N19410 G1 Y69.004 F1100.
N19415 Z0. F333.33
N19420 Y78.833 F1100.
N19425 G3 X195.5 Y79.246 I-0.413 J0.
N19430 G1 X185.671
N19435 Z1.
N19440 X180.995
N19445 Z0. F333.33
N19450 X171.167 F1100.
N19455 G3 X170.755 Y78.833 I0. J-0.412
N19460 G1 Y69.004
N19465 Z1.
N19470 Y64.329
N19475 Z0. F333.33
N19480 Y54.5 F1100.
N19485 G3 X171.167 Y54.088 I0.413 J0.
N19490 G1 X180.995
N19495 Z1.
N19500 X185.671
N19505 Z0. F333.33
N19510 X195.5 F1100.
N19515 G3 X195.913 Y54.5 I0. J0.412
N19520 G1 Y64.329
N19525 Z1.
N19530 Y66.666
N19535 G3 X195.595 Y66.984 I-0.318 J0. F1000.
N19540 G1 X194.96
N19545 G0 Z17.
N19550 Y99.683
N19555 G1 Z8.317 F333.33
N19560 G18 G2 X195.277 Z8. I0.317 K0. F1000.
N19565 G1 X195.595
N19570 G17 G3 X195.913 Y100.001 I0. J0.318
N19575 G1 Y112.167 F1100.
N19580 G3 X195.5 Y112.579 I-0.413 J0.
N19585 G1 X171.167
N19590 G3 X170.755 Y112.167 I0. J-0.412
N19595 G1 Y87.833
N19600 G3 X171.167 Y87.421 I0.413 J0.
N19605 G1 X195.5
N19610 G3 X195.913 Y87.833 I0. J0.412
N19615 G1 Y100.001
N19620 G3 X195.595 Y100.318 I-0.318 J0. F1000.
N19625 G1 X195.277
N19630 G18 G3 X194.96 Z8.317 I0. K0.318
N19635 G1 Y99.683 F1100.
N19640 Z4.317 F333.33
N19645 G2 X195.277 Z4. I0.317 K0. F1000.
N19650 G1 X195.595
N19655 G17 G3 X195.913 Y100.001 I0. J0.318
N19660 G1 Y112.167 F1100.
N19665 G3 X195.5 Y112.579 I-0.413 J0.
N19670 G1 X171.167
N19675 G3 X170.755 Y112.167 I0. J-0.412
N19680 G1 Y87.833
