%
(LEDSCHOTTEN_IKEA_11_11_9MM)
(T1  D=3.175 CR=0. - ZMIN=0. - FLAT END MILL)
N10 G90 G94 G17 G91.1
N15 G21
(2D CONTOUR3)
N20 T1 M6
N25 S10000 M3
N30 M8
N35 G54
N40 G0 X114.96 Y214.182
N45 G43 Z25.5 H1
N50 G0 Z15.5
N55 G1 Z6.817 F333.33
N60 G18 G2 X115.277 Z6.5 I0.317 K0.
N65 G1 X115.595 F1000.
N70 G17 G3 X115.912 Y214.5 I0. J0.318
N75 X114.088 I-0.912 J0. F1200.
N80 X115.912 I0.912 J0.
N85 X115.595 Y214.818 I-0.317 J0. F1000.
N90 G1 X115.277
N95 G18 G3 X114.96 Z6.817 I0. K0.318
N100 G1 Y214.182 F1200.
N105 Z2.817 F333.33
N110 G2 X115.277 Z2.5 I0.317 K0.
N115 G1 X115.595 F1000.
N120 G17 G3 X115.912 Y214.5 I0. J0.318
N125 X114.088 I-0.912 J0. F1200.
N130 X115.912 I0.912 J0.
N135 X115.595 Y214.818 I-0.317 J0. F1000.
N140 G1 X115.277
N145 G18 G3 X114.96 Z2.817 I0. K0.318
N150 G1 Y214.182 F1200.
N155 Z0.317 F333.33
N160 G2 X115.277 Z0. I0.317 K0.
N165 G1 X115.595 F1000.
N170 G17 G3 X115.912 Y214.5 I0. J0.318
N175 X114.088 I-0.912 J0. F1200.
N180 X115.912 I0.912 J0.
N185 X115.595 Y214.818 I-0.317 J0. F1000.
N190 G1 X115.277
N195 G18 G3 X114.96 Z0.317 I0. K0.317
N200 G0 Z15.5
N205 X104.317 Y223.46
N210 G1 Z6.817 F333.33
N215 G19 G3 Y223.777 Z6.5 J0.317 K0.
N220 G1 Y224.095 F1000.
N225 G17 G3 X104. Y224.413 I-0.317 J0.
N230 G1 X101.588 F1200.
N235 Y219.587
N240 X128.413
N245 Y224.413
N250 X104.
N255 G3 X103.683 Y224.095 I0. J-0.318 F1000.
N260 G1 Y223.777
N265 G19 G2 Y223.46 Z6.817 J0. K0.318
N270 G1 X104.317 F1200.
N275 Z2.817 F333.33
N280 G3 Y223.777 Z2.5 J0.317 K0.
N285 G1 Y224.095 F1000.
N290 G17 G3 X104. Y224.413 I-0.317 J0.
N295 G1 X101.588 F1200.
N300 Y219.587
N305 X128.413
N310 Y224.413
N315 X104.
N320 G3 X103.683 Y224.095 I0. J-0.318 F1000.
N325 G1 Y223.777
N330 G19 G2 Y223.46 Z2.817 J0. K0.318
N335 G1 X104.317 F1200.
N340 Z0.317 F333.33
N345 G3 Y223.777 Z0. J0.317 K0.
N350 G1 Y224.095 F1000.
N355 G17 G3 X104. Y224.413 I-0.317 J0.
N360 G1 X101.588 F1200.
N365 Y219.587
N370 X128.413
N375 Y224.413
N380 X104.
N385 G3 X103.683 Y224.095 I0. J-0.318 F1000.
N390 G1 Y223.777
N395 G19 G2 Y223.46 Z0.317 J0. K0.317
N400 G0 Z15.5
N405 X24.134 Y219.051
N410 G1 Z6.817 F333.33
N415 X24.142 Y219.052 Z6.747
N420 X24.165 Z6.68
N425 X24.203 Y219.053 Z6.62
N430 X24.254 Y219.054 Z6.569
N435 X24.314 Y219.056 Z6.531
N440 X24.381 Y219.057 Z6.508
N445 X24.451 Y219.059 Z6.5
N450 X24.769 Y219.067 F1000.
N455 G17 G3 X25.078 Y219.392 I-0.008 J0.317
N460 X20.255 Y219.274 I-2.412 J-0.059 F1200.
N465 X25.078 Y219.392 I2.412 J0.059
N470 X24.753 Y219.702 I-0.317 J-0.008 F1000.
N475 G1 X24.436 Y219.694
N480 X24.365 Y219.692 Z6.508
N485 X24.298 Y219.691 Z6.531
N490 X24.238 Y219.689 Z6.569
N495 X24.188 Y219.688 Z6.62
N500 X24.15 Y219.687 Z6.68
N505 X24.126 Y219.686 Z6.747
N510 X24.118 Z6.817
N515 X24.134 Y219.051 F1200.
N520 Z2.817 F333.33
N525 X24.142 Y219.052 Z2.747
N530 X24.165 Z2.68
N535 X24.203 Y219.053 Z2.62
N540 X24.254 Y219.054 Z2.569
N545 X24.314 Y219.056 Z2.531
N550 X24.381 Y219.057 Z2.508
N555 X24.451 Y219.059 Z2.5
N560 X24.769 Y219.067 F1000.
N565 G3 X25.078 Y219.392 I-0.008 J0.317
N570 X20.255 Y219.274 I-2.412 J-0.059 F1200.
N575 X25.078 Y219.392 I2.412 J0.059
N580 X24.753 Y219.702 I-0.317 J-0.008 F1000.
N585 G1 X24.436 Y219.694
N590 X24.365 Y219.692 Z2.508
N595 X24.298 Y219.691 Z2.531
N600 X24.238 Y219.689 Z2.569
N605 X24.188 Y219.688 Z2.62
N610 X24.15 Y219.687 Z2.68
N615 X24.126 Y219.686 Z2.747
N620 X24.118 Z2.817
N625 X24.134 Y219.051 F1200.
N630 Z0.317 F333.33
N635 X24.142 Y219.052 Z0.247
N640 X24.165 Z0.18
N645 X24.203 Y219.053 Z0.12
N650 X24.254 Y219.054 Z0.069
N655 X24.314 Y219.056 Z0.031
N660 X24.381 Y219.057 Z0.008
N665 X24.451 Y219.059 Z0.
N670 X24.769 Y219.067 F1000.
N675 G3 X25.078 Y219.392 I-0.008 J0.317
N680 X20.255 Y219.274 I-2.412 J-0.059 F1200.
N685 X25.078 Y219.392 I2.412 J0.059
N690 X24.753 Y219.702 I-0.317 J-0.008 F1000.
N695 G1 X24.436 Y219.694
N700 X24.365 Y219.692 Z0.008
N705 X24.298 Y219.691 Z0.031
N710 X24.238 Y219.689 Z0.069
N715 X24.188 Y219.688 Z0.12
N720 X24.15 Y219.687 Z0.18
N725 X24.126 Y219.686 Z0.247
N730 X24.118 Z0.317
N735 G0 Z15.5
N740 X12.793 Y223.683
N745 G1 Z6.817 F333.33
N750 G18 G2 X13.111 Z6.5 I0.318 K0.
N755 G1 X13.428 F1000.
N760 G17 G3 X13.746 Y224. I0. J0.318
N765 G1 Y225.413 F1200.
N770 X10.921
N775 Y203.587
N780 X13.746
N785 Y224.
N790 G3 X13.428 Y224.318 I-0.318 J0. F1000.
N795 G1 X13.111
N800 G18 G3 X12.793 Z6.817 I0. K0.318
N805 G1 Y223.683 F1200.
N810 Z2.817 F333.33
N815 G2 X13.111 Z2.5 I0.318 K0.
N820 G1 X13.428 F1000.
N825 G17 G3 X13.746 Y224. I0. J0.318
N830 G1 Y225.413 F1200.
N835 X10.921
N840 Y203.587
N845 X13.746
N850 Y224.
N855 G3 X13.428 Y224.318 I-0.318 J0. F1000.
N860 G1 X13.111
N865 G18 G3 X12.793 Z2.817 I0. K0.318
N870 G1 Y223.683 F1200.
N875 Z0.317 F333.33
N880 G2 X13.111 Z0. I0.318 K0.
N885 G1 X13.428 F1000.
N890 G17 G3 X13.746 Y224. I0. J0.318
N895 G1 Y225.413 F1200.
N900 X10.921
N905 Y203.587
N910 X13.746
N915 Y224.
N920 G3 X13.428 Y224.318 I-0.318 J0. F1000.
N925 G1 X13.111
N930 G18 G3 X12.793 Z0.317 I0. K0.317
N935 G0 Z15.5
N940 X208.8 Y219.051
N945 G1 Z6.817 F333.33
N950 X208.808 Y219.052 Z6.747
N955 X208.832 Z6.68
N960 X208.87 Y219.053 Z6.62
N965 X208.92 Y219.054 Z6.569
N970 X208.98 Y219.056 Z6.531
N975 X209.047 Y219.057 Z6.508
N980 X209.118 Y219.059 Z6.5
N985 X209.435 Y219.067 F1000.
N990 G17 G3 X209.745 Y219.392 I-0.008 J0.317
N995 X204.921 Y219.274 I-2.412 J-0.059 F1200.
N1000 X209.745 Y219.392 I2.412 J0.059
N1005 X209.42 Y219.702 I-0.317 J-0.008 F1000.
N1010 G1 X209.102 Y219.694
N1015 X209.032 Y219.692 Z6.508
N1020 X208.964 Y219.691 Z6.531
N1025 X208.904 Y219.689 Z6.569
N1030 X208.854 Y219.688 Z6.62
N1035 X208.816 Y219.687 Z6.68
N1040 X208.793 Y219.686 Z6.747
N1045 X208.785 Z6.817
N1050 X208.8 Y219.051 F1200.
N1055 Z2.817 F333.33
N1060 X208.808 Y219.052 Z2.747
N1065 X208.832 Z2.68
N1070 X208.87 Y219.053 Z2.62
N1075 X208.92 Y219.054 Z2.569
N1080 X208.98 Y219.056 Z2.531
N1085 X209.047 Y219.057 Z2.508
N1090 X209.118 Y219.059 Z2.5
N1095 X209.435 Y219.067 F1000.
N1100 G3 X209.745 Y219.392 I-0.008 J0.317
N1105 X204.921 Y219.274 I-2.412 J-0.059 F1200.
N1110 X209.745 Y219.392 I2.412 J0.059
N1115 X209.42 Y219.702 I-0.317 J-0.008 F1000.
N1120 G1 X209.102 Y219.694
N1125 X209.032 Y219.692 Z2.508
N1130 X208.964 Y219.691 Z2.531
N1135 X208.904 Y219.689 Z2.569
N1140 X208.854 Y219.688 Z2.62
N1145 X208.816 Y219.687 Z2.68
N1150 X208.793 Y219.686 Z2.747
N1155 X208.785 Z2.817
N1160 X208.8 Y219.051 F1200.
N1165 Z0.317 F333.33
N1170 X208.808 Y219.052 Z0.247
N1175 X208.832 Z0.18
N1180 X208.87 Y219.053 Z0.12
N1185 X208.92 Y219.054 Z0.069
N1190 X208.98 Y219.056 Z0.031
N1195 X209.047 Y219.057 Z0.008
N1200 X209.118 Y219.059 Z0.
N1205 X209.435 Y219.067 F1000.
N1210 G3 X209.745 Y219.392 I-0.008 J0.317
N1215 X204.921 Y219.274 I-2.412 J-0.059 F1200.
N1220 X209.745 Y219.392 I2.412 J0.059
N1225 X209.42 Y219.702 I-0.317 J-0.008 F1000.
N1230 G1 X209.102 Y219.694
N1235 X209.032 Y219.692 Z0.008
N1240 X208.964 Y219.691 Z0.031
N1245 X208.904 Y219.689 Z0.069
N1250 X208.854 Y219.688 Z0.12
N1255 X208.816 Y219.687 Z0.18
N1260 X208.793 Y219.686 Z0.247
N1265 X208.785 Z0.317
N1270 G0 Z15.5
N1275 X218.127 Y204.682
N1280 G1 Z6.817 F333.33
N1285 G18 G2 X218.445 Z6.5 I0.318 K0.
N1290 G1 X218.762 F1000.
N1295 G17 G3 X219.079 Y205. I0. J0.318
N1300 G1 Y225.413 F1200.
N1305 X216.255
N1310 Y203.587
N1315 X219.079
N1320 Y205.
N1325 G3 X218.762 Y205.318 I-0.318 J0. F1000.
N1330 G1 X218.445
N1335 G18 G3 X218.127 Z6.817 I0. K0.318
N1340 G1 Y204.682 F1200.
N1345 Z2.817 F333.33
N1350 G2 X218.445 Z2.5 I0.318 K0.
N1355 G1 X218.762 F1000.
N1360 G17 G3 X219.079 Y205. I0. J0.318
N1365 G1 Y225.413 F1200.
N1370 X216.255
N1375 Y203.587
N1380 X219.079
N1385 Y205.
N1390 G3 X218.762 Y205.318 I-0.318 J0. F1000.
N1395 G1 X218.445
N1400 G18 G3 X218.127 Z2.817 I0. K0.318
N1405 G1 Y204.682 F1200.
N1410 Z0.317 F333.33
N1415 G2 X218.445 Z0. I0.318 K0.
N1420 G1 X218.762 F1000.
N1425 G17 G3 X219.079 Y205. I0. J0.318
N1430 G1 Y225.413 F1200.
N1435 X216.255
N1440 Y203.587
N1445 X219.079
N1450 Y205.
N1455 G3 X218.762 Y205.318 I-0.318 J0. F1000.
N1460 G1 X218.445
N1465 G18 G3 X218.127 Z0.317 I0. K0.317
N1470 G0 Z15.5
N1475 Y24.016
N1480 G1 Z6.817 F333.33
N1485 G2 X218.445 Z6.5 I0.318 K0.
N1490 G1 X218.762 F1000.
N1495 G17 G3 X219.079 Y24.333 I0. J0.317
N1500 G1 Y25.746 F1200.
N1505 X216.255
N1510 Y22.921
N1515 X219.079
N1520 Y24.333
N1525 G3 X218.762 Y24.651 I-0.318 J0. F1000.
N1530 G1 X218.445
N1535 G18 G3 X218.127 Z6.817 I0. K0.318
N1540 G1 Y24.016 F1200.
N1545 Z2.817 F333.33
N1550 G2 X218.445 Z2.5 I0.318 K0.
N1555 G1 X218.762 F1000.
N1560 G17 G3 X219.079 Y24.333 I0. J0.317
N1565 G1 Y25.746 F1200.
N1570 X216.255
N1575 Y22.921
N1580 X219.079
N1585 Y24.333
N1590 G3 X218.762 Y24.651 I-0.318 J0. F1000.
N1595 G1 X218.445
N1600 G18 G3 X218.127 Z2.817 I0. K0.318
N1605 G1 Y24.016 F1200.
N1610 Z0.317 F333.33
N1615 G2 X218.445 Z0. I0.318 K0.
N1620 G1 X218.762 F1000.
N1625 G17 G3 X219.079 Y24.333 I0. J0.317
N1630 G1 Y25.746 F1200.
N1635 X216.255
N1640 Y22.921
N1645 X219.079
N1650 Y24.333
N1655 G3 X218.762 Y24.651 I-0.318 J0. F1000.
N1660 G1 X218.445
N1665 G18 G3 X218.127 Z0.317 I0. K0.317
N1670 G0 Z15.5
N1675 X204.984 Y18.793
N1680 G1 Z6.817 F333.33
N1685 G19 G3 Y19.111 Z6.5 J0.317 K0.
N1690 G1 Y19.428 F1000.
N1695 G17 G3 X204.667 Y19.746 I-0.317 J0.
N1700 G1 X203.255 F1200.
N1705 Y16.921
N1710 X213.079
N1715 Y19.746
N1720 X204.667
N1725 G3 X204.35 Y19.428 I0. J-0.317 F1000.
N1730 G1 Y19.111
N1735 G19 G2 Y18.793 Z6.817 J0. K0.318
N1740 G1 X204.984 F1200.
N1745 Z2.817 F333.33
N1750 G3 Y19.111 Z2.5 J0.317 K0.
N1755 G1 Y19.428 F1000.
N1760 G17 G3 X204.667 Y19.746 I-0.317 J0.
N1765 G1 X203.255 F1200.
N1770 Y16.921
N1775 X213.079
N1780 Y19.746
N1785 X204.667
N1790 G3 X204.35 Y19.428 I0. J-0.317 F1000.
N1795 G1 Y19.111
N1800 G19 G2 Y18.793 Z2.817 J0. K0.318
N1805 G1 X204.984 F1200.
N1810 Z0.317 F333.33
N1815 G3 Y19.111 Z0. J0.317 K0.
N1820 G1 Y19.428 F1000.
N1825 G17 G3 X204.667 Y19.746 I-0.317 J0.
N1830 G1 X203.255 F1200.
N1835 Y16.921
N1840 X213.079
N1845 Y19.746
N1850 X204.667
N1855 G3 X204.35 Y19.428 I0. J-0.317 F1000.
N1860 G1 Y19.111
N1865 G19 G2 Y18.793 Z0.317 J0. K0.317
N1870 G0 Z15.5
N1875 X18.651
N1880 G1 Z6.817 F333.33
N1885 G3 Y19.111 Z6.5 J0.317 K0.
N1890 G1 Y19.428 F1000.
N1895 G17 G3 X18.333 Y19.746 I-0.317 J0.
N1900 G1 X16.921 F1200.
N1905 Y16.921
N1910 X26.746
N1915 Y19.746
N1920 X18.333
N1925 G3 X18.016 Y19.428 I0. J-0.317 F1000.
N1930 G1 Y19.111
N1935 G19 G2 Y18.793 Z6.817 J0. K0.318
N1940 G1 X18.651 F1200.
N1945 Z2.817 F333.33
N1950 G3 Y19.111 Z2.5 J0.317 K0.
N1955 G1 Y19.428 F1000.
N1960 G17 G3 X18.333 Y19.746 I-0.317 J0.
N1965 G1 X16.921 F1200.
N1970 Y16.921
N1975 X26.746
N1980 Y19.746
N1985 X18.333
N1990 G3 X18.016 Y19.428 I0. J-0.317 F1000.
N1995 G1 Y19.111
N2000 G19 G2 Y18.793 Z2.817 J0. K0.318
N2005 G1 X18.651 F1200.
N2010 Z0.317 F333.33
N2015 G3 Y19.111 Z0. J0.317 K0.
N2020 G1 Y19.428 F1000.
N2025 G17 G3 X18.333 Y19.746 I-0.317 J0.
N2030 G1 X16.921 F1200.
N2035 Y16.921
N2040 X26.746
N2045 Y19.746
N2050 X18.333
N2055 G3 X18.016 Y19.428 I0. J-0.317 F1000.
N2060 G1 Y19.111
N2065 G19 G2 Y18.793 Z0.317 J0. K0.317
N2070 G0 Z15.5
N2075 X12.793 Y24.016
N2080 G1 Z6.817 F333.33
N2085 G18 G2 X13.111 Z6.5 I0.318 K0.
N2090 G1 X13.428 F1000.
N2095 G17 G3 X13.746 Y24.333 I0. J0.317
N2100 G1 Y25.746 F1200.
N2105 X10.921
N2110 Y22.921
N2115 X13.746
N2120 Y24.333
N2125 G3 X13.428 Y24.651 I-0.318 J0. F1000.
N2130 G1 X13.111
N2135 G18 G3 X12.793 Z6.817 I0. K0.318
N2140 G1 Y24.016 F1200.
N2145 Z2.817 F333.33
N2150 G2 X13.111 Z2.5 I0.318 K0.
N2155 G1 X13.428 F1000.
N2160 G17 G3 X13.746 Y24.333 I0. J0.317
N2165 G1 Y25.746 F1200.
N2170 X10.921
N2175 Y22.921
N2180 X13.746
N2185 Y24.333
N2190 G3 X13.428 Y24.651 I-0.318 J0. F1000.
N2195 G1 X13.111
N2200 G18 G3 X12.793 Z2.817 I0. K0.318
N2205 G1 Y24.016 F1200.
N2210 Z0.317 F333.33
N2215 G2 X13.111 Z0. I0.318 K0.
N2220 G1 X13.428 F1000.
N2225 G17 G3 X13.746 Y24.333 I0. J0.317
N2230 G1 Y25.746 F1200.
N2235 X10.921
N2240 Y22.921
N2245 X13.746
N2250 Y24.333
N2255 G3 X13.428 Y24.651 I-0.318 J0. F1000.
N2260 G1 X13.111
N2265 G18 G3 X12.793 Z0.317 I0. K0.317
N2270 G0 Z25.5
N2275 G17
(2D CONTOUR1)
N2280 S12000 M3
N2285 M8
N2290 G0 X119.193 Y114.683
N2295 Z25.5
N2300 Z15.5
N2305 G1 Z7.317 F333.33
N2310 G18 G2 X119.51 Z7. I0.317 K0.
N2315 G1 X119.828 F1000.
N2320 G17 G3 X120.146 Y115. I0. J0.317
N2325 G1 Y119.733 F1200.
N2330 G3 X119.733 Y120.146 I-0.412 J0.
N2335 G1 X110.267
N2340 G3 X109.854 Y119.733 I0. J-0.412
N2345 G1 Y110.267
N2350 G3 X110.267 Y109.854 I0.412 J0.
N2355 G1 X119.733
N2360 G3 X120.146 Y110.267 I0. J0.412
N2365 G1 Y115.
N2370 G3 X119.828 Y115.317 I-0.317 J0. F1000.
N2375 G1 X119.51
N2380 G18 G3 X119.193 Z7.317 I0. K0.318
N2385 G1 Y114.683 F1200.
N2390 Z3.817 F333.33
N2395 G2 X119.51 Z3.5 I0.317 K0.
N2400 G1 X119.828 F1000.
N2405 G17 G3 X120.146 Y115. I0. J0.317
N2410 G1 Y119.733 F1200.
N2415 G3 X119.733 Y120.146 I-0.412 J0.
N2420 G1 X110.267
N2425 G3 X109.854 Y119.733 I0. J-0.412
N2430 G1 Y110.267
N2435 G3 X110.267 Y109.854 I0.412 J0.
N2440 G1 X119.733
N2445 G3 X120.146 Y110.267 I0. J0.412
N2450 G1 Y115.
N2455 G3 X119.828 Y115.317 I-0.317 J0. F1000.
N2460 G1 X119.51
N2465 G18 G3 X119.193 Z3.817 I0. K0.318
N2470 G1 Y114.683 F1200.
N2475 Z0.317 F333.33
N2480 G2 X119.51 Z0. I0.317 K0.
N2485 G1 X119.828 F1000.
N2490 G17 G3 X120.146 Y115. I0. J0.317
N2495 G1 Y119.733 F1200.
N2500 G3 X119.733 Y120.146 I-0.412 J0.
N2505 G1 X110.267
N2510 G3 X109.854 Y119.733 I0. J-0.412
N2515 G1 Y110.267
N2520 G3 X110.267 Y109.854 I0.412 J0.
N2525 G1 X119.733
N2530 G3 X120.146 Y110.267 I0. J0.412
N2535 G1 Y115.
N2540 G3 X119.828 Y115.317 I-0.317 J0. F1000.
N2545 G1 X119.51
N2550 G18 G3 X119.193 Z0.317 I0. K0.317
N2555 G0 Z15.5
N2560 X135.86 Y114.683
N2565 G1 Z7.317 F333.33
N2570 G2 X136.178 Z7. I0.318 K0.
N2575 G1 X136.495 F1000.
N2580 G17 G3 X136.813 Y115. I0. J0.317
N2585 G1 Y119.733 F1200.
N2590 G3 X136.4 Y120.146 I-0.413 J0.
N2595 G1 X126.933
N2600 G3 X126.521 Y119.733 I0. J-0.412
N2605 G1 Y110.267
N2610 G3 X126.933 Y109.854 I0.412 J0.
N2615 G1 X136.4
N2620 G3 X136.813 Y110.267 I0. J0.412
N2625 G1 Y115.
N2630 G3 X136.495 Y115.317 I-0.318 J0. F1000.
N2635 G1 X136.178
N2640 G18 G3 X135.86 Z7.317 I0. K0.318
N2645 G1 Y114.683 F1200.
N2650 Z3.817 F333.33
N2655 G2 X136.178 Z3.5 I0.318 K0.
N2660 G1 X136.495 F1000.
N2665 G17 G3 X136.813 Y115. I0. J0.317
N2670 G1 Y119.733 F1200.
N2675 G3 X136.4 Y120.146 I-0.413 J0.
N2680 G1 X126.933
N2685 G3 X126.521 Y119.733 I0. J-0.412
N2690 G1 Y110.267
N2695 G3 X126.933 Y109.854 I0.412 J0.
N2700 G1 X136.4
N2705 G3 X136.813 Y110.267 I0. J0.412
N2710 G1 Y115.
N2715 G3 X136.495 Y115.317 I-0.318 J0. F1000.
N2720 G1 X136.178
N2725 G18 G3 X135.86 Z3.817 I0. K0.318
N2730 G1 Y114.683 F1200.
N2735 Z0.317 F333.33
N2740 G2 X136.178 Z0. I0.318 K0.
N2745 G1 X136.495 F1000.
N2750 G17 G3 X136.813 Y115. I0. J0.317
N2755 G1 Y119.733 F1200.
N2760 G3 X136.4 Y120.146 I-0.413 J0.
N2765 G1 X126.933
N2770 G3 X126.521 Y119.733 I0. J-0.412
N2775 G1 Y110.267
N2780 G3 X126.933 Y109.854 I0.412 J0.
N2785 G1 X136.4
N2790 G3 X136.813 Y110.267 I0. J0.412
N2795 G1 Y115.
N2800 G3 X136.495 Y115.317 I-0.318 J0. F1000.
N2805 G1 X136.178
N2810 G18 G3 X135.86 Z0.317 I0. K0.317
N2815 G0 Z15.5
N2820 X148.65 Y119.193
N2825 G1 Z7.317 F333.33
N2830 G19 G3 Y119.51 Z7. J0.317 K0.
N2835 G1 Y119.828 F1000.
N2840 G17 G3 X148.333 Y120.146 I-0.317 J0.
N2845 G1 X143.6 F1200.
N2850 G3 X143.188 Y119.733 I0. J-0.412
N2855 G1 Y110.267
N2860 G3 X143.6 Y109.854 I0.413 J0.
N2865 G1 X153.067
N2870 G3 X153.48 Y110.267 I0. J0.412
N2875 G1 Y119.733
N2880 G3 X153.067 Y120.146 I-0.413 J0.
N2885 G1 X148.333
N2890 G3 X148.016 Y119.828 I0. J-0.317 F1000.
N2895 G1 Y119.51
N2900 G19 G2 Y119.193 Z7.317 J0. K0.318
N2905 G1 X148.65 F1200.
N2910 Z3.817 F333.33
N2915 G3 Y119.51 Z3.5 J0.317 K0.
N2920 G1 Y119.828 F1000.
N2925 G17 G3 X148.333 Y120.146 I-0.317 J0.
N2930 G1 X143.6 F1200.
N2935 G3 X143.188 Y119.733 I0. J-0.412
N2940 G1 Y110.267
N2945 G3 X143.6 Y109.854 I0.413 J0.
N2950 G1 X153.067
N2955 G3 X153.48 Y110.267 I0. J0.412
N2960 G1 Y119.733
N2965 G3 X153.067 Y120.146 I-0.413 J0.
N2970 G1 X148.333
N2975 G3 X148.016 Y119.828 I0. J-0.317 F1000.
N2980 G1 Y119.51
N2985 G19 G2 Y119.193 Z3.817 J0. K0.318
N2990 G1 X148.65 F1200.
N2995 Z0.317 F333.33
N3000 G3 Y119.51 Z0. J0.317 K0.
N3005 G1 Y119.828 F1000.
N3010 G17 G3 X148.333 Y120.146 I-0.317 J0.
N3015 G1 X143.6 F1200.
N3020 G3 X143.188 Y119.733 I0. J-0.412
N3025 G1 Y110.267
N3030 G3 X143.6 Y109.854 I0.413 J0.
N3035 G1 X153.067
N3040 G3 X153.48 Y110.267 I0. J0.412
N3045 G1 Y119.733
N3050 G3 X153.067 Y120.146 I-0.413 J0.
N3055 G1 X148.333
N3060 G3 X148.016 Y119.828 I0. J-0.317 F1000.
N3065 G1 Y119.51
N3070 G19 G2 Y119.193 Z0.317 J0. K0.317
N3075 G0 Z15.5
N3080 X152.527 Y131.349
N3085 G1 Z7.317 F333.33
N3090 G18 G2 X152.844 Z7. I0.318 K0.
N3095 G1 X153.162 F1000.
N3100 G17 G3 X153.48 Y131.667 I0. J0.318
N3105 G1 Y136.4 F1200.
N3110 G3 X153.067 Y136.813 I-0.413 J0.
N3115 G1 X143.6
N3120 G3 X143.188 Y136.4 I0. J-0.413
N3125 G1 Y126.933
N3130 G3 X143.6 Y126.521 I0.413 J0.
N3135 G1 X153.067
N3140 G3 X153.48 Y126.933 I0. J0.412
N3145 G1 Y131.667
N3150 G3 X153.162 Y131.984 I-0.318 J0. F1000.
N3155 G1 X152.844
N3160 G18 G3 X152.527 Z7.317 I0. K0.318
N3165 G1 Y131.349 F1200.
N3170 Z3.817 F333.33
N3175 G2 X152.844 Z3.5 I0.318 K0.
N3180 G1 X153.162 F1000.
N3185 G17 G3 X153.48 Y131.667 I0. J0.318
N3190 G1 Y136.4 F1200.
N3195 G3 X153.067 Y136.813 I-0.413 J0.
N3200 G1 X143.6
N3205 G3 X143.188 Y136.4 I0. J-0.413
N3210 G1 Y126.933
N3215 G3 X143.6 Y126.521 I0.413 J0.
N3220 G1 X153.067
N3225 G3 X153.48 Y126.933 I0. J0.412
N3230 G1 Y131.667
N3235 G3 X153.162 Y131.984 I-0.318 J0. F1000.
N3240 G1 X152.844
N3245 G18 G3 X152.527 Z3.817 I0. K0.318
N3250 G1 Y131.349 F1200.
N3255 Z0.317 F333.33
N3260 G2 X152.844 Z0. I0.318 K0.
N3265 G1 X153.162 F1000.
N3270 G17 G3 X153.48 Y131.667 I0. J0.318
N3275 G1 Y136.4 F1200.
N3280 G3 X153.067 Y136.813 I-0.413 J0.
N3285 G1 X143.6
N3290 G3 X143.188 Y136.4 I0. J-0.413
N3295 G1 Y126.933
N3300 G3 X143.6 Y126.521 I0.413 J0.
N3305 G1 X153.067
N3310 G3 X153.48 Y126.933 I0. J0.412
N3315 G1 Y131.667
N3320 G3 X153.162 Y131.984 I-0.318 J0. F1000.
N3325 G1 X152.844
N3330 G18 G3 X152.527 Z0.317 I0. K0.317
N3335 G0 Z15.5
N3340 X169.193 Y131.348
N3345 G1 Z7.317 F333.33
N3350 G2 X169.51 Z7. I0.318 K0.
N3355 G1 X169.828 F1000.
N3360 G17 G3 X170.145 Y131.666 I0. J0.318
N3365 G1 Y136.4 F1200.
N3370 G3 X169.733 Y136.813 I-0.412 J0.
N3375 G1 X160.267
N3380 G3 X159.855 Y136.4 I0. J-0.413
N3385 G1 Y126.933
N3390 G3 X160.267 Y126.521 I0.412 J0.
N3395 G1 X169.733
N3400 G3 X170.145 Y126.933 I0. J0.412
N3405 G1 Y131.666
N3410 G3 X169.828 Y131.984 I-0.317 J0. F1000.
N3415 G1 X169.51
N3420 G18 G3 X169.193 Z7.317 I0. K0.318
N3425 G1 Y131.348 F1200.
N3430 Z3.817 F333.33
N3435 G2 X169.51 Z3.5 I0.318 K0.
N3440 G1 X169.828 F1000.
N3445 G17 G3 X170.145 Y131.666 I0. J0.318
N3450 G1 Y136.4 F1200.
N3455 G3 X169.733 Y136.813 I-0.412 J0.
N3460 G1 X160.267
N3465 G3 X159.855 Y136.4 I0. J-0.413
N3470 G1 Y126.933
N3475 G3 X160.267 Y126.521 I0.412 J0.
N3480 G1 X169.733
N3485 G3 X170.145 Y126.933 I0. J0.412
N3490 G1 Y131.666
N3495 G3 X169.828 Y131.984 I-0.317 J0. F1000.
N3500 G1 X169.51
N3505 G18 G3 X169.193 Z3.817 I0. K0.318
N3510 G1 Y131.348 F1200.
N3515 Z0.317 F333.33
N3520 G2 X169.51 Z0. I0.318 K0.
N3525 G1 X169.828 F1000.
N3530 G17 G3 X170.145 Y131.666 I0. J0.318
N3535 G1 Y136.4 F1200.
N3540 G3 X169.733 Y136.813 I-0.412 J0.
N3545 G1 X160.267
N3550 G3 X159.855 Y136.4 I0. J-0.413
N3555 G1 Y126.933
N3560 G3 X160.267 Y126.521 I0.412 J0.
N3565 G1 X169.733
N3570 G3 X170.145 Y126.933 I0. J0.412
N3575 G1 Y131.666
N3580 G3 X169.828 Y131.984 I-0.317 J0. F1000.
N3585 G1 X169.51
N3590 G18 G3 X169.193 Z0.317 I0. K0.317
N3595 G0 Z15.5
N3600 X185.86 Y131.349
N3605 G1 Z7.317 F333.33
N3610 G2 X186.178 Z7. I0.318 K0.
N3615 G1 X186.495 F1000.
N3620 G17 G3 X186.813 Y131.667 I0. J0.318
N3625 G1 Y136.4 F1200.
N3630 G3 X186.4 Y136.813 I-0.413 J0.
N3635 G1 X176.933
N3640 G3 X176.52 Y136.4 I0. J-0.413
N3645 G1 Y126.933
N3650 G3 X176.933 Y126.521 I0.413 J0.
N3655 G1 X186.4
N3660 G3 X186.813 Y126.933 I0. J0.412
N3665 G1 Y131.667
N3670 G3 X186.495 Y131.984 I-0.318 J0. F1000.
N3675 G1 X186.178
N3680 G18 G3 X185.86 Z7.317 I0. K0.318
N3685 G1 Y131.349 F1200.
N3690 Z3.817 F333.33
N3695 G2 X186.178 Z3.5 I0.318 K0.
N3700 G1 X186.495 F1000.
N3705 G17 G3 X186.813 Y131.667 I0. J0.318
N3710 G1 Y136.4 F1200.
N3715 G3 X186.4 Y136.813 I-0.413 J0.
N3720 G1 X176.933
N3725 G3 X176.52 Y136.4 I0. J-0.413
N3730 G1 Y126.933
N3735 G3 X176.933 Y126.521 I0.413 J0.
N3740 G1 X186.4
N3745 G3 X186.813 Y126.933 I0. J0.412
N3750 G1 Y131.667
N3755 G3 X186.495 Y131.984 I-0.318 J0. F1000.
N3760 G1 X186.178
N3765 G18 G3 X185.86 Z3.817 I0. K0.318
N3770 G1 Y131.349 F1200.
N3775 Z0.317 F333.33
N3780 G2 X186.178 Z0. I0.318 K0.
N3785 G1 X186.495 F1000.
N3790 G17 G3 X186.813 Y131.667 I0. J0.318
N3795 G1 Y136.4 F1200.
N3800 G3 X186.4 Y136.813 I-0.413 J0.
N3805 G1 X176.933
N3810 G3 X176.52 Y136.4 I0. J-0.413
N3815 G1 Y126.933
N3820 G3 X176.933 Y126.521 I0.413 J0.
N3825 G1 X186.4
N3830 G3 X186.813 Y126.933 I0. J0.412
N3835 G1 Y131.667
N3840 G3 X186.495 Y131.984 I-0.318 J0. F1000.
N3845 G1 X186.178
N3850 G18 G3 X185.86 Z0.317 I0. K0.317
N3855 G0 Z15.5
N3860 X202.527 Y131.349
N3865 G1 Z7.317 F333.33
N3870 G2 X202.844 Z7. I0.318 K0.
N3875 G1 X203.162 F1000.
N3880 G17 G3 X203.48 Y131.667 I0. J0.318
N3885 G1 Y136.4 F1200.
N3890 G3 X203.067 Y136.813 I-0.413 J0.
N3895 G1 X193.6
N3900 G3 X193.188 Y136.4 I0. J-0.413
N3905 G1 Y126.933
N3910 G3 X193.6 Y126.521 I0.413 J0.
N3915 G1 X203.067
N3920 G3 X203.48 Y126.933 I0. J0.412
N3925 G1 Y131.667
N3930 G3 X203.162 Y131.984 I-0.318 J0. F1000.
N3935 G1 X202.844
N3940 G18 G3 X202.527 Z7.317 I0. K0.318
N3945 G1 Y131.349 F1200.
N3950 Z3.817 F333.33
N3955 G2 X202.844 Z3.5 I0.318 K0.
N3960 G1 X203.162 F1000.
N3965 G17 G3 X203.48 Y131.667 I0. J0.318
N3970 G1 Y136.4 F1200.
N3975 G3 X203.067 Y136.813 I-0.413 J0.
N3980 G1 X193.6
N3985 G3 X193.188 Y136.4 I0. J-0.413
N3990 G1 Y126.933
N3995 G3 X193.6 Y126.521 I0.413 J0.
N4000 G1 X203.067
N4005 G3 X203.48 Y126.933 I0. J0.412
N4010 G1 Y131.667
N4015 G3 X203.162 Y131.984 I-0.318 J0. F1000.
N4020 G1 X202.844
N4025 G18 G3 X202.527 Z3.817 I0. K0.318
N4030 G1 Y131.349 F1200.
N4035 Z0.317 F333.33
N4040 G2 X202.844 Z0. I0.318 K0.
N4045 G1 X203.162 F1000.
N4050 G17 G3 X203.48 Y131.667 I0. J0.318
N4055 G1 Y136.4 F1200.
N4060 G3 X203.067 Y136.813 I-0.413 J0.
N4065 G1 X193.6
N4070 G3 X193.188 Y136.4 I0. J-0.413
N4075 G1 Y126.933
N4080 G3 X193.6 Y126.521 I0.413 J0.
N4085 G1 X203.067
N4090 G3 X203.48 Y126.933 I0. J0.412
N4095 G1 Y131.667
N4100 G3 X203.162 Y131.984 I-0.318 J0. F1000.
N4105 G1 X202.844
N4110 G18 G3 X202.527 Z0.317 I0. K0.317
N4115 G0 Z15.5
N4120 Y148.016
N4125 G1 Z7.317 F333.33
N4130 G2 X202.844 Z7. I0.318 K0.
N4135 G1 X203.162 F1000.
N4140 G17 G3 X203.48 Y148.333 I0. J0.317
N4145 G1 Y153.067 F1200.
N4150 G3 X203.067 Y153.48 I-0.413 J0.
N4155 G1 X193.6
N4160 G3 X193.188 Y153.067 I0. J-0.413
N4165 G1 Y143.6
N4170 G3 X193.6 Y143.188 I0.413 J0.
N4175 G1 X203.067
N4180 G3 X203.48 Y143.6 I0. J0.413
N4185 G1 Y148.333
N4190 G3 X203.162 Y148.651 I-0.318 J0. F1000.
N4195 G1 X202.844
N4200 G18 G3 X202.527 Z7.317 I0. K0.318
N4205 G1 Y148.016 F1200.
N4210 Z3.817 F333.33
N4215 G2 X202.844 Z3.5 I0.318 K0.
N4220 G1 X203.162 F1000.
N4225 G17 G3 X203.48 Y148.333 I0. J0.317
N4230 G1 Y153.067 F1200.
N4235 G3 X203.067 Y153.48 I-0.413 J0.
N4240 G1 X193.6
N4245 G3 X193.188 Y153.067 I0. J-0.413
N4250 G1 Y143.6
N4255 G3 X193.6 Y143.188 I0.413 J0.
N4260 G1 X203.067
N4265 G3 X203.48 Y143.6 I0. J0.413
N4270 G1 Y148.333
N4275 G3 X203.162 Y148.651 I-0.318 J0. F1000.
N4280 G1 X202.844
N4285 G18 G3 X202.527 Z3.817 I0. K0.318
N4290 G1 Y148.016 F1200.
N4295 Z0.317 F333.33
N4300 G2 X202.844 Z0. I0.318 K0.
N4305 G1 X203.162 F1000.
N4310 G17 G3 X203.48 Y148.333 I0. J0.317
N4315 G1 Y153.067 F1200.
N4320 G3 X203.067 Y153.48 I-0.413 J0.
N4325 G1 X193.6
N4330 G3 X193.188 Y153.067 I0. J-0.413
N4335 G1 Y143.6
N4340 G3 X193.6 Y143.188 I0.413 J0.
N4345 G1 X203.067
N4350 G3 X203.48 Y143.6 I0. J0.413
N4355 G1 Y148.333
N4360 G3 X203.162 Y148.651 I-0.318 J0. F1000.
N4365 G1 X202.844
N4370 G18 G3 X202.527 Z0.317 I0. K0.317
N4375 G0 Z15.5
N4380 Y164.682
N4385 G1 Z7.317 F333.33
N4390 G2 X202.844 Z7. I0.318 K0.
N4395 G1 X203.162 F1000.
N4400 G17 G3 X203.48 Y165. I0. J0.318
N4405 G1 Y169.733 F1200.
N4410 G3 X203.067 Y170.145 I-0.413 J0.
N4415 G1 X193.6
N4420 G3 X193.188 Y169.733 I0. J-0.412
N4425 G1 Y160.267
N4430 G3 X193.6 Y159.855 I0.413 J0.
N4435 G1 X203.067
N4440 G3 X203.48 Y160.267 I0. J0.412
N4445 G1 Y165.
N4450 G3 X203.162 Y165.318 I-0.318 J0. F1000.
N4455 G1 X202.844
N4460 G18 G3 X202.527 Z7.317 I0. K0.318
N4465 G1 Y164.682 F1200.
N4470 Z3.817 F333.33
N4475 G2 X202.844 Z3.5 I0.318 K0.
N4480 G1 X203.162 F1000.
N4485 G17 G3 X203.48 Y165. I0. J0.318
N4490 G1 Y169.733 F1200.
N4495 G3 X203.067 Y170.145 I-0.413 J0.
N4500 G1 X193.6
N4505 G3 X193.188 Y169.733 I0. J-0.412
N4510 G1 Y160.267
N4515 G3 X193.6 Y159.855 I0.413 J0.
N4520 G1 X203.067
N4525 G3 X203.48 Y160.267 I0. J0.412
N4530 G1 Y165.
N4535 G3 X203.162 Y165.318 I-0.318 J0. F1000.
N4540 G1 X202.844
N4545 G18 G3 X202.527 Z3.817 I0. K0.318
N4550 G1 Y164.682 F1200.
N4555 Z0.317 F333.33
N4560 G2 X202.844 Z0. I0.318 K0.
N4565 G1 X203.162 F1000.
N4570 G17 G3 X203.48 Y165. I0. J0.318
N4575 G1 Y169.733 F1200.
N4580 G3 X203.067 Y170.145 I-0.413 J0.
N4585 G1 X193.6
N4590 G3 X193.188 Y169.733 I0. J-0.412
N4595 G1 Y160.267
N4600 G3 X193.6 Y159.855 I0.413 J0.
N4605 G1 X203.067
N4610 G3 X203.48 Y160.267 I0. J0.412
N4615 G1 Y165.
N4620 G3 X203.162 Y165.318 I-0.318 J0. F1000.
N4625 G1 X202.844
N4630 G18 G3 X202.527 Z0.317 I0. K0.317
N4635 G0 Z15.5
N4640 Y181.349
N4645 G1 Z7.317 F333.33
N4650 G2 X202.844 Z7. I0.318 K0.
N4655 G1 X203.162 F1000.
N4660 G17 G3 X203.48 Y181.667 I0. J0.318
N4665 G1 Y186.4 F1200.
N4670 G3 X203.067 Y186.813 I-0.413 J0.
N4675 G1 X193.6
N4680 G3 X193.188 Y186.4 I0. J-0.413
N4685 G1 Y176.933
N4690 G3 X193.6 Y176.52 I0.413 J0.
N4695 G1 X203.067
N4700 G3 X203.48 Y176.933 I0. J0.413
N4705 G1 Y181.667
N4710 G3 X203.162 Y181.984 I-0.318 J0. F1000.
N4715 G1 X202.844
N4720 G18 G3 X202.527 Z7.317 I0. K0.318
N4725 G1 Y181.349 F1200.
N4730 Z3.817 F333.33
N4735 G2 X202.844 Z3.5 I0.318 K0.
N4740 G1 X203.162 F1000.
N4745 G17 G3 X203.48 Y181.667 I0. J0.318
N4750 G1 Y186.4 F1200.
N4755 G3 X203.067 Y186.813 I-0.413 J0.
N4760 G1 X193.6
N4765 G3 X193.188 Y186.4 I0. J-0.413
N4770 G1 Y176.933
N4775 G3 X193.6 Y176.52 I0.413 J0.
N4780 G1 X203.067
N4785 G3 X203.48 Y176.933 I0. J0.413
N4790 G1 Y181.667
N4795 G3 X203.162 Y181.984 I-0.318 J0. F1000.
N4800 G1 X202.844
N4805 G18 G3 X202.527 Z3.817 I0. K0.318
N4810 G1 Y181.349 F1200.
N4815 Z0.317 F333.33
N4820 G2 X202.844 Z0. I0.318 K0.
N4825 G1 X203.162 F1000.
N4830 G17 G3 X203.48 Y181.667 I0. J0.318
N4835 G1 Y186.4 F1200.
N4840 G3 X203.067 Y186.813 I-0.413 J0.
N4845 G1 X193.6
N4850 G3 X193.188 Y186.4 I0. J-0.413
N4855 G1 Y176.933
N4860 G3 X193.6 Y176.52 I0.413 J0.
N4865 G1 X203.067
N4870 G3 X203.48 Y176.933 I0. J0.413
N4875 G1 Y181.667
N4880 G3 X203.162 Y181.984 I-0.318 J0. F1000.
N4885 G1 X202.844
N4890 G18 G3 X202.527 Z0.317 I0. K0.317
N4895 G0 Z15.5
N4900 Y198.016
N4905 G1 Z7.317 F333.33
N4910 G2 X202.844 Z7. I0.318 K0.
N4915 G1 X203.162 F1000.
N4920 G17 G3 X203.48 Y198.333 I0. J0.317
N4925 G1 Y203.067 F1200.
N4930 G3 X203.067 Y203.48 I-0.413 J0.
N4935 G1 X193.6
N4940 G3 X193.188 Y203.067 I0. J-0.413
N4945 G1 Y193.6
N4950 G3 X193.6 Y193.188 I0.413 J0.
N4955 G1 X203.067
N4960 G3 X203.48 Y193.6 I0. J0.413
N4965 G1 Y198.333
N4970 G3 X203.162 Y198.651 I-0.318 J0. F1000.
N4975 G1 X202.844
N4980 G18 G3 X202.527 Z7.317 I0. K0.318
N4985 G1 Y198.016 F1200.
N4990 Z3.817 F333.33
N4995 G2 X202.844 Z3.5 I0.318 K0.
N5000 G1 X203.162 F1000.
N5005 G17 G3 X203.48 Y198.333 I0. J0.317
N5010 G1 Y203.067 F1200.
N5015 G3 X203.067 Y203.48 I-0.413 J0.
N5020 G1 X193.6
N5025 G3 X193.188 Y203.067 I0. J-0.413
N5030 G1 Y193.6
N5035 G3 X193.6 Y193.188 I0.413 J0.
N5040 G1 X203.067
N5045 G3 X203.48 Y193.6 I0. J0.413
N5050 G1 Y198.333
N5055 G3 X203.162 Y198.651 I-0.318 J0. F1000.
N5060 G1 X202.844
N5065 G18 G3 X202.527 Z3.817 I0. K0.318
N5070 G1 Y198.016 F1200.
N5075 Z0.317 F333.33
N5080 G2 X202.844 Z0. I0.318 K0.
N5085 G1 X203.162 F1000.
N5090 G17 G3 X203.48 Y198.333 I0. J0.317
N5095 G1 Y203.067 F1200.
N5100 G3 X203.067 Y203.48 I-0.413 J0.
N5105 G1 X193.6
N5110 G3 X193.188 Y203.067 I0. J-0.413
N5115 G1 Y193.6
N5120 G3 X193.6 Y193.188 I0.413 J0.
N5125 G1 X203.067
N5130 G3 X203.48 Y193.6 I0. J0.413
N5135 G1 Y198.333
N5140 G3 X203.162 Y198.651 I-0.318 J0. F1000.
N5145 G1 X202.844
N5150 G18 G3 X202.527 Z0.317 I0. K0.317
N5155 G0 Z15.5
N5160 X185.86 Y198.016
N5165 G1 Z7.317 F333.33
N5170 G2 X186.178 Z7. I0.318 K0.
N5175 G1 X186.495 F1000.
N5180 G17 G3 X186.813 Y198.333 I0. J0.317
N5185 G1 Y203.067 F1200.
N5190 G3 X186.4 Y203.48 I-0.413 J0.
N5195 G1 X176.933
N5200 G3 X176.52 Y203.067 I0. J-0.413
N5205 G1 Y193.6
N5210 G3 X176.933 Y193.188 I0.413 J0.
N5215 G1 X186.4
N5220 G3 X186.813 Y193.6 I0. J0.413
N5225 G1 Y198.333
N5230 G3 X186.495 Y198.651 I-0.318 J0. F1000.
N5235 G1 X186.178
N5240 G18 G3 X185.86 Z7.317 I0. K0.318
N5245 G1 Y198.016 F1200.
N5250 Z3.817 F333.33
N5255 G2 X186.178 Z3.5 I0.318 K0.
N5260 G1 X186.495 F1000.
N5265 G17 G3 X186.813 Y198.333 I0. J0.317
N5270 G1 Y203.067 F1200.
N5275 G3 X186.4 Y203.48 I-0.413 J0.
N5280 G1 X176.933
N5285 G3 X176.52 Y203.067 I0. J-0.413
N5290 G1 Y193.6
N5295 G3 X176.933 Y193.188 I0.413 J0.
N5300 G1 X186.4
N5305 G3 X186.813 Y193.6 I0. J0.413
N5310 G1 Y198.333
N5315 G3 X186.495 Y198.651 I-0.318 J0. F1000.
N5320 G1 X186.178
N5325 G18 G3 X185.86 Z3.817 I0. K0.318
N5330 G1 Y198.016 F1200.
N5335 Z0.317 F333.33
N5340 G2 X186.178 Z0. I0.318 K0.
N5345 G1 X186.495 F1000.
N5350 G17 G3 X186.813 Y198.333 I0. J0.317
N5355 G1 Y203.067 F1200.
N5360 G3 X186.4 Y203.48 I-0.413 J0.
N5365 G1 X176.933
N5370 G3 X176.52 Y203.067 I0. J-0.413
N5375 G1 Y193.6
N5380 G3 X176.933 Y193.188 I0.413 J0.
N5385 G1 X186.4
N5390 G3 X186.813 Y193.6 I0. J0.413
N5395 G1 Y198.333
N5400 G3 X186.495 Y198.651 I-0.318 J0. F1000.
N5405 G1 X186.178
N5410 G18 G3 X185.86 Z0.317 I0. K0.317
N5415 G0 Z15.5
N5420 Y181.349
N5425 G1 Z7.317 F333.33
N5430 G2 X186.178 Z7. I0.318 K0.
N5435 G1 X186.495 F1000.
N5440 G17 G3 X186.813 Y181.667 I0. J0.318
N5445 G1 Y186.4 F1200.
N5450 G3 X186.4 Y186.813 I-0.413 J0.
N5455 G1 X176.933
N5460 G3 X176.52 Y186.4 I0. J-0.413
N5465 G1 Y176.933
N5470 G3 X176.933 Y176.52 I0.413 J0.
N5475 G1 X186.4
N5480 G3 X186.813 Y176.933 I0. J0.413
N5485 G1 Y181.667
N5490 G3 X186.495 Y181.984 I-0.318 J0. F1000.
N5495 G1 X186.178
N5500 G18 G3 X185.86 Z7.317 I0. K0.318
N5505 G1 Y181.349 F1200.
N5510 Z3.817 F333.33
N5515 G2 X186.178 Z3.5 I0.318 K0.
N5520 G1 X186.495 F1000.
N5525 G17 G3 X186.813 Y181.667 I0. J0.318
N5530 G1 Y186.4 F1200.
N5535 G3 X186.4 Y186.813 I-0.413 J0.
N5540 G1 X176.933
N5545 G3 X176.52 Y186.4 I0. J-0.413
N5550 G1 Y176.933
N5555 G3 X176.933 Y176.52 I0.413 J0.
N5560 G1 X186.4
N5565 G3 X186.813 Y176.933 I0. J0.413
N5570 G1 Y181.667
N5575 G3 X186.495 Y181.984 I-0.318 J0. F1000.
N5580 G1 X186.178
N5585 G18 G3 X185.86 Z3.817 I0. K0.318
N5590 G1 Y181.349 F1200.
N5595 Z0.317 F333.33
N5600 G2 X186.178 Z0. I0.318 K0.
N5605 G1 X186.495 F1000.
N5610 G17 G3 X186.813 Y181.667 I0. J0.318
N5615 G1 Y186.4 F1200.
N5620 G3 X186.4 Y186.813 I-0.413 J0.
N5625 G1 X176.933
N5630 G3 X176.52 Y186.4 I0. J-0.413
N5635 G1 Y176.933
N5640 G3 X176.933 Y176.52 I0.413 J0.
N5645 G1 X186.4
N5650 G3 X186.813 Y176.933 I0. J0.413
N5655 G1 Y181.667
N5660 G3 X186.495 Y181.984 I-0.318 J0. F1000.
N5665 G1 X186.178
N5670 G18 G3 X185.86 Z0.317 I0. K0.317
N5675 G0 Z15.5
N5680 X181.348 Y160.807
N5685 G1 Z7.317 F333.33
N5690 G19 G2 Y160.49 Z7. J-0.318 K0.
N5695 G1 Y160.172 F1000.
N5700 G17 G3 X181.666 Y159.855 I0.318 J0.
N5705 G1 X186.4 F1200.
N5710 G3 X186.813 Y160.267 I0. J0.412
N5715 G1 Y169.733
N5720 G3 X186.4 Y170.145 I-0.413 J0.
N5725 G1 X176.933
N5730 G3 X176.52 Y169.733 I0. J-0.412
N5735 G1 Y160.267
N5740 G3 X176.933 Y159.855 I0.413 J0.
N5745 G1 X181.666
N5750 G3 X181.984 Y160.172 I0. J0.317 F1000.
N5755 G1 Y160.49
N5760 G19 G3 Y160.807 Z7.317 J0. K0.318
N5765 G1 X181.348 F1200.
N5770 Z3.817 F333.33
N5775 G2 Y160.49 Z3.5 J-0.318 K0.
N5780 G1 Y160.172 F1000.
N5785 G17 G3 X181.666 Y159.855 I0.318 J0.
N5790 G1 X186.4 F1200.
N5795 G3 X186.813 Y160.267 I0. J0.412
N5800 G1 Y169.733
N5805 G3 X186.4 Y170.145 I-0.413 J0.
N5810 G1 X176.933
N5815 G3 X176.52 Y169.733 I0. J-0.412
N5820 G1 Y160.267
N5825 G3 X176.933 Y159.855 I0.413 J0.
N5830 G1 X181.666
N5835 G3 X181.984 Y160.172 I0. J0.317 F1000.
N5840 G1 Y160.49
N5845 G19 G3 Y160.807 Z3.817 J0. K0.318
N5850 G1 X181.348 F1200.
N5855 Z0.317 F333.33
N5860 G2 Y160.49 Z0. J-0.318 K0.
N5865 G1 Y160.172 F1000.
N5870 G17 G3 X181.666 Y159.855 I0.318 J0.
N5875 G1 X186.4 F1200.
N5880 G3 X186.813 Y160.267 I0. J0.412
N5885 G1 Y169.733
N5890 G3 X186.4 Y170.145 I-0.413 J0.
N5895 G1 X176.933
N5900 G3 X176.52 Y169.733 I0. J-0.412
N5905 G1 Y160.267
N5910 G3 X176.933 Y159.855 I0.413 J0.
N5915 G1 X181.666
N5920 G3 X181.984 Y160.172 I0. J0.317 F1000.
N5925 G1 Y160.49
N5930 G19 G3 Y160.807 Z0.317 J0. K0.317
N5935 G0 Z15.5
N5940 X185.86 Y148.016
N5945 G1 Z7.317 F333.33
N5950 G18 G2 X186.178 Z7. I0.318 K0.
N5955 G1 X186.495 F1000.
N5960 G17 G3 X186.813 Y148.333 I0. J0.317
N5965 G1 Y153.067 F1200.
N5970 G3 X186.4 Y153.48 I-0.413 J0.
N5975 G1 X176.933
N5980 G3 X176.52 Y153.067 I0. J-0.413
N5985 G1 Y143.6
N5990 G3 X176.933 Y143.188 I0.413 J0.
N5995 G1 X186.4
N6000 G3 X186.813 Y143.6 I0. J0.413
N6005 G1 Y148.333
N6010 G3 X186.495 Y148.651 I-0.318 J0. F1000.
N6015 G1 X186.178
N6020 G18 G3 X185.86 Z7.317 I0. K0.318
N6025 G1 Y148.016 F1200.
N6030 Z3.817 F333.33
N6035 G2 X186.178 Z3.5 I0.318 K0.
N6040 G1 X186.495 F1000.
N6045 G17 G3 X186.813 Y148.333 I0. J0.317
N6050 G1 Y153.067 F1200.
N6055 G3 X186.4 Y153.48 I-0.413 J0.
N6060 G1 X176.933
N6065 G3 X176.52 Y153.067 I0. J-0.413
N6070 G1 Y143.6
N6075 G3 X176.933 Y143.188 I0.413 J0.
N6080 G1 X186.4
N6085 G3 X186.813 Y143.6 I0. J0.413
N6090 G1 Y148.333
N6095 G3 X186.495 Y148.651 I-0.318 J0. F1000.
N6100 G1 X186.178
N6105 G18 G3 X185.86 Z3.817 I0. K0.318
N6110 G1 Y148.016 F1200.
N6115 Z0.317 F333.33
N6120 G2 X186.178 Z0. I0.318 K0.
N6125 G1 X186.495 F1000.
N6130 G17 G3 X186.813 Y148.333 I0. J0.317
N6135 G1 Y153.067 F1200.
N6140 G3 X186.4 Y153.48 I-0.413 J0.
N6145 G1 X176.933
N6150 G3 X176.52 Y153.067 I0. J-0.413
N6155 G1 Y143.6
N6160 G3 X176.933 Y143.188 I0.413 J0.
N6165 G1 X186.4
N6170 G3 X186.813 Y143.6 I0. J0.413
N6175 G1 Y148.333
N6180 G3 X186.495 Y148.651 I-0.318 J0. F1000.
N6185 G1 X186.178
N6190 G18 G3 X185.86 Z0.317 I0. K0.317
N6195 G0 Z15.5
N6200 X169.193 Y148.016
N6205 G1 Z7.317 F333.33
N6210 G2 X169.51 Z7. I0.318 K0.
N6215 G1 X169.828 F1000.
N6220 G17 G3 X170.145 Y148.333 I0. J0.317
N6225 G1 Y153.067 F1200.
N6230 G3 X169.733 Y153.48 I-0.412 J0.
N6235 G1 X160.267
N6240 G3 X159.855 Y153.067 I0. J-0.413
N6245 G1 Y143.6
N6250 G3 X160.267 Y143.188 I0.412 J0.
N6255 G1 X169.733
N6260 G3 X170.145 Y143.6 I0. J0.413
N6265 G1 Y148.333
N6270 G3 X169.828 Y148.65 I-0.317 J0. F1000.
N6275 G1 X169.51
N6280 G18 G3 X169.193 Z7.317 I0. K0.318
N6285 G1 Y148.016 F1200.
N6290 Z3.817 F333.33
N6295 G2 X169.51 Z3.5 I0.318 K0.
N6300 G1 X169.828 F1000.
N6305 G17 G3 X170.145 Y148.333 I0. J0.317
N6310 G1 Y153.067 F1200.
N6315 G3 X169.733 Y153.48 I-0.412 J0.
N6320 G1 X160.267
N6325 G3 X159.855 Y153.067 I0. J-0.413
N6330 G1 Y143.6
N6335 G3 X160.267 Y143.188 I0.412 J0.
N6340 G1 X169.733
N6345 G3 X170.145 Y143.6 I0. J0.413
N6350 G1 Y148.333
N6355 G3 X169.828 Y148.65 I-0.317 J0. F1000.
N6360 G1 X169.51
N6365 G18 G3 X169.193 Z3.817 I0. K0.318
N6370 G1 Y148.016 F1200.
N6375 Z0.317 F333.33
N6380 G2 X169.51 Z0. I0.318 K0.
N6385 G1 X169.828 F1000.
N6390 G17 G3 X170.145 Y148.333 I0. J0.317
N6395 G1 Y153.067 F1200.
N6400 G3 X169.733 Y153.48 I-0.412 J0.
N6405 G1 X160.267
N6410 G3 X159.855 Y153.067 I0. J-0.413
N6415 G1 Y143.6
N6420 G3 X160.267 Y143.188 I0.412 J0.
N6425 G1 X169.733
N6430 G3 X170.145 Y143.6 I0. J0.413
N6435 G1 Y148.333
N6440 G3 X169.828 Y148.65 I-0.317 J0. F1000.
N6445 G1 X169.51
N6450 G18 G3 X169.193 Z0.317 I0. K0.317
N6455 G0 Z15.5
N6460 Y164.682
N6465 G1 Z7.317 F333.33
N6470 G2 X169.51 Z7. I0.318 K0.
N6475 G1 X169.828 F1000.
N6480 G17 G3 X170.145 Y165. I0. J0.318
N6485 G1 Y169.733 F1200.
N6490 G3 X169.733 Y170.145 I-0.412 J0.
N6495 G1 X160.267
N6500 G3 X159.855 Y169.733 I0. J-0.412
N6505 G1 Y160.267
N6510 G3 X160.267 Y159.855 I0.412 J0.
N6515 G1 X169.733
N6520 G3 X170.145 Y160.267 I0. J0.412
N6525 G1 Y165.
N6530 G3 X169.828 Y165.318 I-0.317 J0. F1000.
N6535 G1 X169.51
N6540 G18 G3 X169.193 Z7.317 I0. K0.318
N6545 G1 Y164.682 F1200.
N6550 Z3.817 F333.33
N6555 G2 X169.51 Z3.5 I0.318 K0.
N6560 G1 X169.828 F1000.
N6565 G17 G3 X170.145 Y165. I0. J0.318
N6570 G1 Y169.733 F1200.
N6575 G3 X169.733 Y170.145 I-0.412 J0.
N6580 G1 X160.267
N6585 G3 X159.855 Y169.733 I0. J-0.412
N6590 G1 Y160.267
N6595 G3 X160.267 Y159.855 I0.412 J0.
N6600 G1 X169.733
N6605 G3 X170.145 Y160.267 I0. J0.412
N6610 G1 Y165.
N6615 G3 X169.828 Y165.318 I-0.317 J0. F1000.
N6620 G1 X169.51
N6625 G18 G3 X169.193 Z3.817 I0. K0.318
N6630 G1 Y164.682 F1200.
N6635 Z0.317 F333.33
N6640 G2 X169.51 Z0. I0.318 K0.
N6645 G1 X169.828 F1000.
N6650 G17 G3 X170.145 Y165. I0. J0.318
N6655 G1 Y169.733 F1200.
N6660 G3 X169.733 Y170.145 I-0.412 J0.
N6665 G1 X160.267
N6670 G3 X159.855 Y169.733 I0. J-0.412
N6675 G1 Y160.267
N6680 G3 X160.267 Y159.855 I0.412 J0.
N6685 G1 X169.733
N6690 G3 X170.145 Y160.267 I0. J0.412
N6695 G1 Y165.
N6700 G3 X169.828 Y165.318 I-0.317 J0. F1000.
N6705 G1 X169.51
N6710 G18 G3 X169.193 Z0.317 I0. K0.317
N6715 G0 Z15.5
N6720 Y181.35
N6725 G1 Z7.317 F333.33
N6730 G2 X169.51 Z7. I0.318 K0.
N6735 G1 X169.828 F1000.
N6740 G17 G3 X170.145 Y181.667 I0. J0.318
N6745 G1 Y186.4 F1200.
N6750 G3 X169.733 Y186.813 I-0.412 J0.
N6755 G1 X160.267
N6760 G3 X159.855 Y186.4 I0. J-0.413
N6765 G1 Y176.933
N6770 G3 X160.267 Y176.52 I0.412 J0.
N6775 G1 X169.733
N6780 G3 X170.145 Y176.933 I0. J0.413
N6785 G1 Y181.667
N6790 G3 X169.828 Y181.984 I-0.317 J0. F1000.
N6795 G1 X169.51
N6800 G18 G3 X169.193 Z7.317 I0. K0.318
N6805 G1 Y181.35 F1200.
N6810 Z3.817 F333.33
N6815 G2 X169.51 Z3.5 I0.318 K0.
N6820 G1 X169.828 F1000.
N6825 G17 G3 X170.145 Y181.667 I0. J0.318
N6830 G1 Y186.4 F1200.
N6835 G3 X169.733 Y186.813 I-0.412 J0.
N6840 G1 X160.267
N6845 G3 X159.855 Y186.4 I0. J-0.413
N6850 G1 Y176.933
N6855 G3 X160.267 Y176.52 I0.412 J0.
N6860 G1 X169.733
N6865 G3 X170.145 Y176.933 I0. J0.413
N6870 G1 Y181.667
N6875 G3 X169.828 Y181.984 I-0.317 J0. F1000.
N6880 G1 X169.51
N6885 G18 G3 X169.193 Z3.817 I0. K0.318
N6890 G1 Y181.35 F1200.
N6895 Z0.317 F333.33
N6900 G2 X169.51 Z0. I0.318 K0.
N6905 G1 X169.828 F1000.
N6910 G17 G3 X170.145 Y181.667 I0. J0.318
N6915 G1 Y186.4 F1200.
N6920 G3 X169.733 Y186.813 I-0.412 J0.
N6925 G1 X160.267
N6930 G3 X159.855 Y186.4 I0. J-0.413
N6935 G1 Y176.933
N6940 G3 X160.267 Y176.52 I0.412 J0.
N6945 G1 X169.733
N6950 G3 X170.145 Y176.933 I0. J0.413
N6955 G1 Y181.667
N6960 G3 X169.828 Y181.984 I-0.317 J0. F1000.
N6965 G1 X169.51
N6970 G18 G3 X169.193 Z0.317 I0. K0.317
N6975 G0 Z15.5
N6980 Y198.016
N6985 G1 Z7.317 F333.33
N6990 G2 X169.51 Z7. I0.318 K0.
N6995 G1 X169.828 F1000.
N7000 G17 G3 X170.145 Y198.334 I0. J0.318
N7005 G1 Y203.067 F1200.
N7010 G3 X169.733 Y203.48 I-0.412 J0.
N7015 G1 X160.267
N7020 G3 X159.855 Y203.067 I0. J-0.413
N7025 G1 Y193.6
N7030 G3 X160.267 Y193.188 I0.412 J0.
N7035 G1 X169.733
N7040 G3 X170.145 Y193.6 I0. J0.413
N7045 G1 Y198.334
N7050 G3 X169.828 Y198.652 I-0.317 J0. F1000.
N7055 G1 X169.51
N7060 G18 G3 X169.193 Z7.317 I0. K0.318
N7065 G1 Y198.016 F1200.
N7070 Z3.817 F333.33
N7075 G2 X169.51 Z3.5 I0.318 K0.
N7080 G1 X169.828 F1000.
N7085 G17 G3 X170.145 Y198.334 I0. J0.318
N7090 G1 Y203.067 F1200.
N7095 G3 X169.733 Y203.48 I-0.412 J0.
N7100 G1 X160.267
N7105 G3 X159.855 Y203.067 I0. J-0.413
N7110 G1 Y193.6
N7115 G3 X160.267 Y193.188 I0.412 J0.
N7120 G1 X169.733
N7125 G3 X170.145 Y193.6 I0. J0.413
N7130 G1 Y198.334
N7135 G3 X169.828 Y198.652 I-0.317 J0. F1000.
N7140 G1 X169.51
N7145 G18 G3 X169.193 Z3.817 I0. K0.318
N7150 G1 Y198.016 F1200.
N7155 Z0.317 F333.33
N7160 G2 X169.51 Z0. I0.318 K0.
N7165 G1 X169.828 F1000.
N7170 G17 G3 X170.145 Y198.334 I0. J0.318
N7175 G1 Y203.067 F1200.
N7180 G3 X169.733 Y203.48 I-0.412 J0.
N7185 G1 X160.267
N7190 G3 X159.855 Y203.067 I0. J-0.413
N7195 G1 Y193.6
N7200 G3 X160.267 Y193.188 I0.412 J0.
N7205 G1 X169.733
N7210 G3 X170.145 Y193.6 I0. J0.413
N7215 G1 Y198.334
N7220 G3 X169.828 Y198.652 I-0.317 J0. F1000.
N7225 G1 X169.51
N7230 G18 G3 X169.193 Z0.317 I0. K0.317
N7235 G0 Z15.5
N7240 X152.527 Y198.016
N7245 G1 Z7.317 F333.33
N7250 G2 X152.844 Z7. I0.318 K0.
N7255 G1 X153.162 F1000.
N7260 G17 G3 X153.48 Y198.333 I0. J0.317
N7265 G1 Y203.067 F1200.
N7270 G3 X153.067 Y203.48 I-0.413 J0.
N7275 G1 X143.6
N7280 G3 X143.188 Y203.067 I0. J-0.413
N7285 G1 Y193.6
N7290 G3 X143.6 Y193.188 I0.413 J0.
N7295 G1 X153.067
N7300 G3 X153.48 Y193.6 I0. J0.413
N7305 G1 Y198.333
N7310 G3 X153.162 Y198.651 I-0.318 J0. F1000.
N7315 G1 X152.844
N7320 G18 G3 X152.527 Z7.317 I0. K0.318
N7325 G1 Y198.016 F1200.
N7330 Z3.817 F333.33
N7335 G2 X152.844 Z3.5 I0.318 K0.
N7340 G1 X153.162 F1000.
N7345 G17 G3 X153.48 Y198.333 I0. J0.317
N7350 G1 Y203.067 F1200.
N7355 G3 X153.067 Y203.48 I-0.413 J0.
N7360 G1 X143.6
N7365 G3 X143.188 Y203.067 I0. J-0.413
N7370 G1 Y193.6
N7375 G3 X143.6 Y193.188 I0.413 J0.
N7380 G1 X153.067
N7385 G3 X153.48 Y193.6 I0. J0.413
N7390 G1 Y198.333
N7395 G3 X153.162 Y198.651 I-0.318 J0. F1000.
N7400 G1 X152.844
N7405 G18 G3 X152.527 Z3.817 I0. K0.318
N7410 G1 Y198.016 F1200.
N7415 Z0.317 F333.33
N7420 G2 X152.844 Z0. I0.318 K0.
N7425 G1 X153.162 F1000.
N7430 G17 G3 X153.48 Y198.333 I0. J0.317
N7435 G1 Y203.067 F1200.
N7440 G3 X153.067 Y203.48 I-0.413 J0.
N7445 G1 X143.6
N7450 G3 X143.188 Y203.067 I0. J-0.413
N7455 G1 Y193.6
N7460 G3 X143.6 Y193.188 I0.413 J0.
N7465 G1 X153.067
N7470 G3 X153.48 Y193.6 I0. J0.413
N7475 G1 Y198.333
N7480 G3 X153.162 Y198.651 I-0.318 J0. F1000.
N7485 G1 X152.844
N7490 G18 G3 X152.527 Z0.317 I0. K0.317
N7495 G0 Z15.5
N7500 Y181.349
N7505 G1 Z7.317 F333.33
N7510 G2 X152.844 Z7. I0.318 K0.
N7515 G1 X153.162 F1000.
N7520 G17 G3 X153.48 Y181.667 I0. J0.318
N7525 G1 Y186.4 F1200.
N7530 G3 X153.067 Y186.813 I-0.413 J0.
N7535 G1 X143.6
N7540 G3 X143.188 Y186.4 I0. J-0.413
N7545 G1 Y176.933
N7550 G3 X143.6 Y176.52 I0.413 J0.
N7555 G1 X153.067
N7560 G3 X153.48 Y176.933 I0. J0.413
N7565 G1 Y181.667
N7570 G3 X153.162 Y181.984 I-0.318 J0. F1000.
N7575 G1 X152.844
N7580 G18 G3 X152.527 Z7.317 I0. K0.318
N7585 G1 Y181.349 F1200.
N7590 Z3.817 F333.33
N7595 G2 X152.844 Z3.5 I0.318 K0.
N7600 G1 X153.162 F1000.
N7605 G17 G3 X153.48 Y181.667 I0. J0.318
N7610 G1 Y186.4 F1200.
N7615 G3 X153.067 Y186.813 I-0.413 J0.
N7620 G1 X143.6
N7625 G3 X143.188 Y186.4 I0. J-0.413
N7630 G1 Y176.933
N7635 G3 X143.6 Y176.52 I0.413 J0.
N7640 G1 X153.067
N7645 G3 X153.48 Y176.933 I0. J0.413
N7650 G1 Y181.667
N7655 G3 X153.162 Y181.984 I-0.318 J0. F1000.
N7660 G1 X152.844
N7665 G18 G3 X152.527 Z3.817 I0. K0.318
N7670 G1 Y181.349 F1200.
N7675 Z0.317 F333.33
N7680 G2 X152.844 Z0. I0.318 K0.
N7685 G1 X153.162 F1000.
N7690 G17 G3 X153.48 Y181.667 I0. J0.318
N7695 G1 Y186.4 F1200.
N7700 G3 X153.067 Y186.813 I-0.413 J0.
N7705 G1 X143.6
N7710 G3 X143.188 Y186.4 I0. J-0.413
N7715 G1 Y176.933
N7720 G3 X143.6 Y176.52 I0.413 J0.
N7725 G1 X153.067
N7730 G3 X153.48 Y176.933 I0. J0.413
N7735 G1 Y181.667
N7740 G3 X153.162 Y181.984 I-0.318 J0. F1000.
N7745 G1 X152.844
N7750 G18 G3 X152.527 Z0.317 I0. K0.317
N7755 G0 Z15.5
N7760 Y164.682
N7765 G1 Z7.317 F333.33
N7770 G2 X152.844 Z7. I0.318 K0.
N7775 G1 X153.162 F1000.
N7780 G17 G3 X153.48 Y165. I0. J0.318
N7785 G1 Y169.733 F1200.
N7790 G3 X153.067 Y170.145 I-0.413 J0.
N7795 G1 X143.6
N7800 G3 X143.188 Y169.733 I0. J-0.412
N7805 G1 Y160.267
N7810 G3 X143.6 Y159.855 I0.413 J0.
N7815 G1 X153.067
N7820 G3 X153.48 Y160.267 I0. J0.412
N7825 G1 Y165.
N7830 G3 X153.162 Y165.318 I-0.318 J0. F1000.
N7835 G1 X152.844
N7840 G18 G3 X152.527 Z7.317 I0. K0.318
N7845 G1 Y164.682 F1200.
N7850 Z3.817 F333.33
N7855 G2 X152.844 Z3.5 I0.318 K0.
N7860 G1 X153.162 F1000.
N7865 G17 G3 X153.48 Y165. I0. J0.318
N7870 G1 Y169.733 F1200.
N7875 G3 X153.067 Y170.145 I-0.413 J0.
N7880 G1 X143.6
N7885 G3 X143.188 Y169.733 I0. J-0.412
N7890 G1 Y160.267
N7895 G3 X143.6 Y159.855 I0.413 J0.
N7900 G1 X153.067
N7905 G3 X153.48 Y160.267 I0. J0.412
N7910 G1 Y165.
N7915 G3 X153.162 Y165.318 I-0.318 J0. F1000.
N7920 G1 X152.844
N7925 G18 G3 X152.527 Z3.817 I0. K0.318
N7930 G1 Y164.682 F1200.
N7935 Z0.317 F333.33
N7940 G2 X152.844 Z0. I0.318 K0.
N7945 G1 X153.162 F1000.
N7950 G17 G3 X153.48 Y165. I0. J0.318
N7955 G1 Y169.733 F1200.
N7960 G3 X153.067 Y170.145 I-0.413 J0.
N7965 G1 X143.6
N7970 G3 X143.188 Y169.733 I0. J-0.412
N7975 G1 Y160.267
N7980 G3 X143.6 Y159.855 I0.413 J0.
N7985 G1 X153.067
N7990 G3 X153.48 Y160.267 I0. J0.412
N7995 G1 Y165.
N8000 G3 X153.162 Y165.318 I-0.318 J0. F1000.
N8005 G1 X152.844
N8010 G18 G3 X152.527 Z0.317 I0. K0.317
N8015 G0 Z15.5
N8020 Y148.016
N8025 G1 Z7.317 F333.33
N8030 G2 X152.844 Z7. I0.318 K0.
N8035 G1 X153.162 F1000.
N8040 G17 G3 X153.48 Y148.333 I0. J0.317
N8045 G1 Y153.067 F1200.
N8050 G3 X153.067 Y153.48 I-0.413 J0.
N8055 G1 X143.6
N8060 G3 X143.188 Y153.067 I0. J-0.413
N8065 G1 Y143.6
N8070 G3 X143.6 Y143.188 I0.413 J0.
N8075 G1 X153.067
N8080 G3 X153.48 Y143.6 I0. J0.413
N8085 G1 Y148.333
N8090 G3 X153.162 Y148.651 I-0.318 J0. F1000.
N8095 G1 X152.844
N8100 G18 G3 X152.527 Z7.317 I0. K0.318
N8105 G1 Y148.016 F1200.
N8110 Z3.817 F333.33
N8115 G2 X152.844 Z3.5 I0.318 K0.
N8120 G1 X153.162 F1000.
N8125 G17 G3 X153.48 Y148.333 I0. J0.317
N8130 G1 Y153.067 F1200.
N8135 G3 X153.067 Y153.48 I-0.413 J0.
N8140 G1 X143.6
N8145 G3 X143.188 Y153.067 I0. J-0.413
N8150 G1 Y143.6
N8155 G3 X143.6 Y143.188 I0.413 J0.
N8160 G1 X153.067
N8165 G3 X153.48 Y143.6 I0. J0.413
N8170 G1 Y148.333
N8175 G3 X153.162 Y148.651 I-0.318 J0. F1000.
N8180 G1 X152.844
N8185 G18 G3 X152.527 Z3.817 I0. K0.318
N8190 G1 Y148.016 F1200.
N8195 Z0.317 F333.33
N8200 G2 X152.844 Z0. I0.318 K0.
N8205 G1 X153.162 F1000.
N8210 G17 G3 X153.48 Y148.333 I0. J0.317
N8215 G1 Y153.067 F1200.
N8220 G3 X153.067 Y153.48 I-0.413 J0.
N8225 G1 X143.6
N8230 G3 X143.188 Y153.067 I0. J-0.413
N8235 G1 Y143.6
N8240 G3 X143.6 Y143.188 I0.413 J0.
N8245 G1 X153.067
N8250 G3 X153.48 Y143.6 I0. J0.413
N8255 G1 Y148.333
N8260 G3 X153.162 Y148.651 I-0.318 J0. F1000.
N8265 G1 X152.844
N8270 G18 G3 X152.527 Z0.317 I0. K0.317
N8275 G0 Z15.5
N8280 X135.86 Y148.016
N8285 G1 Z7.317 F333.33
N8290 G2 X136.178 Z7. I0.318 K0.
N8295 G1 X136.495 F1000.
N8300 G17 G3 X136.813 Y148.333 I0. J0.317
N8305 G1 Y153.067 F1200.
N8310 G3 X136.4 Y153.48 I-0.413 J0.
N8315 G1 X126.933
N8320 G3 X126.521 Y153.067 I0. J-0.413
N8325 G1 Y143.6
N8330 G3 X126.933 Y143.188 I0.412 J0.
N8335 G1 X136.4
N8340 G3 X136.813 Y143.6 I0. J0.413
N8345 G1 Y148.333
N8350 G3 X136.495 Y148.651 I-0.318 J0. F1000.
N8355 G1 X136.178
N8360 G18 G3 X135.86 Z7.317 I0. K0.318
N8365 G1 Y148.016 F1200.
N8370 Z3.817 F333.33
N8375 G2 X136.178 Z3.5 I0.318 K0.
N8380 G1 X136.495 F1000.
N8385 G17 G3 X136.813 Y148.333 I0. J0.317
N8390 G1 Y153.067 F1200.
N8395 G3 X136.4 Y153.48 I-0.413 J0.
N8400 G1 X126.933
N8405 G3 X126.521 Y153.067 I0. J-0.413
N8410 G1 Y143.6
N8415 G3 X126.933 Y143.188 I0.412 J0.
N8420 G1 X136.4
N8425 G3 X136.813 Y143.6 I0. J0.413
N8430 G1 Y148.333
N8435 G3 X136.495 Y148.651 I-0.318 J0. F1000.
N8440 G1 X136.178
N8445 G18 G3 X135.86 Z3.817 I0. K0.318
N8450 G1 Y148.016 F1200.
N8455 Z0.317 F333.33
N8460 G2 X136.178 Z0. I0.318 K0.
N8465 G1 X136.495 F1000.
N8470 G17 G3 X136.813 Y148.333 I0. J0.317
N8475 G1 Y153.067 F1200.
N8480 G3 X136.4 Y153.48 I-0.413 J0.
N8485 G1 X126.933
N8490 G3 X126.521 Y153.067 I0. J-0.413
N8495 G1 Y143.6
N8500 G3 X126.933 Y143.188 I0.412 J0.
N8505 G1 X136.4
N8510 G3 X136.813 Y143.6 I0. J0.413
N8515 G1 Y148.333
N8520 G3 X136.495 Y148.651 I-0.318 J0. F1000.
N8525 G1 X136.178
N8530 G18 G3 X135.86 Z0.317 I0. K0.317
N8535 G0 Z15.5
N8540 X131.348 Y160.807
N8545 G1 Z7.317 F333.33
N8550 G19 G2 Y160.49 Z7. J-0.318 K0.
N8555 G1 Y160.172 F1000.
N8560 G17 G3 X131.666 Y159.855 I0.318 J0.
N8565 G1 X136.4 F1200.
N8570 G3 X136.813 Y160.267 I0. J0.412
N8575 G1 Y169.733
N8580 G3 X136.4 Y170.145 I-0.413 J0.
N8585 G1 X126.933
N8590 G3 X126.521 Y169.733 I0. J-0.412
N8595 G1 Y160.267
N8600 G3 X126.933 Y159.855 I0.412 J0.
N8605 G1 X131.666
N8610 G3 X131.984 Y160.172 I0. J0.317 F1000.
N8615 G1 Y160.49
N8620 G19 G3 Y160.807 Z7.317 J0. K0.318
N8625 G1 X131.348 F1200.
N8630 Z3.817 F333.33
N8635 G2 Y160.49 Z3.5 J-0.318 K0.
N8640 G1 Y160.172 F1000.
N8645 G17 G3 X131.666 Y159.855 I0.318 J0.
N8650 G1 X136.4 F1200.
N8655 G3 X136.813 Y160.267 I0. J0.412
N8660 G1 Y169.733
N8665 G3 X136.4 Y170.145 I-0.413 J0.
N8670 G1 X126.933
N8675 G3 X126.521 Y169.733 I0. J-0.412
N8680 G1 Y160.267
N8685 G3 X126.933 Y159.855 I0.412 J0.
N8690 G1 X131.666
N8695 G3 X131.984 Y160.172 I0. J0.317 F1000.
N8700 G1 Y160.49
N8705 G19 G3 Y160.807 Z3.817 J0. K0.318
N8710 G1 X131.348 F1200.
N8715 Z0.317 F333.33
N8720 G2 Y160.49 Z0. J-0.318 K0.
N8725 G1 Y160.172 F1000.
N8730 G17 G3 X131.666 Y159.855 I0.318 J0.
N8735 G1 X136.4 F1200.
N8740 G3 X136.813 Y160.267 I0. J0.412
N8745 G1 Y169.733
N8750 G3 X136.4 Y170.145 I-0.413 J0.
N8755 G1 X126.933
N8760 G3 X126.521 Y169.733 I0. J-0.412
N8765 G1 Y160.267
N8770 G3 X126.933 Y159.855 I0.412 J0.
N8775 G1 X131.666
N8780 G3 X131.984 Y160.172 I0. J0.317 F1000.
N8785 G1 Y160.49
N8790 G19 G3 Y160.807 Z0.317 J0. K0.317
N8795 G0 Z15.5
N8800 X119.193 Y164.682
N8805 G1 Z7.317 F333.33
N8810 G18 G2 X119.51 Z7. I0.317 K0.
N8815 G1 X119.828 F1000.
N8820 G17 G3 X120.146 Y165. I0. J0.318
N8825 G1 Y169.733 F1200.
N8830 G3 X119.733 Y170.145 I-0.412 J0.
N8835 G1 X110.267
N8840 G3 X109.854 Y169.733 I0. J-0.412
N8845 G1 Y160.267
N8850 G3 X110.267 Y159.855 I0.412 J0.
N8855 G1 X119.733
N8860 G3 X120.146 Y160.267 I0. J0.412
N8865 G1 Y165.
N8870 G3 X119.828 Y165.318 I-0.317 J0. F1000.
N8875 G1 X119.51
N8880 G18 G3 X119.193 Z7.317 I0. K0.318
N8885 G1 Y164.682 F1200.
N8890 Z3.817 F333.33
N8895 G2 X119.51 Z3.5 I0.317 K0.
N8900 G1 X119.828 F1000.
N8905 G17 G3 X120.146 Y165. I0. J0.318
N8910 G1 Y169.733 F1200.
N8915 G3 X119.733 Y170.145 I-0.412 J0.
N8920 G1 X110.267
N8925 G3 X109.854 Y169.733 I0. J-0.412
N8930 G1 Y160.267
N8935 G3 X110.267 Y159.855 I0.412 J0.
N8940 G1 X119.733
N8945 G3 X120.146 Y160.267 I0. J0.412
N8950 G1 Y165.
N8955 G3 X119.828 Y165.318 I-0.317 J0. F1000.
N8960 G1 X119.51
N8965 G18 G3 X119.193 Z3.817 I0. K0.318
N8970 G1 Y164.682 F1200.
N8975 Z0.317 F333.33
N8980 G2 X119.51 Z0. I0.317 K0.
N8985 G1 X119.828 F1000.
N8990 G17 G3 X120.146 Y165. I0. J0.318
N8995 G1 Y169.733 F1200.
N9000 G3 X119.733 Y170.145 I-0.412 J0.
N9005 G1 X110.267
N9010 G3 X109.854 Y169.733 I0. J-0.412
N9015 G1 Y160.267
N9020 G3 X110.267 Y159.855 I0.412 J0.
N9025 G1 X119.733
N9030 G3 X120.146 Y160.267 I0. J0.412
N9035 G1 Y165.
N9040 G3 X119.828 Y165.318 I-0.317 J0. F1000.
N9045 G1 X119.51
N9050 G18 G3 X119.193 Z0.317 I0. K0.317
N9055 G0 Z15.5
N9060 Y181.348
N9065 G1 Z7.317 F333.33
N9070 G2 X119.51 Z7. I0.317 K0.
N9075 G1 X119.828 F1000.
N9080 G17 G3 X120.146 Y181.666 I0. J0.318
N9085 G1 Y186.4 F1200.
N9090 G3 X119.733 Y186.813 I-0.412 J0.
N9095 G1 X110.267
N9100 G3 X109.854 Y186.4 I0. J-0.413
N9105 G1 Y176.933
N9110 G3 X110.267 Y176.52 I0.412 J0.
N9115 G1 X119.733
N9120 G3 X120.146 Y176.933 I0. J0.413
N9125 G1 Y181.666
N9130 G3 X119.828 Y181.984 I-0.317 J0. F1000.
N9135 G1 X119.51
N9140 G18 G3 X119.193 Z7.317 I0. K0.318
N9145 G1 Y181.348 F1200.
N9150 Z3.817 F333.33
N9155 G2 X119.51 Z3.5 I0.317 K0.
N9160 G1 X119.828 F1000.
N9165 G17 G3 X120.146 Y181.666 I0. J0.318
N9170 G1 Y186.4 F1200.
N9175 G3 X119.733 Y186.813 I-0.412 J0.
N9180 G1 X110.267
N9185 G3 X109.854 Y186.4 I0. J-0.413
N9190 G1 Y176.933
N9195 G3 X110.267 Y176.52 I0.412 J0.
N9200 G1 X119.733
N9205 G3 X120.146 Y176.933 I0. J0.413
N9210 G1 Y181.666
N9215 G3 X119.828 Y181.984 I-0.317 J0. F1000.
N9220 G1 X119.51
N9225 G18 G3 X119.193 Z3.817 I0. K0.318
N9230 G1 Y181.348 F1200.
N9235 Z0.317 F333.33
N9240 G2 X119.51 Z0. I0.317 K0.
N9245 G1 X119.828 F1000.
N9250 G17 G3 X120.146 Y181.666 I0. J0.318
N9255 G1 Y186.4 F1200.
N9260 G3 X119.733 Y186.813 I-0.412 J0.
N9265 G1 X110.267
N9270 G3 X109.854 Y186.4 I0. J-0.413
N9275 G1 Y176.933
N9280 G3 X110.267 Y176.52 I0.412 J0.
N9285 G1 X119.733
N9290 G3 X120.146 Y176.933 I0. J0.413
N9295 G1 Y181.666
N9300 G3 X119.828 Y181.984 I-0.317 J0. F1000.
N9305 G1 X119.51
N9310 G18 G3 X119.193 Z0.317 I0. K0.317
N9315 G0 Z15.5
N9320 X135.86 Y181.349
N9325 G1 Z7.317 F333.33
N9330 G2 X136.178 Z7. I0.318 K0.
N9335 G1 X136.495 F1000.
N9340 G17 G3 X136.813 Y181.667 I0. J0.318
N9345 G1 Y186.4 F1200.
N9350 G3 X136.4 Y186.813 I-0.413 J0.
N9355 G1 X126.933
N9360 G3 X126.521 Y186.4 I0. J-0.413
N9365 G1 Y176.933
N9370 G3 X126.933 Y176.52 I0.412 J0.
N9375 G1 X136.4
N9380 G3 X136.813 Y176.933 I0. J0.413
N9385 G1 Y181.667
N9390 G3 X136.495 Y181.984 I-0.318 J0. F1000.
N9395 G1 X136.178
N9400 G18 G3 X135.86 Z7.317 I0. K0.318
N9405 G1 Y181.349 F1200.
N9410 Z3.817 F333.33
N9415 G2 X136.178 Z3.5 I0.318 K0.
N9420 G1 X136.495 F1000.
N9425 G17 G3 X136.813 Y181.667 I0. J0.318
N9430 G1 Y186.4 F1200.
N9435 G3 X136.4 Y186.813 I-0.413 J0.
N9440 G1 X126.933
N9445 G3 X126.521 Y186.4 I0. J-0.413
N9450 G1 Y176.933
N9455 G3 X126.933 Y176.52 I0.412 J0.
N9460 G1 X136.4
N9465 G3 X136.813 Y176.933 I0. J0.413
N9470 G1 Y181.667
N9475 G3 X136.495 Y181.984 I-0.318 J0. F1000.
N9480 G1 X136.178
N9485 G18 G3 X135.86 Z3.817 I0. K0.318
N9490 G1 Y181.349 F1200.
N9495 Z0.317 F333.33
N9500 G2 X136.178 Z0. I0.318 K0.
N9505 G1 X136.495 F1000.
N9510 G17 G3 X136.813 Y181.667 I0. J0.318
N9515 G1 Y186.4 F1200.
N9520 G3 X136.4 Y186.813 I-0.413 J0.
N9525 G1 X126.933
N9530 G3 X126.521 Y186.4 I0. J-0.413
N9535 G1 Y176.933
N9540 G3 X126.933 Y176.52 I0.412 J0.
N9545 G1 X136.4
N9550 G3 X136.813 Y176.933 I0. J0.413
N9555 G1 Y181.667
N9560 G3 X136.495 Y181.984 I-0.318 J0. F1000.
N9565 G1 X136.178
N9570 G18 G3 X135.86 Z0.317 I0. K0.317
N9575 G0 Z15.5
N9580 Y198.016
N9585 G1 Z7.317 F333.33
N9590 G2 X136.178 Z7. I0.318 K0.
N9595 G1 X136.495 F1000.
N9600 G17 G3 X136.813 Y198.333 I0. J0.317
N9605 G1 Y203.067 F1200.
N9610 G3 X136.4 Y203.48 I-0.413 J0.
N9615 G1 X126.933
N9620 G3 X126.521 Y203.067 I0. J-0.413
N9625 G1 Y193.6
N9630 G3 X126.933 Y193.188 I0.412 J0.
N9635 G1 X136.4
N9640 G3 X136.813 Y193.6 I0. J0.413
N9645 G1 Y198.333
N9650 G3 X136.495 Y198.651 I-0.318 J0. F1000.
N9655 G1 X136.178
N9660 G18 G3 X135.86 Z7.317 I0. K0.318
N9665 G1 Y198.016 F1200.
N9670 Z3.817 F333.33
N9675 G2 X136.178 Z3.5 I0.318 K0.
N9680 G1 X136.495 F1000.
N9685 G17 G3 X136.813 Y198.333 I0. J0.317
N9690 G1 Y203.067 F1200.
N9695 G3 X136.4 Y203.48 I-0.413 J0.
N9700 G1 X126.933
N9705 G3 X126.521 Y203.067 I0. J-0.413
N9710 G1 Y193.6
N9715 G3 X126.933 Y193.188 I0.412 J0.
N9720 G1 X136.4
N9725 G3 X136.813 Y193.6 I0. J0.413
N9730 G1 Y198.333
N9735 G3 X136.495 Y198.651 I-0.318 J0. F1000.
N9740 G1 X136.178
N9745 G18 G3 X135.86 Z3.817 I0. K0.318
N9750 G1 Y198.016 F1200.
N9755 Z0.317 F333.33
N9760 G2 X136.178 Z0. I0.318 K0.
N9765 G1 X136.495 F1000.
N9770 G17 G3 X136.813 Y198.333 I0. J0.317
N9775 G1 Y203.067 F1200.
N9780 G3 X136.4 Y203.48 I-0.413 J0.
N9785 G1 X126.933
N9790 G3 X126.521 Y203.067 I0. J-0.413
N9795 G1 Y193.6
N9800 G3 X126.933 Y193.188 I0.412 J0.
N9805 G1 X136.4
N9810 G3 X136.813 Y193.6 I0. J0.413
N9815 G1 Y198.333
N9820 G3 X136.495 Y198.651 I-0.318 J0. F1000.
N9825 G1 X136.178
N9830 G18 G3 X135.86 Z0.317 I0. K0.317
N9835 G0 Z15.5
N9840 X119.193 Y198.016
N9845 G1 Z7.317 F333.33
N9850 G2 X119.51 Z7. I0.317 K0.
N9855 G1 X119.828 F1000.
N9860 G17 G3 X120.146 Y198.334 I0. J0.318
N9865 G1 Y203.067 F1200.
N9870 G3 X119.733 Y203.48 I-0.412 J0.
N9875 G1 X110.267
N9880 G3 X109.854 Y203.067 I0. J-0.413
N9885 G1 Y193.6
N9890 G3 X110.267 Y193.188 I0.412 J0.
N9895 G1 X119.733
N9900 G3 X120.146 Y193.6 I0. J0.413
N9905 G1 Y198.334
N9910 G3 X119.828 Y198.652 I-0.317 J0. F1000.
N9915 G1 X119.51
N9920 G18 G3 X119.193 Z7.317 I0. K0.318
N9925 G1 Y198.016 F1200.
N9930 Z3.817 F333.33
N9935 G2 X119.51 Z3.5 I0.317 K0.
N9940 G1 X119.828 F1000.
N9945 G17 G3 X120.146 Y198.334 I0. J0.318
N9950 G1 Y203.067 F1200.
N9955 G3 X119.733 Y203.48 I-0.412 J0.
N9960 G1 X110.267
N9965 G3 X109.854 Y203.067 I0. J-0.413
N9970 G1 Y193.6
N9975 G3 X110.267 Y193.188 I0.412 J0.
N9980 G1 X119.733
N9985 G3 X120.146 Y193.6 I0. J0.413
N9990 G1 Y198.334
N9995 G3 X119.828 Y198.652 I-0.317 J0. F1000.
N10000 G1 X119.51
N10005 G18 G3 X119.193 Z3.817 I0. K0.318
N10010 G1 Y198.016 F1200.
N10015 Z0.317 F333.33
N10020 G2 X119.51 Z0. I0.317 K0.
N10025 G1 X119.828 F1000.
N10030 G17 G3 X120.146 Y198.334 I0. J0.318
N10035 G1 Y203.067 F1200.
N10040 G3 X119.733 Y203.48 I-0.412 J0.
N10045 G1 X110.267
N10050 G3 X109.854 Y203.067 I0. J-0.413
N10055 G1 Y193.6
N10060 G3 X110.267 Y193.188 I0.412 J0.
N10065 G1 X119.733
N10070 G3 X120.146 Y193.6 I0. J0.413
N10075 G1 Y198.334
N10080 G3 X119.828 Y198.652 I-0.317 J0. F1000.
N10085 G1 X119.51
N10090 G18 G3 X119.193 Z0.317 I0. K0.317
N10095 G0 Z15.5
N10100 X102.527 Y198.016
N10105 G1 Z7.317 F333.33
N10110 G2 X102.844 Z7. I0.317 K0.
N10115 G1 X103.162 F1000.
N10120 G17 G3 X103.479 Y198.333 I0. J0.317
N10125 G1 Y203.067 F1200.
N10130 G3 X103.067 Y203.48 I-0.412 J0.
N10135 G1 X93.6
N10140 G3 X93.188 Y203.067 I0. J-0.413
N10145 G1 Y193.6
N10150 G3 X93.6 Y193.188 I0.412 J0.
N10155 G1 X103.067
N10160 G3 X103.479 Y193.6 I0. J0.413
N10165 G1 Y198.333
N10170 G3 X103.162 Y198.651 I-0.317 J0. F1000.
N10175 G1 X102.844
N10180 G18 G3 X102.527 Z7.317 I0. K0.318
N10185 G1 Y198.016 F1200.
N10190 Z3.817 F333.33
N10195 G2 X102.844 Z3.5 I0.317 K0.
N10200 G1 X103.162 F1000.
N10205 G17 G3 X103.479 Y198.333 I0. J0.317
N10210 G1 Y203.067 F1200.
N10215 G3 X103.067 Y203.48 I-0.412 J0.
N10220 G1 X93.6
N10225 G3 X93.188 Y203.067 I0. J-0.413
N10230 G1 Y193.6
N10235 G3 X93.6 Y193.188 I0.412 J0.
N10240 G1 X103.067
N10245 G3 X103.479 Y193.6 I0. J0.413
N10250 G1 Y198.333
N10255 G3 X103.162 Y198.651 I-0.317 J0. F1000.
N10260 G1 X102.844
N10265 G18 G3 X102.527 Z3.817 I0. K0.318
N10270 G1 Y198.016 F1200.
N10275 Z0.317 F333.33
N10280 G2 X102.844 Z0. I0.317 K0.
N10285 G1 X103.162 F1000.
N10290 G17 G3 X103.479 Y198.333 I0. J0.317
N10295 G1 Y203.067 F1200.
N10300 G3 X103.067 Y203.48 I-0.412 J0.
N10305 G1 X93.6
N10310 G3 X93.188 Y203.067 I0. J-0.413
N10315 G1 Y193.6
N10320 G3 X93.6 Y193.188 I0.412 J0.
N10325 G1 X103.067
N10330 G3 X103.479 Y193.6 I0. J0.413
N10335 G1 Y198.333
N10340 G3 X103.162 Y198.651 I-0.317 J0. F1000.
N10345 G1 X102.844
N10350 G18 G3 X102.527 Z0.317 I0. K0.317
N10355 G0 Z15.5
N10360 Y181.349
N10365 G1 Z7.317 F333.33
N10370 G2 X102.844 Z7. I0.317 K0.
N10375 G1 X103.162 F1000.
N10380 G17 G3 X103.479 Y181.667 I0. J0.318
N10385 G1 Y186.4 F1200.
N10390 G3 X103.067 Y186.813 I-0.412 J0.
N10395 G1 X93.6
N10400 G3 X93.188 Y186.4 I0. J-0.413
N10405 G1 Y176.933
N10410 G3 X93.6 Y176.52 I0.412 J0.
N10415 G1 X103.067
N10420 G3 X103.479 Y176.933 I0. J0.413
N10425 G1 Y181.667
N10430 G3 X103.162 Y181.984 I-0.317 J0. F1000.
N10435 G1 X102.844
N10440 G18 G3 X102.527 Z7.317 I0. K0.318
N10445 G1 Y181.349 F1200.
N10450 Z3.817 F333.33
N10455 G2 X102.844 Z3.5 I0.317 K0.
N10460 G1 X103.162 F1000.
N10465 G17 G3 X103.479 Y181.667 I0. J0.318
N10470 G1 Y186.4 F1200.
N10475 G3 X103.067 Y186.813 I-0.412 J0.
N10480 G1 X93.6
N10485 G3 X93.188 Y186.4 I0. J-0.413
N10490 G1 Y176.933
N10495 G3 X93.6 Y176.52 I0.412 J0.
N10500 G1 X103.067
N10505 G3 X103.479 Y176.933 I0. J0.413
N10510 G1 Y181.667
N10515 G3 X103.162 Y181.984 I-0.317 J0. F1000.
N10520 G1 X102.844
N10525 G18 G3 X102.527 Z3.817 I0. K0.318
N10530 G1 Y181.349 F1200.
N10535 Z0.317 F333.33
N10540 G2 X102.844 Z0. I0.317 K0.
N10545 G1 X103.162 F1000.
N10550 G17 G3 X103.479 Y181.667 I0. J0.318
N10555 G1 Y186.4 F1200.
N10560 G3 X103.067 Y186.813 I-0.412 J0.
N10565 G1 X93.6
N10570 G3 X93.188 Y186.4 I0. J-0.413
N10575 G1 Y176.933
N10580 G3 X93.6 Y176.52 I0.412 J0.
N10585 G1 X103.067
N10590 G3 X103.479 Y176.933 I0. J0.413
N10595 G1 Y181.667
N10600 G3 X103.162 Y181.984 I-0.317 J0. F1000.
N10605 G1 X102.844
N10610 G18 G3 X102.527 Z0.317 I0. K0.317
N10615 G0 Z15.5
N10620 X98.65 Y169.193
N10625 G1 Z7.317 F333.33
N10630 G19 G3 Y169.51 Z7. J0.318 K0.
N10635 G1 Y169.828 F1000.
N10640 G17 G3 X98.333 Y170.145 I-0.317 J0.
N10645 G1 X93.6 F1200.
N10650 G3 X93.188 Y169.733 I0. J-0.412
N10655 G1 Y160.267
N10660 G3 X93.6 Y159.855 I0.412 J0.
N10665 G1 X103.067
N10670 G3 X103.479 Y160.267 I0. J0.412
N10675 G1 Y169.733
N10680 G3 X103.067 Y170.145 I-0.412 J0.
N10685 G1 X98.333
N10690 G3 X98.016 Y169.828 I0. J-0.317 F1000.
N10695 G1 Y169.51
N10700 G19 G2 Y169.193 Z7.317 J0. K0.318
N10705 G1 X98.65 F1200.
N10710 Z3.817 F333.33
N10715 G3 Y169.51 Z3.5 J0.318 K0.
N10720 G1 Y169.828 F1000.
N10725 G17 G3 X98.333 Y170.145 I-0.317 J0.
N10730 G1 X93.6 F1200.
N10735 G3 X93.188 Y169.733 I0. J-0.412
N10740 G1 Y160.267
N10745 G3 X93.6 Y159.855 I0.412 J0.
N10750 G1 X103.067
N10755 G3 X103.479 Y160.267 I0. J0.412
N10760 G1 Y169.733
N10765 G3 X103.067 Y170.145 I-0.412 J0.
N10770 G1 X98.333
N10775 G3 X98.016 Y169.828 I0. J-0.317 F1000.
N10780 G1 Y169.51
N10785 G19 G2 Y169.193 Z3.817 J0. K0.318
N10790 G1 X98.65 F1200.
N10795 Z0.317 F333.33
N10800 G3 Y169.51 Z0. J0.318 K0.
N10805 G1 Y169.828 F1000.
N10810 G17 G3 X98.333 Y170.145 I-0.317 J0.
N10815 G1 X93.6 F1200.
N10820 G3 X93.188 Y169.733 I0. J-0.412
N10825 G1 Y160.267
N10830 G3 X93.6 Y159.855 I0.412 J0.
N10835 G1 X103.067
N10840 G3 X103.479 Y160.267 I0. J0.412
N10845 G1 Y169.733
N10850 G3 X103.067 Y170.145 I-0.412 J0.
N10855 G1 X98.333
N10860 G3 X98.016 Y169.828 I0. J-0.317 F1000.
N10865 G1 Y169.51
N10870 G19 G2 Y169.193 Z0.317 J0. K0.317
N10875 G0 Z15.5
N10880 X81.984
N10885 G1 Z7.317 F333.33
N10890 G3 Y169.51 Z7. J0.318 K0.
N10895 G1 Y169.828 F1000.
N10900 G17 G3 X81.666 Y170.145 I-0.318 J0.
N10905 G1 X76.933 F1200.
N10910 G3 X76.521 Y169.733 I0. J-0.412
N10915 G1 Y160.267
N10920 G3 X76.933 Y159.855 I0.412 J0.
N10925 G1 X86.4
N10930 G3 X86.813 Y160.267 I0. J0.412
N10935 G1 Y169.733
N10940 G3 X86.4 Y170.145 I-0.412 J0.
N10945 G1 X81.666
N10950 G3 X81.349 Y169.828 I0. J-0.317 F1000.
N10955 G1 Y169.51
N10960 G19 G2 Y169.193 Z7.317 J0. K0.318
N10965 G1 X81.984 F1200.
N10970 Z3.817 F333.33
N10975 G3 Y169.51 Z3.5 J0.318 K0.
N10980 G1 Y169.828 F1000.
N10985 G17 G3 X81.666 Y170.145 I-0.318 J0.
N10990 G1 X76.933 F1200.
N10995 G3 X76.521 Y169.733 I0. J-0.412
N11000 G1 Y160.267
N11005 G3 X76.933 Y159.855 I0.412 J0.
N11010 G1 X86.4
N11015 G3 X86.813 Y160.267 I0. J0.412
N11020 G1 Y169.733
N11025 G3 X86.4 Y170.145 I-0.412 J0.
N11030 G1 X81.666
N11035 G3 X81.349 Y169.828 I0. J-0.317 F1000.
N11040 G1 Y169.51
N11045 G19 G2 Y169.193 Z3.817 J0. K0.318
N11050 G1 X81.984 F1200.
N11055 Z0.317 F333.33
N11060 G3 Y169.51 Z0. J0.318 K0.
N11065 G1 Y169.828 F1000.
N11070 G17 G3 X81.666 Y170.145 I-0.318 J0.
N11075 G1 X76.933 F1200.
N11080 G3 X76.521 Y169.733 I0. J-0.412
N11085 G1 Y160.267
N11090 G3 X76.933 Y159.855 I0.412 J0.
N11095 G1 X86.4
N11100 G3 X86.813 Y160.267 I0. J0.412
N11105 G1 Y169.733
N11110 G3 X86.4 Y170.145 I-0.412 J0.
N11115 G1 X81.666
N11120 G3 X81.349 Y169.828 I0. J-0.317 F1000.
N11125 G1 Y169.51
N11130 G19 G2 Y169.193 Z0.317 J0. K0.317
N11135 G0 Z15.5
N11140 X85.86 Y181.349
N11145 G1 Z7.317 F333.33
N11150 G18 G2 X86.177 Z7. I0.317 K0.
N11155 G1 X86.495 F1000.
N11160 G17 G3 X86.813 Y181.666 I0. J0.318
N11165 G1 Y186.4 F1200.
N11170 G3 X86.4 Y186.813 I-0.412 J0.
N11175 G1 X76.933
N11180 G3 X76.521 Y186.4 I0. J-0.413
N11185 G1 Y176.933
N11190 G3 X76.933 Y176.52 I0.412 J0.
N11195 G1 X86.4
N11200 G3 X86.813 Y176.933 I0. J0.413
N11205 G1 Y181.666
N11210 G3 X86.495 Y181.984 I-0.317 J0. F1000.
N11215 G1 X86.177
N11220 G18 G3 X85.86 Z7.317 I0. K0.318
N11225 G1 Y181.349 F1200.
N11230 Z3.817 F333.33
N11235 G2 X86.177 Z3.5 I0.317 K0.
N11240 G1 X86.495 F1000.
N11245 G17 G3 X86.813 Y181.666 I0. J0.318
N11250 G1 Y186.4 F1200.
N11255 G3 X86.4 Y186.813 I-0.412 J0.
N11260 G1 X76.933
N11265 G3 X76.521 Y186.4 I0. J-0.413
N11270 G1 Y176.933
N11275 G3 X76.933 Y176.52 I0.412 J0.
N11280 G1 X86.4
N11285 G3 X86.813 Y176.933 I0. J0.413
N11290 G1 Y181.666
N11295 G3 X86.495 Y181.984 I-0.317 J0. F1000.
N11300 G1 X86.177
N11305 G18 G3 X85.86 Z3.817 I0. K0.318
N11310 G1 Y181.349 F1200.
N11315 Z0.317 F333.33
N11320 G2 X86.177 Z0. I0.317 K0.
N11325 G1 X86.495 F1000.
N11330 G17 G3 X86.813 Y181.666 I0. J0.318
N11335 G1 Y186.4 F1200.
N11340 G3 X86.4 Y186.813 I-0.412 J0.
N11345 G1 X76.933
N11350 G3 X76.521 Y186.4 I0. J-0.413
N11355 G1 Y176.933
N11360 G3 X76.933 Y176.52 I0.412 J0.
N11365 G1 X86.4
N11370 G3 X86.813 Y176.933 I0. J0.413
N11375 G1 Y181.666
N11380 G3 X86.495 Y181.984 I-0.317 J0. F1000.
N11385 G1 X86.177
N11390 G18 G3 X85.86 Z0.317 I0. K0.317
N11395 G0 Z15.5
N11400 Y198.016
N11405 G1 Z7.317 F333.33
N11410 G2 X86.177 Z7. I0.317 K0.
N11415 G1 X86.495 F1000.
N11420 G17 G3 X86.813 Y198.334 I0. J0.318
N11425 G1 Y203.067 F1200.
N11430 G3 X86.4 Y203.48 I-0.412 J0.
N11435 G1 X76.933
N11440 G3 X76.521 Y203.067 I0. J-0.413
N11445 G1 Y193.6
N11450 G3 X76.933 Y193.188 I0.412 J0.
N11455 G1 X86.4
N11460 G3 X86.813 Y193.6 I0. J0.413
N11465 G1 Y198.334
N11470 G3 X86.495 Y198.651 I-0.317 J0. F1000.
N11475 G1 X86.177
N11480 G18 G3 X85.86 Z7.317 I0. K0.318
N11485 G1 Y198.016 F1200.
N11490 Z3.817 F333.33
N11495 G2 X86.177 Z3.5 I0.317 K0.
N11500 G1 X86.495 F1000.
N11505 G17 G3 X86.813 Y198.334 I0. J0.318
N11510 G1 Y203.067 F1200.
N11515 G3 X86.4 Y203.48 I-0.412 J0.
N11520 G1 X76.933
N11525 G3 X76.521 Y203.067 I0. J-0.413
N11530 G1 Y193.6
N11535 G3 X76.933 Y193.188 I0.412 J0.
N11540 G1 X86.4
N11545 G3 X86.813 Y193.6 I0. J0.413
N11550 G1 Y198.334
N11555 G3 X86.495 Y198.651 I-0.317 J0. F1000.
N11560 G1 X86.177
N11565 G18 G3 X85.86 Z3.817 I0. K0.318
N11570 G1 Y198.016 F1200.
N11575 Z0.317 F333.33
N11580 G2 X86.177 Z0. I0.317 K0.
N11585 G1 X86.495 F1000.
N11590 G17 G3 X86.813 Y198.334 I0. J0.318
N11595 G1 Y203.067 F1200.
N11600 G3 X86.4 Y203.48 I-0.412 J0.
N11605 G1 X76.933
N11610 G3 X76.521 Y203.067 I0. J-0.413
N11615 G1 Y193.6
N11620 G3 X76.933 Y193.188 I0.412 J0.
N11625 G1 X86.4
N11630 G3 X86.813 Y193.6 I0. J0.413
N11635 G1 Y198.334
N11640 G3 X86.495 Y198.651 I-0.317 J0. F1000.
N11645 G1 X86.177
N11650 G18 G3 X85.86 Z0.317 I0. K0.317
N11655 G0 Z15.5
N11660 X69.193 Y198.016
N11665 G1 Z7.317 F333.33
N11670 G2 X69.511 Z7. I0.318 K0.
N11675 G1 X69.828 F1000.
N11680 G17 G3 X70.146 Y198.333 I0. J0.318
N11685 G1 Y203.067 F1200.
N11690 G3 X69.733 Y203.48 I-0.412 J0.
N11695 G1 X60.267
N11700 G3 X59.854 Y203.067 I0. J-0.413
N11705 G1 Y193.6
N11710 G3 X60.267 Y193.188 I0.413 J0.
N11715 G1 X69.733
N11720 G3 X70.146 Y193.6 I0. J0.413
N11725 G1 Y198.333
N11730 G3 X69.828 Y198.651 I-0.317 J0. F1000.
N11735 G1 X69.511
N11740 G18 G3 X69.193 Z7.317 I0. K0.318
N11745 G1 Y198.016 F1200.
N11750 Z3.817 F333.33
N11755 G2 X69.511 Z3.5 I0.318 K0.
N11760 G1 X69.828 F1000.
N11765 G17 G3 X70.146 Y198.333 I0. J0.318
N11770 G1 Y203.067 F1200.
N11775 G3 X69.733 Y203.48 I-0.412 J0.
N11780 G1 X60.267
N11785 G3 X59.854 Y203.067 I0. J-0.413
N11790 G1 Y193.6
N11795 G3 X60.267 Y193.188 I0.413 J0.
N11800 G1 X69.733
N11805 G3 X70.146 Y193.6 I0. J0.413
N11810 G1 Y198.333
N11815 G3 X69.828 Y198.651 I-0.317 J0. F1000.
N11820 G1 X69.511
N11825 G18 G3 X69.193 Z3.817 I0. K0.318
N11830 G1 Y198.016 F1200.
N11835 Z0.317 F333.33
N11840 G2 X69.511 Z0. I0.318 K0.
N11845 G1 X69.828 F1000.
N11850 G17 G3 X70.146 Y198.333 I0. J0.318
N11855 G1 Y203.067 F1200.
N11860 G3 X69.733 Y203.48 I-0.412 J0.
N11865 G1 X60.267
N11870 G3 X59.854 Y203.067 I0. J-0.413
N11875 G1 Y193.6
N11880 G3 X60.267 Y193.188 I0.413 J0.
N11885 G1 X69.733
N11890 G3 X70.146 Y193.6 I0. J0.413
N11895 G1 Y198.333
N11900 G3 X69.828 Y198.651 I-0.317 J0. F1000.
N11905 G1 X69.511
N11910 G18 G3 X69.193 Z0.317 I0. K0.317
N11915 G0 Z15.5
N11920 Y181.349
N11925 G1 Z7.317 F333.33
N11930 G2 X69.511 Z7. I0.318 K0.
N11935 G1 X69.828 F1000.
N11940 G17 G3 X70.146 Y181.666 I0. J0.318
N11945 G1 Y186.4 F1200.
N11950 G3 X69.733 Y186.813 I-0.412 J0.
N11955 G1 X60.267
N11960 G3 X59.854 Y186.4 I0. J-0.413
N11965 G1 Y176.933
N11970 G3 X60.267 Y176.52 I0.413 J0.
N11975 G1 X69.733
N11980 G3 X70.146 Y176.933 I0. J0.413
N11985 G1 Y181.666
N11990 G3 X69.828 Y181.984 I-0.317 J0. F1000.
N11995 G1 X69.511
N12000 G18 G3 X69.193 Z7.317 I0. K0.318
N12005 G1 Y181.349 F1200.
N12010 Z3.817 F333.33
N12015 G2 X69.511 Z3.5 I0.318 K0.
N12020 G1 X69.828 F1000.
N12025 G17 G3 X70.146 Y181.666 I0. J0.318
N12030 G1 Y186.4 F1200.
N12035 G3 X69.733 Y186.813 I-0.412 J0.
N12040 G1 X60.267
N12045 G3 X59.854 Y186.4 I0. J-0.413
N12050 G1 Y176.933
N12055 G3 X60.267 Y176.52 I0.413 J0.
N12060 G1 X69.733
N12065 G3 X70.146 Y176.933 I0. J0.413
N12070 G1 Y181.666
N12075 G3 X69.828 Y181.984 I-0.317 J0. F1000.
N12080 G1 X69.511
N12085 G18 G3 X69.193 Z3.817 I0. K0.318
N12090 G1 Y181.349 F1200.
N12095 Z0.317 F333.33
N12100 G2 X69.511 Z0. I0.318 K0.
N12105 G1 X69.828 F1000.
N12110 G17 G3 X70.146 Y181.666 I0. J0.318
N12115 G1 Y186.4 F1200.
N12120 G3 X69.733 Y186.813 I-0.412 J0.
N12125 G1 X60.267
N12130 G3 X59.854 Y186.4 I0. J-0.413
N12135 G1 Y176.933
N12140 G3 X60.267 Y176.52 I0.413 J0.
N12145 G1 X69.733
N12150 G3 X70.146 Y176.933 I0. J0.413
N12155 G1 Y181.666
N12160 G3 X69.828 Y181.984 I-0.317 J0. F1000.
N12165 G1 X69.511
N12170 G18 G3 X69.193 Z0.317 I0. K0.317
N12175 G0 Z15.5
N12180 X64.682 Y160.807
N12185 G1 Z7.317 F333.33
N12190 G19 G2 Y160.49 Z7. J-0.318 K0.
N12195 G1 Y160.172 F1000.
N12200 G17 G3 X65. Y159.855 I0.318 J0.
N12205 G1 X69.733 F1200.
N12210 G3 X70.146 Y160.267 I0. J0.412
N12215 G1 Y169.733
N12220 G3 X69.733 Y170.145 I-0.412 J0.
N12225 G1 X60.267
N12230 G3 X59.854 Y169.733 I0. J-0.412
N12235 G1 Y160.267
N12240 G3 X60.267 Y159.855 I0.413 J0.
N12245 G1 X65.
N12250 G3 X65.317 Y160.172 I0. J0.317 F1000.
N12255 G1 Y160.49
N12260 G19 G3 Y160.807 Z7.317 J0. K0.318
N12265 G1 X64.682 F1200.
N12270 Z3.817 F333.33
N12275 G2 Y160.49 Z3.5 J-0.318 K0.
N12280 G1 Y160.172 F1000.
N12285 G17 G3 X65. Y159.855 I0.318 J0.
N12290 G1 X69.733 F1200.
N12295 G3 X70.146 Y160.267 I0. J0.412
N12300 G1 Y169.733
N12305 G3 X69.733 Y170.145 I-0.412 J0.
N12310 G1 X60.267
N12315 G3 X59.854 Y169.733 I0. J-0.412
N12320 G1 Y160.267
N12325 G3 X60.267 Y159.855 I0.413 J0.
N12330 G1 X65.
N12335 G3 X65.317 Y160.172 I0. J0.317 F1000.
N12340 G1 Y160.49
N12345 G19 G3 Y160.807 Z3.817 J0. K0.318
N12350 G1 X64.682 F1200.
N12355 Z0.317 F333.33
N12360 G2 Y160.49 Z0. J-0.318 K0.
N12365 G1 Y160.172 F1000.
N12370 G17 G3 X65. Y159.855 I0.318 J0.
N12375 G1 X69.733 F1200.
N12380 G3 X70.146 Y160.267 I0. J0.412
N12385 G1 Y169.733
N12390 G3 X69.733 Y170.145 I-0.412 J0.
N12395 G1 X60.267
N12400 G3 X59.854 Y169.733 I0. J-0.412
N12405 G1 Y160.267
N12410 G3 X60.267 Y159.855 I0.413 J0.
N12415 G1 X65.
N12420 G3 X65.317 Y160.172 I0. J0.317 F1000.
N12425 G1 Y160.49
N12430 G19 G3 Y160.807 Z0.317 J0. K0.317
N12435 G0 Z15.5
N12440 X69.193 Y148.016
N12445 G1 Z7.317 F333.33
N12450 G18 G2 X69.511 Z7. I0.318 K0.
N12455 G1 X69.828 F1000.
N12460 G17 G3 X70.146 Y148.334 I0. J0.317
N12465 G1 Y153.067 F1200.
N12470 G3 X69.733 Y153.48 I-0.412 J0.
N12475 G1 X60.267
N12480 G3 X59.854 Y153.067 I0. J-0.413
N12485 G1 Y143.6
N12490 G3 X60.267 Y143.188 I0.413 J0.
N12495 G1 X69.733
N12500 G3 X70.146 Y143.6 I0. J0.413
N12505 G1 Y148.334
N12510 G3 X69.828 Y148.651 I-0.317 J0. F1000.
N12515 G1 X69.511
N12520 G18 G3 X69.193 Z7.317 I0. K0.318
N12525 G1 Y148.016 F1200.
N12530 Z3.817 F333.33
N12535 G2 X69.511 Z3.5 I0.318 K0.
N12540 G1 X69.828 F1000.
N12545 G17 G3 X70.146 Y148.334 I0. J0.317
N12550 G1 Y153.067 F1200.
N12555 G3 X69.733 Y153.48 I-0.412 J0.
N12560 G1 X60.267
N12565 G3 X59.854 Y153.067 I0. J-0.413
N12570 G1 Y143.6
N12575 G3 X60.267 Y143.188 I0.413 J0.
N12580 G1 X69.733
N12585 G3 X70.146 Y143.6 I0. J0.413
N12590 G1 Y148.334
N12595 G3 X69.828 Y148.651 I-0.317 J0. F1000.
N12600 G1 X69.511
N12605 G18 G3 X69.193 Z3.817 I0. K0.318
N12610 G1 Y148.016 F1200.
N12615 Z0.317 F333.33
N12620 G2 X69.511 Z0. I0.318 K0.
N12625 G1 X69.828 F1000.
N12630 G17 G3 X70.146 Y148.334 I0. J0.317
N12635 G1 Y153.067 F1200.
N12640 G3 X69.733 Y153.48 I-0.412 J0.
N12645 G1 X60.267
N12650 G3 X59.854 Y153.067 I0. J-0.413
N12655 G1 Y143.6
N12660 G3 X60.267 Y143.188 I0.413 J0.
N12665 G1 X69.733
N12670 G3 X70.146 Y143.6 I0. J0.413
N12675 G1 Y148.334
N12680 G3 X69.828 Y148.651 I-0.317 J0. F1000.
N12685 G1 X69.511
N12690 G18 G3 X69.193 Z0.317 I0. K0.317
N12695 G0 Z15.5
N12700 X85.86 Y148.016
N12705 G1 Z7.317 F333.33
N12710 G2 X86.177 Z7. I0.317 K0.
N12715 G1 X86.495 F1000.
N12720 G17 G3 X86.813 Y148.334 I0. J0.318
N12725 G1 Y153.067 F1200.
N12730 G3 X86.4 Y153.48 I-0.412 J0.
N12735 G1 X76.933
N12740 G3 X76.521 Y153.067 I0. J-0.413
N12745 G1 Y143.6
N12750 G3 X76.933 Y143.188 I0.412 J0.
N12755 G1 X86.4
N12760 G3 X86.813 Y143.6 I0. J0.413
N12765 G1 Y148.334
N12770 G3 X86.495 Y148.651 I-0.317 J0. F1000.
N12775 G1 X86.177
N12780 G18 G3 X85.86 Z7.317 I0. K0.318
N12785 G1 Y148.016 F1200.
N12790 Z3.817 F333.33
N12795 G2 X86.177 Z3.5 I0.317 K0.
N12800 G1 X86.495 F1000.
N12805 G17 G3 X86.813 Y148.334 I0. J0.318
N12810 G1 Y153.067 F1200.
N12815 G3 X86.4 Y153.48 I-0.412 J0.
N12820 G1 X76.933
N12825 G3 X76.521 Y153.067 I0. J-0.413
N12830 G1 Y143.6
N12835 G3 X76.933 Y143.188 I0.412 J0.
N12840 G1 X86.4
N12845 G3 X86.813 Y143.6 I0. J0.413
N12850 G1 Y148.334
N12855 G3 X86.495 Y148.651 I-0.317 J0. F1000.
N12860 G1 X86.177
N12865 G18 G3 X85.86 Z3.817 I0. K0.318
N12870 G1 Y148.016 F1200.
N12875 Z0.317 F333.33
N12880 G2 X86.177 Z0. I0.317 K0.
N12885 G1 X86.495 F1000.
N12890 G17 G3 X86.813 Y148.334 I0. J0.318
N12895 G1 Y153.067 F1200.
N12900 G3 X86.4 Y153.48 I-0.412 J0.
N12905 G1 X76.933
N12910 G3 X76.521 Y153.067 I0. J-0.413
N12915 G1 Y143.6
N12920 G3 X76.933 Y143.188 I0.412 J0.
N12925 G1 X86.4
N12930 G3 X86.813 Y143.6 I0. J0.413
N12935 G1 Y148.334
N12940 G3 X86.495 Y148.651 I-0.317 J0. F1000.
N12945 G1 X86.177
N12950 G18 G3 X85.86 Z0.317 I0. K0.317
N12955 G0 Z15.5
N12960 X102.527 Y148.016
N12965 G1 Z7.317 F333.33
N12970 G2 X102.844 Z7. I0.317 K0.
N12975 G1 X103.162 F1000.
N12980 G17 G3 X103.479 Y148.333 I0. J0.317
N12985 G1 Y153.067 F1200.
N12990 G3 X103.067 Y153.48 I-0.412 J0.
N12995 G1 X93.6
N13000 G3 X93.188 Y153.067 I0. J-0.413
N13005 G1 Y143.6
N13010 G3 X93.6 Y143.188 I0.412 J0.
N13015 G1 X103.067
N13020 G3 X103.479 Y143.6 I0. J0.413
N13025 G1 Y148.333
N13030 G3 X103.162 Y148.651 I-0.317 J0. F1000.
N13035 G1 X102.844
N13040 G18 G3 X102.527 Z7.317 I0. K0.318
N13045 G1 Y148.016 F1200.
N13050 Z3.817 F333.33
N13055 G2 X102.844 Z3.5 I0.317 K0.
N13060 G1 X103.162 F1000.
N13065 G17 G3 X103.479 Y148.333 I0. J0.317
N13070 G1 Y153.067 F1200.
N13075 G3 X103.067 Y153.48 I-0.412 J0.
N13080 G1 X93.6
N13085 G3 X93.188 Y153.067 I0. J-0.413
N13090 G1 Y143.6
N13095 G3 X93.6 Y143.188 I0.412 J0.
N13100 G1 X103.067
N13105 G3 X103.479 Y143.6 I0. J0.413
N13110 G1 Y148.333
N13115 G3 X103.162 Y148.651 I-0.317 J0. F1000.
N13120 G1 X102.844
N13125 G18 G3 X102.527 Z3.817 I0. K0.318
N13130 G1 Y148.016 F1200.
N13135 Z0.317 F333.33
N13140 G2 X102.844 Z0. I0.317 K0.
N13145 G1 X103.162 F1000.
N13150 G17 G3 X103.479 Y148.333 I0. J0.317
N13155 G1 Y153.067 F1200.
N13160 G3 X103.067 Y153.48 I-0.412 J0.
N13165 G1 X93.6
N13170 G3 X93.188 Y153.067 I0. J-0.413
N13175 G1 Y143.6
N13180 G3 X93.6 Y143.188 I0.412 J0.
N13185 G1 X103.067
N13190 G3 X103.479 Y143.6 I0. J0.413
N13195 G1 Y148.333
N13200 G3 X103.162 Y148.651 I-0.317 J0. F1000.
N13205 G1 X102.844
N13210 G18 G3 X102.527 Z0.317 I0. K0.317
N13215 G0 Z15.5
N13220 X119.193 Y148.016
N13225 G1 Z7.317 F333.33
N13230 G2 X119.51 Z7. I0.317 K0.
N13235 G1 X119.828 F1000.
N13240 G17 G3 X120.146 Y148.333 I0. J0.317
N13245 G1 Y153.067 F1200.
N13250 G3 X119.733 Y153.48 I-0.412 J0.
N13255 G1 X110.267
N13260 G3 X109.854 Y153.067 I0. J-0.413
N13265 G1 Y143.6
N13270 G3 X110.267 Y143.188 I0.412 J0.
N13275 G1 X119.733
N13280 G3 X120.146 Y143.6 I0. J0.413
N13285 G1 Y148.333
N13290 G3 X119.828 Y148.65 I-0.317 J0. F1000.
N13295 G1 X119.51
N13300 G18 G3 X119.193 Z7.317 I0. K0.318
N13305 G1 Y148.016 F1200.
N13310 Z3.817 F333.33
N13315 G2 X119.51 Z3.5 I0.317 K0.
N13320 G1 X119.828 F1000.
N13325 G17 G3 X120.146 Y148.333 I0. J0.317
N13330 G1 Y153.067 F1200.
N13335 G3 X119.733 Y153.48 I-0.412 J0.
N13340 G1 X110.267
N13345 G3 X109.854 Y153.067 I0. J-0.413
N13350 G1 Y143.6
N13355 G3 X110.267 Y143.188 I0.412 J0.
N13360 G1 X119.733
N13365 G3 X120.146 Y143.6 I0. J0.413
N13370 G1 Y148.333
N13375 G3 X119.828 Y148.65 I-0.317 J0. F1000.
N13380 G1 X119.51
N13385 G18 G3 X119.193 Z3.817 I0. K0.318
N13390 G1 Y148.016 F1200.
N13395 Z0.317 F333.33
N13400 G2 X119.51 Z0. I0.317 K0.
N13405 G1 X119.828 F1000.
N13410 G17 G3 X120.146 Y148.333 I0. J0.317
N13415 G1 Y153.067 F1200.
N13420 G3 X119.733 Y153.48 I-0.412 J0.
N13425 G1 X110.267
N13430 G3 X109.854 Y153.067 I0. J-0.413
N13435 G1 Y143.6
N13440 G3 X110.267 Y143.188 I0.412 J0.
N13445 G1 X119.733
N13450 G3 X120.146 Y143.6 I0. J0.413
N13455 G1 Y148.333
N13460 G3 X119.828 Y148.65 I-0.317 J0. F1000.
N13465 G1 X119.51
N13470 G18 G3 X119.193 Z0.317 I0. K0.317
N13475 G0 Z15.5
N13480 Y131.348
N13485 G1 Z7.317 F333.33
N13490 G2 X119.51 Z7. I0.317 K0.
N13495 G1 X119.828 F1000.
N13500 G17 G3 X120.146 Y131.666 I0. J0.318
N13505 G1 Y136.4 F1200.
N13510 G3 X119.733 Y136.813 I-0.412 J0.
N13515 G1 X110.267
N13520 G3 X109.854 Y136.4 I0. J-0.413
N13525 G1 Y126.933
N13530 G3 X110.267 Y126.521 I0.412 J0.
N13535 G1 X119.733
N13540 G3 X120.146 Y126.933 I0. J0.412
N13545 G1 Y131.666
N13550 G3 X119.828 Y131.984 I-0.317 J0. F1000.
N13555 G1 X119.51
N13560 G18 G3 X119.193 Z7.317 I0. K0.318
N13565 G1 Y131.348 F1200.
N13570 Z3.817 F333.33
N13575 G2 X119.51 Z3.5 I0.317 K0.
N13580 G1 X119.828 F1000.
N13585 G17 G3 X120.146 Y131.666 I0. J0.318
N13590 G1 Y136.4 F1200.
N13595 G3 X119.733 Y136.813 I-0.412 J0.
N13600 G1 X110.267
N13605 G3 X109.854 Y136.4 I0. J-0.413
N13610 G1 Y126.933
N13615 G3 X110.267 Y126.521 I0.412 J0.
N13620 G1 X119.733
N13625 G3 X120.146 Y126.933 I0. J0.412
N13630 G1 Y131.666
N13635 G3 X119.828 Y131.984 I-0.317 J0. F1000.
N13640 G1 X119.51
N13645 G18 G3 X119.193 Z3.817 I0. K0.318
N13650 G1 Y131.348 F1200.
N13655 Z0.317 F333.33
N13660 G2 X119.51 Z0. I0.317 K0.
N13665 G1 X119.828 F1000.
N13670 G17 G3 X120.146 Y131.666 I0. J0.318
N13675 G1 Y136.4 F1200.
N13680 G3 X119.733 Y136.813 I-0.412 J0.
N13685 G1 X110.267
N13690 G3 X109.854 Y136.4 I0. J-0.413
N13695 G1 Y126.933
N13700 G3 X110.267 Y126.521 I0.412 J0.
N13705 G1 X119.733
N13710 G3 X120.146 Y126.933 I0. J0.412
N13715 G1 Y131.666
N13720 G3 X119.828 Y131.984 I-0.317 J0. F1000.
N13725 G1 X119.51
N13730 G18 G3 X119.193 Z0.317 I0. K0.317
N13735 G0 Z15.5
N13740 X135.86 Y131.349
N13745 G1 Z7.317 F333.33
N13750 G2 X136.178 Z7. I0.318 K0.
N13755 G1 X136.495 F1000.
N13760 G17 G3 X136.813 Y131.667 I0. J0.318
N13765 G1 Y136.4 F1200.
N13770 G3 X136.4 Y136.813 I-0.413 J0.
N13775 G1 X126.933
N13780 G3 X126.521 Y136.4 I0. J-0.413
N13785 G1 Y126.933
N13790 G3 X126.933 Y126.521 I0.412 J0.
N13795 G1 X136.4
N13800 G3 X136.813 Y126.933 I0. J0.412
N13805 G1 Y131.667
N13810 G3 X136.495 Y131.984 I-0.318 J0. F1000.
N13815 G1 X136.178
N13820 G18 G3 X135.86 Z7.317 I0. K0.318
N13825 G1 Y131.349 F1200.
N13830 Z3.817 F333.33
N13835 G2 X136.178 Z3.5 I0.318 K0.
N13840 G1 X136.495 F1000.
N13845 G17 G3 X136.813 Y131.667 I0. J0.318
N13850 G1 Y136.4 F1200.
N13855 G3 X136.4 Y136.813 I-0.413 J0.
N13860 G1 X126.933
N13865 G3 X126.521 Y136.4 I0. J-0.413
N13870 G1 Y126.933
N13875 G3 X126.933 Y126.521 I0.412 J0.
N13880 G1 X136.4
N13885 G3 X136.813 Y126.933 I0. J0.412
N13890 G1 Y131.667
N13895 G3 X136.495 Y131.984 I-0.318 J0. F1000.
N13900 G1 X136.178
N13905 G18 G3 X135.86 Z3.817 I0. K0.318
N13910 G1 Y131.349 F1200.
N13915 Z0.317 F333.33
N13920 G2 X136.178 Z0. I0.318 K0.
N13925 G1 X136.495 F1000.
N13930 G17 G3 X136.813 Y131.667 I0. J0.318
N13935 G1 Y136.4 F1200.
N13940 G3 X136.4 Y136.813 I-0.413 J0.
N13945 G1 X126.933
N13950 G3 X126.521 Y136.4 I0. J-0.413
N13955 G1 Y126.933
N13960 G3 X126.933 Y126.521 I0.412 J0.
N13965 G1 X136.4
N13970 G3 X136.813 Y126.933 I0. J0.412
N13975 G1 Y131.667
N13980 G3 X136.495 Y131.984 I-0.318 J0. F1000.
N13985 G1 X136.178
N13990 G18 G3 X135.86 Z0.317 I0. K0.317
N13995 G0 Z15.5
N14000 X169.193 Y114.683
N14005 G1 Z7.317 F333.33
N14010 G2 X169.51 Z7. I0.318 K0.
N14015 G1 X169.828 F1000.
N14020 G17 G3 X170.145 Y115. I0. J0.317
N14025 G1 Y119.733 F1200.
N14030 G3 X169.733 Y120.146 I-0.412 J0.
N14035 G1 X160.267
N14040 G3 X159.855 Y119.733 I0. J-0.412
N14045 G1 Y110.267
N14050 G3 X160.267 Y109.854 I0.412 J0.
N14055 G1 X169.733
N14060 G3 X170.145 Y110.267 I0. J0.412
N14065 G1 Y115.
N14070 G3 X169.828 Y115.317 I-0.317 J0. F1000.
N14075 G1 X169.51
N14080 G18 G3 X169.193 Z7.317 I0. K0.318
N14085 G1 Y114.683 F1200.
N14090 Z3.817 F333.33
N14095 G2 X169.51 Z3.5 I0.318 K0.
N14100 G1 X169.828 F1000.
N14105 G17 G3 X170.145 Y115. I0. J0.317
N14110 G1 Y119.733 F1200.
N14115 G3 X169.733 Y120.146 I-0.412 J0.
N14120 G1 X160.267
N14125 G3 X159.855 Y119.733 I0. J-0.412
N14130 G1 Y110.267
N14135 G3 X160.267 Y109.854 I0.412 J0.
N14140 G1 X169.733
N14145 G3 X170.145 Y110.267 I0. J0.412
N14150 G1 Y115.
N14155 G3 X169.828 Y115.317 I-0.317 J0. F1000.
N14160 G1 X169.51
N14165 G18 G3 X169.193 Z3.817 I0. K0.318
N14170 G1 Y114.683 F1200.
N14175 Z0.317 F333.33
N14180 G2 X169.51 Z0. I0.318 K0.
N14185 G1 X169.828 F1000.
N14190 G17 G3 X170.145 Y115. I0. J0.317
N14195 G1 Y119.733 F1200.
N14200 G3 X169.733 Y120.146 I-0.412 J0.
N14205 G1 X160.267
N14210 G3 X159.855 Y119.733 I0. J-0.412
N14215 G1 Y110.267
N14220 G3 X160.267 Y109.854 I0.412 J0.
N14225 G1 X169.733
N14230 G3 X170.145 Y110.267 I0. J0.412
N14235 G1 Y115.
N14240 G3 X169.828 Y115.317 I-0.317 J0. F1000.
N14245 G1 X169.51
N14250 G18 G3 X169.193 Z0.317 I0. K0.317
N14255 G0 Z15.5
N14260 X185.86 Y114.683
N14265 G1 Z7.317 F333.33
N14270 G2 X186.178 Z7. I0.318 K0.
N14275 G1 X186.495 F1000.
N14280 G17 G3 X186.813 Y115. I0. J0.317
N14285 G1 Y119.733 F1200.
N14290 G3 X186.4 Y120.146 I-0.413 J0.
N14295 G1 X176.933
N14300 G3 X176.52 Y119.733 I0. J-0.412
N14305 G1 Y110.267
N14310 G3 X176.933 Y109.854 I0.413 J0.
N14315 G1 X186.4
N14320 G3 X186.813 Y110.267 I0. J0.412
N14325 G1 Y115.
N14330 G3 X186.495 Y115.317 I-0.318 J0. F1000.
N14335 G1 X186.178
N14340 G18 G3 X185.86 Z7.317 I0. K0.318
N14345 G1 Y114.683 F1200.
N14350 Z3.817 F333.33
N14355 G2 X186.178 Z3.5 I0.318 K0.
N14360 G1 X186.495 F1000.
N14365 G17 G3 X186.813 Y115. I0. J0.317
N14370 G1 Y119.733 F1200.
N14375 G3 X186.4 Y120.146 I-0.413 J0.
N14380 G1 X176.933
N14385 G3 X176.52 Y119.733 I0. J-0.412
N14390 G1 Y110.267
N14395 G3 X176.933 Y109.854 I0.413 J0.
N14400 G1 X186.4
N14405 G3 X186.813 Y110.267 I0. J0.412
N14410 G1 Y115.
N14415 G3 X186.495 Y115.317 I-0.318 J0. F1000.
N14420 G1 X186.178
N14425 G18 G3 X185.86 Z3.817 I0. K0.318
N14430 G1 Y114.683 F1200.
N14435 Z0.317 F333.33
N14440 G2 X186.178 Z0. I0.318 K0.
N14445 G1 X186.495 F1000.
N14450 G17 G3 X186.813 Y115. I0. J0.317
N14455 G1 Y119.733 F1200.
N14460 G3 X186.4 Y120.146 I-0.413 J0.
N14465 G1 X176.933
N14470 G3 X176.52 Y119.733 I0. J-0.412
N14475 G1 Y110.267
N14480 G3 X176.933 Y109.854 I0.413 J0.
N14485 G1 X186.4
N14490 G3 X186.813 Y110.267 I0. J0.412
N14495 G1 Y115.
N14500 G3 X186.495 Y115.317 I-0.318 J0. F1000.
N14505 G1 X186.178
N14510 G18 G3 X185.86 Z0.317 I0. K0.317
N14515 G0 Z15.5
N14520 X198.016 Y110.807
N14525 G1 Z7.317 F333.33
N14530 G19 G2 Y110.49 Z7. J-0.317 K0.
N14535 G1 Y110.172 F1000.
N14540 G17 G3 X198.333 Y109.854 I0.318 J0.
N14545 G1 X203.067 F1200.
N14550 G3 X203.48 Y110.267 I0. J0.412
N14555 G1 Y119.733
N14560 G3 X203.067 Y120.146 I-0.413 J0.
N14565 G1 X193.6
N14570 G3 X193.188 Y119.733 I0. J-0.412
N14575 G1 Y110.267
N14580 G3 X193.6 Y109.854 I0.413 J0.
N14585 G1 X198.333
N14590 G3 X198.65 Y110.172 I0. J0.317 F1000.
N14595 G1 Y110.49
N14600 G19 G3 Y110.807 Z7.317 J0. K0.318
N14605 G1 X198.016 F1200.
N14610 Z3.817 F333.33
N14615 G2 Y110.49 Z3.5 J-0.317 K0.
N14620 G1 Y110.172 F1000.
N14625 G17 G3 X198.333 Y109.854 I0.318 J0.
N14630 G1 X203.067 F1200.
N14635 G3 X203.48 Y110.267 I0. J0.412
N14640 G1 Y119.733
N14645 G3 X203.067 Y120.146 I-0.413 J0.
N14650 G1 X193.6
N14655 G3 X193.188 Y119.733 I0. J-0.412
N14660 G1 Y110.267
N14665 G3 X193.6 Y109.854 I0.413 J0.
N14670 G1 X198.333
N14675 G3 X198.65 Y110.172 I0. J0.317 F1000.
N14680 G1 Y110.49
N14685 G19 G3 Y110.807 Z3.817 J0. K0.318
N14690 G1 X198.016 F1200.
N14695 Z0.317 F333.33
N14700 G2 Y110.49 Z0. J-0.317 K0.
N14705 G1 Y110.172 F1000.
N14710 G17 G3 X198.333 Y109.854 I0.318 J0.
N14715 G1 X203.067 F1200.
N14720 G3 X203.48 Y110.267 I0. J0.412
N14725 G1 Y119.733
N14730 G3 X203.067 Y120.146 I-0.413 J0.
N14735 G1 X193.6
N14740 G3 X193.188 Y119.733 I0. J-0.412
N14745 G1 Y110.267
N14750 G3 X193.6 Y109.854 I0.413 J0.
N14755 G1 X198.333
N14760 G3 X198.65 Y110.172 I0. J0.317 F1000.
N14765 G1 Y110.49
N14770 G19 G3 Y110.807 Z0.317 J0. K0.317
N14775 G0 Z15.5
N14780 X202.527 Y98.016
N14785 G1 Z7.317 F333.33
N14790 G18 G2 X202.844 Z7. I0.318 K0.
N14795 G1 X203.162 F1000.
N14800 G17 G3 X203.48 Y98.334 I0. J0.318
N14805 G1 Y103.067 F1200.
N14810 G3 X203.067 Y103.479 I-0.413 J0.
N14815 G1 X193.6
N14820 G3 X193.188 Y103.067 I0. J-0.412
N14825 G1 Y93.6
N14830 G3 X193.6 Y93.188 I0.413 J0.
N14835 G1 X203.067
N14840 G3 X203.48 Y93.6 I0. J0.412
N14845 G1 Y98.334
N14850 G3 X203.162 Y98.651 I-0.318 J0. F1000.
N14855 G1 X202.844
N14860 G18 G3 X202.527 Z7.317 I0. K0.318
N14865 G1 Y98.016 F1200.
N14870 Z3.817 F333.33
N14875 G2 X202.844 Z3.5 I0.318 K0.
N14880 G1 X203.162 F1000.
N14885 G17 G3 X203.48 Y98.334 I0. J0.318
N14890 G1 Y103.067 F1200.
N14895 G3 X203.067 Y103.479 I-0.413 J0.
N14900 G1 X193.6
N14905 G3 X193.188 Y103.067 I0. J-0.412
N14910 G1 Y93.6
N14915 G3 X193.6 Y93.188 I0.413 J0.
N14920 G1 X203.067
N14925 G3 X203.48 Y93.6 I0. J0.412
N14930 G1 Y98.334
N14935 G3 X203.162 Y98.651 I-0.318 J0. F1000.
N14940 G1 X202.844
N14945 G18 G3 X202.527 Z3.817 I0. K0.318
N14950 G1 Y98.016 F1200.
N14955 Z0.317 F333.33
N14960 G2 X202.844 Z0. I0.318 K0.
N14965 G1 X203.162 F1000.
N14970 G17 G3 X203.48 Y98.334 I0. J0.318
N14975 G1 Y103.067 F1200.
N14980 G3 X203.067 Y103.479 I-0.413 J0.
N14985 G1 X193.6
N14990 G3 X193.188 Y103.067 I0. J-0.412
N14995 G1 Y93.6
N15000 G3 X193.6 Y93.188 I0.413 J0.
N15005 G1 X203.067
N15010 G3 X203.48 Y93.6 I0. J0.412
N15015 G1 Y98.334
N15020 G3 X203.162 Y98.651 I-0.318 J0. F1000.
N15025 G1 X202.844
N15030 G18 G3 X202.527 Z0.317 I0. K0.317
N15035 G0 Z15.5
N15040 X198.651 Y85.86
N15045 G1 Z7.317 F333.33
N15050 G19 G3 Y86.177 Z7. J0.317 K0.
N15055 G1 Y86.495 F1000.
N15060 G17 G3 X198.333 Y86.813 I-0.318 J0.
N15065 G1 X193.6 F1200.
N15070 G3 X193.188 Y86.4 I0. J-0.412
N15075 G1 Y76.933
N15080 G3 X193.6 Y76.521 I0.413 J0.
N15085 G1 X203.067
N15090 G3 X203.48 Y76.933 I0. J0.412
N15095 G1 Y86.4
N15100 G3 X203.067 Y86.813 I-0.413 J0.
N15105 G1 X198.333
N15110 G3 X198.016 Y86.495 I0. J-0.317 F1000.
N15115 G1 Y86.177
N15120 G19 G2 Y85.86 Z7.317 J0. K0.318
N15125 G1 X198.651 F1200.
N15130 Z3.817 F333.33
N15135 G3 Y86.177 Z3.5 J0.317 K0.
N15140 G1 Y86.495 F1000.
N15145 G17 G3 X198.333 Y86.813 I-0.318 J0.
N15150 G1 X193.6 F1200.
N15155 G3 X193.188 Y86.4 I0. J-0.412
N15160 G1 Y76.933
N15165 G3 X193.6 Y76.521 I0.413 J0.
N15170 G1 X203.067
N15175 G3 X203.48 Y76.933 I0. J0.412
N15180 G1 Y86.4
N15185 G3 X203.067 Y86.813 I-0.413 J0.
N15190 G1 X198.333
N15195 G3 X198.016 Y86.495 I0. J-0.317 F1000.
N15200 G1 Y86.177
N15205 G19 G2 Y85.86 Z3.817 J0. K0.318
N15210 G1 X198.651 F1200.
N15215 Z0.317 F333.33
N15220 G3 Y86.177 Z0. J0.317 K0.
N15225 G1 Y86.495 F1000.
N15230 G17 G3 X198.333 Y86.813 I-0.318 J0.
N15235 G1 X193.6 F1200.
N15240 G3 X193.188 Y86.4 I0. J-0.412
N15245 G1 Y76.933
N15250 G3 X193.6 Y76.521 I0.413 J0.
N15255 G1 X203.067
N15260 G3 X203.48 Y76.933 I0. J0.412
N15265 G1 Y86.4
N15270 G3 X203.067 Y86.813 I-0.413 J0.
N15275 G1 X198.333
N15280 G3 X198.016 Y86.495 I0. J-0.317 F1000.
N15285 G1 Y86.177
N15290 G19 G2 Y85.86 Z0.317 J0. K0.317
N15295 G0 Z15.5
N15300 X181.349 Y77.473
N15305 G1 Z7.317 F333.33
N15310 G2 Y77.156 Z7. J-0.317 K0.
N15315 G1 Y76.838 F1000.
N15320 G17 G3 X181.666 Y76.521 I0.318 J0.
N15325 G1 X186.4 F1200.
N15330 G3 X186.813 Y76.933 I0. J0.412
N15335 G1 Y86.4
N15340 G3 X186.4 Y86.813 I-0.413 J0.
N15345 G1 X176.933
N15350 G3 X176.52 Y86.4 I0. J-0.412
N15355 G1 Y76.933
N15360 G3 X176.933 Y76.521 I0.413 J0.
N15365 G1 X181.666
N15370 G3 X181.984 Y76.838 I0. J0.318 F1000.
N15375 G1 Y77.156
N15380 G19 G3 Y77.473 Z7.317 J0. K0.318
N15385 G1 X181.349 F1200.
N15390 Z3.817 F333.33
N15395 G2 Y77.156 Z3.5 J-0.317 K0.
N15400 G1 Y76.838 F1000.
N15405 G17 G3 X181.666 Y76.521 I0.318 J0.
N15410 G1 X186.4 F1200.
N15415 G3 X186.813 Y76.933 I0. J0.412
N15420 G1 Y86.4
N15425 G3 X186.4 Y86.813 I-0.413 J0.
N15430 G1 X176.933
N15435 G3 X176.52 Y86.4 I0. J-0.412
N15440 G1 Y76.933
N15445 G3 X176.933 Y76.521 I0.413 J0.
N15450 G1 X181.666
N15455 G3 X181.984 Y76.838 I0. J0.318 F1000.
N15460 G1 Y77.156
N15465 G19 G3 Y77.473 Z3.817 J0. K0.318
N15470 G1 X181.349 F1200.
N15475 Z0.317 F333.33
N15480 G2 Y77.156 Z0. J-0.317 K0.
N15485 G1 Y76.838 F1000.
N15490 G17 G3 X181.666 Y76.521 I0.318 J0.
N15495 G1 X186.4 F1200.
N15500 G3 X186.813 Y76.933 I0. J0.412
N15505 G1 Y86.4
N15510 G3 X186.4 Y86.813 I-0.413 J0.
N15515 G1 X176.933
N15520 G3 X176.52 Y86.4 I0. J-0.412
N15525 G1 Y76.933
N15530 G3 X176.933 Y76.521 I0.413 J0.
N15535 G1 X181.666
N15540 G3 X181.984 Y76.838 I0. J0.318 F1000.
N15545 G1 Y77.156
N15550 G19 G3 Y77.473 Z0.317 J0. K0.317
N15555 G0 Z15.5
N15560 Y69.193
N15565 G1 Z7.317 F333.33
N15570 G3 Y69.511 Z7. J0.318 K0.
N15575 G1 Y69.828 F1000.
N15580 G17 G3 X181.666 Y70.146 I-0.317 J0.
N15585 G1 X176.933 F1200.
N15590 G3 X176.52 Y69.733 I0. J-0.412
N15595 G1 Y60.267
N15600 G3 X176.933 Y59.854 I0.413 J0.
N15605 G1 X186.4
N15610 G3 X186.813 Y60.267 I0. J0.413
N15615 G1 Y69.733
N15620 G3 X186.4 Y70.146 I-0.413 J0.
N15625 G1 X181.666
N15630 G3 X181.349 Y69.828 I0. J-0.317 F1000.
N15635 G1 Y69.511
N15640 G19 G2 Y69.193 Z7.317 J0. K0.318
N15645 G1 X181.984 F1200.
N15650 Z3.817 F333.33
N15655 G3 Y69.511 Z3.5 J0.318 K0.
N15660 G1 Y69.828 F1000.
N15665 G17 G3 X181.666 Y70.146 I-0.317 J0.
N15670 G1 X176.933 F1200.
N15675 G3 X176.52 Y69.733 I0. J-0.412
N15680 G1 Y60.267
N15685 G3 X176.933 Y59.854 I0.413 J0.
N15690 G1 X186.4
N15695 G3 X186.813 Y60.267 I0. J0.413
N15700 G1 Y69.733
N15705 G3 X186.4 Y70.146 I-0.413 J0.
N15710 G1 X181.666
N15715 G3 X181.349 Y69.828 I0. J-0.317 F1000.
N15720 G1 Y69.511
N15725 G19 G2 Y69.193 Z3.817 J0. K0.318
N15730 G1 X181.984 F1200.
N15735 Z0.317 F333.33
N15740 G3 Y69.511 Z0. J0.318 K0.
N15745 G1 Y69.828 F1000.
N15750 G17 G3 X181.666 Y70.146 I-0.317 J0.
N15755 G1 X176.933 F1200.
N15760 G3 X176.52 Y69.733 I0. J-0.412
N15765 G1 Y60.267
N15770 G3 X176.933 Y59.854 I0.413 J0.
N15775 G1 X186.4
N15780 G3 X186.813 Y60.267 I0. J0.413
N15785 G1 Y69.733
N15790 G3 X186.4 Y70.146 I-0.413 J0.
N15795 G1 X181.666
N15800 G3 X181.349 Y69.828 I0. J-0.317 F1000.
N15805 G1 Y69.511
N15810 G19 G2 Y69.193 Z0.317 J0. K0.317
N15815 G0 Z15.5
N15820 X169.193 Y64.683
N15825 G1 Z7.317 F333.33
N15830 G18 G2 X169.51 Z7. I0.318 K0.
N15835 G1 X169.828 F1000.
N15840 G17 G3 X170.145 Y65. I0. J0.317
N15845 G1 Y69.733 F1200.
N15850 G3 X169.733 Y70.146 I-0.412 J0.
N15855 G1 X160.267
N15860 G3 X159.855 Y69.733 I0. J-0.412
N15865 G1 Y60.267
N15870 G3 X160.267 Y59.854 I0.412 J0.
N15875 G1 X169.733
N15880 G3 X170.145 Y60.267 I0. J0.413
N15885 G1 Y65.
N15890 G3 X169.828 Y65.318 I-0.317 J0. F1000.
N15895 G1 X169.51
N15900 G18 G3 X169.193 Z7.317 I0. K0.318
N15905 G1 Y64.683 F1200.
N15910 Z3.817 F333.33
N15915 G2 X169.51 Z3.5 I0.318 K0.
N15920 G1 X169.828 F1000.
N15925 G17 G3 X170.145 Y65. I0. J0.317
N15930 G1 Y69.733 F1200.
N15935 G3 X169.733 Y70.146 I-0.412 J0.
N15940 G1 X160.267
N15945 G3 X159.855 Y69.733 I0. J-0.412
N15950 G1 Y60.267
N15955 G3 X160.267 Y59.854 I0.412 J0.
N15960 G1 X169.733
N15965 G3 X170.145 Y60.267 I0. J0.413
N15970 G1 Y65.
N15975 G3 X169.828 Y65.318 I-0.317 J0. F1000.
N15980 G1 X169.51
N15985 G18 G3 X169.193 Z3.817 I0. K0.318
N15990 G1 Y64.683 F1200.
N15995 Z0.317 F333.33
N16000 G2 X169.51 Z0. I0.318 K0.
N16005 G1 X169.828 F1000.
N16010 G17 G3 X170.145 Y65. I0. J0.317
N16015 G1 Y69.733 F1200.
N16020 G3 X169.733 Y70.146 I-0.412 J0.
N16025 G1 X160.267
N16030 G3 X159.855 Y69.733 I0. J-0.412
N16035 G1 Y60.267
N16040 G3 X160.267 Y59.854 I0.412 J0.
N16045 G1 X169.733
N16050 G3 X170.145 Y60.267 I0. J0.413
N16055 G1 Y65.
N16060 G3 X169.828 Y65.318 I-0.317 J0. F1000.
N16065 G1 X169.51
N16070 G18 G3 X169.193 Z0.317 I0. K0.317
N16075 G0 Z15.5
N16080 Y81.35
N16085 G1 Z7.317 F333.33
N16090 G2 X169.51 Z7. I0.318 K0.
N16095 G1 X169.828 F1000.
N16100 G17 G3 X170.145 Y81.667 I0. J0.317
N16105 G1 Y86.4 F1200.
N16110 G3 X169.733 Y86.813 I-0.412 J0.
N16115 G1 X160.267
N16120 G3 X159.855 Y86.4 I0. J-0.412
N16125 G1 Y76.933
N16130 G3 X160.267 Y76.521 I0.412 J0.
N16135 G1 X169.733
N16140 G3 X170.145 Y76.933 I0. J0.412
N16145 G1 Y81.667
N16150 G3 X169.828 Y81.984 I-0.317 J0. F1000.
N16155 G1 X169.51
N16160 G18 G3 X169.193 Z7.317 I0. K0.318
N16165 G1 Y81.35 F1200.
N16170 Z3.817 F333.33
N16175 G2 X169.51 Z3.5 I0.318 K0.
N16180 G1 X169.828 F1000.
N16185 G17 G3 X170.145 Y81.667 I0. J0.317
N16190 G1 Y86.4 F1200.
N16195 G3 X169.733 Y86.813 I-0.412 J0.
N16200 G1 X160.267
N16205 G3 X159.855 Y86.4 I0. J-0.412
N16210 G1 Y76.933
N16215 G3 X160.267 Y76.521 I0.412 J0.
N16220 G1 X169.733
N16225 G3 X170.145 Y76.933 I0. J0.412
N16230 G1 Y81.667
N16235 G3 X169.828 Y81.984 I-0.317 J0. F1000.
N16240 G1 X169.51
N16245 G18 G3 X169.193 Z3.817 I0. K0.318
N16250 G1 Y81.35 F1200.
N16255 Z0.317 F333.33
N16260 G2 X169.51 Z0. I0.318 K0.
N16265 G1 X169.828 F1000.
N16270 G17 G3 X170.145 Y81.667 I0. J0.317
N16275 G1 Y86.4 F1200.
N16280 G3 X169.733 Y86.813 I-0.412 J0.
N16285 G1 X160.267
N16290 G3 X159.855 Y86.4 I0. J-0.412
N16295 G1 Y76.933
N16300 G3 X160.267 Y76.521 I0.412 J0.
N16305 G1 X169.733
N16310 G3 X170.145 Y76.933 I0. J0.412
N16315 G1 Y81.667
N16320 G3 X169.828 Y81.984 I-0.317 J0. F1000.
N16325 G1 X169.51
N16330 G18 G3 X169.193 Z0.317 I0. K0.317
N16335 G0 Z15.5
N16340 Y98.016
N16345 G1 Z7.317 F333.33
N16350 G2 X169.51 Z7. I0.318 K0.
N16355 G1 X169.828 F1000.
N16360 G17 G3 X170.145 Y98.333 I0. J0.317
N16365 G1 Y103.067 F1200.
N16370 G3 X169.733 Y103.479 I-0.412 J0.
N16375 G1 X160.267
N16380 G3 X159.855 Y103.067 I0. J-0.412
N16385 G1 Y93.6
N16390 G3 X160.267 Y93.188 I0.412 J0.
N16395 G1 X169.733
N16400 G3 X170.145 Y93.6 I0. J0.412
N16405 G1 Y98.333
N16410 G3 X169.828 Y98.65 I-0.317 J0. F1000.
N16415 G1 X169.51
N16420 G18 G3 X169.193 Z7.317 I0. K0.318
N16425 G1 Y98.016 F1200.
N16430 Z3.817 F333.33
N16435 G2 X169.51 Z3.5 I0.318 K0.
N16440 G1 X169.828 F1000.
N16445 G17 G3 X170.145 Y98.333 I0. J0.317
N16450 G1 Y103.067 F1200.
N16455 G3 X169.733 Y103.479 I-0.412 J0.
N16460 G1 X160.267
N16465 G3 X159.855 Y103.067 I0. J-0.412
N16470 G1 Y93.6
N16475 G3 X160.267 Y93.188 I0.412 J0.
N16480 G1 X169.733
N16485 G3 X170.145 Y93.6 I0. J0.412
N16490 G1 Y98.333
N16495 G3 X169.828 Y98.65 I-0.317 J0. F1000.
N16500 G1 X169.51
N16505 G18 G3 X169.193 Z3.817 I0. K0.318
N16510 G1 Y98.016 F1200.
N16515 Z0.317 F333.33
N16520 G2 X169.51 Z0. I0.318 K0.
N16525 G1 X169.828 F1000.
N16530 G17 G3 X170.145 Y98.333 I0. J0.317
N16535 G1 Y103.067 F1200.
N16540 G3 X169.733 Y103.479 I-0.412 J0.
N16545 G1 X160.267
N16550 G3 X159.855 Y103.067 I0. J-0.412
N16555 G1 Y93.6
N16560 G3 X160.267 Y93.188 I0.412 J0.
N16565 G1 X169.733
N16570 G3 X170.145 Y93.6 I0. J0.412
N16575 G1 Y98.333
N16580 G3 X169.828 Y98.65 I-0.317 J0. F1000.
N16585 G1 X169.51
N16590 G18 G3 X169.193 Z0.317 I0. K0.317
N16595 G0 Z15.5
N16600 X185.86 Y98.016
N16605 G1 Z7.317 F333.33
N16610 G2 X186.178 Z7. I0.318 K0.
N16615 G1 X186.495 F1000.
N16620 G17 G3 X186.813 Y98.334 I0. J0.318
N16625 G1 Y103.067 F1200.
N16630 G3 X186.4 Y103.479 I-0.413 J0.
N16635 G1 X176.933
N16640 G3 X176.52 Y103.067 I0. J-0.412
N16645 G1 Y93.6
N16650 G3 X176.933 Y93.188 I0.413 J0.
N16655 G1 X186.4
N16660 G3 X186.813 Y93.6 I0. J0.412
N16665 G1 Y98.334
N16670 G3 X186.495 Y98.651 I-0.318 J0. F1000.
N16675 G1 X186.178
N16680 G18 G3 X185.86 Z7.317 I0. K0.318
N16685 G1 Y98.016 F1200.
N16690 Z3.817 F333.33
N16695 G2 X186.178 Z3.5 I0.318 K0.
N16700 G1 X186.495 F1000.
N16705 G17 G3 X186.813 Y98.334 I0. J0.318
N16710 G1 Y103.067 F1200.
N16715 G3 X186.4 Y103.479 I-0.413 J0.
N16720 G1 X176.933
N16725 G3 X176.52 Y103.067 I0. J-0.412
N16730 G1 Y93.6
N16735 G3 X176.933 Y93.188 I0.413 J0.
N16740 G1 X186.4
N16745 G3 X186.813 Y93.6 I0. J0.412
N16750 G1 Y98.334
N16755 G3 X186.495 Y98.651 I-0.318 J0. F1000.
N16760 G1 X186.178
N16765 G18 G3 X185.86 Z3.817 I0. K0.318
N16770 G1 Y98.016 F1200.
N16775 Z0.317 F333.33
N16780 G2 X186.178 Z0. I0.318 K0.
N16785 G1 X186.495 F1000.
N16790 G17 G3 X186.813 Y98.334 I0. J0.318
N16795 G1 Y103.067 F1200.
N16800 G3 X186.4 Y103.479 I-0.413 J0.
N16805 G1 X176.933
N16810 G3 X176.52 Y103.067 I0. J-0.412
N16815 G1 Y93.6
N16820 G3 X176.933 Y93.188 I0.413 J0.
N16825 G1 X186.4
N16830 G3 X186.813 Y93.6 I0. J0.412
N16835 G1 Y98.334
N16840 G3 X186.495 Y98.651 I-0.318 J0. F1000.
N16845 G1 X186.178
N16850 G18 G3 X185.86 Z0.317 I0. K0.317
N16855 G0 Z15.5
N16860 X198.651 Y69.193
N16865 G1 Z7.317 F333.33
N16870 G19 G3 Y69.511 Z7. J0.318 K0.
N16875 G1 Y69.828 F1000.
N16880 G17 G3 X198.333 Y70.146 I-0.318 J0.
N16885 G1 X193.6 F1200.
N16890 G3 X193.188 Y69.733 I0. J-0.412
N16895 G1 Y60.267
N16900 G3 X193.6 Y59.854 I0.413 J0.
N16905 G1 X203.067
N16910 G3 X203.48 Y60.267 I0. J0.413
N16915 G1 Y69.733
N16920 G3 X203.067 Y70.146 I-0.413 J0.
N16925 G1 X198.333
N16930 G3 X198.016 Y69.828 I0. J-0.317 F1000.
N16935 G1 Y69.511
N16940 G19 G2 Y69.193 Z7.317 J0. K0.318
N16945 G1 X198.651 F1200.
N16950 Z3.817 F333.33
N16955 G3 Y69.511 Z3.5 J0.318 K0.
N16960 G1 Y69.828 F1000.
N16965 G17 G3 X198.333 Y70.146 I-0.318 J0.
N16970 G1 X193.6 F1200.
N16975 G3 X193.188 Y69.733 I0. J-0.412
N16980 G1 Y60.267
N16985 G3 X193.6 Y59.854 I0.413 J0.
N16990 G1 X203.067
N16995 G3 X203.48 Y60.267 I0. J0.413
N17000 G1 Y69.733
N17005 G3 X203.067 Y70.146 I-0.413 J0.
N17010 G1 X198.333
N17015 G3 X198.016 Y69.828 I0. J-0.317 F1000.
N17020 G1 Y69.511
N17025 G19 G2 Y69.193 Z3.817 J0. K0.318
N17030 G1 X198.651 F1200.
N17035 Z0.317 F333.33
N17040 G3 Y69.511 Z0. J0.318 K0.
N17045 G1 Y69.828 F1000.
N17050 G17 G3 X198.333 Y70.146 I-0.318 J0.
N17055 G1 X193.6 F1200.
N17060 G3 X193.188 Y69.733 I0. J-0.412
N17065 G1 Y60.267
N17070 G3 X193.6 Y59.854 I0.413 J0.
N17075 G1 X203.067
N17080 G3 X203.48 Y60.267 I0. J0.413
N17085 G1 Y69.733
N17090 G3 X203.067 Y70.146 I-0.413 J0.
N17095 G1 X198.333
N17100 G3 X198.016 Y69.828 I0. J-0.317 F1000.
N17105 G1 Y69.511
N17110 G19 G2 Y69.193 Z0.317 J0. K0.317
N17115 G0 Z15.5
N17120 X198.651 Y52.527
N17125 G1 Z7.317 F333.33
N17130 G3 Y52.844 Z7. J0.318 K0.
N17135 G1 Y53.162 F1000.
N17140 G17 G3 X198.333 Y53.479 I-0.318 J0.
N17145 G1 X193.6 F1200.
N17150 G3 X193.188 Y53.067 I0. J-0.412
N17155 G1 Y43.6
N17160 G3 X193.6 Y43.188 I0.413 J0.
N17165 G1 X203.067
N17170 G3 X203.48 Y43.6 I0. J0.412
N17175 G1 Y53.067
N17180 G3 X203.067 Y53.479 I-0.413 J0.
N17185 G1 X198.333
N17190 G3 X198.016 Y53.162 I0. J-0.317 F1000.
N17195 G1 Y52.844
N17200 G19 G2 Y52.527 Z7.317 J0. K0.318
N17205 G1 X198.651 F1200.
N17210 Z3.817 F333.33
N17215 G3 Y52.844 Z3.5 J0.318 K0.
N17220 G1 Y53.162 F1000.
N17225 G17 G3 X198.333 Y53.479 I-0.318 J0.
N17230 G1 X193.6 F1200.
N17235 G3 X193.188 Y53.067 I0. J-0.412
N17240 G1 Y43.6
N17245 G3 X193.6 Y43.188 I0.413 J0.
N17250 G1 X203.067
N17255 G3 X203.48 Y43.6 I0. J0.412
N17260 G1 Y53.067
N17265 G3 X203.067 Y53.479 I-0.413 J0.
N17270 G1 X198.333
N17275 G3 X198.016 Y53.162 I0. J-0.317 F1000.
N17280 G1 Y52.844
N17285 G19 G2 Y52.527 Z3.817 J0. K0.318
N17290 G1 X198.651 F1200.
N17295 Z0.317 F333.33
N17300 G3 Y52.844 Z0. J0.318 K0.
N17305 G1 Y53.162 F1000.
N17310 G17 G3 X198.333 Y53.479 I-0.318 J0.
N17315 G1 X193.6 F1200.
N17320 G3 X193.188 Y53.067 I0. J-0.412
N17325 G1 Y43.6
N17330 G3 X193.6 Y43.188 I0.413 J0.
N17335 G1 X203.067
N17340 G3 X203.48 Y43.6 I0. J0.412
N17345 G1 Y53.067
N17350 G3 X203.067 Y53.479 I-0.413 J0.
N17355 G1 X198.333
N17360 G3 X198.016 Y53.162 I0. J-0.317 F1000.
N17365 G1 Y52.844
N17370 G19 G2 Y52.527 Z0.317 J0. K0.317
N17375 G0 Z15.5
N17380 X185.86 Y48.016
N17385 G1 Z7.317 F333.33
N17390 G18 G2 X186.178 Z7. I0.318 K0.
N17395 G1 X186.495 F1000.
N17400 G17 G3 X186.813 Y48.333 I0. J0.318
N17405 G1 Y53.067 F1200.
N17410 G3 X186.4 Y53.479 I-0.413 J0.
N17415 G1 X176.933
N17420 G3 X176.52 Y53.067 I0. J-0.412
N17425 G1 Y43.6
N17430 G3 X176.933 Y43.188 I0.413 J0.
N17435 G1 X186.4
N17440 G3 X186.813 Y43.6 I0. J0.412
N17445 G1 Y48.333
N17450 G3 X186.495 Y48.651 I-0.318 J0. F1000.
N17455 G1 X186.178
