( Made using CamBam - http://www.cambam.co.uk )
( letterplaat-1mm_mirror 11/2/2017 2:20:44 PM )
( T1 : 1.0 )
(G21 G90 G64 G40)
G0 Z10.0
( letters )
G64 G17
M8
M3 S13000
G0 X170.5 Y173.357
G0 Z4.0
G1 F400.0 Z1.5
G1 F600.0 Y176.757
G1 Y176.767
G2 X170.557 Y176.907 I0.19 J0.004
G1 X170.564 Y176.915
G2 X170.704 Y176.972 I0.136 J-0.133
G1 X170.725
G2 X170.864 Y176.915 I0.004 J-0.19
G1 X170.872 Y176.907
G2 X170.929 Y176.767 I-0.133 J-0.136
G1 Y176.757
G1 Y173.36
G3 X171.496 Y171.996 I1.874 J-0.019
G3 X172.86 Y171.429 I1.344 J1.307
G1 X177.14
G3 X178.504 Y171.996 I0.019 J1.874
G3 X179.071 Y173.36 I-1.307 J1.344
G1 Y176.64
G3 X178.504 Y178.004 I-1.874 J0.019
G3 X177.14 Y178.571 I-1.344 J-1.307
G1 X172.743
G1 X172.733
G2 X172.593 Y178.628 I-0.004 J0.19
G1 X172.585 Y178.636
G2 X172.528 Y178.775 I0.133 J0.136
G1 Y178.796
G2 X172.585 Y178.936 I0.19 J0.004
G1 X172.593 Y178.943
G2 X172.733 Y179.0 I0.136 J-0.133
G1 X172.743
G1 X177.143
G1 X177.149
G2 X178.797 Y178.31 I0.027 J-2.249
G1 X178.81 Y178.297
G2 X179.5 Y176.649 I-1.559 J-1.621
G1 Y176.643
G1 Y173.357
G1 Y173.351
G2 X178.81 Y171.703 I-2.249 J-0.027
G1 X178.797 Y171.69
G2 X177.149 Y171.0 I-1.621 J1.559
G1 X177.143
G1 X172.857
G1 X172.851
G2 X171.203 Y171.69 I-0.027 J2.249
G1 X171.19 Y171.703
G2 X170.5 Y173.351 I1.559 J1.621
G1 Y173.357
G1 F400.0 Z0.0
G1 F600.0 Y176.757
G1 Y176.767
G2 X170.557 Y176.907 I0.19 J0.004
G1 X170.564 Y176.915
G2 X170.704 Y176.972 I0.136 J-0.133
G1 X170.725
G2 X170.864 Y176.915 I0.004 J-0.19
G1 X170.872 Y176.907
G2 X170.929 Y176.767 I-0.133 J-0.136
G1 Y176.757
G1 Y173.36
G3 X171.496 Y171.996 I1.874 J-0.019
G3 X172.86 Y171.429 I1.344 J1.307
G1 X177.14
G3 X178.504 Y171.996 I0.019 J1.874
G3 X179.071 Y173.36 I-1.307 J1.344
G1 Y176.64
G3 X178.504 Y178.004 I-1.874 J0.019
G3 X177.14 Y178.571 I-1.344 J-1.307
G1 X172.743
G1 X172.733
G2 X172.593 Y178.628 I-0.004 J0.19
G1 X172.585 Y178.636
G2 X172.528 Y178.775 I0.133 J0.136
G1 Y178.796
G2 X172.585 Y178.936 I0.19 J0.004
G1 X172.593 Y178.943
G2 X172.733 Y179.0 I0.136 J-0.133
G1 X172.743
G1 X177.143
G1 X177.149
G2 X178.797 Y178.31 I0.027 J-2.249
G1 X178.81 Y178.297
G2 X179.5 Y176.649 I-1.559 J-1.621
G1 Y176.643
G1 Y173.357
G1 Y173.351
G2 X178.81 Y171.703 I-2.249 J-0.027
G1 X178.797 Y171.69
G2 X177.149 Y171.0 I-1.621 J1.559
G1 X177.143
G1 X172.857
G1 X172.851
G2 X171.203 Y171.69 I-0.027 J2.249
G1 X171.19 Y171.703
G2 X170.5 Y173.351 I1.559 J1.621
G1 Y173.357
G0 Z10.0
G0 X162.83 Y171.767
G0 Z4.0
G1 F400.0 Z1.5
G1 F600.0 X162.833 Y171.725
G1 Y171.704
G2 X162.776 Y171.564 I-0.19 J-0.004
G1 X162.769 Y171.557
G2 X162.629 Y171.5 I-0.136 J0.133
G1 X162.619
G1 X162.562
G1 X155.476
G1 X155.469
G2 X154.321 Y171.976 I-0.023 J1.564
G1 X154.31 Y171.988
G2 X153.833 Y173.135 I1.088 J1.124
G1 Y173.143
G1 Y178.229
G1 Y178.286
G1 Y178.296
G2 X153.89 Y178.436 I0.19 J0.004
G1 X153.898 Y178.443
G2 X154.037 Y178.5 I0.136 J-0.133
G1 X154.058
G2 X154.197 Y178.443 I0.004 J-0.19
G1 X154.205 Y178.436
G2 X154.262 Y178.296 I-0.133 J-0.136
G1 Y178.286
G1 Y173.147
G3 X154.615 Y172.282 I1.19 J-0.019
G3 X155.481 Y171.929 I0.846 J0.836
G1 X162.562
G1 X162.619
G1 X162.629
G2 X162.769 Y171.872 I0.004 J-0.19
G1 X162.776 Y171.864
G2 X162.83 Y171.767 I-0.133 J-0.136
G1 F400.0 Z0.0
G1 F600.0 X162.833 Y171.725
G1 Y171.704
G2 X162.776 Y171.564 I-0.19 J-0.004
G1 X162.769 Y171.557
G2 X162.629 Y171.5 I-0.136 J0.133
G1 X162.619
G1 X162.562
G1 X155.476
G1 X155.469
G2 X154.321 Y171.976 I-0.023 J1.564
G1 X154.31 Y171.988
G2 X153.833 Y173.135 I1.088 J1.124
G1 Y173.143
G1 Y178.229
G1 Y178.286
G1 Y178.296
G2 X153.89 Y178.436 I0.19 J0.004
G1 X153.898 Y178.443
G2 X154.037 Y178.5 I0.136 J-0.133
G1 X154.058
G2 X154.197 Y178.443 I0.004 J-0.19
G1 X154.205 Y178.436
G2 X154.262 Y178.296 I-0.133 J-0.136
G1 Y178.286
G1 Y173.147
G3 X154.615 Y172.282 I1.19 J-0.019
G3 X155.481 Y171.929 I0.846 J0.836
G1 X162.562
G1 X162.619
G1 X162.629
G2 X162.769 Y171.872 I0.004 J-0.19
G1 X162.776 Y171.864
G2 X162.83 Y171.767 I-0.133 J-0.136
G0 Z10.0
G0 X157.516 Y161.122
G0 Z4.0
G1 F400.0 Z1.5
G1 F600.0 X162.653 Y158.557
G1 X162.726 Y158.528
G2 X162.835 Y158.368 I-0.047 J-0.149
G1 Y158.299
G2 X162.726 Y158.139 I-0.156 J-0.011
G1 X162.652 Y158.109
G1 X154.181 Y153.866
G1 X154.178 Y153.865
G2 X154.047 Y153.833 I-0.131 J0.258
G1 X154.037
G2 X153.898 Y153.89 I-0.004 J0.19
G1 X153.89 Y153.898
G2 X153.833 Y154.037 I0.133 J0.136
G1 Y154.047
G2 X153.974 Y154.254 I0.223 J0.0
G1 X154.014 Y154.272
G1 X155.7 Y155.115
G3 X155.976 Y155.562 I-0.224 J0.447
G1 Y158.333
G1 Y158.344
G2 X156.033 Y158.483 I0.19 J0.004
G1 X156.041 Y158.491
G2 X156.18 Y158.548 I0.136 J-0.133
G1 X156.201
G2 X156.34 Y158.491 I0.004 J-0.19
G1 X156.348 Y158.483
G2 X156.405 Y158.344 I-0.133 J-0.136
G1 Y158.333
G1 Y156.276
G3 X157.128 Y155.829 I0.5 J0.0
G1 X161.243 Y157.886
G3 Y158.781 I-0.224 J0.447
G1 X154.014 Y162.395
G1 X153.966 Y162.416
G2 X153.833 Y162.611 I0.072 J0.192
G1 Y162.629
G2 X153.89 Y162.769 I0.19 J0.004
G1 X153.898 Y162.776
G2 X154.032 Y162.833 I0.136 J-0.133
G2 X154.164 Y162.795 I-0.02 J-0.315
G1 X154.181 Y162.786
G1 X157.516 Y161.122
G1 F400.0 Z0.0
G1 F600.0 X162.653 Y158.557
G1 X162.726 Y158.528
G2 X162.835 Y158.368 I-0.047 J-0.149
G1 Y158.299
G2 X162.726 Y158.139 I-0.156 J-0.011
G1 X162.652 Y158.109
G1 X154.181 Y153.866
G1 X154.178 Y153.865
G2 X154.047 Y153.833 I-0.131 J0.258
G1 X154.037
G2 X153.898 Y153.89 I-0.004 J0.19
G1 X153.89 Y153.898
G2 X153.833 Y154.037 I0.133 J0.136
G1 Y154.047
G2 X153.974 Y154.254 I0.223 J0.0
G1 X154.014 Y154.272
G1 X155.7 Y155.115
G3 X155.976 Y155.562 I-0.224 J0.447
G1 Y158.333
G1 Y158.344
G2 X156.033 Y158.483 I0.19 J0.004
G1 X156.041 Y158.491
G2 X156.18 Y158.548 I0.136 J-0.133
G1 X156.201
G2 X156.34 Y158.491 I0.004 J-0.19
G1 X156.348 Y158.483
G2 X156.405 Y158.344 I-0.133 J-0.136
G1 Y158.333
G1 Y156.276
G3 X157.128 Y155.829 I0.5 J0.0
G1 X161.243 Y157.886
G3 Y158.781 I-0.224 J0.447
G1 X154.014 Y162.395
G1 X153.966 Y162.416
G2 X153.833 Y162.611 I0.072 J0.192
G1 Y162.629
G2 X153.89 Y162.769 I0.19 J0.004
G1 X153.898 Y162.776
G2 X154.032 Y162.833 I0.136 J-0.133
G2 X154.164 Y162.795 I-0.02 J-0.315
G1 X154.181 Y162.786
G1 X157.516 Y161.122
G0 Z10.0
G0 X146.145 Y155.15
G0 Z4.0
G1 F400.0 Z1.5
G1 F600.0 X146.167 Y155.058
G1 Y155.037
G2 X146.11 Y154.898 I-0.19 J-0.004
G1 X146.102 Y154.89
G2 X145.963 Y154.833 I-0.136 J0.133
G1 X145.952
G1 X145.895
G1 X138.81
G1 X138.802
G2 X137.655 Y155.31 I-0.023 J1.564
G1 X137.643 Y155.321
G2 X137.167 Y156.469 I1.088 J1.124
G1 Y156.476
G1 Y161.562
G1 Y161.619
G1 Y161.629
G2 X137.224 Y161.769 I0.19 J0.004
G1 X137.231 Y161.776
G2 X137.371 Y161.833 I0.136 J-0.133
G1 X137.391
G2 X137.531 Y161.776 I0.004 J-0.19
G1 X137.538 Y161.769
G2 X137.595 Y161.629 I-0.133 J-0.136
G1 Y161.619
G1 Y156.481
G3 X137.949 Y155.615 I1.19 J-0.019
G3 X138.814 Y155.262 I0.846 J0.836
G1 X145.895
G1 X145.952
G1 X145.963
G2 X146.102 Y155.205 I0.004 J-0.19
G1 X146.11 Y155.197
G1 X146.145 Y155.15
G1 F400.0 Z0.0
G1 F600.0 X146.167 Y155.058
G1 Y155.037
G2 X146.11 Y154.898 I-0.19 J-0.004
G1 X146.102 Y154.89
G2 X145.963 Y154.833 I-0.136 J0.133
G1 X145.952
G1 X145.895
G1 X138.81
G1 X138.802
G2 X137.655 Y155.31 I-0.023 J1.564
G1 X137.643 Y155.321
G2 X137.167 Y156.469 I1.088 J1.124
G1 Y156.476
G1 Y161.562
G1 Y161.619
G1 Y161.629
G2 X137.224 Y161.769 I0.19 J0.004
G1 X137.231 Y161.776
G2 X137.371 Y161.833 I0.136 J-0.133
G1 X137.391
G2 X137.531 Y161.776 I0.004 J-0.19
G1 X137.538 Y161.769
G2 X137.595 Y161.629 I-0.133 J-0.136
G1 Y161.619
G1 Y156.481
G3 X137.949 Y155.615 I1.19 J-0.019
G3 X138.814 Y155.262 I0.846 J0.836
G1 X145.895
G1 X145.952
G1 X145.963
G2 X146.102 Y155.205 I0.004 J-0.19
G1 X146.11 Y155.197
G1 X146.145 Y155.15
G0 Z10.0
G0 X140.815 Y144.472
G0 Z4.0
G1 F400.0 Z1.5
G1 F600.0 X145.986 Y141.891
G1 X146.059 Y141.861
G2 X146.168 Y141.701 I-0.047 J-0.149
G1 Y141.632
G2 X146.059 Y141.472 I-0.156 J-0.011
G1 X145.986 Y141.442
G1 X137.514 Y137.199
G1 X137.511 Y137.198
G2 X137.381 Y137.167 I-0.131 J0.258
G1 X137.371
G2 X137.231 Y137.224 I-0.004 J0.19
G1 X137.224 Y137.231
G2 X137.167 Y137.371 I0.133 J0.136
G1 Y137.38
G2 X137.308 Y137.587 I0.223 J0.0
G1 X137.347 Y137.605
G1 X139.033 Y138.448
G3 X139.31 Y138.895 I-0.224 J0.447
G1 Y141.667
G1 X139.309 Y141.677
G2 X139.366 Y141.816 I0.19 J0.004
G1 X139.374 Y141.824
G2 X139.513 Y141.881 I0.136 J-0.133
G1 X139.534
G2 X139.674 Y141.824 I0.004 J-0.19
G1 X139.681 Y141.816
G2 X139.738 Y141.677 I-0.133 J-0.136
G1 Y141.667
G1 Y139.61
G3 X140.462 Y139.162 I0.5 J0.0
G1 X144.576 Y141.219
G3 Y142.114 I-0.224 J0.447
G1 X137.347 Y145.728
G1 X137.299 Y145.749
G2 X137.167 Y145.944 I0.072 J0.192
G1 Y145.963
G2 X137.224 Y146.102 I0.19 J0.004
G1 X137.231 Y146.11
G2 X137.365 Y146.167 I0.136 J-0.133
G2 X137.497 Y146.128 I-0.02 J-0.315
G1 X137.515 Y146.119
G1 X140.815 Y144.472
G1 F400.0 Z0.0
G1 F600.0 X145.986 Y141.891
G1 X146.059 Y141.861
G2 X146.168 Y141.701 I-0.047 J-0.149
G1 Y141.632
G2 X146.059 Y141.472 I-0.156 J-0.011
G1 X145.986 Y141.442
G1 X137.514 Y137.199
G1 X137.511 Y137.198
G2 X137.381 Y137.167 I-0.131 J0.258
G1 X137.371
G2 X137.231 Y137.224 I-0.004 J0.19
G1 X137.224 Y137.231
G2 X137.167 Y137.371 I0.133 J0.136
G1 Y137.38
G2 X137.308 Y137.587 I0.223 J0.0
G1 X137.347 Y137.605
G1 X139.033 Y138.448
G3 X139.31 Y138.895 I-0.224 J0.447
G1 Y141.667
G1 X139.309 Y141.677
G2 X139.366 Y141.816 I0.19 J0.004
G1 X139.374 Y141.824
G2 X139.513 Y141.881 I0.136 J-0.133
G1 X139.534
G2 X139.674 Y141.824 I0.004 J-0.19
G1 X139.681 Y141.816
G2 X139.738 Y141.677 I-0.133 J-0.136
G1 Y141.667
G1 Y139.61
G3 X140.462 Y139.162 I0.5 J0.0
G1 X144.576 Y141.219
G3 Y142.114 I-0.224 J0.447
G1 X137.347 Y145.728
G1 X137.299 Y145.749
G2 X137.167 Y145.944 I0.072 J0.192
G1 Y145.963
G2 X137.224 Y146.102 I0.19 J0.004
G1 X137.231 Y146.11
G2 X137.365 Y146.167 I0.136 J-0.133
G2 X137.497 Y146.128 I-0.02 J-0.315
G1 X137.515 Y146.119
G1 X140.815 Y144.472
G0 Z10.0
G0 X129.5
G0 Z4.0
G1 F400.0 Z1.5
G1 F600.0 Y139.81
G1 Y139.802
G2 X129.024 Y138.655 I-1.564 J-0.023
G1 X129.012 Y138.643
G2 X127.865 Y138.167 I-1.124 J1.088
G1 X127.857
G1 X122.143
G1 X122.135
G2 X120.988 Y138.643 I-0.023 J1.564
G1 X120.976 Y138.655
G2 X120.5 Y139.802 I1.088 J1.124
G1 Y139.81
G1 Y144.952
G1 Y144.963
G2 X120.557 Y145.102 I0.19 J0.004
G1 X120.564 Y145.11
G2 X120.704 Y145.167 I0.136 J-0.133
G1 X120.725
G2 X120.864 Y145.11 I0.004 J-0.19
G1 X120.872 Y145.102
G2 X120.929 Y144.963 I-0.133 J-0.136
G1 Y144.952
G1 Y139.814
G3 X121.282 Y138.949 I1.19 J-0.019
G3 X122.147 Y138.595 I0.846 J0.836
G1 X124.286
G3 X124.786 Y139.095 I0.0 J0.5
G1 Y143.524
G1 Y143.534
G2 X124.843 Y143.674 I0.19 J0.004
G1 X124.85 Y143.681
G2 X124.99 Y143.738 I0.136 J-0.133
G1 X125.01
G2 X125.15 Y143.681 I0.004 J-0.19
G1 X125.157 Y143.674
G2 X125.214 Y143.534 I-0.133 J-0.136
G1 Y143.524
G1 Y139.095
G3 X125.714 Y138.595 I0.5 J0.0
G1 X127.853
G3 X128.718 Y138.949 I0.019 J1.19
G3 X129.071 Y139.814 I-0.836 J0.846
G1 Y144.952
G1 Y144.963
G2 X129.128 Y145.102 I0.19 J0.004
G1 X129.136 Y145.11
G2 X129.275 Y145.167 I0.136 J-0.133
G1 X129.296
G2 X129.436 Y145.11 I0.004 J-0.19
G1 X129.443 Y145.102
G2 X129.5 Y144.963 I-0.133 J-0.136
G1 Y144.952
G1 Y144.472
G1 F400.0 Z0.0
G1 F600.0 Y139.81
G1 Y139.802
G2 X129.024 Y138.655 I-1.564 J-0.023
G1 X129.012 Y138.643
G2 X127.865 Y138.167 I-1.124 J1.088
G1 X127.857
G1 X122.143
G1 X122.135
G2 X120.988 Y138.643 I-0.023 J1.564
G1 X120.976 Y138.655
G2 X120.5 Y139.802 I1.088 J1.124
G1 Y139.81
G1 Y144.952
G1 Y144.963
G2 X120.557 Y145.102 I0.19 J0.004
G1 X120.564 Y145.11
G2 X120.704 Y145.167 I0.136 J-0.133
G1 X120.725
G2 X120.864 Y145.11 I0.004 J-0.19
G1 X120.872 Y145.102
G2 X120.929 Y144.963 I-0.133 J-0.136
G1 Y144.952
G1 Y139.814
G3 X121.282 Y138.949 I1.19 J-0.019
G3 X122.147 Y138.595 I0.846 J0.836
G1 X124.286
G3 X124.786 Y139.095 I0.0 J0.5
G1 Y143.524
G1 Y143.534
G2 X124.843 Y143.674 I0.19 J0.004
G1 X124.85 Y143.681
G2 X124.99 Y143.738 I0.136 J-0.133
G1 X125.01
G2 X125.15 Y143.681 I0.004 J-0.19
G1 X125.157 Y143.674
G2 X125.214 Y143.534 I-0.133 J-0.136
G1 Y143.524
G1 Y139.095
G3 X125.714 Y138.595 I0.5 J0.0
G1 X127.853
G3 X128.718 Y138.949 I0.019 J1.19
G3 X129.071 Y139.814 I-0.836 J0.846
G1 Y144.952
G1 Y144.963
G2 X129.128 Y145.102 I0.19 J0.004
G1 X129.136 Y145.11
G2 X129.275 Y145.167 I0.136 J-0.133
G1 X129.296
G2 X129.436 Y145.11 I0.004 J-0.19
G1 X129.443 Y145.102
G2 X129.5 Y144.963 I-0.133 J-0.136
G1 Y144.952
G1 Y144.472
G0 Z10.0
G0 X128.102 Y154.623
G0 Z4.0
G1 F400.0 Z1.5
G2 F600.0 X127.865 Y154.609 I-0.213 J1.549
G1 X127.857
G1 X120.714
G1 X120.704
G2 X120.564 Y154.666 I-0.004 J0.19
G1 X120.557 Y154.674
G2 X120.5 Y154.813 I0.133 J0.136
G1 Y154.834
G2 X120.557 Y154.973 I0.19 J0.004
G1 X120.564 Y154.981
G2 X120.704 Y155.038 I0.136 J-0.133
G1 X120.714
G1 X120.771
G1 X127.853
G3 X128.718 Y155.391 I0.019 J1.19
G3 X129.071 Y156.256 I-0.836 J0.846
G1 Y159.738
G1 Y159.756
G3 X128.476 Y161.069 I-1.902 J-0.071
G3 X127.143 Y161.609 I-1.315 J-1.33
G3 X125.81 Y161.069 I-0.018 J-1.87
G3 X125.215 Y159.756 I1.307 J-1.383
G1 X125.214 Y159.738
G1 Y158.966
G1 Y158.956
G2 X125.157 Y158.816 I-0.19 J-0.004
G1 X125.15 Y158.809
G2 X125.01 Y158.752 I-0.136 J0.133
G1 X124.977 Y158.751
G1 X124.901 Y158.771
G1 X120.579 Y161.653
G2 X120.5 Y161.808 I0.102 J0.15
G1 X120.499 Y161.846
G2 X120.597 Y162.017 I0.183 J0.008
G1 X120.628 Y162.035
G2 X120.797 Y162.03 I0.08 J-0.129
G1 X120.808 Y162.022
G1 X124.066 Y159.85
G3 X124.833 Y160.167 I0.277 J0.416
G2 X125.647 Y161.496 I2.223 J-0.448
G1 X125.657 Y161.505
G2 X127.139 Y162.038 I1.462 J-1.739
G1 X127.151
G2 X128.786 Y161.366 I0.036 J-2.237
G1 X128.797 Y161.356
G2 X129.5 Y159.735 I-1.585 J-1.651
G1 Y156.252
G1 Y156.244
G2 X129.024 Y155.097 I-1.564 J-0.023
G1 X129.012 Y155.085
G2 X128.102 Y154.623 I-1.124 J1.088
G1 F400.0 Z0.0
G2 F600.0 X127.865 Y154.609 I-0.213 J1.549
G1 X127.857
G1 X120.714
G1 X120.704
G2 X120.564 Y154.666 I-0.004 J0.19
G1 X120.557 Y154.674
G2 X120.5 Y154.813 I0.133 J0.136
G1 Y154.834
G2 X120.557 Y154.973 I0.19 J0.004
G1 X120.564 Y154.981
G2 X120.704 Y155.038 I0.136 J-0.133
G1 X120.714
G1 X120.771
G1 X127.853
G3 X128.718 Y155.391 I0.019 J1.19
G3 X129.071 Y156.256 I-0.836 J0.846
G1 Y159.738
G1 Y159.756
G3 X128.476 Y161.069 I-1.902 J-0.071
G3 X127.143 Y161.609 I-1.315 J-1.33
G3 X125.81 Y161.069 I-0.018 J-1.87
G3 X125.215 Y159.756 I1.307 J-1.383
G1 X125.214 Y159.738
G1 Y158.966
G1 Y158.956
G2 X125.157 Y158.816 I-0.19 J-0.004
G1 X125.15 Y158.809
G2 X125.01 Y158.752 I-0.136 J0.133
G1 X124.977 Y158.751
G1 X124.901 Y158.771
G1 X120.579 Y161.653
G2 X120.5 Y161.808 I0.102 J0.15
G1 X120.499 Y161.846
G2 X120.597 Y162.017 I0.183 J0.008
G1 X120.628 Y162.035
G2 X120.797 Y162.03 I0.08 J-0.129
G1 X120.808 Y162.022
G1 X124.066 Y159.85
G3 X124.833 Y160.167 I0.277 J0.416
G2 X125.647 Y161.496 I2.223 J-0.448
G1 X125.657 Y161.505
G2 X127.139 Y162.038 I1.462 J-1.739
G1 X127.151
G2 X128.786 Y161.366 I0.036 J-2.237
G1 X128.797 Y161.356
G2 X129.5 Y159.735 I-1.585 J-1.651
G1 Y156.252
G1 Y156.244
G2 X129.024 Y155.097 I-1.564 J-0.023
G1 X129.012 Y155.085
G2 X128.102 Y154.623 I-1.124 J1.088
G0 Z10.0
G0 X112.815 Y156.604
G0 Z4.0
G1 F400.0 Z1.5
G2 F600.0 X112.144 Y155.272 I-2.23 J0.289
G1 X112.13 Y155.259
G2 X110.482 Y154.569 I-1.621 J1.559
G1 X110.476
G1 X106.19
G1 X106.184
G2 X104.537 Y155.259 I-0.027 J2.249
G1 X104.523 Y155.272
G2 X103.833 Y156.92 I1.559 J1.621
G1 Y156.926
G1 Y160.069
G1 Y160.073
G2 X104.132 Y161.222 I2.291 J0.017
G1 X104.134 Y161.224
G2 X104.946 Y162.068 I2.021 J-1.134
G2 X105.059 Y162.098 I0.111 J-0.195
G1 X105.072
G2 X105.212 Y162.041 I0.004 J-0.19
G1 X105.219 Y162.033
G2 X105.276 Y161.894 I-0.133 J-0.136
G1 X105.277 Y161.858
G2 X105.192 Y161.707 I-0.163 J-0.008
G1 X105.182 Y161.701
G3 X104.262 Y160.063 I0.928 J-1.599
G1 Y156.929
G3 X104.83 Y155.565 I1.874 J-0.019
G3 X106.193 Y154.998 I1.344 J1.307
G1 X110.473
G3 X111.837 Y155.565 I0.019 J1.874
G3 X112.405 Y156.929 I-1.307 J1.344
G1 Y160.063
G3 X111.484 Y161.701 I-1.849 J0.039
G1 X111.474 Y161.707
G2 X111.39 Y161.858 I0.079 J0.143
G1 Y161.894
G2 X111.447 Y162.033 I0.19 J0.004
G1 X111.455 Y162.041
G2 X111.594 Y162.098 I0.136 J-0.133
G1 X111.617
G2 X111.714 Y162.072 I0.004 J-0.177
G1 X111.716 Y162.07
G2 X112.533 Y161.224 I-1.204 J-1.98
G1 X112.534 Y161.222
G2 X112.833 Y160.073 I-1.992 J-1.132
G1 Y160.069
G1 Y156.926
G1 Y156.92
G2 X112.815 Y156.604 I-2.249 J-0.027
G1 F400.0 Z0.0
G2 F600.0 X112.144 Y155.272 I-2.23 J0.289
G1 X112.13 Y155.259
G2 X110.482 Y154.569 I-1.621 J1.559
G1 X110.476
G1 X106.19
G1 X106.184
G2 X104.537 Y155.259 I-0.027 J2.249
G1 X104.523 Y155.272
G2 X103.833 Y156.92 I1.559 J1.621
G1 Y156.926
G1 Y160.069
G1 Y160.073
G2 X104.132 Y161.222 I2.291 J0.017
G1 X104.134 Y161.224
G2 X104.946 Y162.068 I2.021 J-1.134
G2 X105.059 Y162.098 I0.111 J-0.195
G1 X105.072
G2 X105.212 Y162.041 I0.004 J-0.19
G1 X105.219 Y162.033
G2 X105.276 Y161.894 I-0.133 J-0.136
G1 X105.277 Y161.858
G2 X105.192 Y161.707 I-0.163 J-0.008
G1 X105.182 Y161.701
G3 X104.262 Y160.063 I0.928 J-1.599
G1 Y156.929
G3 X104.83 Y155.565 I1.874 J-0.019
G3 X106.193 Y154.998 I1.344 J1.307
G1 X110.473
G3 X111.837 Y155.565 I0.019 J1.874
G3 X112.405 Y156.929 I-1.307 J1.344
G1 Y160.063
G3 X111.484 Y161.701 I-1.849 J0.039
G1 X111.474 Y161.707
G2 X111.39 Y161.858 I0.079 J0.143
G1 Y161.894
G2 X111.447 Y162.033 I0.19 J0.004
G1 X111.455 Y162.041
G2 X111.594 Y162.098 I0.136 J-0.133
G1 X111.617
G2 X111.714 Y162.072 I0.004 J-0.177
G1 X111.716 Y162.07
G2 X112.533 Y161.224 I-1.204 J-1.98
G1 X112.534 Y161.222
G2 X112.833 Y160.073 I-1.992 J-1.132
G1 Y160.069
G1 Y156.926
G1 Y156.92
G2 X112.815 Y156.604 I-2.249 J-0.027
G0 Z10.0
G0 X106.903 Y144.761
G0 Z4.0
G1 F400.0 Z1.5
G1 F600.0 X112.653 Y141.891
G1 X112.726 Y141.861
G2 X112.835 Y141.701 I-0.047 J-0.149
G1 Y141.632
G2 X112.726 Y141.472 I-0.156 J-0.011
G1 X112.652 Y141.442
G1 X104.181 Y137.199
G1 X104.178 Y137.198
G2 X104.047 Y137.167 I-0.131 J0.258
G1 X104.037
G2 X103.898 Y137.224 I-0.004 J0.19
G1 X103.89 Y137.231
G2 X103.833 Y137.371 I0.133 J0.136
G1 Y137.38
G2 X103.974 Y137.587 I0.223 J0.0
G1 X104.014 Y137.605
G1 X105.7 Y138.448
G3 X105.976 Y138.895 I-0.224 J0.447
G1 Y141.667
G1 Y141.677
G2 X106.033 Y141.816 I0.19 J0.004
G1 X106.041 Y141.824
G2 X106.18 Y141.881 I0.136 J-0.133
G1 X106.201
G2 X106.34 Y141.824 I0.004 J-0.19
G1 X106.348 Y141.816
G2 X106.405 Y141.677 I-0.133 J-0.136
G1 Y141.667
G1 Y139.61
G3 X107.128 Y139.162 I0.5 J0.0
G1 X111.243 Y141.219
G3 Y142.114 I-0.224 J0.447
G1 X104.014 Y145.728
G1 X103.966 Y145.749
G2 X103.833 Y145.944 I0.072 J0.192
G1 Y145.963
G2 X103.89 Y146.102 I0.19 J0.004
G1 X103.898 Y146.11
G2 X104.032 Y146.167 I0.136 J-0.133
G2 X104.164 Y146.128 I-0.02 J-0.315
G1 X104.181 Y146.119
G1 X106.903 Y144.761
G1 F400.0 Z0.0
G1 F600.0 X112.653 Y141.891
G1 X112.726 Y141.861
G2 X112.835 Y141.701 I-0.047 J-0.149
G1 Y141.632
G2 X112.726 Y141.472 I-0.156 J-0.011
G1 X112.652 Y141.442
G1 X104.181 Y137.199
G1 X104.178 Y137.198
G2 X104.047 Y137.167 I-0.131 J0.258
G1 X104.037
G2 X103.898 Y137.224 I-0.004 J0.19
G1 X103.89 Y137.231
G2 X103.833 Y137.371 I0.133 J0.136
G1 Y137.38
G2 X103.974 Y137.587 I0.223 J0.0
G1 X104.014 Y137.605
G1 X105.7 Y138.448
G3 X105.976 Y138.895 I-0.224 J0.447
G1 Y141.667
G1 Y141.677
G2 X106.033 Y141.816 I0.19 J0.004
G1 X106.041 Y141.824
G2 X106.18 Y141.881 I0.136 J-0.133
G1 X106.201
G2 X106.34 Y141.824 I0.004 J-0.19
G1 X106.348 Y141.816
G2 X106.405 Y141.677 I-0.133 J-0.136
G1 Y141.667
G1 Y139.61
G3 X107.128 Y139.162 I0.5 J0.0
G1 X111.243 Y141.219
G3 Y142.114 I-0.224 J0.447
G1 X104.014 Y145.728
G1 X103.966 Y145.749
G2 X103.833 Y145.944 I0.072 J0.192
G1 Y145.963
G2 X103.89 Y146.102 I0.19 J0.004
G1 X103.898 Y146.11
G2 X104.032 Y146.167 I0.136 J-0.133
G2 X104.164 Y146.128 I-0.02 J-0.315
G1 X104.181 Y146.119
G1 X106.903 Y144.761
G0 Z10.0
G0 X96.15 Y143.462
G0 Z4.0
G1 F400.0 Z1.5
G2 F600.0 X96.167 Y143.17 I-2.275 J-0.275
G1 Y143.167
G1 Y140.31
G1 Y140.303
G2 X95.477 Y138.656 I-2.249 J-0.027
G1 X95.463 Y138.642
G2 X93.816 Y137.952 I-1.621 J1.559
G1 X93.81
G1 X89.524
G1 X89.518
G2 X87.87 Y138.642 I-0.027 J2.249
G1 X87.856 Y138.656
G2 X87.167 Y140.303 I1.559 J1.621
G1 Y140.31
G1 Y143.738
G1 Y143.746
G2 X87.643 Y144.893 I1.564 J0.023
G1 X87.655 Y144.905
G2 X88.802 Y145.381 I1.124 J-1.088
G1 X88.81
G1 X90.952
G1 X90.963
G2 X91.102 Y145.324 I0.004 J-0.19
G1 X91.11 Y145.316
G2 X91.167 Y145.177 I-0.133 J-0.136
G1 Y145.167
G1 Y142.167
G1 Y142.156
G2 X91.11 Y142.017 I-0.19 J-0.004
G1 X91.102 Y142.009
G2 X90.963 Y141.952 I-0.136 J0.133
G1 X90.942
G2 X90.803 Y142.009 I-0.004 J0.19
G1 X90.795 Y142.017
G2 X90.738 Y142.156 I0.133 J0.136
G1 Y142.167
G1 Y144.452
G3 X90.238 Y144.952 I-0.5 J0.0
G1 X88.814
G3 X87.949 Y144.599 I-0.019 J-1.19
G3 X87.595 Y143.734 I0.836 J-0.846
G1 Y140.312
G3 X88.163 Y138.949 I1.874 J-0.019
G3 X89.527 Y138.381 I1.344 J1.307
G1 X93.807
G3 X95.17 Y138.949 I0.019 J1.874
G3 X95.738 Y140.312 I-1.307 J1.344
G1 Y143.161
G3 X94.818 Y144.799 I-1.849 J0.039
G1 X94.799 Y144.809
G2 X94.723 Y144.947 I0.067 J0.128
G1 X94.724 Y144.991
G2 X94.781 Y145.131 I0.19 J0.004
G1 X94.788 Y145.138
G2 X94.925 Y145.195 I0.136 J-0.133
G2 X95.063 Y145.16 I-0.013 J-0.337
G2 X95.866 Y144.322 I-1.217 J-1.972
G1 X95.868 Y144.32
G2 X96.15 Y143.462 I-1.992 J-1.132
G1 F400.0 Z0.0
G2 F600.0 X96.167 Y143.17 I-2.275 J-0.275
G1 Y143.167
G1 Y140.31
G1 Y140.303
G2 X95.477 Y138.656 I-2.249 J-0.027
G1 X95.463 Y138.642
G2 X93.816 Y137.952 I-1.621 J1.559
G1 X93.81
G1 X89.524
G1 X89.518
G2 X87.87 Y138.642 I-0.027 J2.249
G1 X87.856 Y138.656
G2 X87.167 Y140.303 I1.559 J1.621
G1 Y140.31
G1 Y143.738
G1 Y143.746
G2 X87.643 Y144.893 I1.564 J0.023
G1 X87.655 Y144.905
G2 X88.802 Y145.381 I1.124 J-1.088
G1 X88.81
G1 X90.952
G1 X90.963
G2 X91.102 Y145.324 I0.004 J-0.19
G1 X91.11 Y145.316
G2 X91.167 Y145.177 I-0.133 J-0.136
G1 Y145.167
G1 Y142.167
G1 Y142.156
G2 X91.11 Y142.017 I-0.19 J-0.004
G1 X91.102 Y142.009
G2 X90.963 Y141.952 I-0.136 J0.133
G1 X90.942
G2 X90.803 Y142.009 I-0.004 J0.19
G1 X90.795 Y142.017
G2 X90.738 Y142.156 I0.133 J0.136
G1 Y142.167
G1 Y144.452
G3 X90.238 Y144.952 I-0.5 J0.0
G1 X88.814
G3 X87.949 Y144.599 I-0.019 J-1.19
G3 X87.595 Y143.734 I0.836 J-0.846
G1 Y140.312
G3 X88.163 Y138.949 I1.874 J-0.019
G3 X89.527 Y138.381 I1.344 J1.307
G1 X93.807
G3 X95.17 Y138.949 I0.019 J1.874
G3 X95.738 Y140.312 I-1.307 J1.344
G1 Y143.161
G3 X94.818 Y144.799 I-1.849 J0.039
G1 X94.799 Y144.809
G2 X94.723 Y144.947 I0.067 J0.128
G1 X94.724 Y144.991
G2 X94.781 Y145.131 I0.19 J0.004
G1 X94.788 Y145.138
G2 X94.925 Y145.195 I0.136 J-0.133
G2 X95.063 Y145.16 I-0.013 J-0.337
G2 X95.866 Y144.322 I-1.217 J-1.972
G1 X95.868 Y144.32
G2 X96.15 Y143.462 I-1.992 J-1.132
G0 Z10.0
G0 X94.746 Y154.845
G0 Z4.0
G1 F400.0 Z1.5
G2 F600.0 X94.531 Y154.833 I-0.191 J1.552
G1 X94.524
G1 X88.81
G1 X88.802
G2 X87.655 Y155.31 I-0.023 J1.564
G1 X87.643 Y155.321
G2 X87.167 Y156.469 I1.088 J1.124
G1 Y156.476
G1 Y161.619
G1 Y161.629
G2 X87.224 Y161.769 I0.19 J0.004
G1 X87.231 Y161.776
G2 X87.371 Y161.833 I0.136 J-0.133
G1 X87.391
G2 X87.531 Y161.776 I0.004 J-0.19
G1 X87.538 Y161.769
G2 X87.595 Y161.629 I-0.133 J-0.136
G1 Y161.619
G1 Y156.481
G3 X87.949 Y155.615 I1.19 J-0.019
G3 X88.814 Y155.262 I0.846 J0.836
G1 X90.952
G3 X91.452 Y155.762 I0.0 J0.5
G1 Y160.19
G1 Y160.201
G2 X91.509 Y160.34 I0.19 J0.004
G1 X91.517 Y160.348
G2 X91.656 Y160.405 I0.136 J-0.133
G1 X91.677
G2 X91.816 Y160.348 I0.004 J-0.19
G1 X91.824 Y160.34
G2 X91.881 Y160.201 I-0.133 J-0.136
G1 Y160.19
G1 Y155.762
G3 X92.381 Y155.262 I0.5 J0.0
G1 X94.519
G3 X95.385 Y155.615 I0.019 J1.19
G3 X95.738 Y156.481 I-0.836 J0.846
G1 Y161.619
G1 Y161.629
G2 X95.795 Y161.769 I0.19 J0.004
G1 X95.803 Y161.776
G2 X95.942 Y161.833 I0.136 J-0.133
G1 X95.963
G2 X96.102 Y161.776 I0.004 J-0.19
G1 X96.11 Y161.769
G2 X96.167 Y161.629 I-0.133 J-0.136
G1 Y161.619
G1 Y156.476
G1 Y156.469
G2 X95.69 Y155.321 I-1.564 J-0.023
G1 X95.679 Y155.31
G2 X94.746 Y154.845 I-1.124 J1.088
G1 F400.0 Z0.0
G2 F600.0 X94.531 Y154.833 I-0.191 J1.552
G1 X94.524
G1 X88.81
G1 X88.802
G2 X87.655 Y155.31 I-0.023 J1.564
G1 X87.643 Y155.321
G2 X87.167 Y156.469 I1.088 J1.124
G1 Y156.476
G1 Y161.619
G1 Y161.629
G2 X87.224 Y161.769 I0.19 J0.004
G1 X87.231 Y161.776
G2 X87.371 Y161.833 I0.136 J-0.133
G1 X87.391
G2 X87.531 Y161.776 I0.004 J-0.19
G1 X87.538 Y161.769
G2 X87.595 Y161.629 I-0.133 J-0.136
G1 Y161.619
G1 Y156.481
G3 X87.949 Y155.615 I1.19 J-0.019
G3 X88.814 Y155.262 I0.846 J0.836
G1 X90.952
G3 X91.452 Y155.762 I0.0 J0.5
G1 Y160.19
G1 Y160.201
G2 X91.509 Y160.34 I0.19 J0.004
G1 X91.517 Y160.348
G2 X91.656 Y160.405 I0.136 J-0.133
G1 X91.677
G2 X91.816 Y160.348 I0.004 J-0.19
G1 X91.824 Y160.34
G2 X91.881 Y160.201 I-0.133 J-0.136
G1 Y160.19
G1 Y155.762
G3 X92.381 Y155.262 I0.5 J0.0
G1 X94.519
G3 X95.385 Y155.615 I0.019 J1.19
G3 X95.738 Y156.481 I-0.836 J0.846
G1 Y161.619
G1 Y161.629
G2 X95.795 Y161.769 I0.19 J0.004
G1 X95.803 Y161.776
G2 X95.942 Y161.833 I0.136 J-0.133
G1 X95.963
G2 X96.102 Y161.776 I0.004 J-0.19
G1 X96.11 Y161.769
G2 X96.167 Y161.629 I-0.133 J-0.136
G1 Y161.619
G1 Y156.476
G1 Y156.469
G2 X95.69 Y155.321 I-1.564 J-0.023
G1 X95.679 Y155.31
G2 X94.746 Y154.845 I-1.124 J1.088
G0 Z10.0
G0 X79.5 Y154.08
G0 Z4.0
G1 F400.0 Z1.5
G1 F600.0 Y154.065
G1 Y154.037
G2 X79.443 Y153.898 I-0.19 J-0.004
G1 X79.436 Y153.89
G2 X79.296 Y153.833 I-0.136 J0.133
G1 X79.286
G2 X79.155 Y153.865 I0.0 J0.289
G1 X79.152 Y153.866
G1 X70.681 Y158.109
G1 X70.608 Y158.139
G2 X70.499 Y158.299 I0.047 J0.149
G1 Y158.368
G2 X70.608 Y158.528 I0.156 J0.011
G1 X70.68 Y158.557
G1 X79.152 Y162.786
G1 X79.169 Y162.795
G2 X79.301 Y162.833 I0.152 J-0.277
G2 X79.436 Y162.776 I-0.001 J-0.19
G1 X79.443 Y162.769
G2 X79.5 Y162.629 I-0.133 J-0.136
G1 Y162.611
G2 X79.367 Y162.416 I-0.205 J-0.003
G1 X79.319 Y162.395
G1 X72.091 Y158.781
G3 Y157.886 I0.224 J-0.447
G1 X79.319 Y154.272
G1 X79.375 Y154.248
G2 X79.5 Y154.08 I-0.063 J-0.177
G1 F400.0 Z0.0
G1 F600.0 Y154.065
G1 Y154.037
G2 X79.443 Y153.898 I-0.19 J-0.004
G1 X79.436 Y153.89
G2 X79.296 Y153.833 I-0.136 J0.133
G1 X79.286
G2 X79.155 Y153.865 I0.0 J0.289
G1 X79.152 Y153.866
G1 X70.681 Y158.109
G1 X70.608 Y158.139
G2 X70.499 Y158.299 I0.047 J0.149
G1 Y158.368
G2 X70.608 Y158.528 I0.156 J0.011
G1 X70.68 Y158.557
G1 X79.152 Y162.786
G1 X79.169 Y162.795
G2 X79.301 Y162.833 I0.152 J-0.277
G2 X79.436 Y162.776 I-0.001 J-0.19
G1 X79.443 Y162.769
G2 X79.5 Y162.629 I-0.133 J-0.136
G1 Y162.611
G2 X79.367 Y162.416 I-0.205 J-0.003
G1 X79.319 Y162.395
G1 X72.091 Y158.781
G3 Y157.886 I0.224 J-0.447
G1 X79.319 Y154.272
G1 X79.375 Y154.248
G2 X79.5 Y154.08 I-0.063 J-0.177
G0 Z10.0
G0 X79.304 Y145.095
G0 Z4.0
G1 F400.0 Z1.5
G2 F600.0 X79.436 Y145.038 I-0.004 J-0.19
G1 X79.443 Y145.031
G2 X79.5 Y144.891 I-0.133 J-0.136
G1 Y144.881
G1 Y139.881
G1 Y139.873
G2 X79.024 Y138.726 I-1.564 J-0.023
G1 X79.012 Y138.714
G2 X77.865 Y138.238 I-1.124 J1.088
G1 X77.857
G1 X70.714
G1 X70.704
G2 X70.564 Y138.295 I-0.004 J0.19
G1 X70.557 Y138.303
G2 X70.5 Y138.442 I0.133 J0.136
G1 Y138.463
G2 X70.557 Y138.602 I0.19 J0.004
G1 X70.564 Y138.61
G2 X70.704 Y138.667 I0.136 J-0.133
G1 X70.714
G1 X74.286
G3 X74.786 Y139.167 I0.0 J0.5
G1 Y143.452
G1 Y143.463
G2 X74.843 Y143.602 I0.19 J0.004
G1 X74.85 Y143.61
G2 X74.99 Y143.667 I0.136 J-0.133
G1 X75.01
G2 X75.15 Y143.61 I0.004 J-0.19
G1 X75.157 Y143.602
G2 X75.214 Y143.463 I-0.133 J-0.136
G1 Y143.452
G1 Y139.167
G3 X75.714 Y138.667 I0.5 J0.0
G1 X77.853
G3 X78.718 Y139.02 I0.019 J1.19
G3 X79.071 Y139.885 I-0.836 J0.846
G1 Y144.881
G1 Y144.891
G2 X79.128 Y145.031 I0.19 J0.004
G1 X79.136 Y145.038
G2 X79.275 Y145.095 I0.136 J-0.133
G1 X79.296
G1 X79.304
G1 F400.0 Z0.0
G2 F600.0 X79.436 Y145.038 I-0.004 J-0.19
G1 X79.443 Y145.031
G2 X79.5 Y144.891 I-0.133 J-0.136
G1 Y144.881
G1 Y139.881
G1 Y139.873
G2 X79.024 Y138.726 I-1.564 J-0.023
G1 X79.012 Y138.714
G2 X77.865 Y138.238 I-1.124 J1.088
G1 X77.857
G1 X70.714
G1 X70.704
G2 X70.564 Y138.295 I-0.004 J0.19
G1 X70.557 Y138.303
G2 X70.5 Y138.442 I0.133 J0.136
G1 Y138.463
G2 X70.557 Y138.602 I0.19 J0.004
G1 X70.564 Y138.61
G2 X70.704 Y138.667 I0.136 J-0.133
G1 X70.714
G1 X74.286
G3 X74.786 Y139.167 I0.0 J0.5
G1 Y143.452
G1 Y143.463
G2 X74.843 Y143.602 I0.19 J0.004
G1 X74.85 Y143.61
G2 X74.99 Y143.667 I0.136 J-0.133
G1 X75.01
G2 X75.15 Y143.61 I0.004 J-0.19
G1 X75.157 Y143.602
G2 X75.214 Y143.463 I-0.133 J-0.136
G1 Y143.452
G1 Y139.167
G3 X75.714 Y138.667 I0.5 J0.0
G1 X77.853
G3 X78.718 Y139.02 I0.019 J1.19
G3 X79.071 Y139.885 I-0.836 J0.846
G1 Y144.881
G1 Y144.891
G2 X79.128 Y145.031 I0.19 J0.004
G1 X79.136 Y145.038
G2 X79.275 Y145.095 I0.136 J-0.133
G1 X79.296
G1 X79.304
G0 Z10.0
G0 X62.834 Y145.495
G0 Z4.0
G1 F400.0 Z1.5
G2 F600.0 X62.776 Y145.372 I-0.168 J0.004
G1 X62.77 Y145.367
G1 X59.07 Y142.038
G3 Y141.295 I0.334 J-0.372
G1 X62.77 Y137.966
G1 X62.776 Y137.961
G2 X62.834 Y137.828 I-0.11 J-0.127
G1 X62.833 Y137.799
G2 X62.776 Y137.66 I-0.19 J-0.004
G1 X62.769 Y137.652
G2 X62.636 Y137.595 I-0.136 J0.133
G2 X62.432 Y137.689 I0.024 J0.319
G1 X62.41 Y137.71
G1 X58.382 Y141.325
G3 X58.048 Y141.452 I-0.334 J-0.372
G1 X54.048
G1 X54.037
G2 X53.898 Y141.509 I-0.004 J0.19
G1 X53.89 Y141.517
G2 X53.833 Y141.656 I0.133 J0.136
G1 Y141.677
G2 X53.89 Y141.816 I0.19 J0.004
G1 X53.898 Y141.824
G2 X54.037 Y141.881 I0.136 J-0.133
G1 X54.048
G1 X58.048
G3 X58.382 Y142.009 I0.0 J0.5
G1 X62.41 Y145.623
G1 X62.438 Y145.65
G2 X62.632 Y145.738 I0.206 J-0.196
G2 X62.769 Y145.681 I0.001 J-0.19
G1 X62.776 Y145.674
G2 X62.833 Y145.534 I-0.133 J-0.136
G1 X62.834 Y145.505
G1 Y145.495
G1 F400.0 Z0.0
G2 F600.0 X62.776 Y145.372 I-0.168 J0.004
G1 X62.77 Y145.367
G1 X59.07 Y142.038
G3 Y141.295 I0.334 J-0.372
G1 X62.77 Y137.966
G1 X62.776 Y137.961
G2 X62.834 Y137.828 I-0.11 J-0.127
G1 X62.833 Y137.799
G2 X62.776 Y137.66 I-0.19 J-0.004
G1 X62.769 Y137.652
G2 X62.636 Y137.595 I-0.136 J0.133
G2 X62.432 Y137.689 I0.024 J0.319
G1 X62.41 Y137.71
G1 X58.382 Y141.325
G3 X58.048 Y141.452 I-0.334 J-0.372
G1 X54.048
G1 X54.037
G2 X53.898 Y141.509 I-0.004 J0.19
G1 X53.89 Y141.517
G2 X53.833 Y141.656 I0.133 J0.136
G1 Y141.677
G2 X53.89 Y141.816 I0.19 J0.004
G1 X53.898 Y141.824
G2 X54.037 Y141.881 I0.136 J-0.133
G1 X54.048
G1 X58.048
G3 X58.382 Y142.009 I0.0 J0.5
G1 X62.41 Y145.623
G1 X62.438 Y145.65
G2 X62.632 Y145.738 I0.206 J-0.196
G2 X62.769 Y145.681 I0.001 J-0.19
G1 X62.776 Y145.674
G2 X62.833 Y145.534 I-0.133 J-0.136
G1 X62.834 Y145.505
G1 Y145.495
G0 Z10.0
G0 X61.446 Y155.064
G0 Z4.0
G1 F400.0 Z1.5
G2 F600.0 X61.198 Y155.048 I-0.224 J1.548
G1 X61.19
G1 X54.048
G1 X54.037
G2 X53.898 Y155.104 I-0.004 J0.19
G1 X53.89 Y155.112
G2 X53.833 Y155.252 I0.133 J0.136
G1 Y155.272
G2 X53.89 Y155.412 I0.19 J0.004
G1 X53.898 Y155.419
G2 X54.037 Y155.476 I0.136 J-0.133
G1 X54.048
G1 X61.186
G3 X62.051 Y155.83 I0.019 J1.19
G3 X62.405 Y156.695 I-0.836 J0.846
G1 Y159.259
G3 X61.837 Y160.623 I-1.874 J0.019
G3 X60.476 Y161.191 I-1.344 J-1.307
G3 X59.115 Y160.623 I-0.017 J-1.874
G3 X58.548 Y159.259 I1.307 J-1.344
G1 Y157.89
G1 Y157.833
G1 Y157.823
G2 X58.491 Y157.684 I-0.19 J-0.004
G1 X58.483 Y157.676
G2 X58.344 Y157.619 I-0.136 J0.133
G1 X58.323
G2 X58.184 Y157.676 I-0.004 J0.19
G1 X58.176 Y157.684
G2 X58.119 Y157.823 I0.133 J0.136
G1 Y157.833
G1 Y159.262
G1 Y159.268
G2 X58.809 Y160.916 I2.249 J0.027
G1 X58.822 Y160.93
G2 X60.47 Y161.619 I1.621 J-1.559
G1 X60.482
G2 X62.13 Y160.93 I0.027 J-2.249
G1 X62.144 Y160.916
G2 X62.833 Y159.268 I-1.559 J-1.621
G1 Y159.262
G1 Y156.69
G1 Y156.683
G2 X62.357 Y155.536 I-1.564 J-0.023
G1 X62.345 Y155.524
G2 X61.446 Y155.064 I-1.124 J1.088
G1 F400.0 Z0.0
G2 F600.0 X61.198 Y155.048 I-0.224 J1.548
G1 X61.19
G1 X54.048
G1 X54.037
G2 X53.898 Y155.104 I-0.004 J0.19
G1 X53.89 Y155.112
G2 X53.833 Y155.252 I0.133 J0.136
G1 Y155.272
G2 X53.89 Y155.412 I0.19 J0.004
G1 X53.898 Y155.419
G2 X54.037 Y155.476 I0.136 J-0.133
G1 X54.048
G1 X61.186
G3 X62.051 Y155.83 I0.019 J1.19
G3 X62.405 Y156.695 I-0.836 J0.846
G1 Y159.259
G3 X61.837 Y160.623 I-1.874 J0.019
G3 X60.476 Y161.191 I-1.344 J-1.307
G3 X59.115 Y160.623 I-0.017 J-1.874
G3 X58.548 Y159.259 I1.307 J-1.344
G1 Y157.89
G1 Y157.833
G1 Y157.823
G2 X58.491 Y157.684 I-0.19 J-0.004
G1 X58.483 Y157.676
G2 X58.344 Y157.619 I-0.136 J0.133
G1 X58.323
G2 X58.184 Y157.676 I-0.004 J0.19
G1 X58.176 Y157.684
G2 X58.119 Y157.823 I0.133 J0.136
G1 Y157.833
G1 Y159.262
G1 Y159.268
G2 X58.809 Y160.916 I2.249 J0.027
G1 X58.822 Y160.93
G2 X60.47 Y161.619 I1.621 J-1.559
G1 X60.482
G2 X62.13 Y160.93 I0.027 J-2.249
G1 X62.144 Y160.916
G2 X62.833 Y159.268 I-1.559 J-1.621
G1 Y159.262
G1 Y156.69
G1 Y156.683
G2 X62.357 Y155.536 I-1.564 J-0.023
G1 X62.345 Y155.524
G2 X61.446 Y155.064 I-1.124 J1.088
G0 Z10.0
G0 X46.154 Y156.684
G0 Z4.0
G1 F400.0 Z1.5
G2 F600.0 X45.477 Y155.301 I-2.236 J0.237
G1 X45.463 Y155.287
G2 X43.816 Y154.598 I-1.621 J1.559
G1 X43.803
G2 X42.156 Y155.287 I-0.027 J2.249
G1 X42.142 Y155.301
G2 X41.452 Y156.949 I1.559 J1.621
G1 Y156.955
G1 Y159.809
G3 X40.885 Y161.173 I-1.874 J0.019
G3 X39.524 Y161.741 I-1.344 J-1.307
G3 X38.163 Y161.173 I-0.017 J-1.874
G3 X37.595 Y159.809 I1.307 J-1.344
G1 Y156.532
G3 X38.516 Y154.894 I1.849 J-0.039
G1 X38.518 Y154.893
G2 X38.61 Y154.728 I-0.091 J-0.159
G1 Y154.702
G2 X38.553 Y154.562 I-0.19 J-0.004
G1 X38.545 Y154.554
G2 X38.406 Y154.498 I-0.136 J0.133
G1 X38.383 Y154.497
G2 X38.286 Y154.524 I-0.004 J0.177
G1 X38.284 Y154.525
G2 X37.467 Y155.371 I1.204 J1.98
G1 X37.466 Y155.373
G2 X37.167 Y156.522 I1.992 J1.132
G1 Y156.526
G1 Y159.812
G1 Y159.818
G2 X37.856 Y161.466 I2.249 J0.027
G1 X37.87 Y161.48
G2 X39.518 Y162.169 I1.621 J-1.559
G1 X39.53
G2 X41.178 Y161.48 I0.027 J-2.249
G1 X41.191 Y161.466
G2 X41.881 Y159.818 I-1.559 J-1.621
G1 Y159.812
G1 Y156.958
G3 X42.449 Y155.594 I1.874 J-0.019
G3 X43.81 Y155.026 I1.344 J1.307
G3 X45.17 Y155.594 I0.017 J1.874
G3 X45.738 Y156.958 I-1.307 J1.344
G1 Y159.663
G3 X44.818 Y161.301 I-1.849 J0.039
G1 X44.799 Y161.312
G2 X44.723 Y161.449 I0.067 J0.128
G1 Y161.511
G2 X44.825 Y161.693 I0.195 J0.011
G1 X44.851 Y161.708
G2 X45.006 Y161.701 I0.072 J-0.116
G1 X45.05 Y161.67
G2 X45.866 Y160.824 I-1.204 J-1.98
G1 X45.868 Y160.822
G2 X46.167 Y159.673 I-1.992 J-1.132
G1 Y159.669
G1 Y156.955
G1 Y156.949
G2 X46.154 Y156.684 I-2.249 J-0.027
G1 F400.0 Z0.0
G2 F600.0 X45.477 Y155.301 I-2.236 J0.237
G1 X45.463 Y155.287
G2 X43.816 Y154.598 I-1.621 J1.559
G1 X43.803
G2 X42.156 Y155.287 I-0.027 J2.249
G1 X42.142 Y155.301
G2 X41.452 Y156.949 I1.559 J1.621
G1 Y156.955
G1 Y159.809
G3 X40.885 Y161.173 I-1.874 J0.019
G3 X39.524 Y161.741 I-1.344 J-1.307
G3 X38.163 Y161.173 I-0.017 J-1.874
G3 X37.595 Y159.809 I1.307 J-1.344
G1 Y156.532
G3 X38.516 Y154.894 I1.849 J-0.039
G1 X38.518 Y154.893
G2 X38.61 Y154.728 I-0.091 J-0.159
G1 Y154.702
G2 X38.553 Y154.562 I-0.19 J-0.004
G1 X38.545 Y154.554
G2 X38.406 Y154.498 I-0.136 J0.133
G1 X38.383 Y154.497
G2 X38.286 Y154.524 I-0.004 J0.177
G1 X38.284 Y154.525
G2 X37.467 Y155.371 I1.204 J1.98
G1 X37.466 Y155.373
G2 X37.167 Y156.522 I1.992 J1.132
G1 Y156.526
G1 Y159.812
G1 Y159.818
G2 X37.856 Y161.466 I2.249 J0.027
G1 X37.87 Y161.48
G2 X39.518 Y162.169 I1.621 J-1.559
G1 X39.53
G2 X41.178 Y161.48 I0.027 J-2.249
G1 X41.191 Y161.466
G2 X41.881 Y159.818 I-1.559 J-1.621
G1 Y159.812
G1 Y156.958
G3 X42.449 Y155.594 I1.874 J-0.019
G3 X43.81 Y155.026 I1.344 J1.307
G3 X45.17 Y155.594 I0.017 J1.874
G3 X45.738 Y156.958 I-1.307 J1.344
G1 Y159.663
G3 X44.818 Y161.301 I-1.849 J0.039
G1 X44.799 Y161.312
G2 X44.723 Y161.449 I0.067 J0.128
G1 Y161.511
G2 X44.825 Y161.693 I0.195 J0.011
G1 X44.851 Y161.708
G2 X45.006 Y161.701 I0.072 J-0.116
G1 X45.05 Y161.67
G2 X45.866 Y160.824 I-1.204 J-1.98
G1 X45.868 Y160.822
G2 X46.167 Y159.673 I-1.992 J-1.132
G1 Y159.669
G1 Y156.955
G1 Y156.949
G2 X46.154 Y156.684 I-2.249 J-0.027
G0 Z10.0
G0 X45.97 Y145.167
G0 Z4.0
G1 F400.0 Z1.5
G2 F600.0 X46.102 Y145.11 I-0.003 J-0.19
G1 X46.11 Y145.102
G2 X46.167 Y144.963 I-0.133 J-0.136
G1 Y144.952
G1 Y139.81
G1 Y139.802
G2 X45.69 Y138.655 I-1.564 J-0.023
G1 X45.679 Y138.643
G2 X44.531 Y138.167 I-1.124 J1.088
G1 X44.524
G1 X38.81
G1 X38.802
G2 X37.655 Y138.643 I-0.023 J1.564
G1 X37.643 Y138.655
G2 X37.167 Y139.802 I1.088 J1.124
G1 Y139.81
G1 Y144.952
G1 Y144.963
G2 X37.224 Y145.102 I0.19 J0.004
G1 X37.231 Y145.11
G2 X37.371 Y145.167 I0.136 J-0.133
G1 X37.391
G2 X37.531 Y145.11 I0.004 J-0.19
G1 X37.538 Y145.102
G2 X37.595 Y144.963 I-0.133 J-0.136
G1 Y144.952
G1 Y139.814
G3 X37.949 Y138.949 I1.19 J-0.019
G3 X38.814 Y138.595 I0.846 J0.836
G1 X40.952
G3 X41.452 Y139.095 I0.0 J0.5
G1 Y143.524
G1 Y143.534
G2 X41.509 Y143.674 I0.19 J0.004
G1 X41.517 Y143.681
G2 X41.656 Y143.738 I0.136 J-0.133
G1 X41.677
G2 X41.816 Y143.681 I0.004 J-0.19
G1 X41.824 Y143.674
G2 X41.881 Y143.534 I-0.133 J-0.136
G1 Y143.524
G1 Y139.095
G3 X42.381 Y138.595 I0.5 J0.0
G1 X44.519
G3 X45.385 Y138.949 I0.019 J1.19
G3 X45.738 Y139.814 I-0.836 J0.846
G1 Y144.952
G1 Y144.963
G2 X45.795 Y145.102 I0.19 J0.004
G1 X45.803 Y145.11
G2 X45.942 Y145.167 I0.136 J-0.133
G1 X45.963
G1 X45.97
G1 F400.0 Z0.0
G2 F600.0 X46.102 Y145.11 I-0.003 J-0.19
G1 X46.11 Y145.102
G2 X46.167 Y144.963 I-0.133 J-0.136
G1 Y144.952
G1 Y139.81
G1 Y139.802
G2 X45.69 Y138.655 I-1.564 J-0.023
G1 X45.679 Y138.643
G2 X44.531 Y138.167 I-1.124 J1.088
G1 X44.524
G1 X38.81
G1 X38.802
G2 X37.655 Y138.643 I-0.023 J1.564
G1 X37.643 Y138.655
G2 X37.167 Y139.802 I1.088 J1.124
G1 Y139.81
G1 Y144.952
G1 Y144.963
G2 X37.224 Y145.102 I0.19 J0.004
G1 X37.231 Y145.11
G2 X37.371 Y145.167 I0.136 J-0.133
G1 X37.391
G2 X37.531 Y145.11 I0.004 J-0.19
G1 X37.538 Y145.102
G2 X37.595 Y144.963 I-0.133 J-0.136
G1 Y144.952
G1 Y139.814
G3 X37.949 Y138.949 I1.19 J-0.019
G3 X38.814 Y138.595 I0.846 J0.836
G1 X40.952
G3 X41.452 Y139.095 I0.0 J0.5
G1 Y143.524
G1 Y143.534
G2 X41.509 Y143.674 I0.19 J0.004
G1 X41.517 Y143.681
G2 X41.656 Y143.738 I0.136 J-0.133
G1 X41.677
G2 X41.816 Y143.681 I0.004 J-0.19
G1 X41.824 Y143.674
G2 X41.881 Y143.534 I-0.133 J-0.136
G1 Y143.524
G1 Y139.095
G3 X42.381 Y138.595 I0.5 J0.0
G1 X44.519
G3 X45.385 Y138.949 I0.019 J1.19
G3 X45.738 Y139.814 I-0.836 J0.846
G1 Y144.952
G1 Y144.963
G2 X45.795 Y145.102 I0.19 J0.004
G1 X45.803 Y145.11
G2 X45.942 Y145.167 I0.136 J-0.133
G1 X45.963
G1 X45.97
G0 Z10.0
G0 X45.967 Y128.5
G0 Z4.0
G1 F400.0 Z1.5
G2 F600.0 X46.102 Y128.443 I0.0 J-0.19
G1 X46.11 Y128.436
G2 X46.167 Y128.296 I-0.133 J-0.136
G1 Y128.286
G1 Y123.143
G1 Y123.135
G2 X45.69 Y121.988 I-1.564 J-0.023
G1 X45.679 Y121.976
G2 X44.531 Y121.5 I-1.124 J1.088
G1 X44.524
G1 X38.81
G1 X38.802
G2 X37.655 Y121.976 I-0.023 J1.564
G1 X37.643 Y121.988
G2 X37.167 Y123.135 I1.088 J1.124
G1 Y123.143
G1 Y128.286
G1 Y128.296
G2 X37.224 Y128.436 I0.19 J0.004
G1 X37.231 Y128.443
G2 X37.371 Y128.5 I0.136 J-0.133
G1 X37.391
G2 X37.531 Y128.443 I0.004 J-0.19
G1 X37.538 Y128.436
G2 X37.595 Y128.296 I-0.133 J-0.136
G1 Y128.286
G1 Y123.147
G3 X37.949 Y122.282 I1.19 J-0.019
G3 X38.814 Y121.929 I0.846 J0.836
G1 X40.952
G3 X41.452 Y122.429 I0.0 J0.5
G1 Y126.857
G1 Y126.867
G2 X41.509 Y127.007 I0.19 J0.004
G1 X41.517 Y127.015
G2 X41.656 Y127.072 I0.136 J-0.133
G1 X41.677
G2 X41.816 Y127.015 I0.004 J-0.19
G1 X41.824 Y127.007
G2 X41.881 Y126.867 I-0.133 J-0.136
G1 Y126.857
G1 Y122.429
G3 X42.381 Y121.929 I0.5 J0.0
G1 X44.519
G3 X45.385 Y122.282 I0.019 J1.19
G3 X45.738 Y123.147 I-0.836 J0.846
G1 Y128.286
G1 Y128.296
G2 X45.795 Y128.436 I0.19 J0.004
G1 X45.803 Y128.443
G2 X45.942 Y128.5 I0.136 J-0.133
G1 X45.963
G1 X45.967
G1 F400.0 Z0.0
G2 F600.0 X46.102 Y128.443 I0.0 J-0.19
G1 X46.11 Y128.436
G2 X46.167 Y128.296 I-0.133 J-0.136
G1 Y128.286
G1 Y123.143
G1 Y123.135
G2 X45.69 Y121.988 I-1.564 J-0.023
G1 X45.679 Y121.976
G2 X44.531 Y121.5 I-1.124 J1.088
G1 X44.524
G1 X38.81
G1 X38.802
G2 X37.655 Y121.976 I-0.023 J1.564
G1 X37.643 Y121.988
G2 X37.167 Y123.135 I1.088 J1.124
G1 Y123.143
G1 Y128.286
G1 Y128.296
G2 X37.224 Y128.436 I0.19 J0.004
G1 X37.231 Y128.443
G2 X37.371 Y128.5 I0.136 J-0.133
G1 X37.391
G2 X37.531 Y128.443 I0.004 J-0.19
G1 X37.538 Y128.436
G2 X37.595 Y128.296 I-0.133 J-0.136
G1 Y128.286
G1 Y123.147
G3 X37.949 Y122.282 I1.19 J-0.019
G3 X38.814 Y121.929 I0.846 J0.836
G1 X40.952
G3 X41.452 Y122.429 I0.0 J0.5
G1 Y126.857
G1 Y126.867
G2 X41.509 Y127.007 I0.19 J0.004
G1 X41.517 Y127.015
G2 X41.656 Y127.072 I0.136 J-0.133
G1 X41.677
G2 X41.816 Y127.015 I0.004 J-0.19
G1 X41.824 Y127.007
G2 X41.881 Y126.867 I-0.133 J-0.136
G1 Y126.857
G1 Y122.429
G3 X42.381 Y121.929 I0.5 J0.0
G1 X44.519
G3 X45.385 Y122.282 I0.019 J1.19
G3 X45.738 Y123.147 I-0.836 J0.846
G1 Y128.286
G1 Y128.296
G2 X45.795 Y128.436 I0.19 J0.004
G1 X45.803 Y128.443
G2 X45.942 Y128.5 I0.136 J-0.133
G1 X45.963
G1 X45.967
G0 Z10.0
G0 X53.877 Y126.906
G0 Z4.0
G1 F400.0 Z1.5
G2 F600.0 X54.523 Y128.083 I2.205 J-0.444
G1 X54.537 Y128.096
G2 X56.184 Y128.786 I1.621 J-1.559
G1 X56.196
G2 X57.95 Y127.979 I0.027 J-2.25
G3 X58.72 Y127.983 I0.384 J0.321
G2 X60.465 Y128.786 I1.698 J-1.393
G1 X60.482
G2 X62.13 Y128.096 I0.027 J-2.249
G1 X62.144 Y128.083
G2 X62.833 Y126.435 I-1.559 J-1.621
G1 Y126.429
G1 Y122.857
G1 Y122.85
G2 X62.357 Y121.702 I-1.564 J-0.023
G1 X62.345 Y121.691
G2 X61.198 Y121.214 I-1.124 J1.088
G1 X61.19
G1 X56.076
G1 X56.066
G2 X55.926 Y121.271 I-0.004 J0.19
G1 X55.919 Y121.279
G2 X55.862 Y121.418 I0.133 J0.136
G1 Y121.439
G2 X55.919 Y121.578 I0.19 J0.004
G1 X55.926 Y121.586
G2 X56.066 Y121.643 I0.136 J-0.133
G1 X56.076
G1 X61.186
G3 X62.051 Y121.996 I0.019 J1.19
G3 X62.405 Y122.862 I-0.836 J0.846
G1 Y126.426
G3 X61.837 Y127.789 I-1.874 J0.019
G3 X60.476 Y128.357 I-1.344 J-1.307
G3 X59.143 Y127.817 I-0.018 J-1.87
G3 X58.548 Y126.504 I1.307 J-1.383
G1 Y126.486
G1 Y125.714
G1 Y125.704
G2 X58.491 Y125.564 I-0.19 J-0.004
G1 X58.483 Y125.557
G2 X58.344 Y125.5 I-0.136 J0.133
G1 X58.323
G2 X58.184 Y125.557 I-0.004 J0.19
G1 X58.176 Y125.564
G2 X58.119 Y125.704 I0.133 J0.136
G1 Y125.714
G1 Y126.426
G3 X57.551 Y127.789 I-1.874 J0.019
G3 X56.19 Y128.357 I-1.344 J-1.307
G3 X54.83 Y127.789 I-0.017 J-1.874
G3 X54.262 Y126.426 I1.307 J-1.344
G1 Y123.429
G1 Y123.418
G2 X54.205 Y123.279 I-0.19 J-0.004
G1 X54.197 Y123.271
G2 X54.058 Y123.214 I-0.136 J0.133
G1 X54.037
G2 X53.898 Y123.271 I-0.004 J0.19
G1 X53.89 Y123.279
G2 X53.833 Y123.418 I0.133 J0.136
G1 Y123.429
G1 Y126.429
G1 Y126.435
G2 X53.877 Y126.906 I2.249 J0.027
G1 F400.0 Z0.0
G2 F600.0 X54.523 Y128.083 I2.205 J-0.444
G1 X54.537 Y128.096
G2 X56.184 Y128.786 I1.621 J-1.559
G1 X56.196
G2 X57.95 Y127.979 I0.027 J-2.25
G3 X58.72 Y127.983 I0.384 J0.321
G2 X60.465 Y128.786 I1.698 J-1.393
G1 X60.482
G2 X62.13 Y128.096 I0.027 J-2.249
G1 X62.144 Y128.083
G2 X62.833 Y126.435 I-1.559 J-1.621
G1 Y126.429
G1 Y122.857
G1 Y122.85
G2 X62.357 Y121.702 I-1.564 J-0.023
G1 X62.345 Y121.691
G2 X61.198 Y121.214 I-1.124 J1.088
G1 X61.19
G1 X56.076
G1 X56.066
G2 X55.926 Y121.271 I-0.004 J0.19
G1 X55.919 Y121.279
G2 X55.862 Y121.418 I0.133 J0.136
G1 Y121.439
G2 X55.919 Y121.578 I0.19 J0.004
G1 X55.926 Y121.586
G2 X56.066 Y121.643 I0.136 J-0.133
G1 X56.076
G1 X61.186
G3 X62.051 Y121.996 I0.019 J1.19
G3 X62.405 Y122.862 I-0.836 J0.846
G1 Y126.426
G3 X61.837 Y127.789 I-1.874 J0.019
G3 X60.476 Y128.357 I-1.344 J-1.307
G3 X59.143 Y127.817 I-0.018 J-1.87
G3 X58.548 Y126.504 I1.307 J-1.383
G1 Y126.486
G1 Y125.714
G1 Y125.704
G2 X58.491 Y125.564 I-0.19 J-0.004
G1 X58.483 Y125.557
G2 X58.344 Y125.5 I-0.136 J0.133
G1 X58.323
G2 X58.184 Y125.557 I-0.004 J0.19
G1 X58.176 Y125.564
G2 X58.119 Y125.704 I0.133 J0.136
G1 Y125.714
G1 Y126.426
G3 X57.551 Y127.789 I-1.874 J0.019
G3 X56.19 Y128.357 I-1.344 J-1.307
G3 X54.83 Y127.789 I-0.017 J-1.874
G3 X54.262 Y126.426 I1.307 J-1.344
G1 Y123.429
G1 Y123.418
G2 X54.205 Y123.279 I-0.19 J-0.004
G1 X54.197 Y123.271
G2 X54.058 Y123.214 I-0.136 J0.133
G1 X54.037
G2 X53.898 Y123.271 I-0.004 J0.19
G1 X53.89 Y123.279
G2 X53.833 Y123.418 I0.133 J0.136
G1 Y123.429
G1 Y126.429
G1 Y126.435
G2 X53.877 Y126.906 I2.249 J0.027
G0 Z10.0
G0 X54.031 Y111.833
G0 Z4.0
G1 F400.0 Z1.5
G1 F600.0 X54.037
G1 X54.058
G2 X54.197 Y111.776 I0.004 J-0.19
G1 X54.205 Y111.769
G2 X54.262 Y111.629 I-0.133 J-0.136
G1 Y111.619
G1 Y106.481
G3 X54.615 Y105.615 I1.19 J-0.019
G3 X55.481 Y105.262 I0.846 J0.836
G1 X62.562
G1 X62.619
G1 X62.629
G2 X62.769 Y105.205 I0.004 J-0.19
G1 X62.776 Y105.197
G2 X62.833 Y105.058 I-0.133 J-0.136
G1 Y105.037
G2 X62.776 Y104.898 I-0.19 J-0.004
G1 X62.769 Y104.89
G2 X62.629 Y104.833 I-0.136 J0.133
G1 X62.619
G1 X62.562
G1 X55.476
G1 X55.469
G2 X54.321 Y105.31 I-0.023 J1.564
G1 X54.31 Y105.321
G2 X53.833 Y106.469 I1.088 J1.124
G1 Y106.476
G1 Y111.562
G1 Y111.619
G1 Y111.629
G2 X53.89 Y111.769 I0.19 J0.004
G1 X53.898 Y111.776
G2 X54.031 Y111.833 I0.136 J-0.133
G1 F400.0 Z0.0
G1 F600.0 X54.037
G1 X54.058
G2 X54.197 Y111.776 I0.004 J-0.19
G1 X54.205 Y111.769
G2 X54.262 Y111.629 I-0.133 J-0.136
G1 Y111.619
G1 Y106.481
G3 X54.615 Y105.615 I1.19 J-0.019
G3 X55.481 Y105.262 I0.846 J0.836
G1 X62.562
G1 X62.619
G1 X62.629
G2 X62.769 Y105.205 I0.004 J-0.19
G1 X62.776 Y105.197
G2 X62.833 Y105.058 I-0.133 J-0.136
G1 Y105.037
G2 X62.776 Y104.898 I-0.19 J-0.004
G1 X62.769 Y104.89
G2 X62.629 Y104.833 I-0.136 J0.133
G1 X62.619
G1 X62.562
G1 X55.476
G1 X55.469
G2 X54.321 Y105.31 I-0.023 J1.564
G1 X54.31 Y105.321
G2 X53.833 Y106.469 I1.088 J1.124
G1 Y106.476
G1 Y111.562
G1 Y111.619
G1 Y111.629
G2 X53.89 Y111.769 I0.19 J0.004
G1 X53.898 Y111.776
G2 X54.031 Y111.833 I0.136 J-0.133
G0 Z10.0
G0 X46.166 Y112.308
G0 Z4.0
G1 F400.0 Z1.5
G2 F600.0 X46.11 Y112.184 I-0.189 J0.011
G1 X46.102 Y112.176
G2 X45.963 Y112.119 I-0.136 J0.133
G1 X45.952
G1 X39.181
G3 X38.84 Y111.253 I0.0 J-0.5
G1 X41.797 Y108.496
G1 X41.817 Y108.478
G2 X41.881 Y108.34 I-0.114 J-0.136
G1 Y108.327
G2 X41.819 Y108.179 I-0.201 J-0.003
G1 X41.813 Y108.173
G1 X41.791 Y108.151
G1 X38.841 Y105.414
G3 X39.181 Y104.548 I0.34 J-0.367
G1 X45.952
G1 X45.963
G2 X46.102 Y104.491 I0.004 J-0.19
G1 X46.11 Y104.483
G2 X46.167 Y104.344 I-0.133 J-0.136
G1 Y104.323
G2 X46.11 Y104.184 I-0.19 J-0.004
G1 X46.102 Y104.176
G2 X45.963 Y104.119 I-0.136 J0.133
G1 X45.952
G1 X37.381
G1 X37.371
G2 X37.231 Y104.176 I-0.004 J0.19
G1 X37.224 Y104.184
G2 X37.167 Y104.316 I0.133 J0.136
G2 X37.266 Y104.513 I0.292 J-0.024
G1 X37.28 Y104.526
G1 X40.952 Y107.969
G3 X40.951 Y108.699 I-0.342 J0.365
G1 X37.257 Y112.15
G1 X37.22 Y112.187
G1 X37.219 Y112.188
G2 X37.166 Y112.32 I0.126 J0.127
G1 X37.167 Y112.344
G2 X37.224 Y112.483 I0.19 J0.004
G1 X37.231 Y112.491
G2 X37.371 Y112.548 I0.136 J-0.133
G1 X37.381
G1 X45.952
G1 X45.963
G2 X46.102 Y112.491 I0.004 J-0.19
G1 X46.11 Y112.483
G2 X46.167 Y112.344 I-0.133 J-0.136
G1 Y112.323
G1 X46.166 Y112.308
G1 F400.0 Z0.0
G2 F600.0 X46.11 Y112.184 I-0.189 J0.011
G1 X46.102 Y112.176
G2 X45.963 Y112.119 I-0.136 J0.133
G1 X45.952
G1 X39.181
G3 X38.84 Y111.253 I0.0 J-0.5
G1 X41.797 Y108.496
G1 X41.817 Y108.478
G2 X41.881 Y108.34 I-0.114 J-0.136
G1 Y108.327
G2 X41.819 Y108.179 I-0.201 J-0.003
G1 X41.813 Y108.173
G1 X41.791 Y108.151
G1 X38.841 Y105.414
G3 X39.181 Y104.548 I0.34 J-0.367
G1 X45.952
G1 X45.963
G2 X46.102 Y104.491 I0.004 J-0.19
G1 X46.11 Y104.483
G2 X46.167 Y104.344 I-0.133 J-0.136
G1 Y104.323
G2 X46.11 Y104.184 I-0.19 J-0.004
G1 X46.102 Y104.176
G2 X45.963 Y104.119 I-0.136 J0.133
G1 X45.952
G1 X37.381
G1 X37.371
G2 X37.231 Y104.176 I-0.004 J0.19
G1 X37.224 Y104.184
G2 X37.167 Y104.316 I0.133 J0.136
G2 X37.266 Y104.513 I0.292 J-0.024
G1 X37.28 Y104.526
G1 X40.952 Y107.969
G3 X40.951 Y108.699 I-0.342 J0.365
G1 X37.257 Y112.15
G1 X37.22 Y112.187
G1 X37.219 Y112.188
G2 X37.166 Y112.32 I0.126 J0.127
G1 X37.167 Y112.344
G2 X37.224 Y112.483 I0.19 J0.004
G1 X37.231 Y112.491
G2 X37.371 Y112.548 I0.136 J-0.133
G1 X37.381
G1 X45.952
G1 X45.963
G2 X46.102 Y112.491 I0.004 J-0.19
G1 X46.11 Y112.483
G2 X46.167 Y112.344 I-0.133 J-0.136
G1 Y112.323
G1 X46.166 Y112.308
G0 Z10.0
G0 X45.969 Y95.167
G0 Z4.0
G1 F400.0 Z1.5
G2 F600.0 X46.102 Y95.11 I-0.002 J-0.19
G1 X46.11 Y95.102
G2 X46.167 Y94.963 I-0.133 J-0.136
G1 Y94.952
G1 Y89.81
G1 Y89.802
G2 X45.69 Y88.655 I-1.564 J-0.023
G1 X45.679 Y88.643
G2 X44.531 Y88.167 I-1.124 J1.088
G1 X44.524
G1 X38.81
G1 X38.802
G2 X37.655 Y88.643 I-0.023 J1.564
G1 X37.643 Y88.655
G2 X37.167 Y89.802 I1.088 J1.124
G1 Y89.81
G1 Y94.952
G1 Y94.963
G2 X37.224 Y95.102 I0.19 J0.004
G1 X37.231 Y95.11
G2 X37.371 Y95.167 I0.136 J-0.133
G1 X37.391
G2 X37.531 Y95.11 I0.004 J-0.19
G1 X37.538 Y95.102
G2 X37.595 Y94.963 I-0.133 J-0.136
G1 Y94.952
G1 Y89.814
G3 X37.949 Y88.949 I1.19 J-0.019
G3 X38.814 Y88.595 I0.846 J0.836
G1 X40.952
G3 X41.452 Y89.095 I0.0 J0.5
G1 Y93.524
G1 Y93.534
G2 X41.509 Y93.674 I0.19 J0.004
G1 X41.517 Y93.681
G2 X41.656 Y93.738 I0.136 J-0.133
G1 X41.677
G2 X41.816 Y93.681 I0.004 J-0.19
G1 X41.824 Y93.674
G2 X41.881 Y93.534 I-0.133 J-0.136
G1 Y93.524
G1 Y89.095
G3 X42.381 Y88.595 I0.5 J0.0
G1 X44.519
G3 X45.385 Y88.949 I0.019 J1.19
G3 X45.738 Y89.814 I-0.836 J0.846
G1 Y94.952
G1 Y94.963
G2 X45.795 Y95.102 I0.19 J0.004
G1 X45.803 Y95.11
G2 X45.942 Y95.167 I0.136 J-0.133
G1 X45.963
G1 X45.969
G1 F400.0 Z0.0
G2 F600.0 X46.102 Y95.11 I-0.002 J-0.19
G1 X46.11 Y95.102
G2 X46.167 Y94.963 I-0.133 J-0.136
G1 Y94.952
G1 Y89.81
G1 Y89.802
G2 X45.69 Y88.655 I-1.564 J-0.023
G1 X45.679 Y88.643
G2 X44.531 Y88.167 I-1.124 J1.088
G1 X44.524
G1 X38.81
G1 X38.802
G2 X37.655 Y88.643 I-0.023 J1.564
G1 X37.643 Y88.655
G2 X37.167 Y89.802 I1.088 J1.124
G1 Y89.81
G1 Y94.952
G1 Y94.963
G2 X37.224 Y95.102 I0.19 J0.004
G1 X37.231 Y95.11
G2 X37.371 Y95.167 I0.136 J-0.133
G1 X37.391
G2 X37.531 Y95.11 I0.004 J-0.19
G1 X37.538 Y95.102
G2 X37.595 Y94.963 I-0.133 J-0.136
G1 Y94.952
G1 Y89.814
G3 X37.949 Y88.949 I1.19 J-0.019
G3 X38.814 Y88.595 I0.846 J0.836
G1 X40.952
G3 X41.452 Y89.095 I0.0 J0.5
G1 Y93.524
G1 Y93.534
G2 X41.509 Y93.674 I0.19 J0.004
G1 X41.517 Y93.681
G2 X41.656 Y93.738 I0.136 J-0.133
G1 X41.677
G2 X41.816 Y93.681 I0.004 J-0.19
G1 X41.824 Y93.674
G2 X41.881 Y93.534 I-0.133 J-0.136
G1 Y93.524
G1 Y89.095
G3 X42.381 Y88.595 I0.5 J0.0
G1 X44.519
G3 X45.385 Y88.949 I0.019 J1.19
G3 X45.738 Y89.814 I-0.836 J0.846
G1 Y94.952
G1 Y94.963
G2 X45.795 Y95.102 I0.19 J0.004
G1 X45.803 Y95.11
G2 X45.942 Y95.167 I0.136 J-0.133
G1 X45.963
G1 X45.969
G0 Z10.0
G0 X53.833 Y95.187
G0 Z4.0
G1 F400.0 Z1.5
G2 F600.0 X53.93 Y95.35 I0.183 J0.0
G1 X53.962 Y95.368
G2 X54.13 Y95.363 I0.08 J-0.129
G1 X54.142 Y95.355
G1 X57.399 Y93.184
G3 X58.166 Y93.501 I0.277 J0.416
G2 X58.98 Y94.829 I2.223 J-0.448
G1 X58.991 Y94.838
G2 X60.472 Y95.371 I1.462 J-1.739
G1 X60.484
G2 X62.119 Y94.7 I0.036 J-2.237
G1 X62.13 Y94.689
G2 X62.833 Y93.068 I-1.585 J-1.651
G1 Y89.585
G1 Y89.578
G2 X62.357 Y88.43 I-1.564 J-0.023
G1 X62.345 Y88.419
G2 X61.198 Y87.942 I-1.124 J1.088
G1 X61.19
G1 X54.048
G1 X54.037
G2 X53.898 Y87.999 I-0.004 J0.19
G1 X53.89 Y88.007
G2 X53.833 Y88.146 I0.133 J0.136
G1 Y88.167
G2 X53.89 Y88.307 I0.19 J0.004
G1 X53.898 Y88.314
G2 X54.037 Y88.371 I0.136 J-0.133
G1 X54.048
G1 X54.105
G1 X61.186
G3 X62.051 Y88.725 I0.019 J1.19
G3 X62.405 Y89.59 I-0.836 J0.846
G1 Y93.071
G1 X62.404 Y93.09
G3 X61.809 Y94.402 I-1.902 J-0.071
G3 X60.476 Y94.942 I-1.315 J-1.33
G3 X59.143 Y94.402 I-0.018 J-1.87
G3 X58.548 Y93.09 I1.307 J-1.383
G1 Y93.071
G1 Y92.3
G1 Y92.289
G2 X58.491 Y92.15 I-0.19 J-0.004
G1 X58.483 Y92.142
G2 X58.344 Y92.085 I-0.136 J0.133
G1 X58.311
G1 X58.234 Y92.105
G1 X53.912 Y94.986
G2 X53.833 Y95.142 I0.102 J0.15
G1 Y95.18
G1 Y95.187
G1 F400.0 Z0.0
G2 F600.0 X53.93 Y95.35 I0.183 J0.0
G1 X53.962 Y95.368
G2 X54.13 Y95.363 I0.08 J-0.129
G1 X54.142 Y95.355
G1 X57.399 Y93.184
G3 X58.166 Y93.501 I0.277 J0.416
G2 X58.98 Y94.829 I2.223 J-0.448
G1 X58.991 Y94.838
G2 X60.472 Y95.371 I1.462 J-1.739
G1 X60.484
G2 X62.119 Y94.7 I0.036 J-2.237
G1 X62.13 Y94.689
G2 X62.833 Y93.068 I-1.585 J-1.651
G1 Y89.585
G1 Y89.578
G2 X62.357 Y88.43 I-1.564 J-0.023
G1 X62.345 Y88.419
G2 X61.198 Y87.942 I-1.124 J1.088
G1 X61.19
G1 X54.048
G1 X54.037
G2 X53.898 Y87.999 I-0.004 J0.19
G1 X53.89 Y88.007
G2 X53.833 Y88.146 I0.133 J0.136
G1 Y88.167
G2 X53.89 Y88.307 I0.19 J0.004
G1 X53.898 Y88.314
G2 X54.037 Y88.371 I0.136 J-0.133
G1 X54.048
G1 X54.105
G1 X61.186
G3 X62.051 Y88.725 I0.019 J1.19
G3 X62.405 Y89.59 I-0.836 J0.846
G1 Y93.071
G1 X62.404 Y93.09
G3 X61.809 Y94.402 I-1.902 J-0.071
G3 X60.476 Y94.942 I-1.315 J-1.33
G3 X59.143 Y94.402 I-0.018 J-1.87
G3 X58.548 Y93.09 I1.307 J-1.383
G1 Y93.071
G1 Y92.3
G1 Y92.289
G2 X58.491 Y92.15 I-0.19 J-0.004
G1 X58.483 Y92.142
G2 X58.344 Y92.085 I-0.136 J0.133
G1 X58.311
G1 X58.234 Y92.105
G1 X53.912 Y94.986
G2 X53.833 Y95.142 I0.102 J0.15
G1 Y95.18
G1 Y95.187
G0 Z10.0
G0 X55.88 Y78.697
G0 Z4.0
G1 F400.0 Z1.5
G2 F600.0 X56.184 Y78.714 I0.277 J-2.232
G1 X56.19
G1 X62.619
G1 X62.629
G2 X62.769 Y78.657 I0.004 J-0.19
G1 X62.776 Y78.65
G2 X62.833 Y78.51 I-0.133 J-0.136
G1 Y78.49
G2 X62.776 Y78.35 I-0.19 J-0.004
G1 X62.769 Y78.343
G2 X62.629 Y78.286 I-0.136 J0.133
G1 X62.619
G1 X56.193
G3 X54.83 Y77.718 I-0.019 J-1.874
G3 X54.262 Y76.354 I1.307 J-1.344
G1 Y73.646
G3 X54.83 Y72.282 I1.874 J-0.019
G3 X56.193 Y71.714 I1.344 J1.307
G1 X62.562
G1 X62.619
G1 X62.629
G2 X62.769 Y71.657 I0.004 J-0.19
G1 X62.776 Y71.65
G2 X62.833 Y71.51 I-0.133 J-0.136
G1 Y71.49
G2 X62.776 Y71.35 I-0.19 J-0.004
G1 X62.769 Y71.343
G2 X62.629 Y71.286 I-0.136 J0.133
G1 X62.619
G1 X62.562
G1 X56.19
G1 X56.184
G2 X54.537 Y71.975 I-0.027 J2.249
G1 X54.523 Y71.989
G2 X53.833 Y73.637 I1.559 J1.621
G1 Y73.643
G1 Y76.357
G1 Y76.363
G2 X54.523 Y78.011 I2.249 J0.027
G1 X54.537 Y78.025
G2 X55.88 Y78.697 I1.621 J-1.559
G1 F400.0 Z0.0
G2 F600.0 X56.184 Y78.714 I0.277 J-2.232
G1 X56.19
G1 X62.619
G1 X62.629
G2 X62.769 Y78.657 I0.004 J-0.19
G1 X62.776 Y78.65
G2 X62.833 Y78.51 I-0.133 J-0.136
G1 Y78.49
G2 X62.776 Y78.35 I-0.19 J-0.004
G1 X62.769 Y78.343
G2 X62.629 Y78.286 I-0.136 J0.133
G1 X62.619
G1 X56.193
G3 X54.83 Y77.718 I-0.019 J-1.874
G3 X54.262 Y76.354 I1.307 J-1.344
G1 Y73.646
G3 X54.83 Y72.282 I1.874 J-0.019
G3 X56.193 Y71.714 I1.344 J1.307
G1 X62.562
G1 X62.619
G1 X62.629
G2 X62.769 Y71.657 I0.004 J-0.19
G1 X62.776 Y71.65
G2 X62.833 Y71.51 I-0.133 J-0.136
G1 Y71.49
G2 X62.776 Y71.35 I-0.19 J-0.004
G1 X62.769 Y71.343
G2 X62.629 Y71.286 I-0.136 J0.133
G1 X62.619
G1 X62.562
G1 X56.19
G1 X56.184
G2 X54.537 Y71.975 I-0.027 J2.249
G1 X54.523 Y71.989
G2 X53.833 Y73.637 I1.559 J1.621
G1 Y73.643
G1 Y76.357
G1 Y76.363
G2 X54.523 Y78.011 I2.249 J0.027
G1 X54.537 Y78.025
G2 X55.88 Y78.697 I1.621 J-1.559
G0 Z10.0
G0 X46.13 Y76.93
G0 Z4.0
G1 F400.0 Z1.5
G2 F600.0 X46.167 Y76.504 I-2.255 J-0.409
G1 Y76.5
G1 Y73.643
G1 Y73.637
G2 X45.477 Y71.989 I-2.249 J-0.027
G1 X45.463 Y71.975
G2 X43.816 Y71.286 I-1.621 J1.559
G1 X43.81
G1 X39.524
G1 X39.518
G2 X37.87 Y71.975 I-0.027 J2.249
G1 X37.856 Y71.989
G2 X37.167 Y73.637 I1.559 J1.621
G1 Y73.643
G1 Y77.071
G1 Y77.079
G2 X37.643 Y78.226 I1.564 J0.023
G1 X37.655 Y78.238
G2 X38.802 Y78.714 I1.124 J-1.088
G1 X38.81
G1 X40.952
G1 X40.963
G2 X41.102 Y78.657 I0.004 J-0.19
G1 X41.11 Y78.65
G2 X41.167 Y78.51 I-0.133 J-0.136
G1 Y78.5
G1 Y75.5
G1 Y75.49
G2 X41.11 Y75.35 I-0.19 J-0.004
G1 X41.102 Y75.343
G2 X40.963 Y75.286 I-0.136 J0.133
G1 X40.942
G2 X40.803 Y75.343 I-0.004 J0.19
G1 X40.795 Y75.35
G2 X40.738 Y75.49 I0.133 J0.136
G1 Y75.5
G1 Y77.786
G3 X40.238 Y78.286 I-0.5 J0.0
G1 X38.814
G3 X37.949 Y77.932 I-0.019 J-1.19
G3 X37.595 Y77.067 I0.836 J-0.846
G1 Y73.646
G3 X38.163 Y72.282 I1.874 J-0.019
G3 X39.527 Y71.714 I1.344 J1.307
G1 X43.807
G3 X45.17 Y72.282 I0.019 J1.874
G3 X45.738 Y73.646 I-1.307 J1.344
G1 Y76.494
G3 X44.818 Y78.132 I-1.849 J0.039
G1 X44.799 Y78.143
G2 X44.723 Y78.28 I0.067 J0.128
G1 X44.724 Y78.325
G2 X44.781 Y78.464 I0.19 J0.004
G1 X44.788 Y78.472
G2 X44.925 Y78.529 I0.136 J-0.133
G2 X45.063 Y78.493 I-0.013 J-0.337
G2 X45.866 Y77.655 I-1.217 J-1.972
G1 X45.868 Y77.653
G2 X46.13 Y76.93 I-1.992 J-1.132
G1 F400.0 Z0.0
G2 F600.0 X46.167 Y76.504 I-2.255 J-0.409
G1 Y76.5
G1 Y73.643
G1 Y73.637
G2 X45.477 Y71.989 I-2.249 J-0.027
G1 X45.463 Y71.975
G2 X43.816 Y71.286 I-1.621 J1.559
G1 X43.81
G1 X39.524
G1 X39.518
G2 X37.87 Y71.975 I-0.027 J2.249
G1 X37.856 Y71.989
G2 X37.167 Y73.637 I1.559 J1.621
G1 Y73.643
G1 Y77.071
G1 Y77.079
G2 X37.643 Y78.226 I1.564 J0.023
G1 X37.655 Y78.238
G2 X38.802 Y78.714 I1.124 J-1.088
G1 X38.81
G1 X40.952
G1 X40.963
G2 X41.102 Y78.657 I0.004 J-0.19
G1 X41.11 Y78.65
G2 X41.167 Y78.51 I-0.133 J-0.136
G1 Y78.5
G1 Y75.5
G1 Y75.49
G2 X41.11 Y75.35 I-0.19 J-0.004
G1 X41.102 Y75.343
G2 X40.963 Y75.286 I-0.136 J0.133
G1 X40.942
G2 X40.803 Y75.343 I-0.004 J0.19
G1 X40.795 Y75.35
G2 X40.738 Y75.49 I0.133 J0.136
G1 Y75.5
G1 Y77.786
G3 X40.238 Y78.286 I-0.5 J0.0
G1 X38.814
G3 X37.949 Y77.932 I-0.019 J-1.19
G3 X37.595 Y77.067 I0.836 J-0.846
G1 Y73.646
G3 X38.163 Y72.282 I1.874 J-0.019
G3 X39.527 Y71.714 I1.344 J1.307
G1 X43.807
G3 X45.17 Y72.282 I0.019 J1.874
G3 X45.738 Y73.646 I-1.307 J1.344
G1 Y76.494
G3 X44.818 Y78.132 I-1.849 J0.039
G1 X44.799 Y78.143
G2 X44.723 Y78.28 I0.067 J0.128
G1 X44.724 Y78.325
G2 X44.781 Y78.464 I0.19 J0.004
G1 X44.788 Y78.472
G2 X44.925 Y78.529 I0.136 J-0.133
G2 X45.063 Y78.493 I-0.013 J-0.337
G2 X45.866 Y77.655 I-1.217 J-1.972
G1 X45.868 Y77.653
G2 X46.13 Y76.93 I-1.992 J-1.132
G0 Z10.0
G0 X37.489 Y61.808
G0 Z4.0
G1 F400.0 Z1.5
G1 F600.0 X37.531 Y61.776
G1 X37.538 Y61.769
G2 X37.595 Y61.629 I-0.133 J-0.136
G1 Y61.619
G1 Y56.481
G3 X37.949 Y55.615 I1.19 J-0.019
G3 X38.814 Y55.262 I0.846 J0.836
G1 X45.895
G1 X45.952
G1 X45.963
G2 X46.102 Y55.205 I0.004 J-0.19
G1 X46.11 Y55.197
G2 X46.167 Y55.058 I-0.133 J-0.136
G1 Y55.037
G2 X46.11 Y54.898 I-0.19 J-0.004
G1 X46.102 Y54.89
G2 X45.963 Y54.833 I-0.136 J0.133
G1 X45.952
G1 X45.895
G1 X38.81
G1 X38.802
G2 X37.655 Y55.31 I-0.023 J1.564
G1 X37.643 Y55.321
G2 X37.167 Y56.469 I1.088 J1.124
G1 Y56.476
G1 Y61.562
G1 Y61.619
G1 Y61.629
G2 X37.224 Y61.769 I0.19 J0.004
G1 X37.231 Y61.776
G2 X37.371 Y61.833 I0.136 J-0.133
G1 X37.391
G2 X37.489 Y61.808 I0.004 J-0.19
G1 F400.0 Z0.0
G1 F600.0 X37.531 Y61.776
G1 X37.538 Y61.769
G2 X37.595 Y61.629 I-0.133 J-0.136
G1 Y61.619
G1 Y56.481
G3 X37.949 Y55.615 I1.19 J-0.019
G3 X38.814 Y55.262 I0.846 J0.836
G1 X45.895
G1 X45.952
G1 X45.963
G2 X46.102 Y55.205 I0.004 J-0.19
G1 X46.11 Y55.197
G2 X46.167 Y55.058 I-0.133 J-0.136
G1 Y55.037
G2 X46.11 Y54.898 I-0.19 J-0.004
G1 X46.102 Y54.89
G2 X45.963 Y54.833 I-0.136 J0.133
G1 X45.952
G1 X45.895
G1 X38.81
G1 X38.802
G2 X37.655 Y55.31 I-0.023 J1.564
G1 X37.643 Y55.321
G2 X37.167 Y56.469 I1.088 J1.124
G1 Y56.476
G1 Y61.562
G1 Y61.619
G1 Y61.629
G2 X37.224 Y61.769 I0.19 J0.004
G1 X37.231 Y61.776
G2 X37.371 Y61.833 I0.136 J-0.133
G1 X37.391
G2 X37.489 Y61.808 I0.004 J-0.19
G0 Z10.0
G0 X37.365 Y46.167
G0 Z4.0
G1 F400.0 Z1.5
G2 F600.0 X37.497 Y46.128 I-0.02 J-0.315
G1 X37.515 Y46.119
G1 X45.986 Y41.891
G1 X46.059 Y41.861
G2 X46.168 Y41.701 I-0.047 J-0.149
G1 Y41.632
G2 X46.059 Y41.472 I-0.156 J-0.011
G1 X45.986 Y41.442
G1 X37.514 Y37.199
G1 X37.511 Y37.198
G2 X37.381 Y37.167 I-0.131 J0.258
G1 X37.371
G2 X37.231 Y37.224 I-0.004 J0.19
G1 X37.224 Y37.231
G2 X37.167 Y37.371 I0.133 J0.136
G1 Y37.38
G2 X37.308 Y37.587 I0.223 J0.0
G1 X37.347 Y37.605
G1 X39.033 Y38.448
G3 X39.31 Y38.895 I-0.224 J0.447
G1 Y41.667
G1 X39.309 Y41.677
G2 X39.366 Y41.816 I0.19 J0.004
G1 X39.374 Y41.824
G2 X39.513 Y41.881 I0.136 J-0.133
G1 X39.534
G2 X39.674 Y41.824 I0.004 J-0.19
G1 X39.681 Y41.816
G2 X39.738 Y41.677 I-0.133 J-0.136
G1 Y41.667
G1 Y39.61
G3 X40.462 Y39.162 I0.5 J0.0
G1 X44.576 Y41.219
G3 Y42.114 I-0.224 J0.447
G1 X37.347 Y45.728
G1 X37.299 Y45.749
G2 X37.167 Y45.944 I0.072 J0.192
G1 Y45.963
G2 X37.224 Y46.102 I0.19 J0.004
G1 X37.231 Y46.11
G2 X37.365 Y46.167 I0.136 J-0.133
G1 F400.0 Z0.0
G2 F600.0 X37.497 Y46.128 I-0.02 J-0.315
G1 X37.515 Y46.119
G1 X45.986 Y41.891
G1 X46.059 Y41.861
G2 X46.168 Y41.701 I-0.047 J-0.149
G1 Y41.632
G2 X46.059 Y41.472 I-0.156 J-0.011
G1 X45.986 Y41.442
G1 X37.514 Y37.199
G1 X37.511 Y37.198
G2 X37.381 Y37.167 I-0.131 J0.258
G1 X37.371
G2 X37.231 Y37.224 I-0.004 J0.19
G1 X37.224 Y37.231
G2 X37.167 Y37.371 I0.133 J0.136
G1 Y37.38
G2 X37.308 Y37.587 I0.223 J0.0
G1 X37.347 Y37.605
G1 X39.033 Y38.448
G3 X39.31 Y38.895 I-0.224 J0.447
G1 Y41.667
G1 X39.309 Y41.677
G2 X39.366 Y41.816 I0.19 J0.004
G1 X39.374 Y41.824
G2 X39.513 Y41.881 I0.136 J-0.133
G1 X39.534
G2 X39.674 Y41.824 I0.004 J-0.19
G1 X39.681 Y41.816
G2 X39.738 Y41.677 I-0.133 J-0.136
G1 Y41.667
G1 Y39.61
G3 X40.462 Y39.162 I0.5 J0.0
G1 X44.576 Y41.219
G3 Y42.114 I-0.224 J0.447
G1 X37.347 Y45.728
G1 X37.299 Y45.749
G2 X37.167 Y45.944 I0.072 J0.192
G1 Y45.963
G2 X37.224 Y46.102 I0.19 J0.004
G1 X37.231 Y46.11
G2 X37.365 Y46.167 I0.136 J-0.133
G0 Z10.0
G0 X53.847 Y43.975
G0 Z4.0
G1 F400.0 Z1.5
G2 F600.0 X54.31 Y44.893 I1.55 J-0.206
G1 X54.321 Y44.905
G2 X55.469 Y45.381 I1.124 J-1.088
G1 X55.476
G1 X57.619
G1 X57.629
G2 X57.769 Y45.324 I0.004 J-0.19
G1 X57.776 Y45.316
G2 X57.833 Y45.177 I-0.133 J-0.136
G1 Y45.167
G1 Y42.167
G1 Y42.156
G2 X57.776 Y42.017 I-0.19 J-0.004
G1 X57.769 Y42.009
G2 X57.629 Y41.952 I-0.136 J0.133
G1 X57.609
G2 X57.469 Y42.009 I-0.004 J0.19
G1 X57.462 Y42.017
G2 X57.405 Y42.156 I0.133 J0.136
G1 Y42.167
G1 Y44.452
G3 X56.905 Y44.952 I-0.5 J0.0
G1 X55.481
G3 X54.615 Y44.599 I-0.019 J-1.19
G3 X54.262 Y43.734 I0.836 J-0.846
G1 Y40.312
G3 X54.83 Y38.949 I1.874 J-0.019
G3 X56.193 Y38.381 I1.344 J1.307
G1 X60.473
G3 X61.837 Y38.949 I0.019 J1.874
G3 X62.405 Y40.312 I-1.307 J1.344
G1 Y43.161
G3 X61.484 Y44.799 I-1.849 J0.039
G1 X61.466 Y44.809
G2 X61.389 Y44.947 I0.067 J0.128
G1 X61.39 Y44.991
G2 X61.447 Y45.131 I0.19 J0.004
G1 X61.455 Y45.138
G2 X61.592 Y45.195 I0.136 J-0.133
G2 X61.729 Y45.16 I-0.013 J-0.337
G2 X62.533 Y44.322 I-1.217 J-1.972
G1 X62.534 Y44.32
G2 X62.833 Y43.17 I-1.992 J-1.132
G1 Y43.167
G1 Y40.31
G1 Y40.303
G2 X62.144 Y38.656 I-2.249 J-0.027
G1 X62.13 Y38.642
G2 X60.482 Y37.952 I-1.621 J1.559
G1 X60.476
G1 X56.19
G1 X56.184
G2 X54.537 Y38.642 I-0.027 J2.249
G1 X54.523 Y38.656
G2 X53.833 Y40.303 I1.559 J1.621
G1 Y40.31
G1 Y43.738
G1 Y43.746
G2 X53.847 Y43.975 I1.564 J0.023
G1 F400.0 Z0.0
G2 F600.0 X54.31 Y44.893 I1.55 J-0.206
G1 X54.321 Y44.905
G2 X55.469 Y45.381 I1.124 J-1.088
G1 X55.476
G1 X57.619
G1 X57.629
G2 X57.769 Y45.324 I0.004 J-0.19
G1 X57.776 Y45.316
G2 X57.833 Y45.177 I-0.133 J-0.136
G1 Y45.167
G1 Y42.167
G1 Y42.156
G2 X57.776 Y42.017 I-0.19 J-0.004
G1 X57.769 Y42.009
G2 X57.629 Y41.952 I-0.136 J0.133
G1 X57.609
G2 X57.469 Y42.009 I-0.004 J0.19
G1 X57.462 Y42.017
G2 X57.405 Y42.156 I0.133 J0.136
G1 Y42.167
G1 Y44.452
G3 X56.905 Y44.952 I-0.5 J0.0
G1 X55.481
G3 X54.615 Y44.599 I-0.019 J-1.19
G3 X54.262 Y43.734 I0.836 J-0.846
G1 Y40.312
G3 X54.83 Y38.949 I1.874 J-0.019
G3 X56.193 Y38.381 I1.344 J1.307
G1 X60.473
G3 X61.837 Y38.949 I0.019 J1.874
G3 X62.405 Y40.312 I-1.307 J1.344
G1 Y43.161
G3 X61.484 Y44.799 I-1.849 J0.039
G1 X61.466 Y44.809
G2 X61.389 Y44.947 I0.067 J0.128
G1 X61.39 Y44.991
G2 X61.447 Y45.131 I0.19 J0.004
G1 X61.455 Y45.138
G2 X61.592 Y45.195 I0.136 J-0.133
G2 X61.729 Y45.16 I-0.013 J-0.337
G2 X62.533 Y44.322 I-1.217 J-1.972
G1 X62.534 Y44.32
G2 X62.833 Y43.17 I-1.992 J-1.132
G1 Y43.167
G1 Y40.31
G1 Y40.303
G2 X62.144 Y38.656 I-2.249 J-0.027
G1 X62.13 Y38.642
G2 X60.482 Y37.952 I-1.621 J1.559
G1 X60.476
G1 X56.19
G1 X56.184
G2 X54.537 Y38.642 I-0.027 J2.249
G1 X54.523 Y38.656
G2 X53.833 Y40.303 I1.559 J1.621
G1 Y40.31
G1 Y43.738
G1 Y43.746
G2 X53.847 Y43.975 I1.564 J0.023
G0 Z10.0
G0 X55.76 Y54.654
G0 Z4.0
G1 F400.0 Z1.5
G2 F600.0 X54.537 Y55.309 I0.397 J2.214
G1 X54.523 Y55.322
G2 X53.833 Y56.97 I1.559 J1.621
G1 Y56.976
G1 Y59.69
G1 Y59.697
G2 X54.523 Y61.344 I2.249 J0.027
G1 X54.537 Y61.358
G2 X56.184 Y62.048 I1.621 J-1.559
G1 X56.19
G1 X62.619
G1 X62.629
G2 X62.769 Y61.991 I0.004 J-0.19
G1 X62.776 Y61.983
G2 X62.833 Y61.844 I-0.133 J-0.136
G1 Y61.823
G2 X62.776 Y61.684 I-0.19 J-0.004
G1 X62.769 Y61.676
G2 X62.629 Y61.619 I-0.136 J0.133
G1 X62.619
G1 X56.193
G3 X54.83 Y61.051 I-0.019 J-1.874
G3 X54.262 Y59.688 I1.307 J-1.344
G1 Y56.979
G3 X54.83 Y55.615 I1.874 J-0.019
G3 X56.193 Y55.048 I1.344 J1.307
G1 X62.562
G1 X62.619
G1 X62.629
G2 X62.769 Y54.991 I0.004 J-0.19
G1 X62.776 Y54.983
G2 X62.833 Y54.844 I-0.133 J-0.136
G1 Y54.823
G2 X62.776 Y54.684 I-0.19 J-0.004
G1 X62.769 Y54.676
G2 X62.629 Y54.619 I-0.136 J0.133
G1 X62.619
G1 X62.562
G1 X56.19
G1 X56.184
G2 X55.76 Y54.654 I-0.027 J2.249
G1 F400.0 Z0.0
G2 F600.0 X54.537 Y55.309 I0.397 J2.214
G1 X54.523 Y55.322
G2 X53.833 Y56.97 I1.559 J1.621
G1 Y56.976
G1 Y59.69
G1 Y59.697
G2 X54.523 Y61.344 I2.249 J0.027
G1 X54.537 Y61.358
G2 X56.184 Y62.048 I1.621 J-1.559
G1 X56.19
G1 X62.619
G1 X62.629
G2 X62.769 Y61.991 I0.004 J-0.19
G1 X62.776 Y61.983
G2 X62.833 Y61.844 I-0.133 J-0.136
G1 Y61.823
G2 X62.776 Y61.684 I-0.19 J-0.004
G1 X62.769 Y61.676
G2 X62.629 Y61.619 I-0.136 J0.133
G1 X62.619
G1 X56.193
G3 X54.83 Y61.051 I-0.019 J-1.874
G3 X54.262 Y59.688 I1.307 J-1.344
G1 Y56.979
G3 X54.83 Y55.615 I1.874 J-0.019
G3 X56.193 Y55.048 I1.344 J1.307
G1 X62.562
G1 X62.619
G1 X62.629
G2 X62.769 Y54.991 I0.004 J-0.19
G1 X62.776 Y54.983
G2 X62.833 Y54.844 I-0.133 J-0.136
G1 Y54.823
G2 X62.776 Y54.684 I-0.19 J-0.004
G1 X62.769 Y54.676
G2 X62.629 Y54.619 I-0.136 J0.133
G1 X62.619
G1 X62.562
G1 X56.19
G1 X56.184
G2 X55.76 Y54.654 I-0.027 J2.249
G0 Z10.0
G0 X70.5 Y55.734
G0 Z4.0
G1 F400.0 Z1.5
G1 F600.0 Y55.752
G1 Y55.762
G1 Y60.905
G1 Y60.915
G2 X70.557 Y61.055 I0.19 J0.004
G1 X70.564 Y61.062
G2 X70.704 Y61.119 I0.136 J-0.133
G1 X70.725
G2 X70.864 Y61.062 I0.004 J-0.19
G1 X70.872 Y61.055
G2 X70.929 Y60.915 I-0.133 J-0.136
G1 Y60.905
G1 Y59.048
G3 X71.429 Y58.548 I0.5 J0.0
G1 X78.571
G3 X79.071 Y59.048 I0.0 J0.5
G1 Y60.905
G1 Y60.915
G2 X79.128 Y61.055 I0.19 J0.004
G1 X79.136 Y61.062
G2 X79.275 Y61.119 I0.136 J-0.133
G1 X79.296
G2 X79.436 Y61.062 I0.004 J-0.19
G1 X79.443 Y61.055
G2 X79.5 Y60.915 I-0.133 J-0.136
G1 Y60.905
G1 Y60.848
G1 Y55.819
G1 Y55.762
G1 Y55.752
G2 X79.443 Y55.612 I-0.19 J-0.004
G1 X79.436 Y55.604
G2 X79.296 Y55.548 I-0.136 J0.133
G1 X79.275
G2 X79.136 Y55.604 I-0.004 J0.19
G1 X79.128 Y55.612
G2 X79.071 Y55.752 I0.133 J0.136
G1 Y55.762
G1 Y57.619
G3 X78.571 Y58.119 I-0.5 J0.0
G1 X71.429
G3 X70.929 Y57.619 I0.0 J-0.5
G1 Y55.819
G1 Y55.762
G1 Y55.752
G2 X70.872 Y55.612 I-0.19 J-0.004
G1 X70.864 Y55.604
G2 X70.725 Y55.548 I-0.136 J0.133
G1 X70.704
G2 X70.564 Y55.604 I-0.004 J0.19
G1 X70.557 Y55.612
G2 X70.5 Y55.734 I0.133 J0.136
G1 F400.0 Z0.0
G1 F600.0 Y55.752
G1 Y55.762
G1 Y60.905
G1 Y60.915
G2 X70.557 Y61.055 I0.19 J0.004
G1 X70.564 Y61.062
G2 X70.704 Y61.119 I0.136 J-0.133
G1 X70.725
G2 X70.864 Y61.062 I0.004 J-0.19
G1 X70.872 Y61.055
G2 X70.929 Y60.915 I-0.133 J-0.136
G1 Y60.905
G1 Y59.048
G3 X71.429 Y58.548 I0.5 J0.0
G1 X78.571
G3 X79.071 Y59.048 I0.0 J0.5
G1 Y60.905
G1 Y60.915
G2 X79.128 Y61.055 I0.19 J0.004
G1 X79.136 Y61.062
G2 X79.275 Y61.119 I0.136 J-0.133
G1 X79.296
G2 X79.436 Y61.062 I0.004 J-0.19
G1 X79.443 Y61.055
G2 X79.5 Y60.915 I-0.133 J-0.136
G1 Y60.905
G1 Y60.848
G1 Y55.819
G1 Y55.762
G1 Y55.752
G2 X79.443 Y55.612 I-0.19 J-0.004
G1 X79.436 Y55.604
G2 X79.296 Y55.548 I-0.136 J0.133
G1 X79.275
G2 X79.136 Y55.604 I-0.004 J0.19
G1 X79.128 Y55.612
G2 X79.071 Y55.752 I0.133 J0.136
G1 Y55.762
G1 Y57.619
G3 X78.571 Y58.119 I-0.5 J0.0
G1 X71.429
G3 X70.929 Y57.619 I0.0 J-0.5
G1 Y55.819
G1 Y55.762
G1 Y55.752
G2 X70.872 Y55.612 I-0.19 J-0.004
G1 X70.864 Y55.604
G2 X70.725 Y55.548 I-0.136 J0.133
G1 X70.704
G2 X70.564 Y55.604 I-0.004 J0.19
G1 X70.557 Y55.612
G2 X70.5 Y55.734 I0.133 J0.136
G0 Z10.0
G0 X79.148 Y45.692
G0 Z4.0
G1 F400.0 Z1.5
G2 F600.0 X79.275 Y45.738 I0.124 J-0.144
G1 X79.296
G2 X79.436 Y45.681 I0.004 J-0.19
G1 X79.443 Y45.674
G2 X79.5 Y45.534 I-0.133 J-0.136
G1 Y45.524
G1 Y37.81
G1 Y37.799
G2 X79.443 Y37.66 I-0.19 J-0.004
G1 X79.436 Y37.652
G2 X79.296 Y37.595 I-0.136 J0.133
G1 X79.275
G2 X79.136 Y37.652 I-0.004 J0.19
G1 X79.128 Y37.66
G2 X79.071 Y37.799 I0.133 J0.136
G1 Y37.81
G1 Y37.867
G1 Y40.952
G3 X78.571 Y41.452 I-0.5 J0.0
G1 X70.714
G1 X70.704
G2 X70.564 Y41.509 I-0.004 J0.19
G1 X70.557 Y41.517
G2 X70.5 Y41.656 I0.133 J0.136
G1 Y41.677
G2 X70.557 Y41.816 I0.19 J0.004
G1 X70.564 Y41.824
G2 X70.704 Y41.881 I0.136 J-0.133
G1 X70.714
G1 X70.771
G1 X78.571
G3 X79.071 Y42.381 I0.0 J0.5
G1 Y45.467
G1 Y45.524
G1 Y45.534
G2 X79.128 Y45.674 I0.19 J0.004
G1 X79.136 Y45.681
G1 X79.148 Y45.692
G1 F400.0 Z0.0
G2 F600.0 X79.275 Y45.738 I0.124 J-0.144
G1 X79.296
G2 X79.436 Y45.681 I0.004 J-0.19
G1 X79.443 Y45.674
G2 X79.5 Y45.534 I-0.133 J-0.136
G1 Y45.524
G1 Y37.81
G1 Y37.799
G2 X79.443 Y37.66 I-0.19 J-0.004
G1 X79.436 Y37.652
G2 X79.296 Y37.595 I-0.136 J0.133
G1 X79.275
G2 X79.136 Y37.652 I-0.004 J0.19
G1 X79.128 Y37.66
G2 X79.071 Y37.799 I0.133 J0.136
G1 Y37.81
G1 Y37.867
G1 Y40.952
G3 X78.571 Y41.452 I-0.5 J0.0
G1 X70.714
G1 X70.704
G2 X70.564 Y41.509 I-0.004 J0.19
G1 X70.557 Y41.517
G2 X70.5 Y41.656 I0.133 J0.136
G1 Y41.677
G2 X70.557 Y41.816 I0.19 J0.004
G1 X70.564 Y41.824
G2 X70.704 Y41.881 I0.136 J-0.133
G1 X70.714
G1 X70.771
G1 X78.571
G3 X79.071 Y42.381 I0.0 J0.5
G1 Y45.467
G1 Y45.524
G1 Y45.534
G2 X79.128 Y45.674 I0.19 J0.004
G1 X79.136 Y45.681
G1 X79.148 Y45.692
G0 Z10.0
G0 X87.167 Y44.983
G0 Z4.0
G1 F400.0 Z1.5
G2 F600.0 X87.224 Y45.102 I0.189 J-0.017
G1 X87.231 Y45.11
G2 X87.371 Y45.167 I0.136 J-0.133
G1 X87.391
G2 X87.531 Y45.11 I0.004 J-0.19
G1 X87.538 Y45.102
G2 X87.595 Y44.963 I-0.133 J-0.136
G1 Y44.952
G1 Y44.895
G1 Y39.824
G3 X88.4 Y39.427 I0.5 J0.0
G1 X95.842 Y45.144
G1 X95.932 Y45.167
G1 X95.963
G2 X96.102 Y45.11 I0.004 J-0.19
G1 X96.11 Y45.102
G2 X96.167 Y44.963 I-0.133 J-0.136
G1 Y44.952
G1 Y38.438
G1 Y38.381
G1 Y38.371
G2 X96.11 Y38.231 I-0.19 J-0.004
G1 X96.102 Y38.224
G2 X95.963 Y38.167 I-0.136 J0.133
G1 X95.942
G2 X95.803 Y38.224 I-0.004 J0.19
G1 X95.795 Y38.231
G2 X95.738 Y38.371 I0.133 J0.136
G1 Y38.381
G1 Y43.495
G3 X94.934 Y43.892 I-0.5 J0.0
G1 X87.52 Y38.221
G1 X87.501 Y38.205
G2 X87.391 Y38.167 I-0.106 J0.125
G1 X87.371
G2 X87.231 Y38.224 I-0.004 J0.19
G1 X87.224 Y38.231
G2 X87.167 Y38.371 I0.133 J0.136
G1 Y38.381
G1 Y44.895
G1 Y44.952
G1 Y44.963
G1 Y44.983
G1 F400.0 Z0.0
G2 F600.0 X87.224 Y45.102 I0.189 J-0.017
G1 X87.231 Y45.11
G2 X87.371 Y45.167 I0.136 J-0.133
G1 X87.391
G2 X87.531 Y45.11 I0.004 J-0.19
G1 X87.538 Y45.102
G2 X87.595 Y44.963 I-0.133 J-0.136
G1 Y44.952
G1 Y44.895
G1 Y39.824
G3 X88.4 Y39.427 I0.5 J0.0
G1 X95.842 Y45.144
G1 X95.932 Y45.167
G1 X95.963
G2 X96.102 Y45.11 I0.004 J-0.19
G1 X96.11 Y45.102
G2 X96.167 Y44.963 I-0.133 J-0.136
G1 Y44.952
G1 Y38.438
G1 Y38.381
G1 Y38.371
G2 X96.11 Y38.231 I-0.19 J-0.004
G1 X96.102 Y38.224
G2 X95.963 Y38.167 I-0.136 J0.133
G1 X95.942
G2 X95.803 Y38.224 I-0.004 J0.19
G1 X95.795 Y38.231
G2 X95.738 Y38.371 I0.133 J0.136
G1 Y38.381
G1 Y43.495
G3 X94.934 Y43.892 I-0.5 J0.0
G1 X87.52 Y38.221
G1 X87.501 Y38.205
G2 X87.391 Y38.167 I-0.106 J0.125
G1 X87.371
G2 X87.231 Y38.224 I-0.004 J0.19
G1 X87.224 Y38.231
G2 X87.167 Y38.371 I0.133 J0.136
G1 Y38.381
G1 Y44.895
G1 Y44.952
G1 Y44.963
G1 Y44.983
G0 Z10.0
G0 X88.56 Y54.848
G0 Z4.0
G1 F400.0 Z1.5
G2 F600.0 X87.655 Y55.31 I0.219 J1.549
G1 X87.643 Y55.321
G2 X87.167 Y56.469 I1.088 J1.124
G1 Y56.476
G1 Y61.619
G1 Y61.629
G2 X87.224 Y61.769 I0.19 J0.004
G1 X87.231 Y61.776
G2 X87.371 Y61.833 I0.136 J-0.133
G1 X87.391
G2 X87.531 Y61.776 I0.004 J-0.19
G1 X87.538 Y61.769
G2 X87.595 Y61.629 I-0.133 J-0.136
G1 Y61.619
G1 Y56.481
G3 X87.949 Y55.615 I1.19 J-0.019
G3 X88.814 Y55.262 I0.846 J0.836
G1 X90.952
G3 X91.452 Y55.762 I0.0 J0.5
G1 Y60.19
G1 Y60.201
G2 X91.509 Y60.34 I0.19 J0.004
G1 X91.517 Y60.348
G2 X91.656 Y60.405 I0.136 J-0.133
G1 X91.677
G2 X91.816 Y60.348 I0.004 J-0.19
G1 X91.824 Y60.34
G2 X91.881 Y60.201 I-0.133 J-0.136
G1 Y60.19
G1 Y55.762
G3 X92.381 Y55.262 I0.5 J0.0
G1 X94.519
G3 X95.385 Y55.615 I0.019 J1.19
G3 X95.738 Y56.481 I-0.836 J0.846
G1 Y61.619
G1 Y61.629
G2 X95.795 Y61.769 I0.19 J0.004
G1 X95.803 Y61.776
G2 X95.942 Y61.833 I0.136 J-0.133
G1 X95.963
G2 X96.102 Y61.776 I0.004 J-0.19
G1 X96.11 Y61.769
G2 X96.167 Y61.629 I-0.133 J-0.136
G1 Y61.619
G1 Y56.476
G1 Y56.469
G2 X95.69 Y55.321 I-1.564 J-0.023
G1 X95.679 Y55.31
G2 X94.531 Y54.833 I-1.124 J1.088
G1 X94.524
G1 X88.81
G1 X88.802
G2 X88.56 Y54.848 I-0.023 J1.564
G1 F400.0 Z0.0
G2 F600.0 X87.655 Y55.31 I0.219 J1.549
G1 X87.643 Y55.321
G2 X87.167 Y56.469 I1.088 J1.124
G1 Y56.476
G1 Y61.619
G1 Y61.629
G2 X87.224 Y61.769 I0.19 J0.004
G1 X87.231 Y61.776
G2 X87.371 Y61.833 I0.136 J-0.133
G1 X87.391
G2 X87.531 Y61.776 I0.004 J-0.19
G1 X87.538 Y61.769
G2 X87.595 Y61.629 I-0.133 J-0.136
G1 Y61.619
G1 Y56.481
G3 X87.949 Y55.615 I1.19 J-0.019
G3 X88.814 Y55.262 I0.846 J0.836
G1 X90.952
G3 X91.452 Y55.762 I0.0 J0.5
G1 Y60.19
G1 Y60.201
G2 X91.509 Y60.34 I0.19 J0.004
G1 X91.517 Y60.348
G2 X91.656 Y60.405 I0.136 J-0.133
G1 X91.677
G2 X91.816 Y60.348 I0.004 J-0.19
G1 X91.824 Y60.34
G2 X91.881 Y60.201 I-0.133 J-0.136
G1 Y60.19
G1 Y55.762
G3 X92.381 Y55.262 I0.5 J0.0
G1 X94.519
G3 X95.385 Y55.615 I0.019 J1.19
G3 X95.738 Y56.481 I-0.836 J0.846
G1 Y61.619
G1 Y61.629
G2 X95.795 Y61.769 I0.19 J0.004
G1 X95.803 Y61.776
G2 X95.942 Y61.833 I0.136 J-0.133
G1 X95.963
G2 X96.102 Y61.776 I0.004 J-0.19
G1 X96.11 Y61.769
G2 X96.167 Y61.629 I-0.133 J-0.136
G1 Y61.619
G1 Y56.476
G1 Y56.469
G2 X95.69 Y55.321 I-1.564 J-0.023
G1 X95.679 Y55.31
G2 X94.531 Y54.833 I-1.124 J1.088
G1 X94.524
G1 X88.81
G1 X88.802
G2 X88.56 Y54.848 I-0.023 J1.564
G0 Z10.0
G0 X103.833 Y54.316
G0 Z4.0
G1 F400.0 Z1.5
G2 F600.0 X103.933 Y54.513 I0.292 J-0.024
G1 X103.947 Y54.526
G1 X107.618 Y57.969
G3 Y58.699 I-0.342 J0.365
G1 X103.924 Y62.15
G1 X103.887 Y62.187
G1 X103.886 Y62.188
G2 X103.833 Y62.32 I0.126 J0.127
G1 Y62.344
G2 X103.89 Y62.483 I0.19 J0.004
G1 X103.898 Y62.491
G2 X104.037 Y62.548 I0.136 J-0.133
G1 X104.048
G1 X112.619
G1 X112.629
G2 X112.769 Y62.491 I0.004 J-0.19
G1 X112.776 Y62.483
G2 X112.833 Y62.344 I-0.133 J-0.136
G1 Y62.323
G2 X112.776 Y62.184 I-0.19 J-0.004
G1 X112.769 Y62.176
G2 X112.629 Y62.119 I-0.136 J0.133
G1 X112.619
G1 X105.848
G3 X105.507 Y61.253 I0.0 J-0.5
G1 X108.464 Y58.496
G1 X108.484 Y58.478
G2 X108.548 Y58.34 I-0.114 J-0.136
G1 Y58.327
G2 X108.486 Y58.179 I-0.201 J-0.003
G1 X108.48 Y58.173
G1 X108.458 Y58.151
G1 X105.508 Y55.414
G3 X105.848 Y54.548 I0.34 J-0.367
G1 X112.619
G1 X112.629
G2 X112.769 Y54.491 I0.004 J-0.19
G1 X112.776 Y54.483
G2 X112.833 Y54.344 I-0.133 J-0.136
G1 Y54.323
G2 X112.776 Y54.184 I-0.19 J-0.004
G1 X112.769 Y54.176
G2 X112.629 Y54.119 I-0.136 J0.133
G1 X112.619
G1 X104.048
G1 X104.037
G2 X103.898 Y54.176 I-0.004 J0.19
G1 X103.89 Y54.184
G2 X103.833 Y54.316 I0.133 J0.136
G1 F400.0 Z0.0
G2 F600.0 X103.933 Y54.513 I0.292 J-0.024
G1 X103.947 Y54.526
G1 X107.618 Y57.969
G3 Y58.699 I-0.342 J0.365
G1 X103.924 Y62.15
G1 X103.887 Y62.187
G1 X103.886 Y62.188
G2 X103.833 Y62.32 I0.126 J0.127
G1 Y62.344
G2 X103.89 Y62.483 I0.19 J0.004
G1 X103.898 Y62.491
G2 X104.037 Y62.548 I0.136 J-0.133
G1 X104.048
G1 X112.619
G1 X112.629
G2 X112.769 Y62.491 I0.004 J-0.19
G1 X112.776 Y62.483
G2 X112.833 Y62.344 I-0.133 J-0.136
G1 Y62.323
G2 X112.776 Y62.184 I-0.19 J-0.004
G1 X112.769 Y62.176
G2 X112.629 Y62.119 I-0.136 J0.133
G1 X112.619
G1 X105.848
G3 X105.507 Y61.253 I0.0 J-0.5
G1 X108.464 Y58.496
G1 X108.484 Y58.478
G2 X108.548 Y58.34 I-0.114 J-0.136
G1 Y58.327
G2 X108.486 Y58.179 I-0.201 J-0.003
G1 X108.48 Y58.173
G1 X108.458 Y58.151
G1 X105.508 Y55.414
G3 X105.848 Y54.548 I0.34 J-0.367
G1 X112.619
G1 X112.629
G2 X112.769 Y54.491 I0.004 J-0.19
G1 X112.776 Y54.483
G2 X112.833 Y54.344 I-0.133 J-0.136
G1 Y54.323
G2 X112.776 Y54.184 I-0.19 J-0.004
G1 X112.769 Y54.176
G2 X112.629 Y54.119 I-0.136 J0.133
G1 X112.619
G1 X104.048
G1 X104.037
G2 X103.898 Y54.176 I-0.004 J0.19
G1 X103.89 Y54.184
G2 X103.833 Y54.316 I0.133 J0.136
G0 Z10.0
G0 X112.471 Y45.683
G0 Z4.0
G1 F400.0 Z1.5
G2 F600.0 X112.609 Y45.738 I0.134 J-0.134
G1 X112.629
G2 X112.769 Y45.681 I0.004 J-0.19
G1 X112.776 Y45.674
G2 X112.833 Y45.534 I-0.133 J-0.136
G1 Y45.524
G1 Y37.81
G1 Y37.799
G2 X112.776 Y37.66 I-0.19 J-0.004
G1 X112.769 Y37.652
G2 X112.629 Y37.595 I-0.136 J0.133
G1 X112.609
G2 X112.469 Y37.652 I-0.004 J0.19
G1 X112.462 Y37.66
G2 X112.405 Y37.799 I0.133 J0.136
G1 Y37.81
G1 Y37.867
G1 Y40.952
G3 X111.905 Y41.452 I-0.5 J0.0
G1 X104.048
G1 X104.037
G2 X103.898 Y41.509 I-0.004 J0.19
G1 X103.89 Y41.517
G2 X103.833 Y41.656 I0.133 J0.136
G1 Y41.677
G2 X103.89 Y41.816 I0.19 J0.004
G1 X103.898 Y41.824
G2 X104.037 Y41.881 I0.136 J-0.133
G1 X104.048
G1 X104.105
G1 X111.905
G3 X112.405 Y42.381 I0.0 J0.5
G1 Y45.467
G1 Y45.524
G1 Y45.534
G2 X112.462 Y45.674 I0.19 J0.004
G1 X112.469 Y45.681
G1 X112.471 Y45.683
G1 F400.0 Z0.0
G2 F600.0 X112.609 Y45.738 I0.134 J-0.134
G1 X112.629
G2 X112.769 Y45.681 I0.004 J-0.19
G1 X112.776 Y45.674
G2 X112.833 Y45.534 I-0.133 J-0.136
G1 Y45.524
G1 Y37.81
G1 Y37.799
G2 X112.776 Y37.66 I-0.19 J-0.004
G1 X112.769 Y37.652
G2 X112.629 Y37.595 I-0.136 J0.133
G1 X112.609
G2 X112.469 Y37.652 I-0.004 J0.19
G1 X112.462 Y37.66
G2 X112.405 Y37.799 I0.133 J0.136
G1 Y37.81
G1 Y37.867
G1 Y40.952
G3 X111.905 Y41.452 I-0.5 J0.0
G1 X104.048
G1 X104.037
G2 X103.898 Y41.509 I-0.004 J0.19
G1 X103.89 Y41.517
G2 X103.833 Y41.656 I0.133 J0.136
G1 Y41.677
G2 X103.89 Y41.816 I0.19 J0.004
G1 X103.898 Y41.824
G2 X104.037 Y41.881 I0.136 J-0.133
G1 X104.048
G1 X104.105
G1 X111.905
G3 X112.405 Y42.381 I0.0 J0.5
G1 Y45.467
G1 Y45.524
G1 Y45.534
G2 X112.462 Y45.674 I0.19 J0.004
G1 X112.469 Y45.681
G1 X112.471 Y45.683
G0 Z10.0
G0 X120.566 Y43.671
G0 Z4.0
G1 F400.0 Z1.5
G2 F600.0 X121.19 Y44.749 I2.183 J-0.542
G1 X121.203 Y44.763
G2 X122.851 Y45.452 I1.621 J-1.559
G1 X122.857
G1 X127.143
G1 X127.149
G2 X128.797 Y44.763 I0.027 J-2.249
G1 X128.81 Y44.749
G2 X129.5 Y43.101 I-1.559 J-1.621
G1 Y43.095
G1 Y38.095
G1 Y38.085
G2 X129.443 Y37.945 I-0.19 J-0.004
G1 X129.436 Y37.938
G2 X129.296 Y37.881 I-0.136 J0.133
G1 X129.286
G1 X122.743
G1 X122.733
G2 X122.593 Y37.938 I-0.004 J0.19
G1 X122.585 Y37.945
G2 X122.528 Y38.085 I0.133 J0.136
G1 Y38.106
G2 X122.585 Y38.245 I0.19 J0.004
G1 X122.593 Y38.253
G2 X122.733 Y38.31 I0.136 J-0.133
G1 X122.743
G1 X128.571
G3 X129.071 Y38.81 I0.0 J0.5
G1 Y43.092
G3 X128.504 Y44.456 I-1.874 J0.019
G3 X127.14 Y45.024 I-1.344 J-1.307
G1 X122.86
G3 X121.496 Y44.456 I-0.019 J-1.874
G3 X120.929 Y43.092 I1.307 J-1.344
G1 Y40.095
G1 Y40.085
G2 X120.872 Y39.945 I-0.19 J-0.004
G1 X120.864 Y39.938
G2 X120.725 Y39.881 I-0.136 J0.133
G1 X120.704
G2 X120.564 Y39.938 I-0.004 J0.19
G1 X120.557 Y39.945
G2 X120.5 Y40.085 I0.133 J0.136
G1 Y40.095
G1 Y43.095
G1 Y43.101
G2 X120.566 Y43.671 I2.249 J0.027
G1 F400.0 Z0.0
G2 F600.0 X121.19 Y44.749 I2.183 J-0.542
G1 X121.203 Y44.763
G2 X122.851 Y45.452 I1.621 J-1.559
G1 X122.857
G1 X127.143
G1 X127.149
G2 X128.797 Y44.763 I0.027 J-2.249
G1 X128.81 Y44.749
G2 X129.5 Y43.101 I-1.559 J-1.621
G1 Y43.095
G1 Y38.095
G1 Y38.085
G2 X129.443 Y37.945 I-0.19 J-0.004
G1 X129.436 Y37.938
G2 X129.296 Y37.881 I-0.136 J0.133
G1 X129.286
G1 X122.743
G1 X122.733
G2 X122.593 Y37.938 I-0.004 J0.19
G1 X122.585 Y37.945
G2 X122.528 Y38.085 I0.133 J0.136
G1 Y38.106
G2 X122.585 Y38.245 I0.19 J0.004
G1 X122.593 Y38.253
G2 X122.733 Y38.31 I0.136 J-0.133
G1 X122.743
G1 X128.571
G3 X129.071 Y38.81 I0.0 J0.5
G1 Y43.092
G3 X128.504 Y44.456 I-1.874 J0.019
G3 X127.14 Y45.024 I-1.344 J-1.307
G1 X122.86
G3 X121.496 Y44.456 I-0.019 J-1.874
G3 X120.929 Y43.092 I1.307 J-1.344
G1 Y40.095
G1 Y40.085
G2 X120.872 Y39.945 I-0.19 J-0.004
G1 X120.864 Y39.938
G2 X120.725 Y39.881 I-0.136 J0.133
G1 X120.704
G2 X120.564 Y39.938 I-0.004 J0.19
G1 X120.557 Y39.945
G2 X120.5 Y40.085 I0.133 J0.136
G1 Y40.095
G1 Y43.095
G1 Y43.101
G2 X120.566 Y43.671 I2.249 J0.027
G0 Z10.0
G0 X120.698 Y54.609
G0 Z4.0
G1 F400.0 Z1.5
G2 F600.0 X120.564 Y54.666 I0.002 J0.19
G1 X120.557 Y54.674
G2 X120.5 Y54.813 I0.133 J0.136
G1 Y54.834
G2 X120.557 Y54.973 I0.19 J0.004
G1 X120.564 Y54.981
G2 X120.704 Y55.038 I0.136 J-0.133
G1 X120.714
G1 X120.771
G1 X127.853
G3 X128.718 Y55.391 I0.019 J1.19
G3 X129.071 Y56.256 I-0.836 J0.846
G1 Y59.738
G1 Y59.756
G3 X128.476 Y61.069 I-1.902 J-0.071
G3 X127.143 Y61.609 I-1.315 J-1.33
G3 X125.81 Y61.069 I-0.018 J-1.87
G3 X125.215 Y59.756 I1.307 J-1.383
G1 X125.214 Y59.738
G1 Y58.966
G1 Y58.956
G2 X125.157 Y58.816 I-0.19 J-0.004
G1 X125.15 Y58.809
G2 X125.01 Y58.752 I-0.136 J0.133
G1 X124.977 Y58.751
G1 X124.901 Y58.771
G1 X120.579 Y61.653
G2 X120.5 Y61.808 I0.102 J0.15
G1 X120.499 Y61.846
G2 X120.597 Y62.017 I0.183 J0.008
G1 X120.628 Y62.035
G2 X120.797 Y62.03 I0.08 J-0.129
G1 X120.808 Y62.022
G1 X124.066 Y59.85
G3 X124.833 Y60.167 I0.277 J0.416
G2 X125.647 Y61.496 I2.223 J-0.448
G1 X125.657 Y61.505
G2 X127.139 Y62.038 I1.462 J-1.739
G1 X127.151
G2 X128.786 Y61.366 I0.036 J-2.237
G1 X128.797 Y61.356
G2 X129.5 Y59.735 I-1.585 J-1.651
G1 Y56.252
G1 Y56.244
G2 X129.024 Y55.097 I-1.564 J-0.023
G1 X129.012 Y55.085
G2 X127.865 Y54.609 I-1.124 J1.088
G1 X127.857
G1 X120.714
G1 X120.704
G1 X120.698
G1 F400.0 Z0.0
G2 F600.0 X120.564 Y54.666 I0.002 J0.19
G1 X120.557 Y54.674
G2 X120.5 Y54.813 I0.133 J0.136
G1 Y54.834
G2 X120.557 Y54.973 I0.19 J0.004
G1 X120.564 Y54.981
G2 X120.704 Y55.038 I0.136 J-0.133
G1 X120.714
G1 X120.771
G1 X127.853
G3 X128.718 Y55.391 I0.019 J1.19
G3 X129.071 Y56.256 I-0.836 J0.846
G1 Y59.738
G1 Y59.756
G3 X128.476 Y61.069 I-1.902 J-0.071
G3 X127.143 Y61.609 I-1.315 J-1.33
G3 X125.81 Y61.069 I-0.018 J-1.87
G3 X125.215 Y59.756 I1.307 J-1.383
G1 X125.214 Y59.738
G1 Y58.966
G1 Y58.956
G2 X125.157 Y58.816 I-0.19 J-0.004
G1 X125.15 Y58.809
G2 X125.01 Y58.752 I-0.136 J0.133
G1 X124.977 Y58.751
G1 X124.901 Y58.771
G1 X120.579 Y61.653
G2 X120.5 Y61.808 I0.102 J0.15
G1 X120.499 Y61.846
G2 X120.597 Y62.017 I0.183 J0.008
G1 X120.628 Y62.035
G2 X120.797 Y62.03 I0.08 J-0.129
G1 X120.808 Y62.022
G1 X124.066 Y59.85
G3 X124.833 Y60.167 I0.277 J0.416
G2 X125.647 Y61.496 I2.223 J-0.448
G1 X125.657 Y61.505
G2 X127.139 Y62.038 I1.462 J-1.739
G1 X127.151
G2 X128.786 Y61.366 I0.036 J-2.237
G1 X128.797 Y61.356
G2 X129.5 Y59.735 I-1.585 J-1.651
G1 Y56.252
G1 Y56.244
G2 X129.024 Y55.097 I-1.564 J-0.023
G1 X129.012 Y55.085
G2 X127.865 Y54.609 I-1.124 J1.088
G1 X127.857
G1 X120.714
G1 X120.704
G1 X120.698
G0 Z10.0
G0 X137.174 Y56.287
G0 Z4.0
G1 F400.0 Z1.5
G2 F600.0 X137.167 Y56.469 I1.556 J0.158
G1 Y56.476
G1 Y61.619
G1 Y61.629
G2 X137.224 Y61.769 I0.19 J0.004
G1 X137.231 Y61.776
G2 X137.371 Y61.833 I0.136 J-0.133
G1 X137.391
G2 X137.531 Y61.776 I0.004 J-0.19
G1 X137.538 Y61.769
G2 X137.595 Y61.629 I-0.133 J-0.136
G1 Y61.619
G1 Y56.481
G3 X137.949 Y55.615 I1.19 J-0.019
G3 X138.814 Y55.262 I0.846 J0.836
G1 X140.952
G3 X141.452 Y55.762 I0.0 J0.5
G1 Y60.19
G1 Y60.201
G2 X141.509 Y60.34 I0.19 J0.004
G1 X141.517 Y60.348
G2 X141.656 Y60.405 I0.136 J-0.133
G1 X141.677
G2 X141.816 Y60.348 I0.004 J-0.19
G1 X141.824 Y60.34
G2 X141.881 Y60.201 I-0.133 J-0.136
G1 Y60.19
G1 Y55.762
G3 X142.381 Y55.262 I0.5 J0.0
G1 X144.519
G3 X145.385 Y55.615 I0.019 J1.19
G3 X145.738 Y56.481 I-0.836 J0.846
G1 Y61.619
G1 Y61.629
G2 X145.795 Y61.769 I0.19 J0.004
G1 X145.803 Y61.776
G2 X145.942 Y61.833 I0.136 J-0.133
G1 X145.963
G2 X146.102 Y61.776 I0.004 J-0.19
G1 X146.11 Y61.769
G2 X146.167 Y61.629 I-0.133 J-0.136
G1 Y61.619
G1 Y56.476
G1 Y56.469
G2 X145.69 Y55.321 I-1.564 J-0.023
G1 X145.679 Y55.31
G2 X144.531 Y54.833 I-1.124 J1.088
G1 X144.524
G1 X138.81
G1 X138.802
G2 X137.655 Y55.31 I-0.023 J1.564
G1 X137.643 Y55.321
G2 X137.174 Y56.287 I1.088 J1.124
G1 F400.0 Z0.0
G2 F600.0 X137.167 Y56.469 I1.556 J0.158
G1 Y56.476
G1 Y61.619
G1 Y61.629
G2 X137.224 Y61.769 I0.19 J0.004
G1 X137.231 Y61.776
G2 X137.371 Y61.833 I0.136 J-0.133
G1 X137.391
G2 X137.531 Y61.776 I0.004 J-0.19
G1 X137.538 Y61.769
G2 X137.595 Y61.629 I-0.133 J-0.136
G1 Y61.619
G1 Y56.481
G3 X137.949 Y55.615 I1.19 J-0.019
G3 X138.814 Y55.262 I0.846 J0.836
G1 X140.952
G3 X141.452 Y55.762 I0.0 J0.5
G1 Y60.19
G1 Y60.201
G2 X141.509 Y60.34 I0.19 J0.004
G1 X141.517 Y60.348
G2 X141.656 Y60.405 I0.136 J-0.133
G1 X141.677
G2 X141.816 Y60.348 I0.004 J-0.19
G1 X141.824 Y60.34
G2 X141.881 Y60.201 I-0.133 J-0.136
G1 Y60.19
G1 Y55.762
G3 X142.381 Y55.262 I0.5 J0.0
G1 X144.519
G3 X145.385 Y55.615 I0.019 J1.19
G3 X145.738 Y56.481 I-0.836 J0.846
G1 Y61.619
G1 Y61.629
G2 X145.795 Y61.769 I0.19 J0.004
G1 X145.803 Y61.776
G2 X145.942 Y61.833 I0.136 J-0.133
G1 X145.963
G2 X146.102 Y61.776 I0.004 J-0.19
G1 X146.11 Y61.769
G2 X146.167 Y61.629 I-0.133 J-0.136
G1 Y61.619
G1 Y56.476
G1 Y56.469
G2 X145.69 Y55.321 I-1.564 J-0.023
G1 X145.679 Y55.31
G2 X144.531 Y54.833 I-1.124 J1.088
G1 X144.524
G1 X138.81
G1 X138.802
G2 X137.655 Y55.31 I-0.023 J1.564
G1 X137.643 Y55.321
G2 X137.174 Y56.287 I1.088 J1.124
G0 Z10.0
G0 X137.364 Y45.167
G0 Z4.0
G1 F400.0 Z1.5
G1 F600.0 X137.371
G1 X137.391
G2 X137.531 Y45.11 I0.004 J-0.19
G1 X137.538 Y45.102
G2 X137.595 Y44.963 I-0.133 J-0.136
G1 Y44.952
G1 Y44.895
G1 Y39.824
G3 X138.4 Y39.427 I0.5 J0.0
G1 X145.842 Y45.144
G1 X145.932 Y45.167
G1 X145.963
G2 X146.102 Y45.11 I0.004 J-0.19
G1 X146.11 Y45.102
G2 X146.167 Y44.963 I-0.133 J-0.136
G1 Y44.952
G1 Y38.438
G1 Y38.381
G1 Y38.371
G2 X146.11 Y38.231 I-0.19 J-0.004
G1 X146.102 Y38.224
G2 X145.963 Y38.167 I-0.136 J0.133
G1 X145.942
G2 X145.803 Y38.224 I-0.004 J0.19
G1 X145.795 Y38.231
G2 X145.738 Y38.371 I0.133 J0.136
G1 Y38.381
G1 Y43.495
G3 X144.934 Y43.892 I-0.5 J0.0
G1 X137.52 Y38.221
G1 X137.501 Y38.205
G2 X137.391 Y38.167 I-0.106 J0.125
G1 X137.371
G2 X137.231 Y38.224 I-0.004 J0.19
G1 X137.224 Y38.231
G2 X137.167 Y38.371 I0.133 J0.136
G1 Y38.381
G1 Y44.895
G1 Y44.952
G1 Y44.963
G2 X137.224 Y45.102 I0.19 J0.004
G1 X137.231 Y45.11
G2 X137.364 Y45.167 I0.136 J-0.133
G1 F400.0 Z0.0
G1 F600.0 X137.371
G1 X137.391
G2 X137.531 Y45.11 I0.004 J-0.19
G1 X137.538 Y45.102
G2 X137.595 Y44.963 I-0.133 J-0.136
G1 Y44.952
G1 Y44.895
G1 Y39.824
G3 X138.4 Y39.427 I0.5 J0.0
G1 X145.842 Y45.144
G1 X145.932 Y45.167
G1 X145.963
G2 X146.102 Y45.11 I0.004 J-0.19
G1 X146.11 Y45.102
G2 X146.167 Y44.963 I-0.133 J-0.136
G1 Y44.952
G1 Y38.438
G1 Y38.381
G1 Y38.371
G2 X146.11 Y38.231 I-0.19 J-0.004
G1 X146.102 Y38.224
G2 X145.963 Y38.167 I-0.136 J0.133
G1 X145.942
G2 X145.803 Y38.224 I-0.004 J0.19
G1 X145.795 Y38.231
G2 X145.738 Y38.371 I0.133 J0.136
G1 Y38.381
G1 Y43.495
G3 X144.934 Y43.892 I-0.5 J0.0
G1 X137.52 Y38.221
G1 X137.501 Y38.205
G2 X137.391 Y38.167 I-0.106 J0.125
G1 X137.371
G2 X137.231 Y38.224 I-0.004 J0.19
G1 X137.224 Y38.231
G2 X137.167 Y38.371 I0.133 J0.136
G1 Y38.381
G1 Y44.895
G1 Y44.952
G1 Y44.963
G2 X137.224 Y45.102 I0.19 J0.004
G1 X137.231 Y45.11
G2 X137.364 Y45.167 I0.136 J-0.133
G0 Z10.0
G0 X153.834 Y43.458
G0 Z4.0
G1 F400.0 Z1.5
G2 F600.0 X153.89 Y43.574 I0.189 J-0.02
G1 X153.898 Y43.581
G2 X154.037 Y43.638 I0.136 J-0.133
G1 X154.058
G2 X154.197 Y43.581 I0.004 J-0.19
G1 X154.205 Y43.574
G2 X154.262 Y43.434 I-0.133 J-0.136
G1 Y43.424
G1 Y40.027
G3 X154.83 Y38.663 I1.874 J-0.019
G3 X156.193 Y38.095 I1.344 J1.307
G1 X160.473
G3 X161.837 Y38.663 I0.019 J1.874
G3 X162.405 Y40.027 I-1.307 J1.344
G1 Y43.307
G3 X161.837 Y44.67 I-1.874 J0.019
G3 X160.473 Y45.238 I-1.344 J-1.307
G1 X156.076
G1 X156.066
G2 X155.926 Y45.295 I-0.004 J0.19
G1 X155.919 Y45.303
G2 X155.862 Y45.442 I0.133 J0.136
G1 Y45.463
G2 X155.919 Y45.602 I0.19 J0.004
G1 X155.926 Y45.61
G2 X156.066 Y45.667 I0.136 J-0.133
G1 X156.076
G1 X160.476
G1 X160.482
G2 X162.13 Y44.977 I0.027 J-2.249
G1 X162.144 Y44.963
G2 X162.833 Y43.316 I-1.559 J-1.621
G1 Y43.31
G1 Y40.024
G1 Y40.018
G2 X162.144 Y38.37 I-2.249 J-0.027
G1 X162.13 Y38.356
G2 X160.482 Y37.667 I-1.621 J1.559
G1 X160.476
G1 X156.19
G1 X156.184
G2 X154.537 Y38.356 I-0.027 J2.249
G1 X154.523 Y38.37
G2 X153.833 Y40.018 I1.559 J1.621
G1 Y40.024
G1 Y43.424
G1 Y43.434
G1 X153.834 Y43.458
G1 F400.0 Z0.0
G2 F600.0 X153.89 Y43.574 I0.189 J-0.02
G1 X153.898 Y43.581
G2 X154.037 Y43.638 I0.136 J-0.133
G1 X154.058
G2 X154.197 Y43.581 I0.004 J-0.19
G1 X154.205 Y43.574
G2 X154.262 Y43.434 I-0.133 J-0.136
G1 Y43.424
G1 Y40.027
G3 X154.83 Y38.663 I1.874 J-0.019
G3 X156.193 Y38.095 I1.344 J1.307
G1 X160.473
G3 X161.837 Y38.663 I0.019 J1.874
G3 X162.405 Y40.027 I-1.307 J1.344
G1 Y43.307
G3 X161.837 Y44.67 I-1.874 J0.019
G3 X160.473 Y45.238 I-1.344 J-1.307
G1 X156.076
G1 X156.066
G2 X155.926 Y45.295 I-0.004 J0.19
G1 X155.919 Y45.303
G2 X155.862 Y45.442 I0.133 J0.136
G1 Y45.463
G2 X155.919 Y45.602 I0.19 J0.004
G1 X155.926 Y45.61
G2 X156.066 Y45.667 I0.136 J-0.133
G1 X156.076
G1 X160.476
G1 X160.482
G2 X162.13 Y44.977 I0.027 J-2.249
G1 X162.144 Y44.963
G2 X162.833 Y43.316 I-1.559 J-1.621
G1 Y43.31
G1 Y40.024
G1 Y40.018
G2 X162.144 Y38.37 I-2.249 J-0.027
G1 X162.13 Y38.356
G2 X160.482 Y37.667 I-1.621 J1.559
G1 X160.476
G1 X156.19
G1 X156.184
G2 X154.537 Y38.356 I-0.027 J2.249
G1 X154.523 Y38.37
G2 X153.833 Y40.018 I1.559 J1.621
G1 Y40.024
G1 Y43.424
G1 Y43.434
G1 X153.834 Y43.458
G0 Z10.0
G0 X159.737 Y55.243
G0 Z4.0
G1 F400.0 Z1.5
G1 F600.0 X154.014 Y58.109
G1 X153.941 Y58.139
G2 X153.832 Y58.299 I0.047 J0.149
G1 Y58.368
G2 X153.941 Y58.528 I0.156 J0.011
G1 X154.014 Y58.557
G1 X162.485 Y62.786
G1 X162.503 Y62.795
G2 X162.635 Y62.833 I0.152 J-0.277
G2 X162.769 Y62.776 I-0.001 J-0.19
G1 X162.776 Y62.769
G2 X162.833 Y62.629 I-0.133 J-0.136
G1 Y62.611
G2 X162.701 Y62.416 I-0.205 J-0.003
G1 X162.653 Y62.395
G1 X155.424 Y58.781
G3 Y57.886 I0.224 J-0.447
G1 X162.653 Y54.272
G1 X162.709 Y54.248
G2 X162.834 Y54.065 I-0.063 J-0.177
G1 X162.833 Y54.037
G2 X162.776 Y53.898 I-0.19 J-0.004
G1 X162.769 Y53.89
G2 X162.629 Y53.833 I-0.136 J0.133
G1 X162.619
G2 X162.489 Y53.865 I0.0 J0.289
G1 X162.486 Y53.866
G1 X159.737 Y55.243
G1 F400.0 Z0.0
G1 F600.0 X154.014 Y58.109
G1 X153.941 Y58.139
G2 X153.832 Y58.299 I0.047 J0.149
G1 Y58.368
G2 X153.941 Y58.528 I0.156 J0.011
G1 X154.014 Y58.557
G1 X162.485 Y62.786
G1 X162.503 Y62.795
G2 X162.635 Y62.833 I0.152 J-0.277
G2 X162.769 Y62.776 I-0.001 J-0.19
G1 X162.776 Y62.769
G2 X162.833 Y62.629 I-0.133 J-0.136
G1 Y62.611
G2 X162.701 Y62.416 I-0.205 J-0.003
G1 X162.653 Y62.395
G1 X155.424 Y58.781
G3 Y57.886 I0.224 J-0.447
G1 X162.653 Y54.272
G1 X162.709 Y54.248
G2 X162.834 Y54.065 I-0.063 J-0.177
G1 X162.833 Y54.037
G2 X162.776 Y53.898 I-0.19 J-0.004
G1 X162.769 Y53.89
G2 X162.629 Y53.833 I-0.136 J0.133
G1 X162.619
G2 X162.489 Y53.865 I0.0 J0.289
G1 X162.486 Y53.866
G1 X159.737 Y55.243
G0 Z10.0
G0 X170.5 Y55.739
G0 Z4.0
G1 F400.0 Z1.5
G1 F600.0 Y55.752
G1 Y55.762
G1 Y60.905
G1 Y60.915
G2 X170.557 Y61.055 I0.19 J0.004
G1 X170.564 Y61.062
G2 X170.704 Y61.119 I0.136 J-0.133
G1 X170.725
G2 X170.864 Y61.062 I0.004 J-0.19
G1 X170.872 Y61.055
G2 X170.929 Y60.915 I-0.133 J-0.136
G1 Y60.905
G1 Y59.048
G3 X171.429 Y58.548 I0.5 J0.0
G1 X178.571
G3 X179.071 Y59.048 I0.0 J0.5
G1 Y60.905
G1 Y60.915
G2 X179.128 Y61.055 I0.19 J0.004
G1 X179.136 Y61.062
G2 X179.275 Y61.119 I0.136 J-0.133
G1 X179.296
G2 X179.436 Y61.062 I0.004 J-0.19
G1 X179.443 Y61.055
G2 X179.5 Y60.915 I-0.133 J-0.136
G1 Y60.905
G1 Y60.848
G1 Y55.819
G1 Y55.762
G1 Y55.752
G2 X179.443 Y55.612 I-0.19 J-0.004
G1 X179.436 Y55.604
G2 X179.296 Y55.548 I-0.136 J0.133
G1 X179.275
G2 X179.136 Y55.604 I-0.004 J0.19
G1 X179.128 Y55.612
G2 X179.071 Y55.752 I0.133 J0.136
G1 Y55.762
G1 Y57.619
G3 X178.571 Y58.119 I-0.5 J0.0
G1 X171.429
G3 X170.929 Y57.619 I0.0 J-0.5
G1 Y55.819
G1 Y55.762
G1 Y55.752
G2 X170.872 Y55.612 I-0.19 J-0.004
G1 X170.864 Y55.604
G2 X170.725 Y55.548 I-0.136 J0.133
G1 X170.704
G2 X170.564 Y55.604 I-0.004 J0.19
G1 X170.557 Y55.612
G2 X170.5 Y55.739 I0.133 J0.136
G1 F400.0 Z0.0
G1 F600.0 Y55.752
G1 Y55.762
G1 Y60.905
G1 Y60.915
G2 X170.557 Y61.055 I0.19 J0.004
G1 X170.564 Y61.062
G2 X170.704 Y61.119 I0.136 J-0.133
G1 X170.725
G2 X170.864 Y61.062 I0.004 J-0.19
G1 X170.872 Y61.055
G2 X170.929 Y60.915 I-0.133 J-0.136
G1 Y60.905
G1 Y59.048
G3 X171.429 Y58.548 I0.5 J0.0
G1 X178.571
G3 X179.071 Y59.048 I0.0 J0.5
G1 Y60.905
G1 Y60.915
G2 X179.128 Y61.055 I0.19 J0.004
G1 X179.136 Y61.062
G2 X179.275 Y61.119 I0.136 J-0.133
G1 X179.296
G2 X179.436 Y61.062 I0.004 J-0.19
G1 X179.443 Y61.055
G2 X179.5 Y60.915 I-0.133 J-0.136
G1 Y60.905
G1 Y60.848
G1 Y55.819
G1 Y55.762
G1 Y55.752
G2 X179.443 Y55.612 I-0.19 J-0.004
G1 X179.436 Y55.604
G2 X179.296 Y55.548 I-0.136 J0.133
G1 X179.275
G2 X179.136 Y55.604 I-0.004 J0.19
G1 X179.128 Y55.612
G2 X179.071 Y55.752 I0.133 J0.136
G1 Y55.762
G1 Y57.619
G3 X178.571 Y58.119 I-0.5 J0.0
G1 X171.429
G3 X170.929 Y57.619 I0.0 J-0.5
G1 Y55.819
G1 Y55.762
G1 Y55.752
G2 X170.872 Y55.612 I-0.19 J-0.004
G1 X170.864 Y55.604
G2 X170.725 Y55.548 I-0.136 J0.133
G1 X170.704
G2 X170.564 Y55.604 I-0.004 J0.19
G1 X170.557 Y55.612
G2 X170.5 Y55.739 I0.133 J0.136
G0 Z10.0
G0 X176.07 Y44.581
G0 Z4.0
G1 F400.0 Z1.5
G1 F600.0 X179.152 Y46.119
G1 X179.169 Y46.128
G2 X179.301 Y46.167 I0.152 J-0.277
G2 X179.436 Y46.11 I-0.001 J-0.19
G1 X179.443 Y46.102
G2 X179.5 Y45.963 I-0.133 J-0.136
G1 Y45.944
G2 X179.367 Y45.749 I-0.205 J-0.003
G1 X179.319 Y45.728
G1 X172.091 Y42.114
G3 Y41.219 I0.224 J-0.447
G1 X179.319 Y37.605
G1 X179.375 Y37.581
G2 X179.5 Y37.398 I-0.063 J-0.177
G1 Y37.371
G2 X179.443 Y37.231 I-0.19 J-0.004
G1 X179.436 Y37.224
G2 X179.296 Y37.167 I-0.136 J0.133
G1 X179.286
G2 X179.155 Y37.198 I0.0 J0.289
G1 X179.152 Y37.199
G1 X170.681 Y41.442
G1 X170.608 Y41.472
G2 X170.499 Y41.632 I0.047 J0.149
G1 Y41.701
G2 X170.608 Y41.861 I0.156 J0.011
G1 X170.68 Y41.891
G1 X176.07 Y44.581
G1 F400.0 Z0.0
G1 F600.0 X179.152 Y46.119
G1 X179.169 Y46.128
G2 X179.301 Y46.167 I0.152 J-0.277
G2 X179.436 Y46.11 I-0.001 J-0.19
G1 X179.443 Y46.102
G2 X179.5 Y45.963 I-0.133 J-0.136
G1 Y45.944
G2 X179.367 Y45.749 I-0.205 J-0.003
G1 X179.319 Y45.728
G1 X172.091 Y42.114
G3 Y41.219 I0.224 J-0.447
G1 X179.319 Y37.605
G1 X179.375 Y37.581
G2 X179.5 Y37.398 I-0.063 J-0.177
G1 Y37.371
G2 X179.443 Y37.231 I-0.19 J-0.004
G1 X179.436 Y37.224
G2 X179.296 Y37.167 I-0.136 J0.133
G1 X179.286
G2 X179.155 Y37.198 I0.0 J0.289
G1 X179.152 Y37.199
G1 X170.681 Y41.442
G1 X170.608 Y41.472
G2 X170.499 Y41.632 I0.047 J0.149
G1 Y41.701
G2 X170.608 Y41.861 I0.156 J0.011
G1 X170.68 Y41.891
G1 X176.07 Y44.581
G0 Z10.0
G0 X187.166 Y45.201
G0 Z4.0
G1 F400.0 Z1.5
G1 F600.0 Y45.217
G1 X187.167 Y45.248
G2 X187.224 Y45.388 I0.19 J0.004
G1 X187.231 Y45.396
G2 X187.371 Y45.452 I0.136 J-0.133
G1 X187.381
G1 X187.438
G1 X195.952
G1 X195.963
G2 X196.102 Y45.396 I0.004 J-0.19
G1 X196.11 Y45.388
G2 X196.167 Y45.248 I-0.133 J-0.136
G1 Y45.228
G2 X196.11 Y45.088 I-0.19 J-0.004
G1 X196.102 Y45.081
G2 X195.963 Y45.024 I-0.136 J0.133
G1 X195.952
G1 X189.352
G3 X189.032 Y44.14 I0.0 J-0.5
G1 X196.075 Y38.268
G1 X196.088 Y38.258
G2 X196.167 Y38.097 I-0.125 J-0.16
G1 Y38.085
G2 X196.11 Y37.945 I-0.19 J-0.004
G1 X196.102 Y37.938
G2 X195.963 Y37.881 I-0.136 J0.133
G1 X195.952
G1 X187.438
G1 X187.381
G1 X187.371
G2 X187.231 Y37.938 I-0.004 J0.19
G1 X187.224 Y37.945
G2 X187.167 Y38.085 I0.133 J0.136
G1 Y38.106
G2 X187.224 Y38.245 I0.19 J0.004
G1 X187.231 Y38.253
G2 X187.371 Y38.31 I0.136 J-0.133
G1 X187.381
G1 X193.967
G3 X194.287 Y39.194 I0.0 J0.5
G1 X187.23 Y45.079
G1 X187.227 Y45.082
G2 X187.166 Y45.201 I0.105 J0.128
G1 F400.0 Z0.0
G1 F600.0 Y45.217
G1 X187.167 Y45.248
G2 X187.224 Y45.388 I0.19 J0.004
G1 X187.231 Y45.396
G2 X187.371 Y45.452 I0.136 J-0.133
G1 X187.381
G1 X187.438
G1 X195.952
G1 X195.963
G2 X196.102 Y45.396 I0.004 J-0.19
G1 X196.11 Y45.388
G2 X196.167 Y45.248 I-0.133 J-0.136
G1 Y45.228
G2 X196.11 Y45.088 I-0.19 J-0.004
G1 X196.102 Y45.081
G2 X195.963 Y45.024 I-0.136 J0.133
G1 X195.952
G1 X189.352
G3 X189.032 Y44.14 I0.0 J-0.5
G1 X196.075 Y38.268
G1 X196.088 Y38.258
G2 X196.167 Y38.097 I-0.125 J-0.16
G1 Y38.085
G2 X196.11 Y37.945 I-0.19 J-0.004
G1 X196.102 Y37.938
G2 X195.963 Y37.881 I-0.136 J0.133
G1 X195.952
G1 X187.438
G1 X187.381
G1 X187.371
G2 X187.231 Y37.938 I-0.004 J0.19
G1 X187.224 Y37.945
G2 X187.167 Y38.085 I0.133 J0.136
G1 Y38.106
G2 X187.224 Y38.245 I0.19 J0.004
G1 X187.231 Y38.253
G2 X187.371 Y38.31 I0.136 J-0.133
G1 X187.381
G1 X193.967
G3 X194.287 Y39.194 I0.0 J0.5
G1 X187.23 Y45.079
G1 X187.227 Y45.082
G2 X187.166 Y45.201 I0.105 J0.128
G0 Z10.0
G0 X189.051 Y54.662
G0 Z4.0
G1 F400.0 Z1.5
G2 F600.0 X187.87 Y55.309 I0.439 J2.206
G1 X187.856 Y55.322
G2 X187.167 Y56.97 I1.559 J1.621
G1 Y56.976
G1 Y59.69
G1 Y59.697
G2 X187.856 Y61.344 I2.249 J0.027
G1 X187.87 Y61.358
G2 X189.518 Y62.048 I1.621 J-1.559
G1 X189.524
G1 X195.952
G1 X195.963
G2 X196.102 Y61.991 I0.004 J-0.19
G1 X196.11 Y61.983
G2 X196.167 Y61.844 I-0.133 J-0.136
G1 Y61.823
G2 X196.11 Y61.684 I-0.19 J-0.004
G1 X196.102 Y61.676
G2 X195.963 Y61.619 I-0.136 J0.133
G1 X195.952
G1 X189.527
G3 X188.163 Y61.051 I-0.019 J-1.874
G3 X187.595 Y59.688 I1.307 J-1.344
G1 Y56.979
G3 X188.163 Y55.615 I1.874 J-0.019
G3 X189.527 Y55.048 I1.344 J1.307
G1 X195.895
G1 X195.952
G1 X195.963
G2 X196.102 Y54.991 I0.004 J-0.19
G1 X196.11 Y54.983
G2 X196.167 Y54.844 I-0.133 J-0.136
G1 Y54.823
G2 X196.11 Y54.684 I-0.19 J-0.004
G1 X196.102 Y54.676
G2 X195.963 Y54.619 I-0.136 J0.133
G1 X195.952
G1 X195.895
G1 X189.524
G1 X189.518
G2 X189.051 Y54.662 I-0.027 J2.249
G1 F400.0 Z0.0
G2 F600.0 X187.87 Y55.309 I0.439 J2.206
G1 X187.856 Y55.322
G2 X187.167 Y56.97 I1.559 J1.621
G1 Y56.976
G1 Y59.69
G1 Y59.697
G2 X187.856 Y61.344 I2.249 J0.027
G1 X187.87 Y61.358
G2 X189.518 Y62.048 I1.621 J-1.559
G1 X189.524
G1 X195.952
G1 X195.963
G2 X196.102 Y61.991 I0.004 J-0.19
G1 X196.11 Y61.983
G2 X196.167 Y61.844 I-0.133 J-0.136
G1 Y61.823
G2 X196.11 Y61.684 I-0.19 J-0.004
G1 X196.102 Y61.676
G2 X195.963 Y61.619 I-0.136 J0.133
G1 X195.952
G1 X189.527
G3 X188.163 Y61.051 I-0.019 J-1.874
G3 X187.595 Y59.688 I1.307 J-1.344
G1 Y56.979
G3 X188.163 Y55.615 I1.874 J-0.019
G3 X189.527 Y55.048 I1.344 J1.307
G1 X195.895
G1 X195.952
G1 X195.963
G2 X196.102 Y54.991 I0.004 J-0.19
G1 X196.11 Y54.983
G2 X196.167 Y54.844 I-0.133 J-0.136
G1 Y54.823
G2 X196.11 Y54.684 I-0.19 J-0.004
G1 X196.102 Y54.676
G2 X195.963 Y54.619 I-0.136 J0.133
G1 X195.952
G1 X195.895
G1 X189.524
G1 X189.518
G2 X189.051 Y54.662 I-0.027 J2.249
G0 Z10.0
G0 X203.842 Y56.276
G0 Z4.0
G1 F400.0 Z1.5
G2 F600.0 X203.833 Y56.469 I1.555 J0.17
G1 Y56.476
G1 Y61.619
G1 Y61.629
G2 X203.89 Y61.769 I0.19 J0.004
G1 X203.898 Y61.776
G2 X204.037 Y61.833 I0.136 J-0.133
G1 X204.058
G2 X204.197 Y61.776 I0.004 J-0.19
G1 X204.205 Y61.769
G2 X204.262 Y61.629 I-0.133 J-0.136
G1 Y61.619
G1 Y56.481
G3 X204.615 Y55.615 I1.19 J-0.019
G3 X205.481 Y55.262 I0.846 J0.836
G1 X207.619
G3 X208.119 Y55.762 I0.0 J0.5
G1 Y60.19
G1 Y60.201
G2 X208.176 Y60.34 I0.19 J0.004
G1 X208.184 Y60.348
G2 X208.323 Y60.405 I0.136 J-0.133
G1 X208.344
G2 X208.483 Y60.348 I0.004 J-0.19
G1 X208.491 Y60.34
G2 X208.548 Y60.201 I-0.133 J-0.136
G1 Y60.19
G1 Y55.762
G3 X209.048 Y55.262 I0.5 J0.0
G1 X211.186
G3 X212.051 Y55.615 I0.019 J1.19
G3 X212.405 Y56.481 I-0.836 J0.846
G1 Y61.619
G1 Y61.629
G2 X212.462 Y61.769 I0.19 J0.004
G1 X212.469 Y61.776
G2 X212.609 Y61.833 I0.136 J-0.133
G1 X212.629
G2 X212.769 Y61.776 I0.004 J-0.19
G1 X212.776 Y61.769
G2 X212.833 Y61.629 I-0.133 J-0.136
G1 Y61.619
G1 Y56.476
G1 Y56.469
G2 X212.357 Y55.321 I-1.564 J-0.023
G1 X212.345 Y55.31
G2 X211.198 Y54.833 I-1.124 J1.088
G1 X211.19
G1 X205.476
G1 X205.469
G2 X204.321 Y55.31 I-0.023 J1.564
G1 X204.31 Y55.321
G2 X203.842 Y56.276 I1.088 J1.124
G1 F400.0 Z0.0
G2 F600.0 X203.833 Y56.469 I1.555 J0.17
G1 Y56.476
G1 Y61.619
G1 Y61.629
G2 X203.89 Y61.769 I0.19 J0.004
G1 X203.898 Y61.776
G2 X204.037 Y61.833 I0.136 J-0.133
G1 X204.058
G2 X204.197 Y61.776 I0.004 J-0.19
G1 X204.205 Y61.769
G2 X204.262 Y61.629 I-0.133 J-0.136
G1 Y61.619
G1 Y56.481
G3 X204.615 Y55.615 I1.19 J-0.019
G3 X205.481 Y55.262 I0.846 J0.836
G1 X207.619
G3 X208.119 Y55.762 I0.0 J0.5
G1 Y60.19
G1 Y60.201
G2 X208.176 Y60.34 I0.19 J0.004
G1 X208.184 Y60.348
G2 X208.323 Y60.405 I0.136 J-0.133
G1 X208.344
G2 X208.483 Y60.348 I0.004 J-0.19
G1 X208.491 Y60.34
G2 X208.548 Y60.201 I-0.133 J-0.136
G1 Y60.19
G1 Y55.762
G3 X209.048 Y55.262 I0.5 J0.0
G1 X211.186
G3 X212.051 Y55.615 I0.019 J1.19
G3 X212.405 Y56.481 I-0.836 J0.846
G1 Y61.619
G1 Y61.629
G2 X212.462 Y61.769 I0.19 J0.004
G1 X212.469 Y61.776
G2 X212.609 Y61.833 I0.136 J-0.133
G1 X212.629
G2 X212.769 Y61.776 I0.004 J-0.19
G1 X212.776 Y61.769
G2 X212.833 Y61.629 I-0.133 J-0.136
G1 Y61.619
G1 Y56.476
G1 Y56.469
G2 X212.357 Y55.321 I-1.564 J-0.023
G1 X212.345 Y55.31
G2 X211.198 Y54.833 I-1.124 J1.088
G1 X211.19
G1 X205.476
G1 X205.469
G2 X204.321 Y55.31 I-0.023 J1.564
G1 X204.31 Y55.321
G2 X203.842 Y56.276 I1.088 J1.124
G0 Z10.0
G0 X204.03 Y45.453
G0 Z4.0
G1 F400.0 Z1.5
G1 F600.0 X204.037 Y45.452
G1 X204.048
G1 X212.619
G1 X212.629
G2 X212.769 Y45.396 I0.004 J-0.19
G1 X212.776 Y45.388
G2 X212.833 Y45.248 I-0.133 J-0.136
G1 Y45.228
G2 X212.776 Y45.088 I-0.19 J-0.004
G1 X212.769 Y45.081
G2 X212.629 Y45.024 I-0.136 J0.133
G1 X212.619
G1 X209.048
G3 X208.548 Y44.524 I0.0 J-0.5
G1 Y38.81
G3 X209.048 Y38.31 I0.5 J0.0
G1 X212.619
G1 X212.629
G2 X212.769 Y38.253 I0.004 J-0.19
G1 X212.776 Y38.245
G2 X212.833 Y38.106 I-0.133 J-0.136
G1 Y38.085
G2 X212.776 Y37.945 I-0.19 J-0.004
G1 X212.769 Y37.938
G2 X212.629 Y37.881 I-0.136 J0.133
G1 X212.619
G1 X204.048
G1 X204.037
G2 X203.898 Y37.938 I-0.004 J0.19
G1 X203.89 Y37.945
G2 X203.833 Y38.085 I0.133 J0.136
G1 Y38.106
G2 X203.89 Y38.245 I0.19 J0.004
G1 X203.898 Y38.253
G2 X204.037 Y38.31 I0.136 J-0.133
G1 X204.048
G1 X207.619
G3 X208.119 Y38.81 I0.0 J0.5
G1 Y44.524
