( Made using CamBam - http://www.cambam.co.uk )
( letterplaat_groot 11/1/2017 11:24:49 PM )
( T0 : 1.5 )
(G21 G90 G64 G40)
G0 Z10.0
( Profile1 )
G64 G17
M3 S1000
G0 X89.98 Y407.993
G0 Z4.0
G1 F300.0 Z1.5
G1 F800.0 Y415.493
G3 X89.23 Y416.243 I-0.75 J0.0
G1 X77.233
G3 X76.483 Y415.493 I0.0 J-0.75
G1 Y407.993
G1 Y407.98
G2 X76.27 Y407.461 I-0.705 J-0.013
G1 X76.268 Y407.459
G2 X75.74 Y407.249 I-0.513 J0.522
G1 X75.709
G2 X75.186 Y407.454 I-0.015 J0.731
G2 X74.98 Y407.978 I0.526 J0.508
G1 Y407.993
G1 Y425.996
G1 Y426.015
G2 X75.183 Y426.518 I0.682 J0.017
G1 X75.192 Y426.528
G2 X75.711 Y426.741 I0.505 J-0.492
G1 X75.738
G2 X76.257 Y426.528 I0.013 J-0.705
G1 X76.278 Y426.506
G2 X76.483 Y426.014 I-0.452 J-0.478
G1 Y425.996
G1 Y418.496
G3 X77.233 Y417.746 I0.75 J0.0
G1 X89.23
G3 X89.98 Y418.496 I0.0 J0.75
G1 Y425.996
G1 Y426.015
G2 X90.183 Y426.518 I0.682 J0.017
G1 X90.192 Y426.528
G2 X90.711 Y426.741 I0.505 J-0.492
G1 X90.738
G2 X91.257 Y426.528 I0.013 J-0.705
G1 X91.278 Y426.506
G2 X91.483 Y426.014 I-0.452 J-0.478
G1 Y425.996
G1 Y407.993
G1 Y407.98
G2 X91.27 Y407.461 I-0.705 J-0.013
G1 X91.268 Y407.459
G2 X90.74 Y407.249 I-0.513 J0.522
G1 X90.709
G2 X90.186 Y407.454 I-0.015 J0.731
G2 X89.98 Y407.978 I0.526 J0.508
G1 Y407.993
G1 F300.0 Z0.0
G1 F800.0 Y415.493
G3 X89.23 Y416.243 I-0.75 J0.0
G1 X77.233
G3 X76.483 Y415.493 I0.0 J-0.75
G1 Y407.993
G1 Y407.98
G2 X76.27 Y407.461 I-0.705 J-0.013
G1 X76.268 Y407.459
G2 X75.74 Y407.249 I-0.513 J0.522
G1 X75.709
G2 X75.186 Y407.454 I-0.015 J0.731
G2 X74.98 Y407.978 I0.526 J0.508
G1 Y407.993
G1 Y425.996
G1 Y426.015
G2 X75.183 Y426.518 I0.682 J0.017
G1 X75.192 Y426.528
G2 X75.711 Y426.741 I0.505 J-0.492
G1 X75.738
G2 X76.257 Y426.528 I0.013 J-0.705
G1 X76.278 Y426.506
G2 X76.483 Y426.014 I-0.452 J-0.478
G1 Y425.996
G1 Y418.496
G3 X77.233 Y417.746 I0.75 J0.0
G1 X89.23
G3 X89.98 Y418.496 I0.0 J0.75
G1 Y425.996
G1 Y426.015
G2 X90.183 Y426.518 I0.682 J0.017
G1 X90.192 Y426.528
G2 X90.711 Y426.741 I0.505 J-0.492
G1 X90.738
G2 X91.257 Y426.528 I0.013 J-0.705
G1 X91.278 Y426.506
G2 X91.483 Y426.014 I-0.452 J-0.478
G1 Y425.996
G1 Y407.993
G1 Y407.98
G2 X91.27 Y407.461 I-0.705 J-0.013
G1 X91.268 Y407.459
G2 X90.74 Y407.249 I-0.513 J0.522
G1 X90.709
G2 X90.186 Y407.454 I-0.015 J0.731
G2 X89.98 Y407.978 I0.526 J0.508
G1 Y407.993
G0 Z10.0
G0 X90.958 Y393.406
G0 Z4.0
G1 F300.0 Z1.5
G1 F800.0 X91.018 Y393.407
G1 X91.049
G2 X91.542 Y393.202 I0.015 J-0.658
G1 X91.571 Y393.173
G2 X91.776 Y392.68 I-0.452 J-0.478
G1 Y392.663
G1 Y374.777
G1 Y374.66
G1 Y374.646
G2 X91.563 Y374.128 I-0.705 J-0.013
G1 X91.554 Y374.118
G2 X91.051 Y373.916 I-0.485 J0.48
G1 X91.001 Y373.915
G2 X90.462 Y374.149 I-0.028 J0.676
G1 X78.102 Y388.969
G3 X76.776 Y388.488 I-0.576 J-0.48
G1 Y374.66
G1 Y374.646
G2 X76.563 Y374.128 I-0.705 J-0.013
G1 X76.554 Y374.118
G2 X76.051 Y373.916 I-0.485 J0.48
G1 X76.017
G2 X75.489 Y374.125 I-0.015 J0.731
G1 X75.486 Y374.128
G2 X75.273 Y374.646 I0.492 J0.505
G1 Y374.66
G1 Y374.777
G1 Y392.663
G1 Y392.68
G2 X75.478 Y393.173 I0.658 J0.015
G1 X75.5 Y393.194
G2 X76.018 Y393.407 I0.505 J-0.492
G1 X76.033
G2 X76.613 Y393.124 I0.001 J-0.735
G1 X76.628 Y393.106
G1 X88.947 Y378.325
G3 X90.273 Y378.806 I0.576 J0.48
G1 Y392.663
G1 Y392.68
G2 X90.478 Y393.173 I0.658 J0.015
G1 X90.5 Y393.194
G2 X90.958 Y393.406 I0.505 J-0.492
G1 F300.0 Z0.0
G1 F800.0 X91.018 Y393.407
G1 X91.049
G2 X91.542 Y393.202 I0.015 J-0.658
G1 X91.571 Y393.173
G2 X91.776 Y392.68 I-0.452 J-0.478
G1 Y392.663
G1 Y374.777
G1 Y374.66
G1 Y374.646
G2 X91.563 Y374.128 I-0.705 J-0.013
G1 X91.554 Y374.118
G2 X91.051 Y373.916 I-0.485 J0.48
G1 X91.001 Y373.915
G2 X90.462 Y374.149 I-0.028 J0.676
G1 X78.102 Y388.969
G3 X76.776 Y388.488 I-0.576 J-0.48
G1 Y374.66
G1 Y374.646
G2 X76.563 Y374.128 I-0.705 J-0.013
G1 X76.554 Y374.118
G2 X76.051 Y373.916 I-0.485 J0.48
G1 X76.017
G2 X75.489 Y374.125 I-0.015 J0.731
G1 X75.486 Y374.128
G2 X75.273 Y374.646 I0.492 J0.505
G1 Y374.66
G1 Y374.777
G1 Y392.663
G1 Y392.68
G2 X75.478 Y393.173 I0.658 J0.015
G1 X75.5 Y393.194
G2 X76.018 Y393.407 I0.505 J-0.492
G1 X76.033
G2 X76.613 Y393.124 I0.001 J-0.735
G1 X76.628 Y393.106
G1 X88.947 Y378.325
G3 X90.273 Y378.806 I0.576 J0.48
G1 Y392.663
G1 Y392.68
G2 X90.478 Y393.173 I0.658 J0.015
G1 X90.5 Y393.194
G2 X90.958 Y393.406 I0.505 J-0.492
G0 Z10.0
G0 X108.585 Y392.721
G0 Z4.0
G1 F300.0 Z1.5
G2 F800.0 X108.79 Y393.173 I0.657 J-0.026
G1 X108.812 Y393.194
G2 X109.33 Y393.407 I0.505 J-0.492
G1 X109.361
G2 X109.854 Y393.202 I0.015 J-0.658
G1 X109.883 Y393.173
G2 X110.088 Y392.68 I-0.452 J-0.478
G1 Y392.663
G1 Y392.546
G1 Y379.161
G3 X111.187 Y376.503 I3.675 J-0.037
G3 X113.845 Y375.404 I2.621 J2.577
G1 X119.535
G3 X122.178 Y376.502 I0.044 J3.627
G3 X123.292 Y379.161 I-2.537 J2.626
G1 Y392.663
G1 Y392.682
G2 X123.494 Y393.184 I0.682 J0.017
G1 X123.504 Y393.194
G2 X124.023 Y393.407 I0.505 J-0.492
G1 X124.05
G2 X124.569 Y393.194 I0.013 J-0.705
G1 X124.59 Y393.173
G2 X124.795 Y392.68 I-0.452 J-0.478
G1 Y392.663
G1 Y379.157
G1 Y379.148
G2 X123.253 Y375.464 I-5.028 J-0.06
G1 X123.235 Y375.446
G2 X119.549 Y373.916 I-3.623 J3.521
G1 X119.539
G1 X113.841
G1 X113.832
G2 X110.146 Y375.446 I-0.063 J5.052
G1 X110.128 Y375.464
G2 X108.585 Y379.148 I3.486 J3.624
G1 Y379.157
G1 Y392.546
G1 Y392.663
G1 Y392.68
G1 Y392.721
G1 F300.0 Z0.0
G2 F800.0 X108.79 Y393.173 I0.657 J-0.026
G1 X108.812 Y393.194
G2 X109.33 Y393.407 I0.505 J-0.492
G1 X109.361
G2 X109.854 Y393.202 I0.015 J-0.658
G1 X109.883 Y393.173
G2 X110.088 Y392.68 I-0.452 J-0.478
G1 Y392.663
G1 Y392.546
G1 Y379.161
G3 X111.187 Y376.503 I3.675 J-0.037
G3 X113.845 Y375.404 I2.621 J2.577
G1 X119.535
G3 X122.178 Y376.502 I0.044 J3.627
G3 X123.292 Y379.161 I-2.537 J2.626
G1 Y392.663
G1 Y392.682
G2 X123.494 Y393.184 I0.682 J0.017
G1 X123.504 Y393.194
G2 X124.023 Y393.407 I0.505 J-0.492
G1 X124.05
G2 X124.569 Y393.194 I0.013 J-0.705
G1 X124.59 Y393.173
G2 X124.795 Y392.68 I-0.452 J-0.478
G1 Y392.663
G1 Y379.157
G1 Y379.148
G2 X123.253 Y375.464 I-5.028 J-0.06
G1 X123.235 Y375.446
G2 X119.549 Y373.916 I-3.623 J3.521
G1 X119.539
G1 X113.841
G1 X113.832
G2 X110.146 Y375.446 I-0.063 J5.052
G1 X110.128 Y375.464
G2 X108.585 Y379.148 I3.486 J3.624
G1 Y379.157
G1 Y392.546
G1 Y392.663
G1 Y392.68
G1 Y392.721
G0 Z10.0
G0 X112.535 Y407.372
G0 Z4.0
G1 F300.0 Z1.5
G2 F800.0 X110.894 Y408.339 I0.932 J3.459
G1 X110.877 Y408.356
G2 X109.786 Y410.985 I2.492 J2.574
G1 Y410.996
G1 Y422.993
G1 Y423.005
G2 X110.877 Y425.633 I3.582 J0.055
G1 X110.894 Y425.65
G2 X113.522 Y426.741 I2.574 J-2.492
G1 X113.534 Y426.74
G1 X124.344
G1 X124.361 Y426.741
G2 X124.854 Y426.535 I0.015 J-0.658
G1 X124.883 Y426.506
G2 X125.088 Y426.014 I-0.452 J-0.478
G1 Y425.982
G2 X124.875 Y425.464 I-0.705 J-0.013
G1 X124.854 Y425.443
G2 X124.361 Y425.237 I-0.478 J0.452
G1 X124.344 Y425.238
G1 X113.54
G3 X111.932 Y424.576 I-0.033 J-2.205
G3 X111.289 Y422.985 I1.54 J-1.547
G1 Y418.496
G3 X112.039 Y417.746 I0.75 J0.0
G1 X121.341
G1 X121.355
G2 X121.873 Y417.533 I0.013 J-0.705
G1 X121.876 Y417.531
G2 X122.085 Y417.003 I-0.522 J-0.513
G1 Y416.974
G2 X121.872 Y416.455 I-0.705 J-0.013
G1 X121.863 Y416.446
G2 X121.36 Y416.243 I-0.485 J0.48
G1 X121.341
G1 X112.039
G3 X111.289 Y415.493 I0.0 J-0.75
G1 Y411.003
G3 X111.928 Y409.402 I2.231 J-0.038
G3 X113.54 Y408.738 I1.578 J1.54
G1 X124.344
G1 X124.361
G2 X124.854 Y408.532 I0.015 J-0.658
G1 X124.883 Y408.503
G2 X125.088 Y408.011 I-0.452 J-0.478
G1 Y407.98
G2 X124.875 Y407.461 I-0.705 J-0.013
G1 X124.866 Y407.451
G2 X124.363 Y407.249 I-0.485 J0.48
G1 X124.344
G1 X113.534
G1 X113.522
G2 X112.535 Y407.372 I-0.055 J3.582
G1 F300.0 Z0.0
G2 F800.0 X110.894 Y408.339 I0.932 J3.459
G1 X110.877 Y408.356
G2 X109.786 Y410.985 I2.492 J2.574
G1 Y410.996
G1 Y422.993
G1 Y423.005
G2 X110.877 Y425.633 I3.582 J0.055
G1 X110.894 Y425.65
G2 X113.522 Y426.741 I2.574 J-2.492
G1 X113.534 Y426.74
G1 X124.344
G1 X124.361 Y426.741
G2 X124.854 Y426.535 I0.015 J-0.658
G1 X124.883 Y426.506
G2 X125.088 Y426.014 I-0.452 J-0.478
G1 Y425.982
G2 X124.875 Y425.464 I-0.705 J-0.013
G1 X124.854 Y425.443
G2 X124.361 Y425.237 I-0.478 J0.452
G1 X124.344 Y425.238
G1 X113.54
G3 X111.932 Y424.576 I-0.033 J-2.205
G3 X111.289 Y422.985 I1.54 J-1.547
G1 Y418.496
G3 X112.039 Y417.746 I0.75 J0.0
G1 X121.341
G1 X121.355
G2 X121.873 Y417.533 I0.013 J-0.705
G1 X121.876 Y417.531
G2 X122.085 Y417.003 I-0.522 J-0.513
G1 Y416.974
G2 X121.872 Y416.455 I-0.705 J-0.013
G1 X121.863 Y416.446
G2 X121.36 Y416.243 I-0.485 J0.48
G1 X121.341
G1 X112.039
G3 X111.289 Y415.493 I0.0 J-0.75
G1 Y411.003
G3 X111.928 Y409.402 I2.231 J-0.038
G3 X113.54 Y408.738 I1.578 J1.54
G1 X124.344
G1 X124.361
G2 X124.854 Y408.532 I0.015 J-0.658
G1 X124.883 Y408.503
G2 X125.088 Y408.011 I-0.452 J-0.478
G1 Y407.98
G2 X124.875 Y407.461 I-0.705 J-0.013
G1 X124.866 Y407.451
G2 X124.363 Y407.249 I-0.485 J0.48
G1 X124.344
G1 X113.534
G1 X113.522
G2 X112.535 Y407.372 I-0.055 J3.582
G0 Z10.0
G0 X142.25 Y390.696
G0 Z4.0
G1 F300.0 Z1.5
G2 F800.0 X143.135 Y391.847 I4.406 J-2.473
G1 X143.153 Y391.865
G2 X146.837 Y393.407 I3.624 J-3.486
G1 X146.846
G1 X152.558
G1 X152.564
G2 X155.118 Y392.743 I0.036 J-5.104
G1 X155.121 Y392.741
G2 X157.018 Y390.922 I-2.558 J-4.564
G1 X157.052 Y390.871
G2 X157.078 Y390.189 I-0.489 J-0.36
G1 X157.051 Y390.142
G2 X156.409 Y389.779 I-0.604 J0.319
G1 X156.348 Y389.78
G2 X155.96 Y389.862 I-0.022 J0.85
G2 X155.747 Y390.086 I0.263 J0.464
G1 X155.716 Y390.142
G3 X154.39 Y391.44 I-3.286 J-2.031
G1 X154.372 Y391.45
G3 X152.552 Y391.904 I-1.762 J-3.191
G1 X146.85
G3 X144.203 Y390.788 I-0.04 J-3.603
G3 X143.107 Y388.149 I2.531 J-2.598
G3 X144.205 Y385.513 I3.659 J-0.024
G3 X146.85 Y384.413 I2.602 J2.527
G1 X152.851
G1 X152.86
G2 X156.544 Y382.871 I0.06 J-5.028
G1 X156.565 Y382.85
G2 X158.107 Y379.166 I-3.486 J-3.624
G1 Y379.148
G2 X156.565 Y375.464 I-5.028 J-0.06
G1 X156.547 Y375.446
G2 X152.861 Y373.916 I-3.623 J3.521
G1 X152.851
G1 X145.952
G1 X145.946
G2 X143.377 Y374.58 I-0.043 J5.132
G1 X143.374 Y374.582
G2 X141.496 Y376.396 I2.498 J4.465
G1 X141.486 Y376.413
G2 X141.384 Y376.77 I0.539 J0.346
G1 Y376.798
G2 X141.597 Y377.316 I0.705 J0.013
G1 X141.611 Y377.33
G2 X142.13 Y377.543 I0.505 J-0.492
G1 X142.165
G2 X142.784 Y377.199 I0.02 J-0.691
G1 X142.79 Y377.189
G3 X144.113 Y375.872 I3.273 J1.966
G1 X144.132 Y375.861
G3 X145.959 Y375.404 I1.766 J3.18
G1 X152.847
G3 X155.49 Y376.502 I0.044 J3.627
G3 X156.604 Y379.156 I-2.537 J2.626
G3 X155.491 Y381.797 I-3.603 J0.036
G3 X152.847 Y382.91 I-2.605 J-2.49
G1 X146.846
G1 X146.837
G2 X143.153 Y384.452 I-0.06 J5.028
G1 X143.134 Y384.471
G2 X141.604 Y388.143 I3.505 J3.615
G1 Y388.161
G2 X142.25 Y390.696 I5.052 J0.063
G1 F300.0 Z0.0
G2 F800.0 X143.135 Y391.847 I4.406 J-2.473
G1 X143.153 Y391.865
G2 X146.837 Y393.407 I3.624 J-3.486
G1 X146.846
G1 X152.558
G1 X152.564
G2 X155.118 Y392.743 I0.036 J-5.104
G1 X155.121 Y392.741
G2 X157.018 Y390.922 I-2.558 J-4.564
G1 X157.052 Y390.871
G2 X157.078 Y390.189 I-0.489 J-0.36
G1 X157.051 Y390.142
G2 X156.409 Y389.779 I-0.604 J0.319
G1 X156.348 Y389.78
G2 X155.96 Y389.862 I-0.022 J0.85
G2 X155.747 Y390.086 I0.263 J0.464
G1 X155.716 Y390.142
G3 X154.39 Y391.44 I-3.286 J-2.031
G1 X154.372 Y391.45
G3 X152.552 Y391.904 I-1.762 J-3.191
G1 X146.85
G3 X144.203 Y390.788 I-0.04 J-3.603
G3 X143.107 Y388.149 I2.531 J-2.598
G3 X144.205 Y385.513 I3.659 J-0.024
G3 X146.85 Y384.413 I2.602 J2.527
G1 X152.851
G1 X152.86
G2 X156.544 Y382.871 I0.06 J-5.028
G1 X156.565 Y382.85
G2 X158.107 Y379.166 I-3.486 J-3.624
G1 Y379.148
G2 X156.565 Y375.464 I-5.028 J-0.06
G1 X156.547 Y375.446
G2 X152.861 Y373.916 I-3.623 J3.521
G1 X152.851
G1 X145.952
G1 X145.946
G2 X143.377 Y374.58 I-0.043 J5.132
G1 X143.374 Y374.582
G2 X141.496 Y376.396 I2.498 J4.465
G1 X141.486 Y376.413
G2 X141.384 Y376.77 I0.539 J0.346
G1 Y376.798
G2 X141.597 Y377.316 I0.705 J0.013
G1 X141.611 Y377.33
G2 X142.13 Y377.543 I0.505 J-0.492
G1 X142.165
G2 X142.784 Y377.199 I0.02 J-0.691
G1 X142.79 Y377.189
G3 X144.113 Y375.872 I3.273 J1.966
G1 X144.132 Y375.861
G3 X145.959 Y375.404 I1.766 J3.18
G1 X152.847
G3 X155.49 Y376.502 I0.044 J3.627
G3 X156.604 Y379.156 I-2.537 J2.626
G3 X155.491 Y381.797 I-3.603 J0.036
G3 X152.847 Y382.91 I-2.605 J-2.49
G1 X146.846
G1 X146.837
G2 X143.153 Y384.452 I-0.06 J5.028
G1 X143.134 Y384.471
G2 X141.604 Y388.143 I3.505 J3.615
G1 Y388.161
G2 X142.25 Y390.696 I5.052 J0.063
G0 Z10.0
G0 X150.106 Y407.319
G0 Z4.0
G1 F300.0 Z1.5
G2 F800.0 X149.91 Y407.454 I0.313 J0.661
G2 X149.705 Y407.978 I0.526 J0.508
G1 Y407.993
G1 Y424.488
G3 X148.955 Y425.238 I-0.75 J0.0
G1 X142.466
G1 X142.348
G1 X142.335 Y425.237
G2 X141.816 Y425.45 I-0.013 J0.705
G1 X141.814 Y425.453
G2 X141.604 Y425.981 I0.522 J0.513
G1 Y426.015
G2 X141.806 Y426.518 I0.682 J0.017
G1 X141.816 Y426.528
G2 X142.335 Y426.741 I0.505 J-0.492
G1 X142.348 Y426.74
G1 X158.55
G1 X158.564 Y426.741
G2 X159.082 Y426.528 I0.013 J-0.705
G1 X159.103 Y426.506
G2 X159.309 Y426.014 I-0.452 J-0.478
G1 Y425.982
G2 X159.096 Y425.464 I-0.705 J-0.013
G1 X159.082 Y425.45
G2 X158.564 Y425.237 I-0.505 J0.492
G1 X158.55 Y425.238
G1 X158.432
G1 X151.958
G3 X151.208 Y424.488 I0.0 J-0.75
G1 Y408.111
G1 Y407.993
G1 Y407.98
G2 X150.995 Y407.461 I-0.705 J-0.013
G1 X150.993 Y407.459
G2 X150.465 Y407.249 I-0.513 J0.522
G1 X150.434
G2 X150.106 Y407.319 I-0.015 J0.731
G1 F300.0 Z0.0
G2 F800.0 X149.91 Y407.454 I0.313 J0.661
G2 X149.705 Y407.978 I0.526 J0.508
G1 Y407.993
G1 Y424.488
G3 X148.955 Y425.238 I-0.75 J0.0
G1 X142.466
G1 X142.348
G1 X142.335 Y425.237
G2 X141.816 Y425.45 I-0.013 J0.705
G1 X141.814 Y425.453
G2 X141.604 Y425.981 I0.522 J0.513
G1 Y426.015
G2 X141.806 Y426.518 I0.682 J0.017
G1 X141.816 Y426.528
G2 X142.335 Y426.741 I0.505 J-0.492
G1 X142.348 Y426.74
G1 X158.55
G1 X158.564 Y426.741
G2 X159.082 Y426.528 I0.013 J-0.705
G1 X159.103 Y426.506
G2 X159.309 Y426.014 I-0.452 J-0.478
G1 Y425.982
G2 X159.096 Y425.464 I-0.705 J-0.013
G1 X159.082 Y425.45
G2 X158.564 Y425.237 I-0.505 J0.492
G1 X158.55 Y425.238
G1 X158.432
G1 X151.958
G3 X151.208 Y424.488 I0.0 J-0.75
G1 Y408.111
G1 Y407.993
G1 Y407.98
G2 X150.995 Y407.461 I-0.705 J-0.013
G1 X150.993 Y407.459
G2 X150.465 Y407.249 I-0.513 J0.522
G1 X150.434
G2 X150.106 Y407.319 I-0.015 J0.731
G0 Z10.0
G0 X176.86 Y410.506
G0 Z4.0
G1 F300.0 Z1.5
G2 F800.0 X176.835 Y410.985 I3.557 J0.424
G1 Y410.996
G1 Y425.879
G1 Y425.996
G1 Y426.015
G2 X177.037 Y426.518 I0.682 J0.017
G1 X177.047 Y426.528
G2 X177.566 Y426.741 I0.505 J-0.492
G1 X177.593
G2 X178.112 Y426.528 I0.013 J-0.705
G1 X178.133 Y426.506
G2 X178.338 Y426.014 I-0.452 J-0.478
G1 Y425.996
G1 Y425.879
G1 Y411.003
G3 X178.977 Y409.402 I2.231 J-0.038
G3 X180.589 Y408.738 I1.578 J1.54
G1 X191.378
G1 X191.392
G2 X191.91 Y408.525 I0.013 J-0.705
G1 X191.932 Y408.503
G2 X192.137 Y408.011 I-0.452 J-0.478
G1 Y407.98
G2 X191.924 Y407.461 I-0.705 J-0.013
G1 X191.922 Y407.459
G2 X191.394 Y407.249 I-0.513 J0.522
G1 X191.378
G1 X191.261
G1 X180.582
G1 X180.571
G2 X177.942 Y408.339 I-0.055 J3.582
G1 X177.925 Y408.356
G2 X176.86 Y410.506 I2.492 J2.574
G1 F300.0 Z0.0
G2 F800.0 X176.835 Y410.985 I3.557 J0.424
G1 Y410.996
G1 Y425.879
G1 Y425.996
G1 Y426.015
G2 X177.037 Y426.518 I0.682 J0.017
G1 X177.047 Y426.528
G2 X177.566 Y426.741 I0.505 J-0.492
G1 X177.593
G2 X178.112 Y426.528 I0.013 J-0.705
G1 X178.133 Y426.506
G2 X178.338 Y426.014 I-0.452 J-0.478
G1 Y425.996
G1 Y425.879
G1 Y411.003
G3 X178.977 Y409.402 I2.231 J-0.038
G3 X180.589 Y408.738 I1.578 J1.54
G1 X191.378
G1 X191.392
G2 X191.91 Y408.525 I0.013 J-0.705
G1 X191.932 Y408.503
G2 X192.137 Y408.011 I-0.452 J-0.478
G1 Y407.98
G2 X191.924 Y407.461 I-0.705 J-0.013
G1 X191.922 Y407.459
G2 X191.394 Y407.249 I-0.513 J0.522
G1 X191.378
G1 X191.261
G1 X180.582
G1 X180.571
G2 X177.942 Y408.339 I-0.055 J3.582
G1 X177.925 Y408.356
G2 X176.86 Y410.506 I2.492 J2.574
G0 Z10.0
G0 X175.454 Y393.405
G0 Z4.0
G1 F300.0 Z1.5
G2 F800.0 X175.878 Y393.202 I-0.054 J-0.656
G1 X175.906 Y393.173
G2 X176.112 Y392.68 I-0.452 J-0.478
G1 Y392.663
G1 Y392.546
G1 Y385.163
G3 X176.862 Y384.413 I0.75 J0.0
G1 X182.15
G3 X182.726 Y384.683 I0.0 J0.75
G1 X189.801 Y393.164
G1 X189.804 Y393.168
G2 X190.338 Y393.408 I0.509 J-0.418
G1 X190.385 Y393.407
G2 X190.878 Y393.202 I0.015 J-0.658
G1 X190.906 Y393.173
G2 X191.112 Y392.68 I-0.452 J-0.478
G1 Y392.672
G2 X190.89 Y392.121 I-0.819 J0.01
G1 X190.86 Y392.088
G1 X184.239 Y384.134
G3 X184.24 Y383.174 I0.576 J-0.48
G1 X190.861 Y375.234
G1 X190.89 Y375.202
G2 X191.112 Y374.651 I-0.597 J-0.561
G1 Y374.646
G2 X190.899 Y374.128 I-0.705 J-0.013
G1 X190.889 Y374.118
G2 X190.386 Y373.916 I-0.485 J0.48
G1 X190.337 Y373.915
G2 X189.797 Y374.148 I-0.028 J0.676
G1 X182.726 Y382.64
G3 X182.15 Y382.91 I-0.576 J-0.48
G1 X176.862
G3 X176.112 Y382.16 I0.0 J-0.75
G1 Y374.66
G1 Y374.646
G2 X175.899 Y374.128 I-0.705 J-0.013
G1 X175.889 Y374.118
G2 X175.386 Y373.916 I-0.485 J0.48
G1 X175.352
G2 X174.824 Y374.125 I-0.015 J0.731
G1 X174.822 Y374.128
G2 X174.609 Y374.646 I0.492 J0.505
G1 Y374.66
G1 Y374.777
G1 Y392.663
G1 X174.608 Y392.68
G2 X174.814 Y393.173 I0.658 J0.015
G1 X174.835 Y393.194
G2 X175.354 Y393.407 I0.505 J-0.492
G1 X175.385
G1 X175.454 Y393.405
G1 F300.0 Z0.0
G2 F800.0 X175.878 Y393.202 I-0.054 J-0.656
G1 X175.906 Y393.173
G2 X176.112 Y392.68 I-0.452 J-0.478
G1 Y392.663
G1 Y392.546
G1 Y385.163
G3 X176.862 Y384.413 I0.75 J0.0
G1 X182.15
G3 X182.726 Y384.683 I0.0 J0.75
G1 X189.801 Y393.164
G1 X189.804 Y393.168
G2 X190.338 Y393.408 I0.509 J-0.418
G1 X190.385 Y393.407
G2 X190.878 Y393.202 I0.015 J-0.658
G1 X190.906 Y393.173
G2 X191.112 Y392.68 I-0.452 J-0.478
G1 Y392.672
G2 X190.89 Y392.121 I-0.819 J0.01
G1 X190.86 Y392.088
G1 X184.239 Y384.134
G3 X184.24 Y383.174 I0.576 J-0.48
G1 X190.861 Y375.234
G1 X190.89 Y375.202
G2 X191.112 Y374.651 I-0.597 J-0.561
G1 Y374.646
G2 X190.899 Y374.128 I-0.705 J-0.013
G1 X190.889 Y374.118
G2 X190.386 Y373.916 I-0.485 J0.48
G1 X190.337 Y373.915
G2 X189.797 Y374.148 I-0.028 J0.676
G1 X182.726 Y382.64
G3 X182.15 Y382.91 I-0.576 J-0.48
G1 X176.862
G3 X176.112 Y382.16 I0.0 J-0.75
G1 Y374.66
G1 Y374.646
G2 X175.899 Y374.128 I-0.705 J-0.013
G1 X175.889 Y374.118
G2 X175.386 Y373.916 I-0.485 J0.48
G1 X175.352
G2 X174.824 Y374.125 I-0.015 J0.731
G1 X174.822 Y374.128
G2 X174.609 Y374.646 I0.492 J0.505
G1 Y374.66
G1 Y374.777
G1 Y392.663
G1 X174.608 Y392.68
G2 X174.814 Y393.173 I0.658 J0.015
G1 X174.835 Y393.194
G2 X175.354 Y393.407 I0.505 J-0.492
G1 X175.385
G1 X175.454 Y393.405
G0 Z10.0
G0 X207.32 Y392.71
G0 Z4.0
G1 F300.0 Z1.5
G2 F800.0 X207.525 Y393.173 I0.658 J-0.014
G1 X207.547 Y393.194
G2 X208.065 Y393.407 I0.505 J-0.492
G1 X208.096
G2 X208.589 Y393.202 I0.015 J-0.658
G1 X208.618 Y393.173
G2 X208.823 Y392.68 I-0.452 J-0.478
G1 Y392.663
G1 Y378.439
G3 X210.123 Y377.929 I0.75 J0.0
G1 X215.87 Y384.13
G1 X215.919 Y384.179
G1 X215.929 Y384.189
G2 X216.464 Y384.413 I0.526 J-0.506
G1 X216.481
G2 X217.01 Y384.169 I0.007 J-0.681
G1 X217.037 Y384.139
G1 X222.823 Y377.928
G3 X224.122 Y378.439 I0.549 J0.511
G1 Y392.663
G1 Y392.68
G2 X224.327 Y393.173 I0.658 J0.015
G1 X224.348 Y393.194
G2 X224.867 Y393.407 I0.505 J-0.492
G1 X224.898
G2 X225.391 Y393.202 I0.015 J-0.658
G1 X225.42 Y393.173
G2 X225.625 Y392.68 I-0.452 J-0.478
G1 Y392.663
G1 Y374.66
G1 Y374.646
G2 X225.412 Y374.128 I-0.705 J-0.013
G1 X225.402 Y374.118
G2 X224.9 Y373.916 I-0.485 J0.48
G1 X224.86
G2 X224.351 Y374.112 I-0.019 J0.71
G1 X224.277 Y374.185
G1 X217.021 Y381.954
G3 X215.925 Y381.955 I-0.548 J-0.512
G1 X208.712 Y374.245
G2 X208.367 Y373.99 I-1.052 J1.067
G2 X208.073 Y373.916 I-0.299 J0.564
G1 X208.063
G2 X207.535 Y374.125 I-0.015 J0.731
G1 X207.533 Y374.128
G2 X207.32 Y374.646 I0.492 J0.505
G1 Y374.66
G1 Y392.663
G1 Y392.68
G1 Y392.71
G1 F300.0 Z0.0
G2 F800.0 X207.525 Y393.173 I0.658 J-0.014
G1 X207.547 Y393.194
G2 X208.065 Y393.407 I0.505 J-0.492
G1 X208.096
G2 X208.589 Y393.202 I0.015 J-0.658
G1 X208.618 Y393.173
G2 X208.823 Y392.68 I-0.452 J-0.478
G1 Y392.663
G1 Y378.439
G3 X210.123 Y377.929 I0.75 J0.0
G1 X215.87 Y384.13
G1 X215.919 Y384.179
G1 X215.929 Y384.189
G2 X216.464 Y384.413 I0.526 J-0.506
G1 X216.481
G2 X217.01 Y384.169 I0.007 J-0.681
G1 X217.037 Y384.139
G1 X222.823 Y377.928
G3 X224.122 Y378.439 I0.549 J0.511
G1 Y392.663
G1 Y392.68
G2 X224.327 Y393.173 I0.658 J0.015
G1 X224.348 Y393.194
G2 X224.867 Y393.407 I0.505 J-0.492
G1 X224.898
G2 X225.391 Y393.202 I0.015 J-0.658
G1 X225.42 Y393.173
G2 X225.625 Y392.68 I-0.452 J-0.478
G1 Y392.663
G1 Y374.66
G1 Y374.646
G2 X225.412 Y374.128 I-0.705 J-0.013
G1 X225.402 Y374.118
G2 X224.9 Y373.916 I-0.485 J0.48
G1 X224.86
G2 X224.351 Y374.112 I-0.019 J0.71
G1 X224.277 Y374.185
G1 X217.021 Y381.954
G3 X215.925 Y381.955 I-0.548 J-0.512
G1 X208.712 Y374.245
G2 X208.367 Y373.99 I-1.052 J1.067
G2 X208.073 Y373.916 I-0.299 J0.564
G1 X208.063
G2 X207.535 Y374.125 I-0.015 J0.731
G1 X207.533 Y374.128
G2 X207.32 Y374.646 I0.492 J0.505
G1 Y374.66
G1 Y392.663
G1 Y392.68
G1 Y392.71
G0 Z10.0
G0 X211.158 Y407.273
G0 Z4.0
G1 F300.0 Z1.5
G2 F800.0 X210.836 Y407.454 I0.186 J0.707
G2 X210.63 Y407.978 I0.526 J0.508
G1 Y408.012
G2 X210.833 Y408.515 I0.682 J0.017
G1 X210.843 Y408.525
G2 X211.361 Y408.738 I0.505 J-0.492
G1 X211.375
G1 X211.492
G1 X215.271
G3 X216.021 Y409.488 I0.0 J0.75
G1 Y424.488
G3 X215.271 Y425.238 I-0.75 J0.0
G1 X211.375
G1 X211.361 Y425.237
G2 X210.843 Y425.45 I-0.013 J0.705
G1 X210.84 Y425.453
G2 X210.63 Y425.981 I0.522 J0.513
G1 Y426.015
G2 X210.833 Y426.518 I0.682 J0.017
G1 X210.843 Y426.528
G2 X211.361 Y426.741 I0.505 J-0.492
G1 X211.375 Y426.74
G1 X211.492
G1 X222.053
G1 X222.171
G1 X222.185 Y426.741
G2 X222.703 Y426.528 I0.013 J-0.705
G1 X222.724 Y426.506
G2 X222.93 Y426.014 I-0.452 J-0.478
G1 Y425.982
G2 X222.717 Y425.464 I-0.705 J-0.013
G1 X222.703 Y425.45
G2 X222.185 Y425.237 I-0.505 J0.492
G1 X222.171 Y425.238
G1 X218.274
G3 X217.524 Y424.488 I0.0 J-0.75
G1 Y409.488
G3 X218.274 Y408.738 I0.75 J0.0
G1 X222.171
G1 X222.186
G2 X222.714 Y408.528 I0.015 J-0.731
G1 X222.717 Y408.526
G2 X222.93 Y408.007 I-0.492 J-0.505
G1 Y407.98
G2 X222.717 Y407.461 I-0.705 J-0.013
G1 X222.714 Y407.459
G2 X222.186 Y407.249 I-0.513 J0.522
G1 X222.171
G1 X211.375
G1 X211.359
G2 X211.158 Y407.273 I-0.015 J0.731
G1 F300.0 Z0.0
G2 F800.0 X210.836 Y407.454 I0.186 J0.707
G2 X210.63 Y407.978 I0.526 J0.508
G1 Y408.012
G2 X210.833 Y408.515 I0.682 J0.017
G1 X210.843 Y408.525
G2 X211.361 Y408.738 I0.505 J-0.492
G1 X211.375
G1 X211.492
G1 X215.271
G3 X216.021 Y409.488 I0.0 J0.75
G1 Y424.488
G3 X215.271 Y425.238 I-0.75 J0.0
G1 X211.375
G1 X211.361 Y425.237
G2 X210.843 Y425.45 I-0.013 J0.705
G1 X210.84 Y425.453
G2 X210.63 Y425.981 I0.522 J0.513
G1 Y426.015
G2 X210.833 Y426.518 I0.682 J0.017
G1 X210.843 Y426.528
G2 X211.361 Y426.741 I0.505 J-0.492
G1 X211.375 Y426.74
G1 X211.492
G1 X222.053
G1 X222.171
G1 X222.185 Y426.741
G2 X222.703 Y426.528 I0.013 J-0.705
G1 X222.724 Y426.506
G2 X222.93 Y426.014 I-0.452 J-0.478
G1 Y425.982
G2 X222.717 Y425.464 I-0.705 J-0.013
G1 X222.703 Y425.45
G2 X222.185 Y425.237 I-0.505 J0.492
G1 X222.171 Y425.238
G1 X218.274
G3 X217.524 Y424.488 I0.0 J-0.75
G1 Y409.488
G3 X218.274 Y408.738 I0.75 J0.0
G1 X222.171
G1 X222.186
G2 X222.714 Y408.528 I0.015 J-0.731
G1 X222.717 Y408.526
G2 X222.93 Y408.007 I-0.492 J-0.505
G1 Y407.98
G2 X222.717 Y407.461 I-0.705 J-0.013
G1 X222.714 Y407.459
G2 X222.186 Y407.249 I-0.513 J0.522
G1 X222.171
G1 X211.375
G1 X211.359
G2 X211.158 Y407.273 I-0.015 J0.731
G0 Z10.0
G0 X241.323 Y410.033
G0 Z4.0
G1 F300.0 Z1.5
G1 F800.0 X241.32 Y410.103
G1 Y410.131
G2 X241.533 Y410.65 I0.705 J0.013
G1 X241.547 Y410.663
G2 X242.065 Y410.876 I0.505 J-0.492
G1 X242.101 Y410.877
G2 X242.72 Y410.532 I0.02 J-0.691
G1 X242.725 Y410.522
G3 X244.049 Y409.205 I3.273 J1.966
G1 X244.068 Y409.194
G3 X245.895 Y408.738 I1.766 J3.18
G1 X252.783
G3 X255.426 Y409.835 I0.044 J3.627
G3 X256.54 Y412.49 I-2.537 J2.626
G3 X255.427 Y415.13 I-3.603 J0.036
G3 X252.783 Y416.243 I-2.605 J-2.49
G1 X246.781
G1 X246.773
G2 X243.089 Y417.786 I-0.06 J5.028
G1 X243.07 Y417.804
G2 X241.54 Y421.476 I3.505 J3.615
G1 Y421.494
G2 X243.071 Y425.18 I5.052 J0.063
G1 X243.089 Y425.198
G2 X246.773 Y426.74 I3.624 J-3.486
G1 X246.781
G1 X252.494
G1 X252.5
G2 X255.054 Y426.076 I0.036 J-5.104
G1 X255.057 Y426.074
G2 X256.954 Y424.255 I-2.558 J-4.564
G1 X256.988 Y424.204
G2 X257.014 Y423.522 I-0.489 J-0.36
G1 X256.987 Y423.475
G2 X256.345 Y423.112 I-0.604 J0.319
G1 X256.284 Y423.113
G2 X255.896 Y423.196 I-0.022 J0.85
G2 X255.683 Y423.419 I0.263 J0.464
G1 X255.652 Y423.476
G3 X254.326 Y424.773 I-3.286 J-2.031
G1 X254.308 Y424.784
G3 X252.488 Y425.238 I-1.762 J-3.191
G1 X246.786
G3 X244.139 Y424.122 I-0.04 J-3.603
G3 X243.043 Y421.483 I2.531 J-2.598
G3 X244.14 Y418.846 I3.659 J-0.024
G3 X246.786 Y417.746 I2.602 J2.527
G1 X252.787
G1 X252.796
G2 X256.48 Y416.204 I0.06 J-5.028
G1 X256.501 Y416.183
G2 X258.043 Y412.499 I-3.486 J-3.624
G1 Y412.482
G2 X256.501 Y408.798 I-5.028 J-0.06
G1 X256.483 Y408.78
G2 X252.797 Y407.249 I-3.623 J3.521
G1 X252.787
G1 X245.888
G1 X245.882
G2 X243.313 Y407.914 I-0.043 J5.132
G1 X243.31 Y407.915
G2 X241.432 Y409.73 I2.498 J4.465
G1 X241.422 Y409.746
G2 X241.323 Y410.033 I0.539 J0.346
G1 F300.0 Z0.0
G1 F800.0 X241.32 Y410.103
G1 Y410.131
G2 X241.533 Y410.65 I0.705 J0.013
G1 X241.547 Y410.663
G2 X242.065 Y410.876 I0.505 J-0.492
G1 X242.101 Y410.877
G2 X242.72 Y410.532 I0.02 J-0.691
G1 X242.725 Y410.522
G3 X244.049 Y409.205 I3.273 J1.966
G1 X244.068 Y409.194
G3 X245.895 Y408.738 I1.766 J3.18
G1 X252.783
G3 X255.426 Y409.835 I0.044 J3.627
G3 X256.54 Y412.49 I-2.537 J2.626
G3 X255.427 Y415.13 I-3.603 J0.036
G3 X252.783 Y416.243 I-2.605 J-2.49
G1 X246.781
G1 X246.773
G2 X243.089 Y417.786 I-0.06 J5.028
G1 X243.07 Y417.804
G2 X241.54 Y421.476 I3.505 J3.615
G1 Y421.494
G2 X243.071 Y425.18 I5.052 J0.063
G1 X243.089 Y425.198
G2 X246.773 Y426.74 I3.624 J-3.486
G1 X246.781
G1 X252.494
G1 X252.5
G2 X255.054 Y426.076 I0.036 J-5.104
G1 X255.057 Y426.074
G2 X256.954 Y424.255 I-2.558 J-4.564
G1 X256.988 Y424.204
G2 X257.014 Y423.522 I-0.489 J-0.36
G1 X256.987 Y423.475
G2 X256.345 Y423.112 I-0.604 J0.319
G1 X256.284 Y423.113
G2 X255.896 Y423.196 I-0.022 J0.85
G2 X255.683 Y423.419 I0.263 J0.464
G1 X255.652 Y423.476
G3 X254.326 Y424.773 I-3.286 J-2.031
G1 X254.308 Y424.784
G3 X252.488 Y425.238 I-1.762 J-3.191
G1 X246.786
G3 X244.139 Y424.122 I-0.04 J-3.603
G3 X243.043 Y421.483 I2.531 J-2.598
G3 X244.14 Y418.846 I3.659 J-0.024
G3 X246.786 Y417.746 I2.602 J2.527
G1 X252.787
G1 X252.796
G2 X256.48 Y416.204 I0.06 J-5.028
G1 X256.501 Y416.183
G2 X258.043 Y412.499 I-3.486 J-3.624
G1 Y412.482
G2 X256.501 Y408.798 I-5.028 J-0.06
G1 X256.483 Y408.78
G2 X252.797 Y407.249 I-3.623 J3.521
G1 X252.787
G1 X245.888
G1 X245.882
G2 X243.313 Y407.914 I-0.043 J5.132
G1 X243.31 Y407.915
G2 X241.432 Y409.73 I2.498 J4.465
G1 X241.422 Y409.746
G2 X241.323 Y410.033 I0.539 J0.346
G0 Z10.0
G0 X249.912 Y393.343
G0 Z4.0
G1 F300.0 Z1.5
G2 F800.0 X250.241 Y393.409 I0.283 J-0.549
G1 X250.323 Y393.408
G2 X250.753 Y393.299 I0.027 J-0.799
G2 X250.991 Y392.969 I-0.404 J-0.543
G3 X251.032 Y392.87 I0.712 J0.236
G1 X259.909 Y375.072
G1 X259.928 Y375.037
G2 X260.05 Y374.633 I-0.832 J-0.472
G2 X259.837 Y374.128 I-0.705 J0.0
G1 X259.835 Y374.125
G2 X259.307 Y373.916 I-0.513 J0.522
G1 X259.281
G2 X258.585 Y374.387 I-0.01 J0.736
G1 X258.556 Y374.453
G1 X250.968 Y389.629
G3 X249.627 Y389.63 I-0.671 J-0.335
G1 X245.305 Y381.002
G3 X245.976 Y379.916 I0.671 J-0.336
G1 X250.297
G1 X250.314
G2 X250.807 Y379.711 I0.015 J-0.658
G1 X250.828 Y379.689
G2 X251.041 Y379.171 I-0.492 J-0.505
G1 Y379.143
G2 X250.828 Y378.625 I-0.705 J-0.013
G1 X250.819 Y378.615
G2 X250.316 Y378.413 I-0.485 J0.48
G1 X250.297
G1 X244.482
G3 X243.811 Y377.998 I0.0 J-0.75
G1 X242.038 Y374.453
G1 X242.032 Y374.44
G2 X241.706 Y374.032 I-1.028 J0.488
G2 X241.318 Y373.916 I-0.375 J0.545
G1 X241.287
G2 X240.759 Y374.125 I-0.015 J0.731
G1 X240.757 Y374.128
G2 X240.544 Y374.646 I0.492 J0.505
G1 Y374.663
G2 X240.64 Y375.07 I0.898 J0.003
G1 Y375.071
G1 X249.561 Y392.869
G3 X249.606 Y392.979 I-0.67 J0.336
G2 X249.912 Y393.343 I0.589 J-0.186
G1 F300.0 Z0.0
G2 F800.0 X250.241 Y393.409 I0.283 J-0.549
G1 X250.323 Y393.408
G2 X250.753 Y393.299 I0.027 J-0.799
G2 X250.991 Y392.969 I-0.404 J-0.543
G3 X251.032 Y392.87 I0.712 J0.236
G1 X259.909 Y375.072
G1 X259.928 Y375.037
G2 X260.05 Y374.633 I-0.832 J-0.472
G2 X259.837 Y374.128 I-0.705 J0.0
G1 X259.835 Y374.125
G2 X259.307 Y373.916 I-0.513 J0.522
G1 X259.281
G2 X258.585 Y374.387 I-0.01 J0.736
G1 X258.556 Y374.453
G1 X250.968 Y389.629
G3 X249.627 Y389.63 I-0.671 J-0.335
G1 X245.305 Y381.002
G3 X245.976 Y379.916 I0.671 J-0.336
G1 X250.297
G1 X250.314
G2 X250.807 Y379.711 I0.015 J-0.658
G1 X250.828 Y379.689
G2 X251.041 Y379.171 I-0.492 J-0.505
G1 Y379.143
G2 X250.828 Y378.625 I-0.705 J-0.013
G1 X250.819 Y378.615
G2 X250.316 Y378.413 I-0.485 J0.48
G1 X250.297
G1 X244.482
G3 X243.811 Y377.998 I0.0 J-0.75
G1 X242.038 Y374.453
G1 X242.032 Y374.44
G2 X241.706 Y374.032 I-1.028 J0.488
G2 X241.318 Y373.916 I-0.375 J0.545
G1 X241.287
G2 X240.759 Y374.125 I-0.015 J0.731
G1 X240.757 Y374.128
G2 X240.544 Y374.646 I0.492 J0.505
G1 Y374.663
G2 X240.64 Y375.07 I0.898 J0.003
G1 Y375.071
G1 X249.561 Y392.869
G3 X249.606 Y392.979 I-0.67 J0.336
G2 X249.912 Y393.343 I0.589 J-0.186
G0 Z10.0
G0 X275.114 Y390.173
G0 Z4.0
G1 F300.0 Z1.5
G2 F800.0 X276.177 Y392.3 I3.554 J-0.447
G1 X276.194 Y392.317
G2 X278.822 Y393.407 I2.574 J-2.492
G1 X278.834
G1 X286.154
G2 X289.76 Y391.838 I-0.056 J-5.058
G1 X289.779 Y391.819
G2 X291.282 Y388.177 I-3.484 J-3.568
G1 Y388.159
G2 X290.094 Y384.838 I-5.109 J-0.046
G1 X290.083 Y384.825
G2 X287.121 Y383.012 I-3.979 J3.175
G3 X286.647 Y381.862 I0.15 J-0.735
G1 X291.203 Y375.021
G1 X291.218 Y374.999
G2 X291.237 Y374.329 I-0.487 J-0.35
G1 X291.206 Y374.274
G2 X290.577 Y373.915 I-0.595 J0.31
G1 X290.517 Y373.916
G2 X289.929 Y374.215 I-0.019 J0.688
G1 X283.875 Y383.281
G2 X283.787 Y383.627 I0.543 J0.323
G1 X283.788 Y383.67
G2 X283.997 Y384.198 I0.731 J0.015
G1 X284.0 Y384.2
G2 X284.518 Y384.413 I0.505 J-0.492
G1 X284.532
G1 X286.158
G1 X286.184
G3 X288.732 Y385.563 I-0.128 J3.682
G3 X289.794 Y388.149 I-2.563 J2.564
G3 X288.733 Y390.738 I-3.593 J0.04
G3 X286.185 Y391.904 I-2.68 J-2.491
G1 X286.158
G1 X278.84
G3 X277.232 Y391.243 I-0.033 J-2.205
G3 X276.59 Y389.652 I1.54 J-1.547
G1 Y374.777
G1 Y374.66
G1 Y374.646
G2 X276.377 Y374.128 I-0.705 J-0.013
G1 X276.367 Y374.118
G2 X275.864 Y373.916 I-0.485 J0.48
G1 X275.83
G2 X275.302 Y374.125 I-0.015 J0.731
G1 X275.3 Y374.128
G2 X275.087 Y374.646 I0.492 J0.505
G1 Y374.66
G1 Y389.66
G1 Y389.672
G2 X275.114 Y390.173 I3.582 J0.055
G1 F300.0 Z0.0
G2 F800.0 X276.177 Y392.3 I3.554 J-0.447
G1 X276.194 Y392.317
G2 X278.822 Y393.407 I2.574 J-2.492
G1 X278.834
G1 X286.154
G2 X289.76 Y391.838 I-0.056 J-5.058
G1 X289.779 Y391.819
G2 X291.282 Y388.177 I-3.484 J-3.568
G1 Y388.159
G2 X290.094 Y384.838 I-5.109 J-0.046
G1 X290.083 Y384.825
G2 X287.121 Y383.012 I-3.979 J3.175
G3 X286.647 Y381.862 I0.15 J-0.735
G1 X291.203 Y375.021
G1 X291.218 Y374.999
G2 X291.237 Y374.329 I-0.487 J-0.35
G1 X291.206 Y374.274
G2 X290.577 Y373.915 I-0.595 J0.31
G1 X290.517 Y373.916
G2 X289.929 Y374.215 I-0.019 J0.688
G1 X283.875 Y383.281
G2 X283.787 Y383.627 I0.543 J0.323
G1 X283.788 Y383.67
G2 X283.997 Y384.198 I0.731 J0.015
G1 X284.0 Y384.2
G2 X284.518 Y384.413 I0.505 J-0.492
G1 X284.532
G1 X286.158
G1 X286.184
G3 X288.732 Y385.563 I-0.128 J3.682
G3 X289.794 Y388.149 I-2.563 J2.564
G3 X288.733 Y390.738 I-3.593 J0.04
G3 X286.185 Y391.904 I-2.68 J-2.491
G1 X286.158
G1 X278.84
G3 X277.232 Y391.243 I-0.033 J-2.205
G3 X276.59 Y389.652 I1.54 J-1.547
G1 Y374.777
G1 Y374.66
G1 Y374.646
G2 X276.377 Y374.128 I-0.705 J-0.013
G1 X276.367 Y374.118
G2 X275.864 Y373.916 I-0.485 J0.48
G1 X275.83
G2 X275.302 Y374.125 I-0.015 J0.731
G1 X275.3 Y374.128
G2 X275.087 Y374.646 I0.492 J0.505
G1 Y374.66
G1 Y389.66
G1 Y389.672
G2 X275.114 Y390.173 I3.582 J0.055
G0 Z10.0
G0 X279.198 Y407.346
G0 Z4.0
G1 F300.0 Z1.5
G2 F800.0 X277.454 Y408.339 I0.829 J3.485
G1 X277.436 Y408.356
G2 X276.346 Y410.985 I2.492 J2.574
G1 Y410.996
G1 Y422.993
G1 Y423.005
G2 X277.436 Y425.633 I3.582 J0.055
G1 X277.454 Y425.65
G2 X280.082 Y426.741 I2.574 J-2.492
G1 X280.093 Y426.74
G1 X290.904
G1 X290.921 Y426.741
G2 X291.414 Y426.535 I0.015 J-0.658
G1 X291.443 Y426.506
G2 X291.648 Y426.014 I-0.452 J-0.478
G1 Y425.982
G2 X291.435 Y425.464 I-0.705 J-0.013
G1 X291.414 Y425.443
G2 X290.921 Y425.237 I-0.478 J0.452
G1 X290.904 Y425.238
G1 X280.1
G3 X278.492 Y424.576 I-0.033 J-2.205
G3 X277.849 Y422.985 I1.54 J-1.547
G1 Y418.496
G3 X278.599 Y417.746 I0.75 J0.0
G1 X287.901
G1 X287.915
G2 X288.433 Y417.533 I0.013 J-0.705
G1 X288.436 Y417.531
G2 X288.645 Y417.003 I-0.522 J-0.513
G1 Y416.974
G2 X288.432 Y416.455 I-0.705 J-0.013
G1 X288.422 Y416.446
G2 X287.92 Y416.243 I-0.485 J0.48
G1 X287.901
G1 X278.599
G3 X277.849 Y415.493 I0.0 J-0.75
G1 Y411.003
G3 X278.488 Y409.402 I2.231 J-0.038
G3 X280.1 Y408.738 I1.578 J1.54
G1 X290.904
G1 X290.921
G2 X291.414 Y408.532 I0.015 J-0.658
G1 X291.443 Y408.503
G2 X291.648 Y408.011 I-0.452 J-0.478
G1 Y407.98
G2 X291.435 Y407.461 I-0.705 J-0.013
G1 X291.425 Y407.451
G2 X290.923 Y407.249 I-0.485 J0.48
G1 X290.904
G1 X280.093
G1 X280.082
G2 X279.198 Y407.346 I-0.055 J3.582
G1 F300.0 Z0.0
G2 F800.0 X277.454 Y408.339 I0.829 J3.485
G1 X277.436 Y408.356
G2 X276.346 Y410.985 I2.492 J2.574
G1 Y410.996
G1 Y422.993
G1 Y423.005
G2 X277.436 Y425.633 I3.582 J0.055
G1 X277.454 Y425.65
G2 X280.082 Y426.741 I2.574 J-2.492
G1 X280.093 Y426.74
G1 X290.904
G1 X290.921 Y426.741
G2 X291.414 Y426.535 I0.015 J-0.658
G1 X291.443 Y426.506
G2 X291.648 Y426.014 I-0.452 J-0.478
G1 Y425.982
G2 X291.435 Y425.464 I-0.705 J-0.013
G1 X291.414 Y425.443
G2 X290.921 Y425.237 I-0.478 J0.452
G1 X290.904 Y425.238
G1 X280.1
G3 X278.492 Y424.576 I-0.033 J-2.205
G3 X277.849 Y422.985 I1.54 J-1.547
G1 Y418.496
G3 X278.599 Y417.746 I0.75 J0.0
G1 X287.901
G1 X287.915
G2 X288.433 Y417.533 I0.013 J-0.705
G1 X288.436 Y417.531
G2 X288.645 Y417.003 I-0.522 J-0.513
G1 Y416.974
G2 X288.432 Y416.455 I-0.705 J-0.013
G1 X288.422 Y416.446
G2 X287.92 Y416.243 I-0.485 J0.48
G1 X287.901
G1 X278.599
G3 X277.849 Y415.493 I0.0 J-0.75
G1 Y411.003
G3 X278.488 Y409.402 I2.231 J-0.038
G3 X280.1 Y408.738 I1.578 J1.54
G1 X290.904
G1 X290.921
G2 X291.414 Y408.532 I0.015 J-0.658
G1 X291.443 Y408.503
G2 X291.648 Y408.011 I-0.452 J-0.478
G1 Y407.98
G2 X291.435 Y407.461 I-0.705 J-0.013
G1 X291.425 Y407.451
G2 X290.923 Y407.249 I-0.485 J0.48
G1 X290.904
G1 X280.093
G1 X280.082
G2 X279.198 Y407.346 I-0.055 J3.582
G0 Z10.0
G0 X307.866 Y412.113
G0 Z4.0
G1 F300.0 Z1.5
G2 F800.0 X307.856 Y412.242 I0.696 J0.116
G1 X307.857 Y412.256
G1 Y422.993
G1 Y423.005
G2 X308.947 Y425.633 I3.582 J0.055
G1 X308.961 Y425.648
G2 X311.608 Y426.741 I2.597 J-2.538
G1 X311.618 Y426.74
G1 X319.118
G1 X319.126
G2 X322.796 Y425.199 I0.053 J-5.011
G1 X322.818 Y425.177
G2 X324.36 Y421.507 I-3.47 J-3.616
G1 Y421.49
G2 X323.913 Y419.317 I-5.188 J-0.065
G2 X322.563 Y417.563 I-4.638 J2.171
G3 X322.554 Y416.42 I0.481 J-0.575
G2 X323.903 Y414.654 I-3.553 J-4.112
G2 X324.36 Y412.498 I-4.608 J-2.102
G1 Y412.482
G2 X322.817 Y408.798 I-5.028 J-0.06
G1 X322.799 Y408.779
G2 X319.127 Y407.249 I-3.615 J3.505
G1 X319.118
G1 X312.805
G1 X312.789
G2 X312.266 Y407.454 I-0.015 J0.731
G2 X312.061 Y407.978 I0.526 J0.508
G1 X312.06 Y408.012
G2 X312.263 Y408.515 I0.682 J0.017
G1 X312.273 Y408.525
G2 X312.791 Y408.738 I0.505 J-0.492
G1 X312.805
G1 X319.114
G3 X321.743 Y409.836 I0.036 J3.61
G3 X322.857 Y412.49 I-2.538 J2.625
G3 X321.744 Y415.13 I-3.603 J0.036
G3 X319.115 Y416.243 I-2.598 J-2.474
G1 X317.61
G1 X317.594
G2 X317.071 Y416.449 I-0.015 J0.731
G2 X316.865 Y416.972 I0.526 J0.508
G1 Y417.003
G2 X317.075 Y417.531 I0.731 J0.015
G1 X317.077 Y417.533
G2 X317.596 Y417.746 I0.505 J-0.492
G1 X317.61
G1 X319.236
G1 X319.262 Y417.747
G3 X321.813 Y418.9 I-0.128 J3.682
G3 X322.857 Y421.5 I-2.625 J2.563
G3 X321.744 Y424.124 I-3.587 J0.027
G3 X319.115 Y425.238 I-2.598 J-2.474
G1 X311.626
G3 X310.003 Y424.578 I-0.042 J-2.223
G3 X309.36 Y422.985 I1.538 J-1.548
G1 Y412.256
G1 Y412.242
G2 X309.147 Y411.724 I-0.705 J-0.013
G1 X309.126 Y411.702
G2 X308.633 Y411.497 I-0.478 J0.452
G1 X308.602
G2 X308.083 Y411.71 I-0.013 J0.705
G1 X308.07 Y411.724
G2 X307.866 Y412.113 I0.492 J0.505
G1 F300.0 Z0.0
G2 F800.0 X307.856 Y412.242 I0.696 J0.116
G1 X307.857 Y412.256
G1 Y422.993
G1 Y423.005
G2 X308.947 Y425.633 I3.582 J0.055
G1 X308.961 Y425.648
G2 X311.608 Y426.741 I2.597 J-2.538
G1 X311.618 Y426.74
G1 X319.118
G1 X319.126
G2 X322.796 Y425.199 I0.053 J-5.011
G1 X322.818 Y425.177
G2 X324.36 Y421.507 I-3.47 J-3.616
G1 Y421.49
G2 X323.913 Y419.317 I-5.188 J-0.065
G2 X322.563 Y417.563 I-4.638 J2.171
G3 X322.554 Y416.42 I0.481 J-0.575
G2 X323.903 Y414.654 I-3.553 J-4.112
G2 X324.36 Y412.498 I-4.608 J-2.102
G1 Y412.482
G2 X322.817 Y408.798 I-5.028 J-0.06
G1 X322.799 Y408.779
G2 X319.127 Y407.249 I-3.615 J3.505
G1 X319.118
G1 X312.805
G1 X312.789
G2 X312.266 Y407.454 I-0.015 J0.731
G2 X312.061 Y407.978 I0.526 J0.508
G1 X312.06 Y408.012
G2 X312.263 Y408.515 I0.682 J0.017
G1 X312.273 Y408.525
G2 X312.791 Y408.738 I0.505 J-0.492
G1 X312.805
G1 X319.114
G3 X321.743 Y409.836 I0.036 J3.61
G3 X322.857 Y412.49 I-2.538 J2.625
G3 X321.744 Y415.13 I-3.603 J0.036
G3 X319.115 Y416.243 I-2.598 J-2.474
G1 X317.61
G1 X317.594
G2 X317.071 Y416.449 I-0.015 J0.731
G2 X316.865 Y416.972 I0.526 J0.508
G1 Y417.003
G2 X317.075 Y417.531 I0.731 J0.015
G1 X317.077 Y417.533
G2 X317.596 Y417.746 I0.505 J-0.492
G1 X317.61
G1 X319.236
G1 X319.262 Y417.747
G3 X321.813 Y418.9 I-0.128 J3.682
G3 X322.857 Y421.5 I-2.625 J2.563
G3 X321.744 Y424.124 I-3.587 J0.027
G3 X319.115 Y425.238 I-2.598 J-2.474
G1 X311.626
G3 X310.003 Y424.578 I-0.042 J-2.223
G3 X309.36 Y422.985 I1.538 J-1.548
G1 Y412.256
G1 Y412.242
G2 X309.147 Y411.724 I-0.705 J-0.013
G1 X309.126 Y411.702
G2 X308.633 Y411.497 I-0.478 J0.452
G1 X308.602
G2 X308.083 Y411.71 I-0.013 J0.705
G1 X308.07 Y411.724
G2 X307.866 Y412.113 I0.492 J0.505
G0 Z10.0
G0 X308.845 Y393.406
G0 Z4.0
G1 F300.0 Z1.5
G1 F800.0 X308.895 Y393.407
G1 X308.908
G1 X325.11
G1 X325.123
G2 X325.642 Y393.194 I0.013 J-0.705
G1 X325.663 Y393.173
G2 X325.869 Y392.68 I-0.452 J-0.478
G1 X325.868 Y392.649
G2 X325.655 Y392.131 I-0.705 J-0.013
G1 X325.642 Y392.117
G2 X325.123 Y391.904 I-0.505 J0.492
G1 X325.11
G1 X324.992
G1 X318.518
G3 X317.768 Y391.154 I0.0 J-0.75
G1 Y374.777
G1 Y374.66
G1 Y374.646
G2 X317.555 Y374.128 I-0.705 J-0.013
G1 X317.552 Y374.125
G2 X317.024 Y373.916 I-0.513 J0.522
G1 X316.993
G2 X316.47 Y374.121 I-0.015 J0.731
G2 X316.265 Y374.645 I0.526 J0.508
G1 Y374.66
G1 Y391.154
G3 X315.515 Y391.904 I-0.75 J0.0
G1 X309.026
G1 X308.908
G1 X308.895
G2 X308.376 Y392.117 I-0.013 J0.705
G1 X308.374 Y392.119
G2 X308.164 Y392.647 I0.522 J0.513
G1 Y392.682
G2 X308.366 Y393.184 I0.682 J0.017
G1 X308.376 Y393.194
G2 X308.845 Y393.406 I0.505 J-0.492
G1 F300.0 Z0.0
G1 F800.0 X308.895 Y393.407
G1 X308.908
G1 X325.11
G1 X325.123
G2 X325.642 Y393.194 I0.013 J-0.705
G1 X325.663 Y393.173
G2 X325.869 Y392.68 I-0.452 J-0.478
G1 X325.868 Y392.649
G2 X325.655 Y392.131 I-0.705 J-0.013
G1 X325.642 Y392.117
G2 X325.123 Y391.904 I-0.505 J0.492
G1 X325.11
G1 X324.992
G1 X318.518
G3 X317.768 Y391.154 I0.0 J-0.75
G1 Y374.777
G1 Y374.66
G1 Y374.646
G2 X317.555 Y374.128 I-0.705 J-0.013
G1 X317.552 Y374.125
G2 X317.024 Y373.916 I-0.513 J0.522
G1 X316.993
G2 X316.47 Y374.121 I-0.015 J0.731
G2 X316.265 Y374.645 I0.526 J0.508
G1 Y374.66
G1 Y391.154
G3 X315.515 Y391.904 I-0.75 J0.0
G1 X309.026
G1 X308.908
G1 X308.895
G2 X308.376 Y392.117 I-0.013 J0.705
G1 X308.374 Y392.119
G2 X308.164 Y392.647 I0.522 J0.513
G1 Y392.682
G2 X308.366 Y393.184 I0.682 J0.017
G1 X308.376 Y393.194
G2 X308.845 Y393.406 I0.505 J-0.492
G0 Z10.0
G0 X312.497 Y360.044
G0 Z4.0
G1 F300.0 Z1.5
G2 F800.0 X313.104 Y360.074 I0.547 J-4.998
G1 X313.112
G1 X320.012
G1 X320.021
G2 X323.705 Y358.531 I0.06 J-5.028
G1 X323.726 Y358.51
G2 X325.268 Y354.841 I-3.47 J-3.616
G1 Y354.833
G1 Y345.589
G1 Y345.576
G2 X325.055 Y345.057 I-0.705 J-0.013
G1 X325.041 Y345.043
G2 X324.523 Y344.83 I-0.505 J0.492
G1 X324.495
G2 X323.977 Y345.043 I-0.013 J0.705
G1 X323.974 Y345.046
G2 X323.765 Y345.574 I0.522 J0.513
G1 Y345.589
G1 Y354.829
G3 X322.651 Y357.458 I-3.587 J0.031
G3 X320.008 Y358.571 I-2.604 J-2.491
G1 X313.116
G3 X310.458 Y357.457 I-0.033 J-3.651
G3 X309.36 Y354.829 I2.512 J-2.593
G1 Y345.828
G3 X310.458 Y343.169 I3.675 J-0.037
G3 X313.117 Y342.071 I2.621 J2.577
G1 X320.246
G1 X320.26
G2 X320.778 Y341.858 I0.013 J-0.705
G1 X320.8 Y341.837
G2 X321.005 Y341.344 I-0.452 J-0.478
G1 Y341.313
G2 X320.792 Y340.795 I-0.705 J-0.013
G1 X320.79 Y340.792
G2 X320.262 Y340.582 I-0.513 J0.522
G1 X320.246 Y340.583
G1 X313.112
G1 X313.103
G2 X309.417 Y342.113 I-0.063 J5.052
G1 X309.399 Y342.131
G2 X307.857 Y345.815 I3.486 J3.624
G1 Y345.824
G1 Y354.833
G1 Y354.841
G2 X309.398 Y358.51 I5.011 J0.053
G1 X309.42 Y358.531
G2 X312.497 Y360.044 I3.624 J-3.486
G1 F300.0 Z0.0
G2 F800.0 X313.104 Y360.074 I0.547 J-4.998
G1 X313.112
G1 X320.012
G1 X320.021
G2 X323.705 Y358.531 I0.06 J-5.028
G1 X323.726 Y358.51
G2 X325.268 Y354.841 I-3.47 J-3.616
G1 Y354.833
G1 Y345.589
G1 Y345.576
G2 X325.055 Y345.057 I-0.705 J-0.013
G1 X325.041 Y345.043
G2 X324.523 Y344.83 I-0.505 J0.492
G1 X324.495
G2 X323.977 Y345.043 I-0.013 J0.705
G1 X323.974 Y345.046
G2 X323.765 Y345.574 I0.522 J0.513
G1 Y345.589
G1 Y354.829
G3 X322.651 Y357.458 I-3.587 J0.031
G3 X320.008 Y358.571 I-2.604 J-2.491
G1 X313.116
G3 X310.458 Y357.457 I-0.033 J-3.651
G3 X309.36 Y354.829 I2.512 J-2.593
G1 Y345.828
G3 X310.458 Y343.169 I3.675 J-0.037
G3 X313.117 Y342.071 I2.621 J2.577
G1 X320.246
G1 X320.26
G2 X320.778 Y341.858 I0.013 J-0.705
G1 X320.8 Y341.837
G2 X321.005 Y341.344 I-0.452 J-0.478
G1 Y341.313
G2 X320.792 Y340.795 I-0.705 J-0.013
G1 X320.79 Y340.792
G2 X320.262 Y340.582 I-0.513 J0.522
G1 X320.246 Y340.583
G1 X313.112
G1 X313.103
G2 X309.417 Y342.113 I-0.063 J5.052
G1 X309.399 Y342.131
G2 X307.857 Y345.815 I3.486 J3.624
G1 Y345.824
G1 Y354.833
G1 Y354.841
G2 X309.398 Y358.51 I5.011 J0.053
G1 X309.42 Y358.531
G2 X312.497 Y360.044 I3.624 J-3.486
G0 Z10.0
G0 X292.556 Y359.384
G0 Z4.0
G1 F300.0 Z1.5
G1 F800.0 X292.557 Y359.355
G2 X292.438 Y358.96 I-0.879 J0.048
G1 X292.415 Y358.917
G1 X283.539 Y341.119
G3 X283.498 Y341.02 I0.671 J-0.335
G2 X282.842 Y340.581 I-0.61 J0.202
G1 X282.764 Y340.582
G2 X282.339 Y340.691 I-0.026 J0.781
G2 X282.091 Y341.031 I0.431 J0.576
G1 X282.053 Y341.12
G1 X273.147 Y358.918
G1 X273.146 Y358.92
G2 X273.05 Y359.327 I0.802 J0.404
G1 Y359.349
G2 X273.253 Y359.851 I0.682 J0.017
G1 X273.262 Y359.861
G2 X273.781 Y360.074 I0.505 J-0.492
G1 X273.822
G2 X274.512 Y359.612 I0.026 J-0.707
G1 X274.545 Y359.536
G1 X282.132 Y344.346
G3 X283.474 I0.671 J0.335
G1 X291.062 Y359.536
G1 X291.077 Y359.568
G2 X291.384 Y359.96 I0.931 J-0.413
G2 X291.78 Y360.074 I0.379 J-0.572
G1 X291.811
G2 X292.33 Y359.861 I0.013 J-0.705
G1 X292.351 Y359.84
G2 X292.556 Y359.384 I-0.452 J-0.478
G1 F300.0 Z0.0
G1 F800.0 X292.557 Y359.355
G2 X292.438 Y358.96 I-0.879 J0.048
G1 X292.415 Y358.917
G1 X283.539 Y341.119
G3 X283.498 Y341.02 I0.671 J-0.335
G2 X282.842 Y340.581 I-0.61 J0.202
G1 X282.764 Y340.582
G2 X282.339 Y340.691 I-0.026 J0.781
G2 X282.091 Y341.031 I0.431 J0.576
G1 X282.053 Y341.12
G1 X273.147 Y358.918
G1 X273.146 Y358.92
G2 X273.05 Y359.327 I0.802 J0.404
G1 Y359.349
G2 X273.253 Y359.851 I0.682 J0.017
G1 X273.262 Y359.861
G2 X273.781 Y360.074 I0.505 J-0.492
G1 X273.822
G2 X274.512 Y359.612 I0.026 J-0.707
G1 X274.545 Y359.536
G1 X282.132 Y344.346
G3 X283.474 I0.671 J0.335
G1 X291.062 Y359.536
G1 X291.077 Y359.568
G2 X291.384 Y359.96 I0.931 J-0.413
G2 X291.78 Y360.074 I0.379 J-0.572
G1 X291.811
G2 X292.33 Y359.861 I0.013 J-0.705
G1 X292.351 Y359.84
G2 X292.556 Y359.384 I-0.452 J-0.478
G0 Z10.0
G0 X290.664 Y326.74
G0 Z4.0
G1 F300.0 Z1.5
G2 F800.0 X291.129 Y326.528 I-0.041 J-0.704
G1 X291.15 Y326.506
G2 X291.355 Y326.014 I-0.452 J-0.478
G1 Y325.996
G1 Y307.993
G1 Y307.98
G2 X291.142 Y307.461 I-0.705 J-0.013
G1 X291.14 Y307.459
G2 X290.612 Y307.249 I-0.513 J0.522
G1 X290.581
G2 X290.057 Y307.454 I-0.015 J0.731
G2 X289.852 Y307.978 I0.526 J0.508
G1 Y307.993
G1 Y315.493
G3 X289.102 Y316.243 I-0.75 J0.0
G1 X277.105
G3 X276.355 Y315.493 I0.0 J-0.75
G1 Y307.993
G1 Y307.98
G2 X276.142 Y307.461 I-0.705 J-0.013
G1 X276.14 Y307.459
G2 X275.612 Y307.249 I-0.513 J0.522
G1 X275.581
G2 X275.057 Y307.454 I-0.015 J0.731
G2 X274.852 Y307.978 I0.526 J0.508
G1 Y307.993
G1 Y325.996
G1 Y326.015
G2 X275.054 Y326.518 I0.682 J0.017
G1 X275.064 Y326.528
G2 X275.583 Y326.741 I0.505 J-0.492
G1 X275.61
G2 X276.129 Y326.528 I0.013 J-0.705
G1 X276.15 Y326.506
G2 X276.355 Y326.014 I-0.452 J-0.478
G1 Y325.996
G1 Y318.496
G3 X277.105 Y317.746 I0.75 J0.0
G1 X289.102
G3 X289.852 Y318.496 I0.0 J0.75
G1 Y325.996
G1 Y326.015
G2 X290.054 Y326.518 I0.682 J0.017
G1 X290.064 Y326.528
G2 X290.583 Y326.741 I0.505 J-0.492
G1 X290.61
G1 X290.664 Y326.74
G1 F300.0 Z0.0
G2 F800.0 X291.129 Y326.528 I-0.041 J-0.704
G1 X291.15 Y326.506
G2 X291.355 Y326.014 I-0.452 J-0.478
G1 Y325.996
G1 Y307.993
G1 Y307.98
G2 X291.142 Y307.461 I-0.705 J-0.013
G1 X291.14 Y307.459
G2 X290.612 Y307.249 I-0.513 J0.522
G1 X290.581
G2 X290.057 Y307.454 I-0.015 J0.731
G2 X289.852 Y307.978 I0.526 J0.508
G1 Y307.993
G1 Y315.493
G3 X289.102 Y316.243 I-0.75 J0.0
G1 X277.105
G3 X276.355 Y315.493 I0.0 J-0.75
G1 Y307.993
G1 Y307.98
G2 X276.142 Y307.461 I-0.705 J-0.013
G1 X276.14 Y307.459
G2 X275.612 Y307.249 I-0.513 J0.522
G1 X275.581
G2 X275.057 Y307.454 I-0.015 J0.731
G2 X274.852 Y307.978 I0.526 J0.508
G1 Y307.993
G1 Y325.996
G1 Y326.015
G2 X275.054 Y326.518 I0.682 J0.017
G1 X275.064 Y326.528
G2 X275.583 Y326.741 I0.505 J-0.492
G1 X275.61
G2 X276.129 Y326.528 I0.013 J-0.705
G1 X276.15 Y326.506
G2 X276.355 Y326.014 I-0.452 J-0.478
G1 Y325.996
G1 Y318.496
G3 X277.105 Y317.746 I0.75 J0.0
G1 X289.102
G3 X289.852 Y318.496 I0.0 J0.75
G1 Y325.996
G1 Y326.015
G2 X290.054 Y326.518 I0.682 J0.017
G1 X290.064 Y326.528
G2 X290.583 Y326.741 I0.505 J-0.492
G1 X290.61
G1 X290.664 Y326.74
G0 Z10.0
G0 X311.276 Y316.408
G0 Z4.0
G1 F300.0 Z1.5
G1 F800.0 X316.185 Y326.202
G3 X316.23 Y326.313 I-0.67 J0.336
G2 X316.865 Y326.743 I0.589 J-0.186
G1 X316.947 Y326.741
G2 X317.377 Y326.632 I0.027 J-0.799
G2 X317.615 Y326.302 I-0.404 J-0.543
G3 X317.656 Y326.204 I0.712 J0.236
G1 X326.533 Y308.406
G1 X326.552 Y308.37
G2 X326.674 Y307.966 I-0.832 J-0.472
G2 X326.461 Y307.461 I-0.705 J0.0
G1 X326.459 Y307.459
G2 X325.931 Y307.249 I-0.513 J0.522
G1 X325.905
G2 X325.209 Y307.721 I-0.01 J0.736
G1 X325.18 Y307.787
G1 X317.592 Y322.963
G3 X316.25 I-0.671 J-0.335
G1 X311.929 Y314.335
G3 X312.6 Y313.249 I0.671 J-0.336
G1 X316.921
G1 X316.938
G2 X317.431 Y313.044 I0.015 J-0.658
G1 X317.452 Y313.023
G2 X317.665 Y312.504 I-0.492 J-0.505
G1 Y312.477
G2 X317.452 Y311.958 I-0.705 J-0.013
G1 X317.442 Y311.948
G2 X316.94 Y311.746 I-0.485 J0.48
G1 X316.921
G1 X311.106
G3 X310.435 Y311.332 I0.0 J-0.75
G1 X308.662 Y307.787
G1 X308.656 Y307.773
G2 X308.329 Y307.365 I-1.028 J0.488
G2 X307.942 Y307.249 I-0.375 J0.545
G1 X307.911
G2 X307.383 Y307.459 I-0.015 J0.731
G1 X307.381 Y307.461
G2 X307.168 Y307.98 I0.492 J0.505
G1 Y307.996
G2 X307.264 Y308.403 I0.898 J0.003
G1 Y308.404
G1 X311.276 Y316.408
G1 F300.0 Z0.0
G1 F800.0 X316.185 Y326.202
G3 X316.23 Y326.313 I-0.67 J0.336
G2 X316.865 Y326.743 I0.589 J-0.186
G1 X316.947 Y326.741
G2 X317.377 Y326.632 I0.027 J-0.799
G2 X317.615 Y326.302 I-0.404 J-0.543
G3 X317.656 Y326.204 I0.712 J0.236
G1 X326.533 Y308.406
G1 X326.552 Y308.37
G2 X326.674 Y307.966 I-0.832 J-0.472
G2 X326.461 Y307.461 I-0.705 J0.0
G1 X326.459 Y307.459
G2 X325.931 Y307.249 I-0.513 J0.522
G1 X325.905
G2 X325.209 Y307.721 I-0.01 J0.736
G1 X325.18 Y307.787
G1 X317.592 Y322.963
G3 X316.25 I-0.671 J-0.335
G1 X311.929 Y314.335
G3 X312.6 Y313.249 I0.671 J-0.336
G1 X316.921
G1 X316.938
G2 X317.431 Y313.044 I0.015 J-0.658
G1 X317.452 Y313.023
G2 X317.665 Y312.504 I-0.492 J-0.505
G1 Y312.477
G2 X317.452 Y311.958 I-0.705 J-0.013
G1 X317.442 Y311.948
G2 X316.94 Y311.746 I-0.485 J0.48
G1 X316.921
G1 X311.106
G3 X310.435 Y311.332 I0.0 J-0.75
G1 X308.662 Y307.787
G1 X308.656 Y307.773
G2 X308.329 Y307.365 I-1.028 J0.488
G2 X307.942 Y307.249 I-0.375 J0.545
G1 X307.911
G2 X307.383 Y307.459 I-0.015 J0.731
G1 X307.381 Y307.461
G2 X307.168 Y307.98 I0.492 J0.505
G1 Y307.996
G2 X307.264 Y308.403 I0.898 J0.003
G1 Y308.404
G1 X311.276 Y316.408
G0 Z10.0
G0 X310.867 Y293.407
G0 Z4.0
G1 F300.0 Z1.5
G2 F800.0 X311.36 Y293.194 I-0.013 J-0.705
G1 X311.381 Y293.173
G2 X311.586 Y292.68 I-0.452 J-0.478
G1 Y292.663
G1 Y292.546
G1 Y277.67
G3 X312.225 Y276.069 I2.231 J-0.038
G3 X313.836 Y275.404 I1.578 J1.54
G1 X324.626
G1 X324.64
G2 X325.158 Y275.191 I0.013 J-0.705
G1 X325.18 Y275.17
G2 X325.385 Y274.677 I-0.452 J-0.478
G1 Y274.646
G2 X325.172 Y274.128 I-0.705 J-0.013
G1 X325.17 Y274.125
G2 X324.642 Y273.916 I-0.513 J0.522
G1 X324.626
G1 X324.509
G1 X313.83
G1 X313.819
G2 X311.19 Y275.006 I-0.055 J3.582
G1 X311.173 Y275.023
G2 X310.083 Y277.652 I2.492 J2.574
G1 Y277.663
G1 Y292.546
G1 Y292.663
G1 Y292.682
G2 X310.285 Y293.184 I0.682 J0.017
G1 X310.295 Y293.194
G2 X310.813 Y293.407 I0.505 J-0.492
G1 X310.841
G1 X310.867
G1 F300.0 Z0.0
G2 F800.0 X311.36 Y293.194 I-0.013 J-0.705
G1 X311.381 Y293.173
G2 X311.586 Y292.68 I-0.452 J-0.478
G1 Y292.663
G1 Y292.546
G1 Y277.67
G3 X312.225 Y276.069 I2.231 J-0.038
G3 X313.836 Y275.404 I1.578 J1.54
G1 X324.626
G1 X324.64
G2 X325.158 Y275.191 I0.013 J-0.705
G1 X325.18 Y275.17
G2 X325.385 Y274.677 I-0.452 J-0.478
G1 Y274.646
G2 X325.172 Y274.128 I-0.705 J-0.013
G1 X325.17 Y274.125
G2 X324.642 Y273.916 I-0.513 J0.522
G1 X324.626
G1 X324.509
G1 X313.83
G1 X313.819
G2 X311.19 Y275.006 I-0.055 J3.582
G1 X311.173 Y275.023
G2 X310.083 Y277.652 I2.492 J2.574
G1 Y277.663
G1 Y292.546
G1 Y292.663
G1 Y292.682
G2 X310.285 Y293.184 I0.682 J0.017
G1 X310.295 Y293.194
G2 X310.813 Y293.407 I0.505 J-0.492
G1 X310.841
G1 X310.867
G0 Z10.0
G0 X289.413 Y282.707
G0 Z4.0
G1 F300.0 Z1.5
G1 F800.0 X293.221 Y275.072
G1 X293.24 Y275.037
G2 X293.362 Y274.633 I-0.832 J-0.472
G2 X293.149 Y274.128 I-0.705 J0.0
G1 X293.147 Y274.125
G2 X292.619 Y273.916 I-0.513 J0.522
G1 X292.593
G2 X291.897 Y274.387 I-0.01 J0.736
G1 X291.868 Y274.453
G1 X284.28 Y289.629
G3 X282.938 Y289.63 I-0.671 J-0.335
G1 X278.617 Y281.002
G3 X279.288 Y279.916 I0.671 J-0.336
G1 X283.609
G1 X283.626
G2 X284.119 Y279.711 I0.015 J-0.658
G1 X284.14 Y279.689
G2 X284.353 Y279.171 I-0.492 J-0.505
G1 Y279.143
G2 X284.14 Y278.625 I-0.705 J-0.013
G1 X284.13 Y278.615
G2 X283.628 Y278.413 I-0.485 J0.48
G1 X283.609
G1 X277.794
G3 X277.123 Y277.998 I0.0 J-0.75
G1 X275.35 Y274.453
G1 X275.344 Y274.44
G2 X275.017 Y274.032 I-1.028 J0.488
G2 X274.63 Y273.916 I-0.375 J0.545
G1 X274.599
G2 X274.071 Y274.125 I-0.015 J0.731
G1 X274.069 Y274.128
G2 X273.856 Y274.646 I0.492 J0.505
G1 Y274.663
G2 X273.952 Y275.07 I0.898 J0.003
G1 Y275.071
G1 X282.873 Y292.869
G3 X282.918 Y292.979 I-0.67 J0.336
G2 X283.553 Y293.409 I0.589 J-0.186
G1 X283.635 Y293.408
G2 X284.065 Y293.299 I0.027 J-0.799
G2 X284.303 Y292.969 I-0.404 J-0.543
G3 X284.344 Y292.87 I0.712 J0.236
G1 X289.413 Y282.707
G1 F300.0 Z0.0
G1 F800.0 X293.221 Y275.072
G1 X293.24 Y275.037
G2 X293.362 Y274.633 I-0.832 J-0.472
G2 X293.149 Y274.128 I-0.705 J0.0
G1 X293.147 Y274.125
G2 X292.619 Y273.916 I-0.513 J0.522
G1 X292.593
G2 X291.897 Y274.387 I-0.01 J0.736
G1 X291.868 Y274.453
G1 X284.28 Y289.629
G3 X282.938 Y289.63 I-0.671 J-0.335
G1 X278.617 Y281.002
G3 X279.288 Y279.916 I0.671 J-0.336
G1 X283.609
G1 X283.626
G2 X284.119 Y279.711 I0.015 J-0.658
G1 X284.14 Y279.689
G2 X284.353 Y279.171 I-0.492 J-0.505
G1 Y279.143
G2 X284.14 Y278.625 I-0.705 J-0.013
G1 X284.13 Y278.615
G2 X283.628 Y278.413 I-0.485 J0.48
G1 X283.609
G1 X277.794
G3 X277.123 Y277.998 I0.0 J-0.75
G1 X275.35 Y274.453
G1 X275.344 Y274.44
G2 X275.017 Y274.032 I-1.028 J0.488
G2 X274.63 Y273.916 I-0.375 J0.545
G1 X274.599
G2 X274.071 Y274.125 I-0.015 J0.731
G1 X274.069 Y274.128
G2 X273.856 Y274.646 I0.492 J0.505
G1 Y274.663
G2 X273.952 Y275.07 I0.898 J0.003
G1 Y275.071
G1 X282.873 Y292.869
G3 X282.918 Y292.979 I-0.67 J0.336
G2 X283.553 Y293.409 I0.589 J-0.186
G1 X283.635 Y293.408
G2 X284.065 Y293.299 I0.027 J-0.799
G2 X284.303 Y292.969 I-0.404 J-0.543
G3 X284.344 Y292.87 I0.712 J0.236
G1 X289.413 Y282.707
G0 Z10.0
G0 Y260.074
G0 Z4.0
G1 F300.0 Z1.5
G1 F800.0 X290.904
G1 X290.921
G2 X291.414 Y259.869 I0.015 J-0.658
G1 X291.443 Y259.84
G2 X291.648 Y259.347 I-0.452 J-0.478
G1 Y259.316
G2 X291.435 Y258.797 I-0.705 J-0.013
G1 X291.414 Y258.776
G2 X290.921 Y258.571 I-0.478 J0.452
G1 X290.904
G1 X280.1
G3 X278.492 Y257.91 I-0.033 J-2.205
G3 X277.849 Y256.318 I1.54 J-1.547
G1 Y251.83
G3 X278.599 Y251.08 I0.75 J0.0
G1 X287.901
G1 X287.915
G2 X288.433 Y250.867 I0.013 J-0.705
G1 X288.436 Y250.864
G2 X288.645 Y250.336 I-0.522 J-0.513
G1 Y250.307
G2 X288.432 Y249.789 I-0.705 J-0.013
G1 X288.422 Y249.779
G2 X287.92 Y249.576 I-0.485 J0.48
G1 X287.901 Y249.577
G1 X278.599
G3 X277.849 Y248.827 I0.0 J-0.75
G1 Y244.337
G3 X278.488 Y242.736 I2.231 J-0.038
G3 X280.1 Y242.071 I1.578 J1.54
G1 X290.904
G1 X290.921
G2 X291.414 Y241.866 I0.015 J-0.658
G1 X291.443 Y241.837
G2 X291.648 Y241.344 I-0.452 J-0.478
G1 Y241.313
G2 X291.435 Y240.795 I-0.705 J-0.013
G1 X291.425 Y240.785
G2 X290.923 Y240.582 I-0.485 J0.48
G1 X290.904 Y240.583
G1 X280.093
G1 X280.082 Y240.582
G2 X277.454 Y241.673 I-0.055 J3.582
G1 X277.436 Y241.69
G2 X276.346 Y244.318 I2.492 J2.574
G1 Y244.33
G1 Y256.327
G1 Y256.338
G2 X277.436 Y258.967 I3.582 J0.055
G1 X277.454 Y258.984
G2 X280.082 Y260.074 I2.574 J-2.492
G1 X280.093
G1 X289.413
G1 F300.0 Z0.0
G1 F800.0 X290.904
G1 X290.921
G2 X291.414 Y259.869 I0.015 J-0.658
G1 X291.443 Y259.84
G2 X291.648 Y259.347 I-0.452 J-0.478
G1 Y259.316
G2 X291.435 Y258.797 I-0.705 J-0.013
G1 X291.414 Y258.776
G2 X290.921 Y258.571 I-0.478 J0.452
G1 X290.904
G1 X280.1
G3 X278.492 Y257.91 I-0.033 J-2.205
G3 X277.849 Y256.318 I1.54 J-1.547
G1 Y251.83
G3 X278.599 Y251.08 I0.75 J0.0
G1 X287.901
G1 X287.915
G2 X288.433 Y250.867 I0.013 J-0.705
G1 X288.436 Y250.864
G2 X288.645 Y250.336 I-0.522 J-0.513
G1 Y250.307
G2 X288.432 Y249.789 I-0.705 J-0.013
G1 X288.422 Y249.779
G2 X287.92 Y249.576 I-0.485 J0.48
G1 X287.901 Y249.577
G1 X278.599
G3 X277.849 Y248.827 I0.0 J-0.75
G1 Y244.337
G3 X278.488 Y242.736 I2.231 J-0.038
G3 X280.1 Y242.071 I1.578 J1.54
G1 X290.904
G1 X290.921
G2 X291.414 Y241.866 I0.015 J-0.658
G1 X291.443 Y241.837
G2 X291.648 Y241.344 I-0.452 J-0.478
G1 Y241.313
G2 X291.435 Y240.795 I-0.705 J-0.013
G1 X291.425 Y240.785
G2 X290.923 Y240.582 I-0.485 J0.48
G1 X290.904 Y240.583
G1 X280.093
G1 X280.082 Y240.582
G2 X277.454 Y241.673 I-0.055 J3.582
G1 X277.436 Y241.69
G2 X276.346 Y244.318 I2.492 J2.574
G1 Y244.33
G1 Y256.327
G1 Y256.338
G2 X277.436 Y258.967 I3.582 J0.055
G1 X277.454 Y258.984
G2 X280.082 Y260.074 I2.574 J-2.492
G1 X280.093
G1 X289.413
G0 Z10.0
G0 X308.445 Y256.97
G0 Z4.0
G1 F300.0 Z1.5
G2 F800.0 X309.489 Y258.967 I3.535 J-0.577
G1 X309.506 Y258.984
G2 X312.134 Y260.074 I2.574 J-2.492
G1 X312.146
G1 X319.466
G2 X323.072 Y258.505 I-0.056 J-5.058
G1 X323.091 Y258.485
G2 X324.594 Y254.844 I-3.484 J-3.568
G1 Y254.826
G2 X323.406 Y251.505 I-5.109 J-0.046
G1 X323.395 Y251.492
G2 X320.433 Y249.679 I-3.979 J3.175
G3 X319.959 Y248.528 I0.15 J-0.735
G1 X324.515 Y241.687
G1 X324.53 Y241.666
G2 X324.549 Y240.995 I-0.487 J-0.35
G1 X324.518 Y240.941
G2 X323.889 Y240.582 I-0.595 J0.31
G1 X323.829
G2 X323.241 Y240.882 I-0.019 J0.688
G1 X317.187 Y249.948
G2 X317.099 Y250.293 I0.543 J0.323
G1 X317.1 Y250.336
G2 X317.309 Y250.864 I0.731 J0.015
G1 X317.312 Y250.867
G2 X317.83 Y251.08 I0.505 J-0.492
G1 X317.844
G1 X319.47
G1 X319.496
G3 X322.044 Y252.229 I-0.128 J3.682
G3 X323.106 Y254.816 I-2.563 J2.564
G3 X322.045 Y257.405 I-3.593 J0.04
G3 X319.497 Y258.57 I-2.68 J-2.491
G1 X319.47 Y258.571
G1 X312.152
G3 X310.544 Y257.91 I-0.033 J-2.205
G3 X309.902 Y256.318 I1.54 J-1.547
G1 Y241.444
G1 Y241.327
G1 Y241.313
G2 X309.689 Y240.795 I-0.705 J-0.013
G1 X309.679 Y240.785
G2 X309.176 Y240.582 I-0.485 J0.48
G1 X309.142
G2 X308.614 Y240.792 I-0.015 J0.731
G1 X308.611 Y240.795
G2 X308.398 Y241.313 I0.492 J0.505
G1 X308.399 Y241.327
G1 Y256.327
G1 Y256.338
G2 X308.445 Y256.97 I3.582 J0.055
G1 F300.0 Z0.0
G2 F800.0 X309.489 Y258.967 I3.535 J-0.577
G1 X309.506 Y258.984
G2 X312.134 Y260.074 I2.574 J-2.492
G1 X312.146
G1 X319.466
G2 X323.072 Y258.505 I-0.056 J-5.058
G1 X323.091 Y258.485
G2 X324.594 Y254.844 I-3.484 J-3.568
G1 Y254.826
G2 X323.406 Y251.505 I-5.109 J-0.046
G1 X323.395 Y251.492
G2 X320.433 Y249.679 I-3.979 J3.175
G3 X319.959 Y248.528 I0.15 J-0.735
G1 X324.515 Y241.687
G1 X324.53 Y241.666
G2 X324.549 Y240.995 I-0.487 J-0.35
G1 X324.518 Y240.941
G2 X323.889 Y240.582 I-0.595 J0.31
G1 X323.829
G2 X323.241 Y240.882 I-0.019 J0.688
G1 X317.187 Y249.948
G2 X317.099 Y250.293 I0.543 J0.323
G1 X317.1 Y250.336
G2 X317.309 Y250.864 I0.731 J0.015
G1 X317.312 Y250.867
G2 X317.83 Y251.08 I0.505 J-0.492
G1 X317.844
G1 X319.47
G1 X319.496
G3 X322.044 Y252.229 I-0.128 J3.682
G3 X323.106 Y254.816 I-2.563 J2.564
G3 X322.045 Y257.405 I-3.593 J0.04
G3 X319.497 Y258.57 I-2.68 J-2.491
G1 X319.47 Y258.571
G1 X312.152
G3 X310.544 Y257.91 I-0.033 J-2.205
G3 X309.902 Y256.318 I1.54 J-1.547
G1 Y241.444
G1 Y241.327
G1 Y241.313
G2 X309.689 Y240.795 I-0.705 J-0.013
G1 X309.679 Y240.785
G2 X309.176 Y240.582 I-0.485 J0.48
G1 X309.142
G2 X308.614 Y240.792 I-0.015 J0.731
G1 X308.611 Y240.795
G2 X308.398 Y241.313 I0.492 J0.505
G1 X308.399 Y241.327
G1 Y256.327
G1 Y256.338
G2 X308.445 Y256.97 I3.582 J0.055
G0 Z10.0
G0 X312.911 Y226.687
G0 Z4.0
G1 F300.0 Z1.5
G2 F800.0 X313.704 Y226.74 I0.734 J-4.975
G1 X313.713
G1 X320.305
G1 X320.311
G2 X322.88 Y226.076 I0.043 J-5.132
G1 X322.882 Y226.074
G2 X324.774 Y224.263 I-2.558 J-4.564
G2 X324.872 Y223.875 I-0.646 J-0.371
G1 Y223.844
G2 X324.659 Y223.325 I-0.705 J-0.013
G1 X324.65 Y223.316
G2 X324.147 Y223.113 I-0.485 J0.48
G1 X324.089 Y223.112
G2 X323.478 Y223.449 I-0.034 J0.662
G1 X323.465 Y223.471
G3 X322.136 Y224.778 I-3.248 J-1.974
G1 X322.118 Y224.788
G3 X320.298 Y225.238 I-1.758 J-3.213
G1 X313.717
G3 X311.058 Y224.124 I-0.033 J-3.651
G3 X309.96 Y221.495 I2.512 J-2.593
G1 Y212.494
G3 X311.059 Y209.836 I3.675 J-0.037
G3 X313.717 Y208.738 I2.621 J2.577
G1 X320.296
G3 X323.476 Y210.537 I0.08 J3.568
G1 X323.478 Y210.54
G2 X324.089 Y210.877 I0.577 J-0.325
G1 X324.145 Y210.876
G2 X324.638 Y210.671 I0.015 J-0.658
G1 X324.659 Y210.65
G2 X324.872 Y210.131 I-0.492 J-0.505
G1 Y210.117
G2 X324.771 Y209.722 I-0.815 J-0.001
G2 X322.882 Y207.915 I-4.447 J2.757
G1 X322.88 Y207.914
G2 X320.311 Y207.249 I-2.526 J4.468
G1 X320.305
G1 X313.713
G1 X313.704
G2 X310.017 Y208.78 I-0.063 J5.052
G1 X310.0 Y208.798
G2 X308.457 Y212.482 I3.486 J3.624
G1 Y212.49
G1 Y221.499
G1 Y221.507
G2 X309.999 Y225.177 I5.011 J0.053
G1 X310.02 Y225.198
G2 X312.911 Y226.687 I3.624 J-3.486
G1 F300.0 Z0.0
G2 F800.0 X313.704 Y226.74 I0.734 J-4.975
G1 X313.713
G1 X320.305
G1 X320.311
G2 X322.88 Y226.076 I0.043 J-5.132
G1 X322.882 Y226.074
G2 X324.774 Y224.263 I-2.558 J-4.564
G2 X324.872 Y223.875 I-0.646 J-0.371
G1 Y223.844
G2 X324.659 Y223.325 I-0.705 J-0.013
G1 X324.65 Y223.316
G2 X324.147 Y223.113 I-0.485 J0.48
G1 X324.089 Y223.112
G2 X323.478 Y223.449 I-0.034 J0.662
G1 X323.465 Y223.471
G3 X322.136 Y224.778 I-3.248 J-1.974
G1 X322.118 Y224.788
G3 X320.298 Y225.238 I-1.758 J-3.213
G1 X313.717
G3 X311.058 Y224.124 I-0.033 J-3.651
G3 X309.96 Y221.495 I2.512 J-2.593
G1 Y212.494
G3 X311.059 Y209.836 I3.675 J-0.037
G3 X313.717 Y208.738 I2.621 J2.577
G1 X320.296
G3 X323.476 Y210.537 I0.08 J3.568
G1 X323.478 Y210.54
G2 X324.089 Y210.877 I0.577 J-0.325
G1 X324.145 Y210.876
G2 X324.638 Y210.671 I0.015 J-0.658
G1 X324.659 Y210.65
G2 X324.872 Y210.131 I-0.492 J-0.505
G1 Y210.117
G2 X324.771 Y209.722 I-0.815 J-0.001
G2 X322.882 Y207.915 I-4.447 J2.757
G1 X322.88 Y207.914
G2 X320.311 Y207.249 I-2.526 J4.468
G1 X320.305
G1 X313.713
G1 X313.704
G2 X310.017 Y208.78 I-0.063 J5.052
G1 X310.0 Y208.798
G2 X308.457 Y212.482 I3.486 J3.624
G1 Y212.49
G1 Y221.499
G1 Y221.507
G2 X309.999 Y225.177 I5.011 J0.053
G1 X310.02 Y225.198
G2 X312.911 Y226.687 I3.624 J-3.486
G0 Z10.0
G0 X289.842 Y215.181
G0 Z4.0
G1 F300.0 Z1.5
G1 F800.0 X293.221 Y208.406
G1 X293.24 Y208.37
G2 X293.362 Y207.966 I-0.832 J-0.472
G2 X293.149 Y207.461 I-0.705 J0.0
G1 X293.147 Y207.459
G2 X292.619 Y207.249 I-0.513 J0.522
G1 X292.593
G2 X291.897 Y207.721 I-0.01 J0.736
G1 X291.868 Y207.787
G1 X284.28 Y222.963
G3 X282.938 I-0.671 J-0.335
G1 X278.617 Y214.335
G3 X279.288 Y213.249 I0.671 J-0.336
G1 X283.609
G1 X283.626
G2 X284.119 Y213.044 I0.015 J-0.658
G1 X284.14 Y213.023
G2 X284.353 Y212.504 I-0.492 J-0.505
G1 Y212.477
G2 X284.14 Y211.958 I-0.705 J-0.013
G1 X284.13 Y211.948
G2 X283.628 Y211.746 I-0.485 J0.48
G1 X283.609
G1 X277.794
G3 X277.123 Y211.332 I0.0 J-0.75
G1 X275.35 Y207.787
G1 X275.344 Y207.773
G2 X275.017 Y207.365 I-1.028 J0.488
G2 X274.63 Y207.249 I-0.375 J0.545
G1 X274.599
G2 X274.071 Y207.459 I-0.015 J0.731
G1 X274.069 Y207.461
G2 X273.856 Y207.98 I0.492 J0.505
G1 Y207.996
G2 X273.952 Y208.403 I0.898 J0.003
G1 Y208.404
G1 X282.873 Y226.202
G3 X282.918 Y226.313 I-0.67 J0.336
G2 X283.553 Y226.743 I0.589 J-0.186
G1 X283.635 Y226.741
G2 X284.065 Y226.632 I0.027 J-0.799
G2 X284.303 Y226.302 I-0.404 J-0.543
G3 X284.344 Y226.204 I0.712 J0.236
G1 X289.842 Y215.181
G1 F300.0 Z0.0
G1 F800.0 X293.221 Y208.406
G1 X293.24 Y208.37
G2 X293.362 Y207.966 I-0.832 J-0.472
G2 X293.149 Y207.461 I-0.705 J0.0
G1 X293.147 Y207.459
G2 X292.619 Y207.249 I-0.513 J0.522
G1 X292.593
G2 X291.897 Y207.721 I-0.01 J0.736
G1 X291.868 Y207.787
G1 X284.28 Y222.963
G3 X282.938 I-0.671 J-0.335
G1 X278.617 Y214.335
G3 X279.288 Y213.249 I0.671 J-0.336
G1 X283.609
G1 X283.626
G2 X284.119 Y213.044 I0.015 J-0.658
G1 X284.14 Y213.023
G2 X284.353 Y212.504 I-0.492 J-0.505
G1 Y212.477
G2 X284.14 Y211.958 I-0.705 J-0.013
G1 X284.13 Y211.948
G2 X283.628 Y211.746 I-0.485 J0.48
G1 X283.609
G1 X277.794
G3 X277.123 Y211.332 I0.0 J-0.75
G1 X275.35 Y207.787
G1 X275.344 Y207.773
G2 X275.017 Y207.365 I-1.028 J0.488
G2 X274.63 Y207.249 I-0.375 J0.545
G1 X274.599
G2 X274.071 Y207.459 I-0.015 J0.731
G1 X274.069 Y207.461
G2 X273.856 Y207.98 I0.492 J0.505
G1 Y207.996
G2 X273.952 Y208.403 I0.898 J0.003
G1 Y208.404
G1 X282.873 Y226.202
G3 X282.918 Y226.313 I-0.67 J0.336
G2 X283.553 Y226.743 I0.589 J-0.186
G1 X283.635 Y226.741
G2 X284.065 Y226.632 I0.027 J-0.799
G2 X284.303 Y226.302 I-0.404 J-0.543
G3 X284.344 Y226.204 I0.712 J0.236
G1 X289.842 Y215.181
G0 Z10.0
G0 X287.085 Y193.367
G0 Z4.0
G1 F300.0 Z1.5
G2 F800.0 X288.967 Y192.743 I-0.644 J-5.092
G1 X288.97 Y192.741
G2 X290.85 Y190.948 I-2.558 J-4.564
G2 X290.96 Y190.506 I-0.986 J-0.481
G2 X290.747 Y189.992 I-0.705 J-0.009
G1 X290.737 Y189.982
G2 X290.234 Y189.78 I-0.485 J0.48
G1 X290.197
G2 X289.802 Y189.864 I-0.021 J0.868
G2 X289.576 Y190.097 I0.28 J0.499
G1 X289.553 Y190.137
G3 X288.224 Y191.444 I-3.248 J-1.974
G1 X288.205 Y191.455
G3 X286.386 Y191.904 I-1.758 J-3.213
G1 X280.405
G3 X277.746 Y190.791 I-0.033 J-3.651
G3 X276.648 Y188.162 I2.512 J-2.593
G1 Y179.161
G3 X277.747 Y176.503 I3.675 J-0.037
G3 X280.405 Y175.404 I2.621 J2.577
G1 X287.587
G3 X289.193 Y176.063 I0.033 J2.205
G3 X289.852 Y177.669 I-1.546 J1.573
G1 Y180.666
G3 X289.102 Y181.416 I-0.75 J0.0
G1 X284.298
G1 X284.282
G2 X283.759 Y181.621 I-0.015 J0.731
G2 X283.553 Y182.145 I0.526 J0.508
G1 Y182.179
G2 X283.756 Y182.681 I0.682 J0.017
G1 X283.765 Y182.691
G2 X284.284 Y182.904 I0.505 J-0.492
G1 X284.298
G1 X290.596
G1 X290.61
G2 X291.129 Y182.691 I0.013 J-0.705
G1 X291.15 Y182.67
G2 X291.355 Y182.177 I-0.452 J-0.478
G1 Y182.16
G1 Y177.663
G1 Y177.652
G2 X290.254 Y175.027 I-3.558 J-0.051
G1 X290.233 Y175.006
G2 X287.605 Y173.916 I-2.574 J2.492
G1 X287.593
G1 X280.401
G1 X280.392
G2 X276.706 Y175.446 I-0.063 J5.052
G1 X276.688 Y175.464
G2 X275.145 Y179.148 I3.486 J3.624
G1 Y179.157
G1 Y188.166
G1 Y188.174
G2 X276.687 Y191.843 I5.011 J0.053
G1 X276.708 Y191.865
G2 X280.392 Y193.407 I3.624 J-3.486
G1 X280.401
G1 X286.392
G1 X286.399
G2 X287.085 Y193.367 I0.043 J-5.132
G1 F300.0 Z0.0
G2 F800.0 X288.967 Y192.743 I-0.644 J-5.092
G1 X288.97 Y192.741
G2 X290.85 Y190.948 I-2.558 J-4.564
G2 X290.96 Y190.506 I-0.986 J-0.481
G2 X290.747 Y189.992 I-0.705 J-0.009
G1 X290.737 Y189.982
G2 X290.234 Y189.78 I-0.485 J0.48
G1 X290.197
G2 X289.802 Y189.864 I-0.021 J0.868
G2 X289.576 Y190.097 I0.28 J0.499
G1 X289.553 Y190.137
G3 X288.224 Y191.444 I-3.248 J-1.974
G1 X288.205 Y191.455
G3 X286.386 Y191.904 I-1.758 J-3.213
G1 X280.405
G3 X277.746 Y190.791 I-0.033 J-3.651
G3 X276.648 Y188.162 I2.512 J-2.593
G1 Y179.161
G3 X277.747 Y176.503 I3.675 J-0.037
G3 X280.405 Y175.404 I2.621 J2.577
G1 X287.587
G3 X289.193 Y176.063 I0.033 J2.205
G3 X289.852 Y177.669 I-1.546 J1.573
G1 Y180.666
G3 X289.102 Y181.416 I-0.75 J0.0
G1 X284.298
G1 X284.282
G2 X283.759 Y181.621 I-0.015 J0.731
G2 X283.553 Y182.145 I0.526 J0.508
G1 Y182.179
G2 X283.756 Y182.681 I0.682 J0.017
G1 X283.765 Y182.691
G2 X284.284 Y182.904 I0.505 J-0.492
G1 X284.298
G1 X290.596
G1 X290.61
G2 X291.129 Y182.691 I0.013 J-0.705
G1 X291.15 Y182.67
G2 X291.355 Y182.177 I-0.452 J-0.478
G1 Y182.16
G1 Y177.663
G1 Y177.652
G2 X290.254 Y175.027 I-3.558 J-0.051
G1 X290.233 Y175.006
G2 X287.605 Y173.916 I-2.574 J2.492
G1 X287.593
G1 X280.401
G1 X280.392
G2 X276.706 Y175.446 I-0.063 J5.052
G1 X276.688 Y175.464
G2 X275.145 Y179.148 I3.486 J3.624
G1 Y179.157
G1 Y188.166
G1 Y188.174
G2 X276.687 Y191.843 I5.011 J0.053
G1 X276.708 Y191.865
G2 X280.392 Y193.407 I3.624 J-3.486
G1 X280.401
G1 X286.392
G1 X286.399
G2 X287.085 Y193.367 I0.043 J-5.132
G0 Z10.0
G0 X309.692 Y190.22
G0 Z4.0
G1 F300.0 Z1.5
G2 F800.0 X310.748 Y192.3 I3.548 J-0.494
G1 X310.766 Y192.317
G2 X313.394 Y193.407 I2.574 J-2.492
G1 X313.405
G1 X324.216
G1 X324.233
G2 X324.726 Y193.202 I0.015 J-0.658
G1 X324.755 Y193.173
G2 X324.96 Y192.68 I-0.452 J-0.478
G1 Y192.649
G2 X324.747 Y192.131 I-0.705 J-0.013
G1 X324.726 Y192.109
G2 X324.233 Y191.904 I-0.478 J0.452
G1 X324.216
G1 X313.412
G3 X311.804 Y191.243 I-0.033 J-2.205
G3 X311.161 Y189.652 I1.54 J-1.547
G1 Y185.163
G3 X311.911 Y184.413 I0.75 J0.0
G1 X321.213
G1 X321.227
G2 X321.745 Y184.2 I0.013 J-0.705
G1 X321.748 Y184.198
G2 X321.957 Y183.67 I-0.522 J-0.513
G1 Y183.64
G2 X321.744 Y183.122 I-0.705 J-0.013
G1 X321.734 Y183.112
G2 X321.232 Y182.91 I-0.485 J0.48
G1 X321.213
G1 X311.911
G3 X311.161 Y182.16 I0.0 J-0.75
G1 Y177.67
G3 X311.8 Y176.069 I2.231 J-0.038
G3 X313.412 Y175.404 I1.578 J1.54
G1 X324.216
G1 X324.233
G2 X324.726 Y175.199 I0.015 J-0.658
G1 X324.755 Y175.17
G2 X324.96 Y174.677 I-0.452 J-0.478
G1 Y174.646
G2 X324.747 Y174.128 I-0.705 J-0.013
G1 X324.737 Y174.118
G2 X324.235 Y173.916 I-0.485 J0.48
G1 X324.216
G1 X313.405
G1 X313.394
G2 X310.766 Y175.006 I-0.055 J3.582
G1 X310.748 Y175.023
G2 X309.658 Y177.652 I2.492 J2.574
G1 Y177.663
G1 Y189.66
G1 Y189.672
G2 X309.692 Y190.22 I3.582 J0.055
G1 F300.0 Z0.0
G2 F800.0 X310.748 Y192.3 I3.548 J-0.494
G1 X310.766 Y192.317
G2 X313.394 Y193.407 I2.574 J-2.492
G1 X313.405
G1 X324.216
G1 X324.233
G2 X324.726 Y193.202 I0.015 J-0.658
G1 X324.755 Y193.173
G2 X324.96 Y192.68 I-0.452 J-0.478
G1 Y192.649
G2 X324.747 Y192.131 I-0.705 J-0.013
G1 X324.726 Y192.109
G2 X324.233 Y191.904 I-0.478 J0.452
G1 X324.216
G1 X313.412
G3 X311.804 Y191.243 I-0.033 J-2.205
G3 X311.161 Y189.652 I1.54 J-1.547
G1 Y185.163
G3 X311.911 Y184.413 I0.75 J0.0
G1 X321.213
G1 X321.227
G2 X321.745 Y184.2 I0.013 J-0.705
G1 X321.748 Y184.198
G2 X321.957 Y183.67 I-0.522 J-0.513
G1 Y183.64
G2 X321.744 Y183.122 I-0.705 J-0.013
G1 X321.734 Y183.112
G2 X321.232 Y182.91 I-0.485 J0.48
G1 X321.213
G1 X311.911
G3 X311.161 Y182.16 I0.0 J-0.75
G1 Y177.67
G3 X311.8 Y176.069 I2.231 J-0.038
G3 X313.412 Y175.404 I1.578 J1.54
G1 X324.216
G1 X324.233
G2 X324.726 Y175.199 I0.015 J-0.658
G1 X324.755 Y175.17
G2 X324.96 Y174.677 I-0.452 J-0.478
G1 Y174.646
G2 X324.747 Y174.128 I-0.705 J-0.013
G1 X324.737 Y174.118
G2 X324.235 Y173.916 I-0.485 J0.48
G1 X324.216
G1 X313.405
G1 X313.394
G2 X310.766 Y175.006 I-0.055 J3.582
G1 X310.748 Y175.023
G2 X309.658 Y177.652 I2.492 J2.574
G1 Y177.663
G1 Y189.66
G1 Y189.672
G2 X309.692 Y190.22 I3.582 J0.055
G0 Z10.0
G0 X307.218 Y160.072
G0 Z4.0
G1 F300.0 Z1.5
G2 F800.0 X307.824 Y159.612 I-0.058 J-0.706
G1 X307.857 Y159.536
G1 X315.444 Y144.346
G3 X316.786 I0.671 J0.335
G1 X324.374 Y159.536
G1 X324.389 Y159.568
G2 X324.696 Y159.96 I0.931 J-0.413
G2 X325.092 Y160.074 I0.379 J-0.572
G1 X325.123
G2 X325.642 Y159.861 I0.013 J-0.705
G1 X325.663 Y159.84
G2 X325.869 Y159.355 I-0.452 J-0.478
G2 X325.75 Y158.96 I-0.879 J0.048
G1 X325.727 Y158.917
G1 X316.851 Y141.119
G3 X316.81 Y141.02 I0.671 J-0.335
G2 X316.154 Y140.581 I-0.61 J0.202
G1 X316.076 Y140.582
G2 X315.651 Y140.691 I-0.026 J0.781
G2 X315.403 Y141.031 I0.431 J0.576
G1 X315.365 Y141.12
G1 X306.459 Y158.918
G1 X306.458 Y158.92
G2 X306.362 Y159.327 I0.802 J0.404
G1 Y159.349
G2 X306.565 Y159.851 I0.682 J0.017
G1 X306.574 Y159.861
G2 X307.093 Y160.074 I0.505 J-0.492
G1 X307.134
G1 X307.218 Y160.072
G1 F300.0 Z0.0
G2 F800.0 X307.824 Y159.612 I-0.058 J-0.706
G1 X307.857 Y159.536
G1 X315.444 Y144.346
G3 X316.786 I0.671 J0.335
G1 X324.374 Y159.536
G1 X324.389 Y159.568
G2 X324.696 Y159.96 I0.931 J-0.413
G2 X325.092 Y160.074 I0.379 J-0.572
G1 X325.123
G2 X325.642 Y159.861 I0.013 J-0.705
G1 X325.663 Y159.84
G2 X325.869 Y159.355 I-0.452 J-0.478
G2 X325.75 Y158.96 I-0.879 J0.048
G1 X325.727 Y158.917
G1 X316.851 Y141.119
G3 X316.81 Y141.02 I0.671 J-0.335
G2 X316.154 Y140.581 I-0.61 J0.202
G1 X316.076 Y140.582
G2 X315.651 Y140.691 I-0.026 J0.781
G2 X315.403 Y141.031 I0.431 J0.576
G1 X315.365 Y141.12
G1 X306.459 Y158.918
G1 X306.458 Y158.92
G2 X306.362 Y159.327 I0.802 J0.404
G1 Y159.349
G2 X306.565 Y159.851 I0.682 J0.017
G1 X306.574 Y159.861
G2 X307.093 Y160.074 I0.505 J-0.492
G1 X307.134
G1 X307.218 Y160.072
G0 Z10.0
G0 X291.955 Y159.391
G0 Z4.0
G1 F300.0 Z1.5
G1 F800.0 X291.956 Y159.347
G1 Y159.316
G2 X291.743 Y158.797 I-0.705 J-0.013
G1 X291.729 Y158.784
G2 X291.211 Y158.571 I-0.505 J0.492
G1 X291.197
G1 X280.7
G3 X279.092 Y157.91 I-0.033 J-2.205
G3 X278.45 Y156.318 I1.54 J-1.547
G1 Y151.83
G3 X279.2 Y151.08 I0.75 J0.0
G1 X288.194
G1 X288.208
G2 X288.726 Y150.867 I0.013 J-0.705
G1 X288.74 Y150.853
G2 X288.953 Y150.335 I-0.492 J-0.505
G1 Y150.307
G2 X288.74 Y149.789 I-0.705 J-0.013
G1 X288.738 Y149.786
G2 X288.21 Y149.577 I-0.513 J0.522
G1 X288.194
G1 X279.2
G3 X278.45 Y148.827 I0.0 J-0.75
G1 Y141.327
G1 Y141.313
G2 X278.237 Y140.795 I-0.705 J-0.013
G1 X278.227 Y140.785
G2 X277.725 Y140.582 I-0.485 J0.48
G1 X277.69
G2 X277.162 Y140.792 I-0.015 J0.731
G1 X277.16 Y140.795
G2 X276.947 Y141.313 I0.492 J0.505
G1 Y141.327
G1 Y156.327
G1 Y156.338
G2 X278.037 Y158.967 I3.582 J0.055
G1 X278.054 Y158.984
G2 X280.683 Y160.074 I2.574 J-2.492
G1 X280.694
G1 X291.197
G1 X291.211
G2 X291.729 Y159.861 I0.013 J-0.705
G1 X291.751 Y159.84
G2 X291.955 Y159.391 I-0.452 J-0.478
G1 F300.0 Z0.0
G1 F800.0 X291.956 Y159.347
G1 Y159.316
G2 X291.743 Y158.797 I-0.705 J-0.013
G1 X291.729 Y158.784
G2 X291.211 Y158.571 I-0.505 J0.492
G1 X291.197
G1 X280.7
G3 X279.092 Y157.91 I-0.033 J-2.205
G3 X278.45 Y156.318 I1.54 J-1.547
G1 Y151.83
G3 X279.2 Y151.08 I0.75 J0.0
G1 X288.194
G1 X288.208
G2 X288.726 Y150.867 I0.013 J-0.705
G1 X288.74 Y150.853
G2 X288.953 Y150.335 I-0.492 J-0.505
G1 Y150.307
G2 X288.74 Y149.789 I-0.705 J-0.013
G1 X288.738 Y149.786
G2 X288.21 Y149.577 I-0.513 J0.522
G1 X288.194
G1 X279.2
G3 X278.45 Y148.827 I0.0 J-0.75
G1 Y141.327
G1 Y141.313
G2 X278.237 Y140.795 I-0.705 J-0.013
G1 X278.227 Y140.785
G2 X277.725 Y140.582 I-0.485 J0.48
G1 X277.69
G2 X277.162 Y140.792 I-0.015 J0.731
G1 X277.16 Y140.795
G2 X276.947 Y141.313 I0.492 J0.505
G1 Y141.327
G1 Y156.327
G1 Y156.338
G2 X278.037 Y158.967 I3.582 J0.055
G1 X278.054 Y158.984
G2 X280.683 Y160.074 I2.574 J-2.492
G1 X280.694
G1 X291.197
G1 X291.211
G2 X291.729 Y159.861 I0.013 J-0.705
G1 X291.751 Y159.84
G2 X291.955 Y159.391 I-0.452 J-0.478
G0 Z10.0
G0 X291.239 Y126.741
G0 Z4.0
G1 F300.0 Z1.5
G2 F800.0 X291.729 Y126.528 I-0.015 J-0.705
G1 X291.751 Y126.506
G2 X291.956 Y126.018 I-0.452 J-0.478
G2 X291.675 Y125.396 I-0.911 J0.037
G1 X291.635 Y125.354
G1 X284.047 Y116.887
G3 X283.855 Y116.387 I0.559 J-0.501
G1 Y107.993
G1 Y107.98
G2 X283.642 Y107.461 I-0.705 J-0.013
G1 X283.64 Y107.459
G2 X283.112 Y107.249 I-0.513 J0.522
G1 X283.081
G2 X282.557 Y107.454 I-0.015 J0.731
G2 X282.352 Y107.978 I0.526 J0.508
G1 Y107.993
G1 Y116.387
G3 X282.161 Y116.887 I-0.75 J0.0
G1 X274.573 Y125.354
G1 X274.543 Y125.386
G2 X274.251 Y126.026 I0.702 J0.707
G2 X274.454 Y126.518 I0.682 J0.007
G1 X274.464 Y126.528
G2 X274.982 Y126.741 I0.505 J-0.492
G1 X275.022
G2 X275.544 Y126.514 I0.023 J-0.662
G1 X275.552 Y126.505
G1 X282.539 Y118.742
G3 X283.654 I0.557 J0.502
G1 X290.641 Y126.505
G1 X290.649 Y126.514
G2 X291.171 Y126.741 I0.499 J-0.435
G1 X291.211
G1 X291.239
G1 F300.0 Z0.0
G2 F800.0 X291.729 Y126.528 I-0.015 J-0.705
G1 X291.751 Y126.506
G2 X291.956 Y126.018 I-0.452 J-0.478
G2 X291.675 Y125.396 I-0.911 J0.037
G1 X291.635 Y125.354
G1 X284.047 Y116.887
G3 X283.855 Y116.387 I0.559 J-0.501
G1 Y107.993
G1 Y107.98
G2 X283.642 Y107.461 I-0.705 J-0.013
G1 X283.64 Y107.459
G2 X283.112 Y107.249 I-0.513 J0.522
G1 X283.081
G2 X282.557 Y107.454 I-0.015 J0.731
G2 X282.352 Y107.978 I0.526 J0.508
G1 Y107.993
G1 Y116.387
G3 X282.161 Y116.887 I-0.75 J0.0
G1 X274.573 Y125.354
G1 X274.543 Y125.386
G2 X274.251 Y126.026 I0.702 J0.707
G2 X274.454 Y126.518 I0.682 J0.007
G1 X274.464 Y126.528
G2 X274.982 Y126.741 I0.505 J-0.492
G1 X275.022
G2 X275.544 Y126.514 I0.023 J-0.662
G1 X275.552 Y126.505
G1 X282.539 Y118.742
G3 X283.654 I0.557 J0.502
G1 X290.641 Y126.505
G1 X290.649 Y126.514
G2 X291.171 Y126.741 I0.499 J-0.435
G1 X291.211
G1 X291.239
G0 Z10.0
G0 X310.903 Y123.621
G0 Z4.0
G1 F300.0 Z1.5
G2 F800.0 X311.95 Y125.633 I3.538 J-0.561
G1 X311.967 Y125.65
G2 X314.595 Y126.741 I2.574 J-2.492
G1 X314.607 Y126.74
G1 X320.012
G1 X320.021
G2 X323.705 Y125.198 I0.06 J-5.028
G1 X323.725 Y125.177
G2 X325.268 Y121.493 I-3.486 J-3.624
G1 Y121.477
G2 X323.726 Y117.807 I-5.011 J-0.053
G1 X323.705 Y117.786
G2 X320.021 Y116.243 I-3.624 J3.486
G1 X320.012
G1 X317.009
G1 X316.993
G2 X316.47 Y116.449 I-0.015 J0.731
G2 X316.265 Y116.972 I0.526 J0.508
G1 Y117.003
G2 X316.474 Y117.531 I0.731 J0.015
G1 X316.477 Y117.533
G2 X316.995 Y117.746 I0.505 J-0.492
G1 X317.009
G1 X317.126
G1 X320.007
G3 X322.65 Y118.843 I0.044 J3.627
G3 X323.765 Y121.483 I-2.521 J2.62
G3 X322.652 Y124.124 I-3.603 J0.037
G3 X320.008 Y125.238 I-2.605 J-2.49
G1 X314.613
G3 X313.005 Y124.576 I-0.033 J-2.205
G3 X312.362 Y122.985 I1.54 J-1.547
G1 Y107.993
G1 X312.363 Y107.98
G2 X312.15 Y107.461 I-0.705 J-0.013
G1 X312.142 Y107.454
G2 X311.626 Y107.249 I-0.496 J0.495
G1 X311.588
G2 X311.065 Y107.454 I-0.015 J0.731
G2 X310.859 Y107.978 I0.526 J0.508
G1 X310.86 Y107.993
G1 Y122.993
G1 X310.859 Y123.005
G2 X310.903 Y123.621 I3.582 J0.055
G1 F300.0 Z0.0
G2 F800.0 X311.95 Y125.633 I3.538 J-0.561
G1 X311.967 Y125.65
G2 X314.595 Y126.741 I2.574 J-2.492
G1 X314.607 Y126.74
G1 X320.012
G1 X320.021
G2 X323.705 Y125.198 I0.06 J-5.028
G1 X323.725 Y125.177
G2 X325.268 Y121.493 I-3.486 J-3.624
G1 Y121.477
G2 X323.726 Y117.807 I-5.011 J-0.053
G1 X323.705 Y117.786
G2 X320.021 Y116.243 I-3.624 J3.486
G1 X320.012
G1 X317.009
G1 X316.993
G2 X316.47 Y116.449 I-0.015 J0.731
G2 X316.265 Y116.972 I0.526 J0.508
G1 Y117.003
G2 X316.474 Y117.531 I0.731 J0.015
G1 X316.477 Y117.533
G2 X316.995 Y117.746 I0.505 J-0.492
G1 X317.009
G1 X317.126
G1 X320.007
G3 X322.65 Y118.843 I0.044 J3.627
G3 X323.765 Y121.483 I-2.521 J2.62
G3 X322.652 Y124.124 I-3.603 J0.037
G3 X320.008 Y125.238 I-2.605 J-2.49
G1 X314.613
G3 X313.005 Y124.576 I-0.033 J-2.205
G3 X312.362 Y122.985 I1.54 J-1.547
G1 Y107.993
G1 X312.363 Y107.98
G2 X312.15 Y107.461 I-0.705 J-0.013
G1 X312.142 Y107.454
G2 X311.626 Y107.249 I-0.496 J0.495
G1 X311.588
G2 X311.065 Y107.454 I-0.015 J0.731
G2 X310.859 Y107.978 I0.526 J0.508
G1 X310.86 Y107.993
G1 Y122.993
G1 X310.859 Y123.005
G2 X310.903 Y123.621 I3.582 J0.055
G0 Z10.0
G0 X312.99 Y93.396
G0 Z4.0
G1 F300.0 Z1.5
G2 F800.0 X313.397 Y93.407 I0.346 J-5.016
G1 X313.405
G1 X319.118
G1 X319.124
G2 X321.678 Y92.743 I0.036 J-5.104
G1 X321.681 Y92.741
G2 X323.577 Y90.922 I-2.558 J-4.564
G1 X323.612 Y90.871
G2 X323.638 Y90.189 I-0.489 J-0.36
G1 X323.611 Y90.142
G2 X322.969 Y89.779 I-0.604 J0.319
G1 X322.908 Y89.78
G2 X322.52 Y89.862 I-0.022 J0.85
G2 X322.307 Y90.086 I0.263 J0.464
G1 X322.276 Y90.142
G3 X320.95 Y91.44 I-3.286 J-2.031
G1 X320.932 Y91.45
G3 X319.112 Y91.904 I-1.762 J-3.191
G1 X313.41
G3 X310.763 Y90.788 I-0.04 J-3.603
G3 X309.667 Y88.149 I2.531 J-2.598
G3 X310.764 Y85.513 I3.659 J-0.024
G3 X313.41 Y84.413 I2.602 J2.527
G1 X319.411
G1 X319.42
G2 X323.104 Y82.871 I0.06 J-5.028
G1 X323.125 Y82.85
G2 X324.667 Y79.166 I-3.486 J-3.624
G1 Y79.148
G2 X323.125 Y75.464 I-5.028 J-0.06
G1 X323.107 Y75.446
G2 X319.421 Y73.916 I-3.623 J3.521
G1 X319.411
G1 X312.512
G1 X312.506
G2 X309.937 Y74.58 I-0.043 J5.132
G1 X309.934 Y74.582
G2 X308.056 Y76.396 I2.498 J4.465
G1 X308.046 Y76.413
G2 X307.944 Y76.77 I0.539 J0.346
G1 Y76.798
G2 X308.157 Y77.316 I0.705 J0.013
G1 X308.171 Y77.33
G2 X308.689 Y77.543 I0.505 J-0.492
G1 X308.725
G2 X309.344 Y77.199 I0.02 J-0.691
G1 X309.349 Y77.189
G3 X310.673 Y75.872 I3.273 J1.966
G1 X310.692 Y75.861
G3 X312.519 Y75.404 I1.766 J3.18
G1 X319.406
G3 X322.05 Y76.502 I0.044 J3.627
G3 X323.164 Y79.156 I-2.537 J2.626
G3 X322.051 Y81.797 I-3.603 J0.036
G3 X319.407 Y82.91 I-2.605 J-2.49
G1 X313.405
G1 X313.397
G2 X309.713 Y84.452 I-0.06 J5.028
G1 X309.694 Y84.471
G2 X308.164 Y88.143 I3.505 J3.615
G1 Y88.161
G2 X309.695 Y91.847 I5.052 J0.063
G1 X309.713 Y91.865
G2 X312.99 Y93.396 I3.624 J-3.486
G1 F300.0 Z0.0
G2 F800.0 X313.397 Y93.407 I0.346 J-5.016
G1 X313.405
G1 X319.118
G1 X319.124
G2 X321.678 Y92.743 I0.036 J-5.104
G1 X321.681 Y92.741
G2 X323.577 Y90.922 I-2.558 J-4.564
G1 X323.612 Y90.871
G2 X323.638 Y90.189 I-0.489 J-0.36
G1 X323.611 Y90.142
G2 X322.969 Y89.779 I-0.604 J0.319
G1 X322.908 Y89.78
G2 X322.52 Y89.862 I-0.022 J0.85
G2 X322.307 Y90.086 I0.263 J0.464
G1 X322.276 Y90.142
G3 X320.95 Y91.44 I-3.286 J-2.031
G1 X320.932 Y91.45
G3 X319.112 Y91.904 I-1.762 J-3.191
G1 X313.41
G3 X310.763 Y90.788 I-0.04 J-3.603
G3 X309.667 Y88.149 I2.531 J-2.598
G3 X310.764 Y85.513 I3.659 J-0.024
G3 X313.41 Y84.413 I2.602 J2.527
G1 X319.411
G1 X319.42
G2 X323.104 Y82.871 I0.06 J-5.028
G1 X323.125 Y82.85
G2 X324.667 Y79.166 I-3.486 J-3.624
G1 Y79.148
G2 X323.125 Y75.464 I-5.028 J-0.06
G1 X323.107 Y75.446
G2 X319.421 Y73.916 I-3.623 J3.521
G1 X319.411
G1 X312.512
G1 X312.506
G2 X309.937 Y74.58 I-0.043 J5.132
G1 X309.934 Y74.582
G2 X308.056 Y76.396 I2.498 J4.465
G1 X308.046 Y76.413
G2 X307.944 Y76.77 I0.539 J0.346
G1 Y76.798
G2 X308.157 Y77.316 I0.705 J0.013
G1 X308.171 Y77.33
G2 X308.689 Y77.543 I0.505 J-0.492
G1 X308.725
G2 X309.344 Y77.199 I0.02 J-0.691
G1 X309.349 Y77.189
G3 X310.673 Y75.872 I3.273 J1.966
G1 X310.692 Y75.861
G3 X312.519 Y75.404 I1.766 J3.18
G1 X319.406
G3 X322.05 Y76.502 I0.044 J3.627
G3 X323.164 Y79.156 I-2.537 J2.626
G3 X322.051 Y81.797 I-3.603 J0.036
G3 X319.407 Y82.91 I-2.605 J-2.49
G1 X313.405
G1 X313.397
G2 X309.713 Y84.452 I-0.06 J5.028
G1 X309.694 Y84.471
G2 X308.164 Y88.143 I3.505 J3.615
G1 Y88.161
G2 X309.695 Y91.847 I5.052 J0.063
G1 X309.713 Y91.865
G2 X312.99 Y93.396 I3.624 J-3.486
G0 Z10.0
G0 X291.648 Y92.716
G0 Z4.0
G1 F300.0 Z1.5
G1 F800.0 Y92.68
G1 Y92.649
G2 X291.435 Y92.131 I-0.705 J-0.013
G1 X291.414 Y92.109
G2 X290.921 Y91.904 I-0.478 J0.452
G1 X290.904
G1 X280.1
G3 X278.492 Y91.243 I-0.033 J-2.205
G3 X277.849 Y89.652 I1.54 J-1.547
G1 Y85.163
G3 X278.599 Y84.413 I0.75 J0.0
G1 X287.901
G1 X287.915
G2 X288.433 Y84.2 I0.013 J-0.705
G1 X288.436 Y84.198
G2 X288.645 Y83.67 I-0.522 J-0.513
G1 Y83.64
G2 X288.432 Y83.122 I-0.705 J-0.013
G1 X288.422 Y83.112
G2 X287.92 Y82.91 I-0.485 J0.48
G1 X287.901
G1 X278.599
G3 X277.849 Y82.16 I0.0 J-0.75
G1 Y77.67
G3 X278.488 Y76.069 I2.231 J-0.038
G3 X280.1 Y75.404 I1.578 J1.54
G1 X290.904
G1 X290.921
G2 X291.414 Y75.199 I0.015 J-0.658
G1 X291.443 Y75.17
G2 X291.648 Y74.677 I-0.452 J-0.478
G1 Y74.646
G2 X291.435 Y74.128 I-0.705 J-0.013
G1 X291.425 Y74.118
G2 X290.923 Y73.916 I-0.485 J0.48
G1 X290.904
G1 X280.093
G1 X280.082
G2 X277.454 Y75.006 I-0.055 J3.582
G1 X277.436 Y75.023
G2 X276.346 Y77.652 I2.492 J2.574
G1 Y77.663
G1 Y89.66
G1 Y89.672
G2 X277.436 Y92.3 I3.582 J0.055
G1 X277.454 Y92.317
G2 X280.082 Y93.407 I2.574 J-2.492
G1 X280.093
G1 X290.904
G1 X290.921
G2 X291.414 Y93.202 I0.015 J-0.658
G1 X291.443 Y93.173
G2 X291.648 Y92.716 I-0.452 J-0.478
G1 F300.0 Z0.0
G1 F800.0 Y92.68
G1 Y92.649
G2 X291.435 Y92.131 I-0.705 J-0.013
G1 X291.414 Y92.109
G2 X290.921 Y91.904 I-0.478 J0.452
G1 X290.904
G1 X280.1
G3 X278.492 Y91.243 I-0.033 J-2.205
G3 X277.849 Y89.652 I1.54 J-1.547
G1 Y85.163
G3 X278.599 Y84.413 I0.75 J0.0
G1 X287.901
G1 X287.915
G2 X288.433 Y84.2 I0.013 J-0.705
G1 X288.436 Y84.198
G2 X288.645 Y83.67 I-0.522 J-0.513
G1 Y83.64
G2 X288.432 Y83.122 I-0.705 J-0.013
G1 X288.422 Y83.112
G2 X287.92 Y82.91 I-0.485 J0.48
G1 X287.901
G1 X278.599
G3 X277.849 Y82.16 I0.0 J-0.75
G1 Y77.67
G3 X278.488 Y76.069 I2.231 J-0.038
G3 X280.1 Y75.404 I1.578 J1.54
G1 X290.904
G1 X290.921
G2 X291.414 Y75.199 I0.015 J-0.658
G1 X291.443 Y75.17
G2 X291.648 Y74.677 I-0.452 J-0.478
G1 Y74.646
G2 X291.435 Y74.128 I-0.705 J-0.013
G1 X291.425 Y74.118
G2 X290.923 Y73.916 I-0.485 J0.48
G1 X290.904
G1 X280.093
G1 X280.082
G2 X277.454 Y75.006 I-0.055 J3.582
G1 X277.436 Y75.023
G2 X276.346 Y77.652 I2.492 J2.574
G1 Y77.663
G1 Y89.66
G1 Y89.672
G2 X277.436 Y92.3 I3.582 J0.055
G1 X277.454 Y92.317
G2 X280.082 Y93.407 I2.574 J-2.492
G1 X280.093
G1 X290.904
G1 X290.921
G2 X291.414 Y93.202 I0.015 J-0.658
G1 X291.443 Y93.173
G2 X291.648 Y92.716 I-0.452 J-0.478
G0 Z10.0
G0 X258.337 Y92.696
G0 Z4.0
G1 F300.0 Z1.5
G1 F800.0 X258.336 Y92.68
G1 Y92.649
G2 X258.123 Y92.131 I-0.705 J-0.013
G1 X258.102 Y92.109
G2 X257.609 Y91.904 I-0.478 J0.452
G1 X257.592
G1 X246.788
G3 X245.18 Y91.243 I-0.033 J-2.205
G3 X244.537 Y89.652 I1.54 J-1.547
G1 Y85.163
G3 X245.287 Y84.413 I0.75 J0.0
G1 X254.589
G1 X254.603
G2 X255.121 Y84.2 I0.013 J-0.705
G1 X255.124 Y84.198
G2 X255.333 Y83.67 I-0.522 J-0.513
G1 Y83.64
G2 X255.12 Y83.122 I-0.705 J-0.013
G1 X255.111 Y83.112
G2 X254.608 Y82.91 I-0.485 J0.48
G1 X254.589
G1 X245.287
G3 X244.537 Y82.16 I0.0 J-0.75
G1 Y77.67
G3 X245.176 Y76.069 I2.231 J-0.038
G3 X246.788 Y75.404 I1.578 J1.54
G1 X257.592
G1 X257.609
G2 X258.102 Y75.199 I0.015 J-0.658
G1 X258.131 Y75.17
G2 X258.336 Y74.677 I-0.452 J-0.478
G1 Y74.646
G2 X258.123 Y74.128 I-0.705 J-0.013
G1 X258.113 Y74.118
G2 X257.611 Y73.916 I-0.485 J0.48
G1 X257.592
G1 X246.781
G1 X246.77
G2 X244.142 Y75.006 I-0.055 J3.582
G1 X244.124 Y75.023
G2 X243.034 Y77.652 I2.492 J2.574
G1 Y77.663
G1 Y89.66
G1 Y89.672
G2 X244.124 Y92.3 I3.582 J0.055
G1 X244.142 Y92.317
G2 X246.77 Y93.407 I2.574 J-2.492
G1 X246.781
G1 X257.592
G1 X257.609
G2 X258.102 Y93.202 I0.015 J-0.658
G1 X258.131 Y93.173
G2 X258.337 Y92.696 I-0.452 J-0.478
G1 F300.0 Z0.0
G1 F800.0 X258.336 Y92.68
G1 Y92.649
G2 X258.123 Y92.131 I-0.705 J-0.013
G1 X258.102 Y92.109
G2 X257.609 Y91.904 I-0.478 J0.452
G1 X257.592
G1 X246.788
G3 X245.18 Y91.243 I-0.033 J-2.205
G3 X244.537 Y89.652 I1.54 J-1.547
G1 Y85.163
G3 X245.287 Y84.413 I0.75 J0.0
G1 X254.589
G1 X254.603
G2 X255.121 Y84.2 I0.013 J-0.705
G1 X255.124 Y84.198
G2 X255.333 Y83.67 I-0.522 J-0.513
G1 Y83.64
G2 X255.12 Y83.122 I-0.705 J-0.013
G1 X255.111 Y83.112
G2 X254.608 Y82.91 I-0.485 J0.48
G1 X254.589
G1 X245.287
G3 X244.537 Y82.16 I0.0 J-0.75
G1 Y77.67
G3 X245.176 Y76.069 I2.231 J-0.038
G3 X246.788 Y75.404 I1.578 J1.54
G1 X257.592
G1 X257.609
G2 X258.102 Y75.199 I0.015 J-0.658
G1 X258.131 Y75.17
G2 X258.336 Y74.677 I-0.452 J-0.478
G1 Y74.646
G2 X258.123 Y74.128 I-0.705 J-0.013
G1 X258.113 Y74.118
G2 X257.611 Y73.916 I-0.485 J0.48
G1 X257.592
G1 X246.781
G1 X246.77
G2 X244.142 Y75.006 I-0.055 J3.582
G1 X244.124 Y75.023
G2 X243.034 Y77.652 I2.492 J2.574
G1 Y77.663
G1 Y89.66
G1 Y89.672
G2 X244.124 Y92.3 I3.582 J0.055
G1 X244.142 Y92.317
G2 X246.77 Y93.407 I2.574 J-2.492
G1 X246.781
G1 X257.592
G1 X257.609
G2 X258.102 Y93.202 I0.015 J-0.658
G1 X258.131 Y93.173
G2 X258.337 Y92.696 I-0.452 J-0.478
G0 Z10.0
G0 X253.984 Y107.455
G0 Z4.0
G1 F300.0 Z1.5
G2 F800.0 X252.503 Y107.249 I-1.424 J4.83
G1 X252.494
G1 X246.181
G1 X246.165
G2 X245.642 Y107.454 I-0.015 J0.731
G2 X245.437 Y107.978 I0.526 J0.508
G1 Y108.012
G2 X245.639 Y108.515 I0.682 J0.017
G1 X245.649 Y108.525
G2 X246.167 Y108.738 I0.505 J-0.492
G1 X246.181
G1 X252.49
G3 X255.119 Y109.836 I0.036 J3.61
G3 X256.233 Y112.49 I-2.538 J2.625
G3 X255.12 Y115.13 I-3.603 J0.036
G3 X252.491 Y116.243 I-2.598 J-2.474
G1 X250.986
G1 X250.97
G2 X250.447 Y116.449 I-0.015 J0.731
G2 X250.241 Y116.972 I0.526 J0.508
G1 Y117.003
G2 X250.451 Y117.531 I0.731 J0.015
G1 X250.453 Y117.533
G2 X250.972 Y117.746 I0.505 J-0.492
G1 X250.986
G1 X252.612
G1 X252.638 Y117.747
G3 X255.189 Y118.9 I-0.128 J3.682
G3 X256.233 Y121.5 I-2.625 J2.563
G3 X255.12 Y124.124 I-3.587 J0.027
G3 X252.491 Y125.238 I-2.598 J-2.474
G1 X245.002
G3 X243.379 Y124.578 I-0.042 J-2.223
G3 X242.736 Y122.985 I1.538 J-1.548
G1 Y112.256
G1 Y112.242
G2 X242.523 Y111.724 I-0.705 J-0.013
G1 X242.502 Y111.702
G2 X242.009 Y111.497 I-0.478 J0.452
G1 X241.978
G2 X241.459 Y111.71 I-0.013 J0.705
G1 X241.446 Y111.724
G2 X241.233 Y112.242 I0.492 J0.505
G1 Y112.256
G1 Y122.993
G1 Y123.005
G2 X242.323 Y125.633 I3.582 J0.055
G1 X242.337 Y125.648
G2 X244.984 Y126.741 I2.597 J-2.538
G1 X244.994 Y126.74
G1 X252.494
G1 X252.502
G2 X256.172 Y125.199 I0.053 J-5.011
G1 X256.194 Y125.177
G2 X257.736 Y121.507 I-3.47 J-3.616
G1 Y121.49
G2 X257.289 Y119.317 I-5.188 J-0.065
G2 X255.939 Y117.563 I-4.638 J2.171
G3 X255.93 Y116.42 I0.481 J-0.575
G2 X257.279 Y114.654 I-3.553 J-4.112
G2 X257.736 Y112.498 I-4.608 J-2.102
G1 Y112.482
G2 X256.193 Y108.798 I-5.028 J-0.06
G1 X256.175 Y108.779
G2 X253.984 Y107.455 I-3.615 J3.505
G1 F300.0 Z0.0
G2 F800.0 X252.503 Y107.249 I-1.424 J4.83
G1 X252.494
G1 X246.181
G1 X246.165
G2 X245.642 Y107.454 I-0.015 J0.731
G2 X245.437 Y107.978 I0.526 J0.508
G1 Y108.012
G2 X245.639 Y108.515 I0.682 J0.017
G1 X245.649 Y108.525
G2 X246.167 Y108.738 I0.505 J-0.492
G1 X246.181
G1 X252.49
G3 X255.119 Y109.836 I0.036 J3.61
G3 X256.233 Y112.49 I-2.538 J2.625
G3 X255.12 Y115.13 I-3.603 J0.036
G3 X252.491 Y116.243 I-2.598 J-2.474
G1 X250.986
G1 X250.97
G2 X250.447 Y116.449 I-0.015 J0.731
G2 X250.241 Y116.972 I0.526 J0.508
G1 Y117.003
G2 X250.451 Y117.531 I0.731 J0.015
G1 X250.453 Y117.533
G2 X250.972 Y117.746 I0.505 J-0.492
G1 X250.986
G1 X252.612
G1 X252.638 Y117.747
G3 X255.189 Y118.9 I-0.128 J3.682
G3 X256.233 Y121.5 I-2.625 J2.563
G3 X255.12 Y124.124 I-3.587 J0.027
G3 X252.491 Y125.238 I-2.598 J-2.474
G1 X245.002
G3 X243.379 Y124.578 I-0.042 J-2.223
G3 X242.736 Y122.985 I1.538 J-1.548
G1 Y112.256
G1 Y112.242
G2 X242.523 Y111.724 I-0.705 J-0.013
G1 X242.502 Y111.702
G2 X242.009 Y111.497 I-0.478 J0.452
G1 X241.978
G2 X241.459 Y111.71 I-0.013 J0.705
G1 X241.446 Y111.724
G2 X241.233 Y112.242 I0.492 J0.505
G1 Y112.256
G1 Y122.993
G1 Y123.005
G2 X242.323 Y125.633 I3.582 J0.055
G1 X242.337 Y125.648
G2 X244.984 Y126.741 I2.597 J-2.538
G1 X244.994 Y126.74
G1 X252.494
G1 X252.502
G2 X256.172 Y125.199 I0.053 J-5.011
G1 X256.194 Y125.177
G2 X257.736 Y121.507 I-3.47 J-3.616
G1 Y121.49
G2 X257.289 Y119.317 I-5.188 J-0.065
G2 X255.939 Y117.563 I-4.638 J2.171
G3 X255.93 Y116.42 I0.481 J-0.575
G2 X257.279 Y114.654 I-3.553 J-4.112
G2 X257.736 Y112.498 I-4.608 J-2.102
G1 Y112.482
G2 X256.193 Y108.798 I-5.028 J-0.06
G1 X256.175 Y108.779
G2 X253.984 Y107.455 I-3.615 J3.505
G0 Z10.0
G0 X225.449 Y107.954
G0 Z4.0
G1 F300.0 Z1.5
G2 F800.0 X225.236 Y107.461 I-0.705 J0.012
G1 X225.234 Y107.459
G2 X224.706 Y107.249 I-0.513 J0.522
G1 X224.69
G1 X224.573
G1 X213.894
G1 X213.883
G2 X211.254 Y108.339 I-0.055 J3.582
G1 X211.237 Y108.356
G2 X210.147 Y110.985 I2.492 J2.574
G1 Y110.996
G1 Y125.879
G1 Y125.996
G1 Y126.015
G2 X210.349 Y126.518 I0.682 J0.017
G1 X210.359 Y126.528
G2 X210.878 Y126.741 I0.505 J-0.492
G1 X210.905
G2 X211.424 Y126.528 I0.013 J-0.705
G1 X211.445 Y126.506
G2 X211.65 Y126.014 I-0.452 J-0.478
G1 Y125.996
G1 Y125.879
G1 Y111.003
G3 X212.289 Y109.402 I2.231 J-0.038
G3 X213.901 Y108.738 I1.578 J1.54
G1 X224.69
G1 X224.704
G2 X225.222 Y108.525 I0.013 J-0.705
G1 X225.244 Y108.503
G2 X225.449 Y108.011 I-0.452 J-0.478
G1 Y107.98
G1 Y107.954
G1 F300.0 Z0.0
G2 F800.0 X225.236 Y107.461 I-0.705 J0.012
G1 X225.234 Y107.459
G2 X224.706 Y107.249 I-0.513 J0.522
G1 X224.69
G1 X224.573
G1 X213.894
G1 X213.883
G2 X211.254 Y108.339 I-0.055 J3.582
G1 X211.237 Y108.356
G2 X210.147 Y110.985 I2.492 J2.574
G1 Y110.996
G1 Y125.879
G1 Y125.996
G1 Y126.015
G2 X210.349 Y126.518 I0.682 J0.017
G1 X210.359 Y126.528
G2 X210.878 Y126.741 I0.505 J-0.492
G1 X210.905
G2 X211.424 Y126.528 I0.013 J-0.705
G1 X211.445 Y126.506
G2 X211.65 Y126.014 I-0.452 J-0.478
G1 Y125.996
G1 Y125.879
G1 Y111.003
G3 X212.289 Y109.402 I2.231 J-0.038
G3 X213.901 Y108.738 I1.578 J1.54
G1 X224.69
G1 X224.704
G2 X225.222 Y108.525 I0.013 J-0.705
G1 X225.244 Y108.503
G2 X225.449 Y108.011 I-0.452 J-0.478
G1 Y107.98
G1 Y107.954
G0 Z10.0
G0 X224.936 Y93.407
G0 Z4.0
G1 F300.0 Z1.5
G2 F800.0 X225.391 Y93.202 I-0.023 J-0.657
G1 X225.42 Y93.173
G2 X225.625 Y92.68 I-0.452 J-0.478
G1 Y92.663
G1 Y74.66
G1 Y74.646
G2 X225.412 Y74.128 I-0.705 J-0.013
G1 X225.402 Y74.118
G2 X224.9 Y73.916 I-0.485 J0.48
G1 X224.86
G2 X224.351 Y74.112 I-0.019 J0.71
G1 X224.277 Y74.185
G1 X217.021 Y81.954
G3 X215.925 Y81.955 I-0.548 J-0.512
G1 X208.712 Y74.245
G2 X208.367 Y73.99 I-1.052 J1.067
G2 X208.073 Y73.916 I-0.299 J0.564
G1 X208.063
G2 X207.535 Y74.125 I-0.015 J0.731
G1 X207.533 Y74.128
G2 X207.32 Y74.646 I0.492 J0.505
G1 Y74.66
G1 Y92.663
G1 Y92.68
G2 X207.525 Y93.173 I0.658 J0.015
G1 X207.547 Y93.194
G2 X208.065 Y93.407 I0.505 J-0.492
G1 X208.096
G2 X208.589 Y93.202 I0.015 J-0.658
G1 X208.618 Y93.173
G2 X208.823 Y92.68 I-0.452 J-0.478
G1 Y92.663
G1 Y78.439
G3 X210.123 Y77.929 I0.75 J0.0
G1 X215.87 Y84.13
G1 X215.919 Y84.179
G1 X215.929 Y84.189
G2 X216.464 Y84.413 I0.526 J-0.506
G1 X216.481
G2 X217.01 Y84.169 I0.007 J-0.681
G1 X217.037 Y84.139
G1 X222.823 Y77.928
G3 X224.122 Y78.439 I0.549 J0.511
G1 Y92.663
G1 Y92.68
G2 X224.327 Y93.173 I0.658 J0.015
G1 X224.348 Y93.194
G2 X224.867 Y93.407 I0.505 J-0.492
G1 X224.898
G1 X224.936
G1 F300.0 Z0.0
G2 F800.0 X225.391 Y93.202 I-0.023 J-0.657
G1 X225.42 Y93.173
G2 X225.625 Y92.68 I-0.452 J-0.478
G1 Y92.663
G1 Y74.66
G1 Y74.646
G2 X225.412 Y74.128 I-0.705 J-0.013
G1 X225.402 Y74.118
G2 X224.9 Y73.916 I-0.485 J0.48
G1 X224.86
G2 X224.351 Y74.112 I-0.019 J0.71
G1 X224.277 Y74.185
G1 X217.021 Y81.954
G3 X215.925 Y81.955 I-0.548 J-0.512
G1 X208.712 Y74.245
G2 X208.367 Y73.99 I-1.052 J1.067
G2 X208.073 Y73.916 I-0.299 J0.564
G1 X208.063
G2 X207.535 Y74.125 I-0.015 J0.731
G1 X207.533 Y74.128
G2 X207.32 Y74.646 I0.492 J0.505
G1 Y74.66
G1 Y92.663
G1 Y92.68
G2 X207.525 Y93.173 I0.658 J0.015
G1 X207.547 Y93.194
G2 X208.065 Y93.407 I0.505 J-0.492
G1 X208.096
G2 X208.589 Y93.202 I0.015 J-0.658
G1 X208.618 Y93.173
G2 X208.823 Y92.68 I-0.452 J-0.478
G1 Y92.663
G1 Y78.439
G3 X210.123 Y77.929 I0.75 J0.0
G1 X215.87 Y84.13
G1 X215.919 Y84.179
G1 X215.929 Y84.189
G2 X216.464 Y84.413 I0.526 J-0.506
G1 X216.481
G2 X217.01 Y84.169 I0.007 J-0.681
G1 X217.037 Y84.139
G1 X222.823 Y77.928
G3 X224.122 Y78.439 I0.549 J0.511
G1 Y92.663
G1 Y92.68
G2 X224.327 Y93.173 I0.658 J0.015
G1 X224.348 Y93.194
G2 X224.867 Y93.407 I0.505 J-0.492
G1 X224.898
G1 X224.936
G0 Z10.0
G0 X191.712 Y92.709
G0 Z4.0
G1 F300.0 Z1.5
G1 F800.0 Y92.68
G1 Y92.649
G2 X191.499 Y92.131 I-0.705 J-0.013
G1 X191.478 Y92.109
G2 X190.985 Y91.904 I-0.478 J0.452
G1 X190.968
G1 X180.164
G3 X178.556 Y91.243 I-0.033 J-2.205
G3 X177.913 Y89.652 I1.54 J-1.547
G1 Y85.163
G3 X178.663 Y84.413 I0.75 J0.0
G1 X187.965
G1 X187.979
G2 X188.497 Y84.2 I0.013 J-0.705
G1 X188.5 Y84.198
G2 X188.709 Y83.67 I-0.522 J-0.513
G1 Y83.64
G2 X188.496 Y83.122 I-0.705 J-0.013
G1 X188.487 Y83.112
G2 X187.984 Y82.91 I-0.485 J0.48
G1 X187.965
G1 X178.663
G3 X177.913 Y82.16 I0.0 J-0.75
G1 Y77.67
G3 X178.552 Y76.069 I2.231 J-0.038
G3 X180.164 Y75.404 I1.578 J1.54
G1 X190.968
G1 X190.985
G2 X191.478 Y75.199 I0.015 J-0.658
G1 X191.507 Y75.17
G2 X191.712 Y74.677 I-0.452 J-0.478
G1 Y74.646
G2 X191.499 Y74.128 I-0.705 J-0.013
G1 X191.489 Y74.118
G2 X190.987 Y73.916 I-0.485 J0.48
G1 X190.968
G1 X180.158
G1 X180.146
G2 X177.518 Y75.006 I-0.055 J3.582
G1 X177.5 Y75.023
G2 X176.41 Y77.652 I2.492 J2.574
G1 Y77.663
G1 Y89.66
G1 Y89.672
G2 X177.5 Y92.3 I3.582 J0.055
G1 X177.518 Y92.317
G2 X180.146 Y93.407 I2.574 J-2.492
G1 X180.158
G1 X190.968
G1 X190.985
G2 X191.478 Y93.202 I0.015 J-0.658
G1 X191.507 Y93.173
G2 X191.712 Y92.709 I-0.452 J-0.478
G1 F300.0 Z0.0
G1 F800.0 Y92.68
G1 Y92.649
G2 X191.499 Y92.131 I-0.705 J-0.013
G1 X191.478 Y92.109
G2 X190.985 Y91.904 I-0.478 J0.452
G1 X190.968
G1 X180.164
G3 X178.556 Y91.243 I-0.033 J-2.205
G3 X177.913 Y89.652 I1.54 J-1.547
G1 Y85.163
G3 X178.663 Y84.413 I0.75 J0.0
G1 X187.965
G1 X187.979
G2 X188.497 Y84.2 I0.013 J-0.705
G1 X188.5 Y84.198
G2 X188.709 Y83.67 I-0.522 J-0.513
G1 Y83.64
G2 X188.496 Y83.122 I-0.705 J-0.013
G1 X188.487 Y83.112
G2 X187.984 Y82.91 I-0.485 J0.48
G1 X187.965
G1 X178.663
G3 X177.913 Y82.16 I0.0 J-0.75
G1 Y77.67
G3 X178.552 Y76.069 I2.231 J-0.038
G3 X180.164 Y75.404 I1.578 J1.54
G1 X190.968
G1 X190.985
G2 X191.478 Y75.199 I0.015 J-0.658
G1 X191.507 Y75.17
G2 X191.712 Y74.677 I-0.452 J-0.478
G1 Y74.646
G2 X191.499 Y74.128 I-0.705 J-0.013
G1 X191.489 Y74.118
G2 X190.987 Y73.916 I-0.485 J0.48
G1 X190.968
G1 X180.158
G1 X180.146
G2 X177.518 Y75.006 I-0.055 J3.582
G1 X177.5 Y75.023
G2 X176.41 Y77.652 I2.492 J2.574
G1 Y77.663
G1 Y89.66
G1 Y89.672
G2 X177.5 Y92.3 I3.582 J0.055
G1 X177.518 Y92.317
G2 X180.146 Y93.407 I2.574 J-2.492
G1 X180.158
G1 X190.968
G1 X190.985
G2 X191.478 Y93.202 I0.015 J-0.658
G1 X191.507 Y93.173
G2 X191.712 Y92.709 I-0.452 J-0.478
G0 Z10.0
G0 X190.721 Y107.249
G0 Z4.0
G1 F300.0 Z1.5
G1 F800.0 X190.641 Y107.248
G1 X190.581 Y107.249
G2 X189.993 Y107.548 I-0.019 J0.688
G1 X183.94 Y116.614
G2 X183.851 Y116.96 I0.543 J0.323
G1 X183.852 Y117.003
G2 X184.061 Y117.531 I0.731 J0.015
G1 X184.064 Y117.533
G2 X184.582 Y117.746 I0.505 J-0.492
G1 X184.596
G1 X186.222
G1 X186.248 Y117.747
G3 X188.796 Y118.896 I-0.128 J3.682
G3 X189.858 Y121.483 I-2.563 J2.564
G3 X188.797 Y124.072 I-3.593 J0.04
G3 X186.249 Y125.237 I-2.68 J-2.491
G1 X186.222 Y125.238
G1 X178.904
G3 X177.296 Y124.576 I-0.033 J-2.205
G3 X176.654 Y122.985 I1.54 J-1.547
G1 Y108.111
G1 Y107.993
G1 Y107.98
G2 X176.441 Y107.461 I-0.705 J-0.013
G1 X176.431 Y107.451
G2 X175.928 Y107.249 I-0.485 J0.48
G1 X175.894
G2 X175.366 Y107.459 I-0.015 J0.731
G1 X175.364 Y107.461
G2 X175.151 Y107.98 I0.492 J0.505
G1 Y107.993
G1 Y122.993
G1 Y123.005
G2 X176.241 Y125.633 I3.582 J0.055
G1 X176.258 Y125.65
G2 X178.886 Y126.741 I2.574 J-2.492
G1 X178.898 Y126.74
G1 X186.218
G2 X189.824 Y125.171 I-0.056 J-5.058
G1 X189.844 Y125.152
G2 X191.346 Y121.51 I-3.484 J-3.568
G1 Y121.493
G2 X190.158 Y118.171 I-5.109 J-0.046
G1 X190.147 Y118.158
G2 X187.185 Y116.345 I-3.979 J3.175
G3 X186.711 Y115.195 I0.15 J-0.735
G1 X191.267 Y108.354
G1 X191.282 Y108.332
G2 X191.301 Y107.662 I-0.487 J-0.35
G1 X191.27 Y107.608
G2 X190.721 Y107.249 I-0.595 J0.31
G1 F300.0 Z0.0
G1 F800.0 X190.641 Y107.248
G1 X190.581 Y107.249
G2 X189.993 Y107.548 I-0.019 J0.688
G1 X183.94 Y116.614
G2 X183.851 Y116.96 I0.543 J0.323
G1 X183.852 Y117.003
G2 X184.061 Y117.531 I0.731 J0.015
G1 X184.064 Y117.533
G2 X184.582 Y117.746 I0.505 J-0.492
G1 X184.596
G1 X186.222
G1 X186.248 Y117.747
G3 X188.796 Y118.896 I-0.128 J3.682
G3 X189.858 Y121.483 I-2.563 J2.564
G3 X188.797 Y124.072 I-3.593 J0.04
G3 X186.249 Y125.237 I-2.68 J-2.491
G1 X186.222 Y125.238
G1 X178.904
G3 X177.296 Y124.576 I-0.033 J-2.205
G3 X176.654 Y122.985 I1.54 J-1.547
G1 Y108.111
G1 Y107.993
G1 Y107.98
G2 X176.441 Y107.461 I-0.705 J-0.013
G1 X176.431 Y107.451
G2 X175.928 Y107.249 I-0.485 J0.48
G1 X175.894
G2 X175.366 Y107.459 I-0.015 J0.731
G1 X175.364 Y107.461
G2 X175.151 Y107.98 I0.492 J0.505
G1 Y107.993
G1 Y122.993
G1 Y123.005
G2 X176.241 Y125.633 I3.582 J0.055
G1 X176.258 Y125.65
G2 X178.886 Y126.741 I2.574 J-2.492
G1 X178.898 Y126.74
G1 X186.218
G2 X189.824 Y125.171 I-0.056 J-5.058
G1 X189.844 Y125.152
G2 X191.346 Y121.51 I-3.484 J-3.568
G1 Y121.493
G2 X190.158 Y118.171 I-5.109 J-0.046
G1 X190.147 Y118.158
G2 X187.185 Y116.345 I-3.979 J3.175
G3 X186.711 Y115.195 I0.15 J-0.735
G1 X191.267 Y108.354
G1 X191.282 Y108.332
G2 X191.301 Y107.662 I-0.487 J-0.35
G1 X191.27 Y107.608
G2 X190.721 Y107.249 I-0.595 J0.31
G0 Z10.0
G0 X158.061 Y111.737
G0 Z4.0
G1 F300.0 Z1.5
G2 F800.0 X156.565 Y108.798 I-4.981 J0.685
G1 X156.547 Y108.78
G2 X152.861 Y107.249 I-3.623 J3.521
G1 X152.851
G1 X147.153
G1 X147.144
G2 X143.458 Y108.78 I-0.063 J5.052
G1 X143.44 Y108.798
G2 X141.897 Y112.482 I3.486 J3.624
G1 Y112.49
G1 Y125.879
G1 Y125.996
G1 Y126.014
G2 X142.102 Y126.506 I0.658 J0.015
G1 X142.124 Y126.528
G2 X142.642 Y126.741 I0.505 J-0.492
G1 X142.673
G2 X143.166 Y126.535 I0.015 J-0.658
G1 X143.195 Y126.506
G2 X143.4 Y126.014 I-0.452 J-0.478
G1 Y125.996
G1 Y125.879
G1 Y112.494
G3 X144.499 Y109.836 I3.675 J-0.037
G3 X147.157 Y108.738 I2.621 J2.577
G1 X152.847
G3 X155.49 Y109.835 I0.044 J3.627
G3 X156.604 Y112.494 I-2.537 J2.626
G1 Y125.996
G1 Y126.015
G2 X156.806 Y126.518 I0.682 J0.017
G1 X156.816 Y126.528
G2 X157.335 Y126.741 I0.505 J-0.492
G1 X157.362
G2 X157.881 Y126.528 I0.013 J-0.705
G1 X157.902 Y126.506
G2 X158.107 Y126.014 I-0.452 J-0.478
G1 Y125.996
G1 Y112.49
G1 Y112.482
G2 X158.061 Y111.737 I-5.028 J-0.06
G1 F300.0 Z0.0
G2 F800.0 X156.565 Y108.798 I-4.981 J0.685
G1 X156.547 Y108.78
G2 X152.861 Y107.249 I-3.623 J3.521
G1 X152.851
G1 X147.153
G1 X147.144
G2 X143.458 Y108.78 I-0.063 J5.052
G1 X143.44 Y108.798
G2 X141.897 Y112.482 I3.486 J3.624
G1 Y112.49
G1 Y125.879
G1 Y125.996
G1 Y126.014
G2 X142.102 Y126.506 I0.658 J0.015
G1 X142.124 Y126.528
G2 X142.642 Y126.741 I0.505 J-0.492
G1 X142.673
G2 X143.166 Y126.535 I0.015 J-0.658
G1 X143.195 Y126.506
G2 X143.4 Y126.014 I-0.452 J-0.478
G1 Y125.996
G1 Y125.879
G1 Y112.494
G3 X144.499 Y109.836 I3.675 J-0.037
G3 X147.157 Y108.738 I2.621 J2.577
G1 X152.847
G3 X155.49 Y109.835 I0.044 J3.627
G3 X156.604 Y112.494 I-2.537 J2.626
G1 Y125.996
G1 Y126.015
G2 X156.806 Y126.518 I0.682 J0.017
G1 X156.816 Y126.528
G2 X157.335 Y126.741 I0.505 J-0.492
G1 X157.362
G2 X157.881 Y126.528 I0.013 J-0.705
G1 X157.902 Y126.506
G2 X158.107 Y126.014 I-0.452 J-0.478
G1 Y125.996
G1 Y112.49
G1 Y112.482
G2 X158.061 Y111.737 I-5.028 J-0.06
G0 Z10.0
G0 X154.236 Y93.3
G0 Z4.0
G1 F300.0 Z1.5
G2 F800.0 X155.72 Y92.743 I-1.043 J-5.026
G1 X155.722 Y92.741
G2 X157.602 Y90.948 I-2.558 J-4.564
G2 X157.712 Y90.506 I-0.986 J-0.481
G2 X157.499 Y89.992 I-0.705 J-0.009
G1 X157.489 Y89.982
G2 X156.986 Y89.78 I-0.485 J0.48
G1 X156.949
G2 X156.554 Y89.864 I-0.021 J0.868
G2 X156.328 Y90.097 I0.28 J0.499
G1 X156.305 Y90.137
G3 X154.976 Y91.444 I-3.248 J-1.974
G1 X154.957 Y91.455
G3 X153.138 Y91.904 I-1.758 J-3.213
G1 X147.157
G3 X144.498 Y90.791 I-0.033 J-3.651
G3 X143.4 Y88.162 I2.512 J-2.593
G1 Y79.161
G3 X144.499 Y76.503 I3.675 J-0.037
G3 X147.157 Y75.404 I2.621 J2.577
G1 X154.339
G3 X155.945 Y76.063 I0.033 J2.205
G3 X156.604 Y77.669 I-1.546 J1.573
G1 Y80.666
G3 X155.854 Y81.416 I-0.75 J0.0
G1 X151.05
G1 X151.034
G2 X150.511 Y81.621 I-0.015 J0.731
G2 X150.305 Y82.145 I0.526 J0.508
G1 Y82.179
G2 X150.508 Y82.681 I0.682 J0.017
G1 X150.517 Y82.691
G2 X151.036 Y82.904 I0.505 J-0.492
G1 X151.05
G1 X157.348
G1 X157.362
G2 X157.881 Y82.691 I0.013 J-0.705
G1 X157.902 Y82.67
G2 X158.107 Y82.177 I-0.452 J-0.478
G1 Y82.16
G1 Y77.663
G1 Y77.652
G2 X157.006 Y75.027 I-3.558 J-0.051
G1 X156.985 Y75.006
G2 X154.357 Y73.916 I-2.574 J2.492
G1 X154.346
G1 X147.153
G1 X147.144
G2 X143.458 Y75.446 I-0.063 J5.052
G1 X143.44 Y75.464
G2 X141.897 Y79.148 I3.486 J3.624
G1 Y79.157
G1 Y88.166
G1 Y88.174
G2 X143.439 Y91.843 I5.011 J0.053
G1 X143.46 Y91.865
G2 X147.144 Y93.407 I3.624 J-3.486
G1 X147.153
G1 X153.144
G1 X153.151
G2 X154.236 Y93.3 I0.043 J-5.132
G1 F300.0 Z0.0
G2 F800.0 X155.72 Y92.743 I-1.043 J-5.026
G1 X155.722 Y92.741
G2 X157.602 Y90.948 I-2.558 J-4.564
G2 X157.712 Y90.506 I-0.986 J-0.481
G2 X157.499 Y89.992 I-0.705 J-0.009
G1 X157.489 Y89.982
G2 X156.986 Y89.78 I-0.485 J0.48
G1 X156.949
G2 X156.554 Y89.864 I-0.021 J0.868
G2 X156.328 Y90.097 I0.28 J0.499
G1 X156.305 Y90.137
G3 X154.976 Y91.444 I-3.248 J-1.974
G1 X154.957 Y91.455
