( Made using CamBam - http://www.cambam.co.uk )
( letterplaat-1mm_mirror 11/19/2017 9:24:51 PM )
( T0 : 1.4 )
(G21 G90 G64 G40)
G0 Z10.0
( mal-gaten )
G64 G17
M3 S1000
G0 X5.05 Y5.0
G0 Z4.0
G1 F300.0 Z-1.0
G1 F800.0 X4.975 Y4.9567
G1 Y5.0433
G1 X5.05 Y5.0
G0 Z10.0
G0 X9.9648 Y9.9645
G0 Z4.0
G1 F300.0 Z-1.0
G1 F800.0 X9.975 Y10.0433
G1 X10.05 Y10.0
G1 X9.975 Y9.9567
G1 X9.9648 Y9.9645
G0 Z10.0
G0 X239.95 Y10.0
G0 Z4.0
G1 F300.0 Z-1.0
G1 F800.0 X239.975 Y10.0433
G1 X240.05 Y10.0
G1 X239.975 Y9.9567
G1 X239.95 Y10.0
G0 Z10.0
G0 X244.9645 Y5.0352
G0 Z4.0
G1 F300.0 Z-1.0
G1 F800.0 X244.975 Y5.0433
G1 X245.05 Y5.0
G1 X244.975 Y4.9567
G1 X244.9645 Y5.0352
G0 Z10.0
G0 X240.0011 Y239.95
G0 Z4.0
G1 F300.0 Z-1.0
G1 F800.0 X239.975 Y239.9567
G1 Y240.0433
G1 X240.05 Y240.0
G1 X240.0011 Y239.95
G0 Z10.0
G0 X244.9648 Y244.9645
G0 Z4.0
G1 F300.0 Z-1.0
G1 F800.0 X244.975 Y245.0433
G1 X245.05 Y245.0
G1 X244.975 Y244.9567
G1 X244.9648 Y244.9645
G0 Z10.0
G0 X10.05 Y240.0011
G0 Z4.0
G1 F300.0 Z-1.0
G1 F800.0 Y240.0
G1 X9.975 Y239.9567
G1 Y240.0433
G1 X10.05 Y240.0011
G0 Z10.0
G0 X5.0355 Y244.9648
G0 Z4.0
G1 F300.0 Z-1.0
G1 F800.0 X4.975 Y244.9567
G1 Y245.0433
G1 X5.05 Y245.0
G1 X5.0355 Y244.9648
G0 Z10.0
M5
M30
