( Made using CamBam - http://www.cambam.co.uk )
( letterplaat-1mm 10/4/2017 8:07:34 PM )
( T1 : 1.0 )
(G21 G90 G64 G40)
G0 Z5.0
( letters )
G64 G17
M8
M3 S13000
G0 X173.3511 Y170.5
G0 Z1.0
G1 F400.0 Z-1.5
G2 F800.0 X171.7032 Y171.1895 I-0.0272 J2.2488
G1 X171.6895 Y171.2032
G2 X171.0 Y172.8511 I1.5592 J1.6207
G1 Y172.8571
G1 Y177.1429
G1 Y177.1489
G2 X171.6895 Y178.7968 I2.2488 J0.0272
G1 X171.7032 Y178.8105
G2 X173.3511 Y179.5 I1.6207 J-1.5592
G1 X173.3571
G1 X176.6429
G1 X176.6489
G2 X178.2968 Y178.8105 I0.0272 J-2.2488
G1 X178.3105 Y178.7968
G2 X179.0 Y177.1489 I-1.5592 J-1.6207
G1 Y177.1429
G1 Y172.7429
G1 X179.0001 Y172.7325
G2 X178.9431 Y172.5931 I-0.1897 J-0.0039
G1 X178.9355 Y172.5854
G2 X178.796 Y172.5285 I-0.1356 J0.1327
G1 X178.7754
G2 X178.6359 Y172.5854 I-0.0039 J0.1897
G1 X178.6283 Y172.5931
G2 X178.5713 Y172.7325 I0.1327 J0.1356
G1 X178.5714 Y172.7429
G1 Y177.1401
G3 X178.0036 Y178.5036 I-1.8744 J0.0194
G3 X176.6401 Y179.0714 I-1.3441 J-1.3066
G1 X173.3599
G3 X171.9964 Y178.5036 I-0.0194 J-1.8744
G3 X171.4286 Y177.1401 I1.3066 J-1.3441
G1 Y172.8599
G3 X171.9964 Y171.4964 I1.8744 J-0.0194
G3 X173.3599 Y170.9286 I1.3441 J1.3066
G1 X176.7571
G1 X176.7675 Y170.9287
G2 X176.9069 Y170.8717 I0.0039 J-0.1897
G1 X176.9146 Y170.8641
G2 X176.9715 Y170.7246 I-0.1327 J-0.1356
G1 Y170.704
G2 X176.9146 Y170.5645 I-0.1897 J-0.0039
G1 X176.9069 Y170.5569
G2 X176.7675 Y170.4999 I-0.1356 J0.1327
G1 X176.7571 Y170.5
G1 X173.3571
G1 X173.3511
G1 F400.0 Z-3.0
G2 F800.0 X171.7032 Y171.1895 I-0.0272 J2.2488
G1 X171.6895 Y171.2032
G2 X171.0 Y172.8511 I1.5592 J1.6207
G1 Y172.8571
G1 Y177.1429
G1 Y177.1489
G2 X171.6895 Y178.7968 I2.2488 J0.0272
G1 X171.7032 Y178.8105
G2 X173.3511 Y179.5 I1.6207 J-1.5592
G1 X173.3571
G1 X176.6429
G1 X176.6489
G2 X178.2968 Y178.8105 I0.0272 J-2.2488
G1 X178.3105 Y178.7968
G2 X179.0 Y177.1489 I-1.5592 J-1.6207
G1 Y177.1429
G1 Y172.7429
G1 X179.0001 Y172.7325
G2 X178.9431 Y172.5931 I-0.1897 J-0.0039
G1 X178.9355 Y172.5854
G2 X178.796 Y172.5285 I-0.1356 J0.1327
G1 X178.7754
G2 X178.6359 Y172.5854 I-0.0039 J0.1897
G1 X178.6283 Y172.5931
G2 X178.5713 Y172.7325 I0.1327 J0.1356
G1 X178.5714 Y172.7429
G1 Y177.1401
G3 X178.0036 Y178.5036 I-1.8744 J0.0194
G3 X176.6401 Y179.0714 I-1.3441 J-1.3066
G1 X173.3599
G3 X171.9964 Y178.5036 I-0.0194 J-1.8744
G3 X171.4286 Y177.1401 I1.3066 J-1.3441
G1 Y172.8599
G3 X171.9964 Y171.4964 I1.8744 J-0.0194
G3 X173.3599 Y170.9286 I1.3441 J1.3066
G1 X176.7571
G1 X176.7675 Y170.9287
G2 X176.9069 Y170.8717 I0.0039 J-0.1897
G1 X176.9146 Y170.8641
G2 X176.9715 Y170.7246 I-0.1327 J-0.1356
G1 Y170.704
G2 X176.9146 Y170.5645 I-0.1897 J-0.0039
G1 X176.9069 Y170.5569
G2 X176.7675 Y170.4999 I-0.1356 J0.1327
G1 X176.7571 Y170.5
G1 X173.3571
G1 X173.3511
G0 Z5.0
G0 X171.7669 Y162.8296
G0 Z1.0
G1 F400.0 Z-1.5
G2 F800.0 X171.8641 Y162.7765 I-0.0384 J-0.1858
G1 X171.8717 Y162.7689
G2 X171.9287 Y162.6294 I-0.1327 J-0.1356
G1 X171.9286 Y162.619
G1 Y162.5619
G1 Y155.4806
G3 X172.2821 Y154.6155 I1.1896 J-0.0187
G3 X173.1473 Y154.2619 I0.8465 J0.836
G1 X178.2857
G1 X178.296 Y154.262
G2 X178.4355 Y154.205 I0.0039 J-0.1897
G1 X178.4431 Y154.1974
G2 X178.5001 Y154.0579 I-0.1327 J-0.1356
G1 Y154.0373
G2 X178.4431 Y153.8978 I-0.1897 J-0.0039
G1 X178.4355 Y153.8902
G2 X178.296 Y153.8332 I-0.1356 J0.1327
G1 X178.2857 Y153.8333
G1 X178.2286
G1 X173.1429
G1 X173.1354
G2 X171.9879 Y154.3096 I-0.0234 J1.5638
G1 X171.9762 Y154.3212
G2 X171.4999 Y155.4687 I1.0875 J1.124
G1 X171.5 Y155.4762
G1 Y162.5619
G1 Y162.619
G1 X171.4999 Y162.6294
G2 X171.5569 Y162.7689 I0.1897 J0.0039
G1 X171.5645 Y162.7765
G2 X171.704 Y162.8334 I0.1356 J-0.1327
G1 X171.7246
G1 X171.7669 Y162.8296
G1 F400.0 Z-3.0
G2 F800.0 X171.8641 Y162.7765 I-0.0384 J-0.1858
G1 X171.8717 Y162.7689
G2 X171.9287 Y162.6294 I-0.1327 J-0.1356
G1 X171.9286 Y162.619
G1 Y162.5619
G1 Y155.4806
G3 X172.2821 Y154.6155 I1.1896 J-0.0187
G3 X173.1473 Y154.2619 I0.8465 J0.836
G1 X178.2857
G1 X178.296 Y154.262
G2 X178.4355 Y154.205 I0.0039 J-0.1897
G1 X178.4431 Y154.1974
G2 X178.5001 Y154.0579 I-0.1327 J-0.1356
G1 Y154.0373
G2 X178.4431 Y153.8978 I-0.1897 J-0.0039
G1 X178.4355 Y153.8902
G2 X178.296 Y153.8332 I-0.1356 J0.1327
G1 X178.2857 Y153.8333
G1 X178.2286
G1 X173.1429
G1 X173.1354
G2 X171.9879 Y154.3096 I-0.0234 J1.5638
G1 X171.9762 Y154.3212
G2 X171.4999 Y155.4687 I1.0875 J1.124
G1 X171.5 Y155.4762
G1 Y162.5619
G1 Y162.619
G1 X171.4999 Y162.6294
G2 X171.5569 Y162.7689 I0.1897 J0.0039
G1 X171.5645 Y162.7765
G2 X171.704 Y162.8334 I0.1356 J-0.1327
G1 X171.7246
G1 X171.7669 Y162.8296
G0 Z5.0
G0 X161.1216 Y157.5159
G0 Z1.0
G1 F400.0 Z-1.5
G1 F800.0 X162.786 Y154.1815
G1 X162.7951 Y154.164
G2 X162.8335 Y154.032 I-0.2765 J-0.1519
G2 X162.7765 Y153.8978 I-0.1897 J0.0013
G1 X162.7689 Y153.8902
G2 X162.6294 Y153.8332 I-0.1356 J0.1327
G1 X162.6109 Y153.8333
G2 X162.4158 Y153.9661 I-0.0033 J0.2048
G1 X162.3948 Y154.0141
G1 X158.7805 Y161.2427
G3 X157.8861 I-0.4472 J-0.2236
G1 X155.829 Y157.1284
G3 X156.2762 Y156.4048 I0.4472 J-0.2236
G1 X158.3333
G1 X158.3436 Y156.4049
G2 X158.4831 Y156.3479 I0.0039 J-0.1897
G1 X158.4907 Y156.3403
G2 X158.5477 Y156.2008 I-0.1327 J-0.1356
G1 Y156.1802
G2 X158.4907 Y156.0407 I-0.1897 J-0.0039
G1 X158.4831 Y156.0331
G2 X158.3436 Y155.9761 I-0.1356 J0.1327
G1 X158.3333 Y155.9762
G1 X155.5619
G3 X155.1147 Y155.6998 I0.0 J-0.5
G1 X154.2718 Y154.0141
G1 X154.254 Y153.9742
G2 X154.0471 Y153.8333 I-0.2072 J0.0819
G1 X154.0373 Y153.8332
G2 X153.8978 Y153.8902 I-0.0039 J0.1897
G1 X153.8902 Y153.8978
G2 X153.8332 Y154.0373 I0.1327 J0.1356
G1 X153.8333 Y154.0473
G2 X153.8647 Y154.1781 I0.2889 J-0.0002
G1 X153.8661 Y154.1809
G1 X158.109 Y162.6523
G1 X158.1387 Y162.7256
G2 X158.2987 Y162.8345 I0.1492 J-0.0471
G1 X158.3679
G2 X158.528 Y162.7256 I0.0108 J-0.1561
G1 X158.5574 Y162.6529
G1 X161.1216 Y157.5159
G1 F400.0 Z-3.0
G1 F800.0 X162.786 Y154.1815
G1 X162.7951 Y154.164
G2 X162.8335 Y154.032 I-0.2765 J-0.1519
G2 X162.7765 Y153.8978 I-0.1897 J0.0013
G1 X162.7689 Y153.8902
G2 X162.6294 Y153.8332 I-0.1356 J0.1327
G1 X162.6109 Y153.8333
G2 X162.4158 Y153.9661 I-0.0033 J0.2048
G1 X162.3948 Y154.0141
G1 X158.7805 Y161.2427
G3 X157.8861 I-0.4472 J-0.2236
G1 X155.829 Y157.1284
G3 X156.2762 Y156.4048 I0.4472 J-0.2236
G1 X158.3333
G1 X158.3436 Y156.4049
G2 X158.4831 Y156.3479 I0.0039 J-0.1897
G1 X158.4907 Y156.3403
G2 X158.5477 Y156.2008 I-0.1327 J-0.1356
G1 Y156.1802
G2 X158.4907 Y156.0407 I-0.1897 J-0.0039
G1 X158.4831 Y156.0331
G2 X158.3436 Y155.9761 I-0.1356 J0.1327
G1 X158.3333 Y155.9762
G1 X155.5619
G3 X155.1147 Y155.6998 I0.0 J-0.5
G1 X154.2718 Y154.0141
G1 X154.254 Y153.9742
G2 X154.0471 Y153.8333 I-0.2072 J0.0819
G1 X154.0373 Y153.8332
G2 X153.8978 Y153.8902 I-0.0039 J0.1897
G1 X153.8902 Y153.8978
G2 X153.8332 Y154.0373 I0.1327 J0.1356
G1 X153.8333 Y154.0473
G2 X153.8647 Y154.1781 I0.2889 J-0.0002
G1 X153.8661 Y154.1809
G1 X158.109 Y162.6523
G1 X158.1387 Y162.7256
G2 X158.2987 Y162.8345 I0.1492 J-0.0471
G1 X158.3679
G2 X158.528 Y162.7256 I0.0108 J-0.1561
G1 X158.5574 Y162.6529
G1 X161.1216 Y157.5159
G0 Z5.0
G0 X155.15 Y146.1451
G0 Z1.0
G1 F400.0 Z-1.5
G1 F800.0 X155.1974 Y146.1098
G1 X155.205 Y146.1022
G2 X155.262 Y145.9627 I-0.1327 J-0.1356
G1 X155.2619 Y145.9524
G1 Y145.8952
G1 Y138.814
G3 X155.6155 Y137.9488 I1.1896 J-0.0187
G3 X156.4806 Y137.5952 I0.8465 J0.836
G1 X161.619
G1 X161.6294 Y137.5953
G2 X161.7689 Y137.5384 I0.0039 J-0.1897
G1 X161.7765 Y137.5308
G2 X161.8334 Y137.3913 I-0.1327 J-0.1356
G1 Y137.3706
G2 X161.7765 Y137.2311 I-0.1897 J-0.0039
G1 X161.7689 Y137.2235
G2 X161.6294 Y137.1666 I-0.1356 J0.1327
G1 X161.619 Y137.1667
G1 X161.5619
G1 X156.4762
G1 X156.4687 Y137.1666
G2 X155.3212 Y137.6429 I-0.0234 J1.5638
G1 X155.3096 Y137.6546
G2 X154.8333 Y138.802 I1.0875 J1.124
G1 Y138.8095
G1 Y145.8952
G1 Y145.9524
G1 X154.8332 Y145.9627
G2 X154.8902 Y146.1022 I0.1897 J0.0039
G1 X154.8978 Y146.1098
G2 X155.0373 Y146.1668 I0.1356 J-0.1327
G1 X155.0579
G1 X155.15 Y146.1451
G1 F400.0 Z-3.0
G1 F800.0 X155.1974 Y146.1098
G1 X155.205 Y146.1022
G2 X155.262 Y145.9627 I-0.1327 J-0.1356
G1 X155.2619 Y145.9524
G1 Y145.8952
G1 Y138.814
G3 X155.6155 Y137.9488 I1.1896 J-0.0187
G3 X156.4806 Y137.5952 I0.8465 J0.836
G1 X161.619
G1 X161.6294 Y137.5953
G2 X161.7689 Y137.5384 I0.0039 J-0.1897
G1 X161.7765 Y137.5308
G2 X161.8334 Y137.3913 I-0.1327 J-0.1356
G1 Y137.3706
G2 X161.7765 Y137.2311 I-0.1897 J-0.0039
G1 X161.7689 Y137.2235
G2 X161.6294 Y137.1666 I-0.1356 J0.1327
G1 X161.619 Y137.1667
G1 X161.5619
G1 X156.4762
G1 X156.4687 Y137.1666
G2 X155.3212 Y137.6429 I-0.0234 J1.5638
G1 X155.3096 Y137.6546
G2 X154.8333 Y138.802 I1.0875 J1.124
G1 Y138.8095
G1 Y145.8952
G1 Y145.9524
G1 X154.8332 Y145.9627
G2 X154.8902 Y146.1022 I0.1897 J0.0039
G1 X154.8978 Y146.1098
G2 X155.0373 Y146.1668 I0.1356 J-0.1327
G1 X155.0579
G1 X155.15 Y146.1451
G0 Z5.0
G0 X144.472 Y140.815
G0 Z1.0
G1 F400.0 Z-1.5
G1 F800.0 X146.1193 Y137.5148
G1 X146.1285 Y137.4973
G2 X146.1668 Y137.3654 I-0.2765 J-0.1519
G2 X146.1098 Y137.2311 I-0.1897 J0.0013
G1 X146.1022 Y137.2235
G2 X145.9627 Y137.1666 I-0.1356 J0.1327
G1 X145.9442
G2 X145.7491 Y137.2994 I-0.0033 J0.2048
G1 X145.7282 Y137.3474
G1 X142.1139 Y144.576
G3 X141.2195 I-0.4472 J-0.2236
G1 X139.1623 Y140.4617
G3 X139.6095 Y139.7381 I0.4472 J-0.2236
G1 X141.6667
G1 X141.677 Y139.7382
G2 X141.8165 Y139.6812 I0.0039 J-0.1897
G1 X141.8241 Y139.6736
G2 X141.8811 Y139.5341 I-0.1327 J-0.1356
G1 Y139.5135
G2 X141.8241 Y139.374 I-0.1897 J-0.0039
G1 X141.8165 Y139.3664
G2 X141.677 Y139.3094 I-0.1356 J0.1327
G1 X141.6667 Y139.3095
G1 X138.8952
G3 X138.448 Y139.0331 I0.0 J-0.5
G1 X137.6052 Y137.3474
G1 X137.5874 Y137.3076
G2 X137.3804 Y137.1667 I-0.2072 J0.0819
G1 X137.3706 Y137.1666
G2 X137.2311 Y137.2235 I-0.0039 J0.1897
G1 X137.2235 Y137.2311
G2 X137.1666 Y137.3706 I0.1327 J0.1356
G1 X137.1667 Y137.3806
G2 X137.1981 Y137.5114 I0.2889 J-0.0002
G1 X137.1994 Y137.5142
G1 X141.4423 Y145.9856
G1 X141.472 Y146.0589
G2 X141.6321 Y146.1679 I0.1492 J-0.0471
G1 X141.7013
G2 X141.8613 Y146.0589 I0.0108 J-0.1561
G1 X141.8907 Y145.9862
G1 X144.472 Y140.815
G1 F400.0 Z-3.0
G1 F800.0 X146.1193 Y137.5148
G1 X146.1285 Y137.4973
G2 X146.1668 Y137.3654 I-0.2765 J-0.1519
G2 X146.1098 Y137.2311 I-0.1897 J0.0013
G1 X146.1022 Y137.2235
G2 X145.9627 Y137.1666 I-0.1356 J0.1327
G1 X145.9442
G2 X145.7491 Y137.2994 I-0.0033 J0.2048
G1 X145.7282 Y137.3474
G1 X142.1139 Y144.576
G3 X141.2195 I-0.4472 J-0.2236
G1 X139.1623 Y140.4617
G3 X139.6095 Y139.7381 I0.4472 J-0.2236
G1 X141.6667
G1 X141.677 Y139.7382
G2 X141.8165 Y139.6812 I0.0039 J-0.1897
G1 X141.8241 Y139.6736
G2 X141.8811 Y139.5341 I-0.1327 J-0.1356
G1 Y139.5135
G2 X141.8241 Y139.374 I-0.1897 J-0.0039
G1 X141.8165 Y139.3664
G2 X141.677 Y139.3094 I-0.1356 J0.1327
G1 X141.6667 Y139.3095
G1 X138.8952
G3 X138.448 Y139.0331 I0.0 J-0.5
G1 X137.6052 Y137.3474
G1 X137.5874 Y137.3076
G2 X137.3804 Y137.1667 I-0.2072 J0.0819
G1 X137.3706 Y137.1666
G2 X137.2311 Y137.2235 I-0.0039 J0.1897
G1 X137.2235 Y137.2311
G2 X137.1666 Y137.3706 I0.1327 J0.1356
G1 X137.1667 Y137.3806
G2 X137.1981 Y137.5114 I0.2889 J-0.0002
G1 X137.1994 Y137.5142
G1 X141.4423 Y145.9856
G1 X141.472 Y146.0589
G2 X141.6321 Y146.1679 I0.1492 J-0.0471
G1 X141.7013
G2 X141.8613 Y146.0589 I0.0108 J-0.1561
G1 X141.8907 Y145.9862
G1 X144.472 Y140.815
G0 Z5.0
G0 Y129.5
G0 Z1.0
G1 F400.0 Z-1.5
G1 F800.0 X144.9524
G1 X144.9627 Y129.5001
G2 X145.1022 Y129.4431 I0.0039 J-0.1897
G1 X145.1098 Y129.4355
G2 X145.1668 Y129.296 I-0.1327 J-0.1356
G1 Y129.2754
G2 X145.1098 Y129.1359 I-0.1897 J-0.0039
G1 X145.1022 Y129.1283
G2 X144.9627 Y129.0713 I-0.1356 J0.1327
G1 X144.9524 Y129.0714
G1 X139.814
G3 X138.9488 Y128.7179 I-0.0187 J-1.1896
G3 X138.5952 Y127.8527 I0.836 J-0.8465
G1 Y125.7143
G3 X139.0952 Y125.2143 I0.5 J0.0
G1 X143.5238
G1 X143.5341 Y125.2144
G2 X143.6736 Y125.1574 I0.0039 J-0.1897
G1 X143.6812 Y125.1498
G2 X143.7382 Y125.0103 I-0.1327 J-0.1356
G1 Y124.9897
G2 X143.6812 Y124.8502 I-0.1897 J-0.0039
G1 X143.6736 Y124.8426
G2 X143.5341 Y124.7856 I-0.1356 J0.1327
G1 X143.5238 Y124.7857
G1 X139.0952
G3 X138.5952 Y124.2857 I0.0 J-0.5
G1 Y122.1473
G3 X138.9488 Y121.2821 I1.1896 J-0.0187
G3 X139.814 Y120.9286 I0.8465 J0.836
G1 X144.9524
G1 X144.9627 Y120.9287
G2 X145.1022 Y120.8717 I0.0039 J-0.1897
G1 X145.1098 Y120.8641
G2 X145.1668 Y120.7246 I-0.1327 J-0.1356
G1 Y120.704
G2 X145.1098 Y120.5645 I-0.1897 J-0.0039
G1 X145.1022 Y120.5569
G2 X144.9627 Y120.4999 I-0.1356 J0.1327
G1 X144.9524 Y120.5
G1 X139.8095
G1 X139.802 Y120.4999
G2 X138.6546 Y120.9762 I-0.0234 J1.5638
G1 X138.6429 Y120.9879
G2 X138.1666 Y122.1354 I1.0875 J1.124
G1 X138.1667 Y122.1429
G1 Y127.8571
G1 X138.1666 Y127.8646
G2 X138.6429 Y129.0121 I1.5638 J0.0234
G1 X138.6546 Y129.0238
G2 X139.802 Y129.5001 I1.124 J-1.0875
G1 X139.8095 Y129.5
G1 X144.472
G1 F400.0 Z-3.0
G1 F800.0 X144.9524
G1 X144.9627 Y129.5001
G2 X145.1022 Y129.4431 I0.0039 J-0.1897
G1 X145.1098 Y129.4355
G2 X145.1668 Y129.296 I-0.1327 J-0.1356
G1 Y129.2754
G2 X145.1098 Y129.1359 I-0.1897 J-0.0039
G1 X145.1022 Y129.1283
G2 X144.9627 Y129.0713 I-0.1356 J0.1327
G1 X144.9524 Y129.0714
G1 X139.814
G3 X138.9488 Y128.7179 I-0.0187 J-1.1896
G3 X138.5952 Y127.8527 I0.836 J-0.8465
G1 Y125.7143
G3 X139.0952 Y125.2143 I0.5 J0.0
G1 X143.5238
G1 X143.5341 Y125.2144
G2 X143.6736 Y125.1574 I0.0039 J-0.1897
G1 X143.6812 Y125.1498
G2 X143.7382 Y125.0103 I-0.1327 J-0.1356
G1 Y124.9897
G2 X143.6812 Y124.8502 I-0.1897 J-0.0039
G1 X143.6736 Y124.8426
G2 X143.5341 Y124.7856 I-0.1356 J0.1327
G1 X143.5238 Y124.7857
G1 X139.0952
G3 X138.5952 Y124.2857 I0.0 J-0.5
G1 Y122.1473
G3 X138.9488 Y121.2821 I1.1896 J-0.0187
G3 X139.814 Y120.9286 I0.8465 J0.836
G1 X144.9524
G1 X144.9627 Y120.9287
G2 X145.1022 Y120.8717 I0.0039 J-0.1897
G1 X145.1098 Y120.8641
G2 X145.1668 Y120.7246 I-0.1327 J-0.1356
G1 Y120.704
G2 X145.1098 Y120.5645 I-0.1897 J-0.0039
G1 X145.1022 Y120.5569
G2 X144.9627 Y120.4999 I-0.1356 J0.1327
G1 X144.9524 Y120.5
G1 X139.8095
G1 X139.802 Y120.4999
G2 X138.6546 Y120.9762 I-0.0234 J1.5638
G1 X138.6429 Y120.9879
G2 X138.1666 Y122.1354 I1.0875 J1.124
G1 X138.1667 Y122.1429
G1 Y127.8571
G1 X138.1666 Y127.8646
G2 X138.6429 Y129.0121 I1.5638 J0.0234
G1 X138.6546 Y129.0238
G2 X139.802 Y129.5001 I1.124 J-1.0875
G1 X139.8095 Y129.5
G1 X144.472
G0 Z5.0
G0 X154.6235 Y128.1015
G0 Z1.0
G1 F400.0 Z-1.5
G2 F800.0 X155.0853 Y129.0121 I1.5494 J-0.2134
G1 X155.097 Y129.0238
G2 X156.2445 Y129.5001 I1.124 J-1.0875
G1 X156.252 Y129.5
G1 X159.7346
G2 X161.3555 Y128.7966 I-0.0297 J-2.2879
G1 X161.3663 Y128.7857
G2 X162.0377 Y127.151 I-1.5656 J-1.5982
G1 Y127.1386
G2 X161.5049 Y125.6575 I-2.2717 J-0.0193
G1 X161.496 Y125.6465
G2 X160.1675 Y124.833 I-1.7765 J1.4096
G3 X159.8502 Y124.0655 I0.0988 J-0.4901
G1 X162.0216 Y120.8084
G1 X162.0296 Y120.7968
G2 X162.0346 Y120.6285 I-0.1242 J-0.0879
G1 X162.0166 Y120.5971
G2 X161.8462 Y120.4995 I-0.162 J0.0853
G1 X161.8082 Y120.4998
G2 X161.6526 Y120.5789 I-0.0055 J0.1816
G1 X158.7712 Y124.9011
G1 X158.7514 Y124.9774
G1 X158.7518 Y125.0103
G2 X158.8088 Y125.1498 I0.1897 J0.0039
G1 X158.8164 Y125.1574
G2 X158.9559 Y125.2144 I0.1356 J-0.1327
G1 X158.9662 Y125.2143
G1 X159.7377
G1 X159.7564 Y125.2146
G3 X161.0686 Y125.8096 I-0.0712 J1.9017
G3 X161.6091 Y127.1429 I-1.3298 J1.3153
G3 X161.0686 Y128.4761 I-1.8703 J0.018
G3 X159.7564 Y129.0711 I-1.3835 J-1.3067
G1 X159.7377 Y129.0714
G1 X156.2564
G3 X155.3912 Y128.7179 I-0.0187 J-1.1896
G3 X155.0377 Y127.8527 I0.836 J-0.8465
G1 Y120.7714
G1 Y120.7143
G1 X155.0378 Y120.704
G2 X154.9808 Y120.5645 I-0.1897 J-0.0039
G1 X154.9732 Y120.5569
G2 X154.8337 Y120.4999 I-0.1356 J0.1327
G1 X154.8131
G2 X154.6736 Y120.5569 I-0.0039 J0.1897
G1 X154.666 Y120.5645
G2 X154.609 Y120.704 I0.1327 J0.1356
G1 X154.6091 Y120.7143
G1 Y127.8571
G1 X154.609 Y127.8646
G2 X154.6235 Y128.1015 I1.5638 J0.0234
G1 F400.0 Z-3.0
G2 F800.0 X155.0853 Y129.0121 I1.5494 J-0.2134
G1 X155.097 Y129.0238
G2 X156.2445 Y129.5001 I1.124 J-1.0875
G1 X156.252 Y129.5
G1 X159.7346
G2 X161.3555 Y128.7966 I-0.0297 J-2.2879
G1 X161.3663 Y128.7857
G2 X162.0377 Y127.151 I-1.5656 J-1.5982
G1 Y127.1386
G2 X161.5049 Y125.6575 I-2.2717 J-0.0193
G1 X161.496 Y125.6465
G2 X160.1675 Y124.833 I-1.7765 J1.4096
G3 X159.8502 Y124.0655 I0.0988 J-0.4901
G1 X162.0216 Y120.8084
G1 X162.0296 Y120.7968
G2 X162.0346 Y120.6285 I-0.1242 J-0.0879
G1 X162.0166 Y120.5971
G2 X161.8462 Y120.4995 I-0.162 J0.0853
G1 X161.8082 Y120.4998
G2 X161.6526 Y120.5789 I-0.0055 J0.1816
G1 X158.7712 Y124.9011
G1 X158.7514 Y124.9774
G1 X158.7518 Y125.0103
G2 X158.8088 Y125.1498 I0.1897 J0.0039
G1 X158.8164 Y125.1574
G2 X158.9559 Y125.2144 I0.1356 J-0.1327
G1 X158.9662 Y125.2143
G1 X159.7377
G1 X159.7564 Y125.2146
G3 X161.0686 Y125.8096 I-0.0712 J1.9017
G3 X161.6091 Y127.1429 I-1.3298 J1.3153
G3 X161.0686 Y128.4761 I-1.8703 J0.018
G3 X159.7564 Y129.0711 I-1.3835 J-1.3067
G1 X159.7377 Y129.0714
G1 X156.2564
G3 X155.3912 Y128.7179 I-0.0187 J-1.1896
G3 X155.0377 Y127.8527 I0.836 J-0.8465
G1 Y120.7714
G1 Y120.7143
G1 X155.0378 Y120.704
G2 X154.9808 Y120.5645 I-0.1897 J-0.0039
G1 X154.9732 Y120.5569
G2 X154.8337 Y120.4999 I-0.1356 J0.1327
G1 X154.8131
G2 X154.6736 Y120.5569 I-0.0039 J0.1897
G1 X154.666 Y120.5645
G2 X154.609 Y120.704 I0.1327 J0.1356
G1 X154.6091 Y120.7143
G1 Y127.8571
G1 X154.609 Y127.8646
G2 X154.6235 Y128.1015 I1.5638 J0.0234
G0 Z5.0
G0 X156.6039 Y112.8149
G0 Z1.0
G1 F400.0 Z-1.5
G2 F800.0 X156.9201 Y112.8334 I0.2889 J-2.2303
G1 X156.9262 Y112.8333
G1 X160.069
G1 X160.0728
G2 X161.2221 Y112.5343 I0.0173 J-2.2915
G1 X161.2244 Y112.533
G2 X162.0705 Y111.7163 I-1.1337 J-2.0211
G1 X162.0716 Y111.7144
G2 X162.0978 Y111.6173 I-0.1508 J-0.0927
G1 X162.0977 Y111.5945
G2 X162.0407 Y111.455 I-0.1897 J-0.0039
G1 X162.0331 Y111.4473
G2 X161.8936 Y111.3904 I-0.1356 J0.1327
G1 X161.8583 Y111.3899
G2 X161.7072 Y111.4742 I-0.0082 J0.1629
G1 X161.7015 Y111.4843
G3 X160.0634 Y112.4048 I-1.5992 J-0.9281
G1 X156.929
G3 X155.5654 Y111.8369 I-0.0194 J-1.8744
G3 X154.9976 Y110.4734 I1.3066 J-1.3441
G1 Y106.1933
G3 X155.5654 Y104.8297 I1.8744 J-0.0194
G3 X156.929 Y104.2619 I1.3441 J1.3066
G1 X160.0634
G3 X161.7015 Y105.1824 I0.039 J1.8486
G1 X161.7072 Y105.1925
G2 X161.8583 Y105.2768 I0.143 J-0.0786
G1 X161.8936 Y105.2763
G2 X162.0331 Y105.2193 I0.0039 J-0.1897
G1 X162.0407 Y105.2117
G2 X162.0977 Y105.0722 I-0.1327 J-0.1356
G1 X162.0976 Y105.059
G2 X162.0681 Y104.9464 I-0.2244 J-0.0013
G2 X161.2244 Y104.1337 I-1.9774 J1.2083
G1 X161.2221 Y104.1324
G2 X160.0728 Y103.8333 I-1.132 J1.9924
G1 X160.069
G1 X156.9262
G1 X156.9201
G2 X155.2722 Y104.5228 I-0.0272 J2.2488
G1 X155.2586 Y104.5365
G2 X154.569 Y106.1844 I1.5592 J1.6207
G1 Y106.1905
G1 Y110.4762
G1 Y110.4822
G2 X155.2586 Y112.1302 I2.2488 J0.0272
G1 X155.2722 Y112.1438
G2 X156.6039 Y112.8149 I1.6207 J-1.5592
G1 F400.0 Z-3.0
G2 F800.0 X156.9201 Y112.8334 I0.2889 J-2.2303
G1 X156.9262 Y112.8333
G1 X160.069
G1 X160.0728
G2 X161.2221 Y112.5343 I0.0173 J-2.2915
G1 X161.2244 Y112.533
G2 X162.0705 Y111.7163 I-1.1337 J-2.0211
G1 X162.0716 Y111.7144
G2 X162.0978 Y111.6173 I-0.1508 J-0.0927
G1 X162.0977 Y111.5945
G2 X162.0407 Y111.455 I-0.1897 J-0.0039
G1 X162.0331 Y111.4473
G2 X161.8936 Y111.3904 I-0.1356 J0.1327
G1 X161.8583 Y111.3899
G2 X161.7072 Y111.4742 I-0.0082 J0.1629
G1 X161.7015 Y111.4843
G3 X160.0634 Y112.4048 I-1.5992 J-0.9281
G1 X156.929
G3 X155.5654 Y111.8369 I-0.0194 J-1.8744
G3 X154.9976 Y110.4734 I1.3066 J-1.3441
G1 Y106.1933
G3 X155.5654 Y104.8297 I1.8744 J-0.0194
G3 X156.929 Y104.2619 I1.3441 J1.3066
G1 X160.0634
G3 X161.7015 Y105.1824 I0.039 J1.8486
G1 X161.7072 Y105.1925
G2 X161.8583 Y105.2768 I0.143 J-0.0786
G1 X161.8936 Y105.2763
G2 X162.0331 Y105.2193 I0.0039 J-0.1897
G1 X162.0407 Y105.2117
G2 X162.0977 Y105.0722 I-0.1327 J-0.1356
G1 X162.0976 Y105.059
G2 X162.0681 Y104.9464 I-0.2244 J-0.0013
G2 X161.2244 Y104.1337 I-1.9774 J1.2083
G1 X161.2221 Y104.1324
G2 X160.0728 Y103.8333 I-1.132 J1.9924
G1 X160.069
G1 X156.9262
G1 X156.9201
G2 X155.2722 Y104.5228 I-0.0272 J2.2488
G1 X155.2586 Y104.5365
G2 X154.569 Y106.1844 I1.5592 J1.6207
G1 Y106.1905
G1 Y110.4762
G1 Y110.4822
G2 X155.2586 Y112.1302 I2.2488 J0.0272
G1 X155.2722 Y112.1438
G2 X156.6039 Y112.8149 I1.6207 J-1.5592
G0 Z5.0
G0 X144.7607 Y106.9033
G0 Z1.0
G1 F400.0 Z-1.5
G1 F800.0 X146.1193 Y104.1815
G1 X146.1285 Y104.164
G2 X146.1668 Y104.032 I-0.2765 J-0.1519
G2 X146.1098 Y103.8978 I-0.1897 J0.0013
G1 X146.1022 Y103.8902
G2 X145.9627 Y103.8332 I-0.1356 J0.1327
G1 X145.9442 Y103.8333
G2 X145.7491 Y103.9661 I-0.0033 J0.2048
G1 X145.7282 Y104.0141
G1 X142.1139 Y111.2427
G3 X141.2195 I-0.4472 J-0.2236
G1 X139.1623 Y107.1284
G3 X139.6095 Y106.4048 I0.4472 J-0.2236
G1 X141.6667
G1 X141.677 Y106.4049
G2 X141.8165 Y106.3479 I0.0039 J-0.1897
G1 X141.8241 Y106.3403
G2 X141.8811 Y106.2008 I-0.1327 J-0.1356
G1 Y106.1802
G2 X141.8241 Y106.0407 I-0.1897 J-0.0039
G1 X141.8165 Y106.0331
G2 X141.677 Y105.9761 I-0.1356 J0.1327
G1 X141.6667 Y105.9762
G1 X138.8952
G3 X138.448 Y105.6998 I0.0 J-0.5
G1 X137.6052 Y104.0141
G1 X137.5874 Y103.9742
G2 X137.3804 Y103.8333 I-0.2072 J0.0819
G1 X137.3706 Y103.8332
G2 X137.2311 Y103.8902 I-0.0039 J0.1897
G1 X137.2235 Y103.8978
G2 X137.1666 Y104.0373 I0.1327 J0.1356
G1 X137.1667 Y104.0473
G2 X137.1981 Y104.1781 I0.2889 J-0.0002
G1 X137.1994 Y104.1809
G1 X141.4423 Y112.6523
G1 X141.472 Y112.7256
G2 X141.6321 Y112.8345 I0.1492 J-0.0471
G1 X141.7013
G2 X141.8613 Y112.7256 I0.0108 J-0.1561
G1 X141.8907 Y112.6529
G1 X144.7607 Y106.9033
G1 F400.0 Z-3.0
G1 F800.0 X146.1193 Y104.1815
G1 X146.1285 Y104.164
G2 X146.1668 Y104.032 I-0.2765 J-0.1519
G2 X146.1098 Y103.8978 I-0.1897 J0.0013
G1 X146.1022 Y103.8902
G2 X145.9627 Y103.8332 I-0.1356 J0.1327
G1 X145.9442 Y103.8333
G2 X145.7491 Y103.9661 I-0.0033 J0.2048
G1 X145.7282 Y104.0141
G1 X142.1139 Y111.2427
G3 X141.2195 I-0.4472 J-0.2236
G1 X139.1623 Y107.1284
G3 X139.6095 Y106.4048 I0.4472 J-0.2236
G1 X141.6667
G1 X141.677 Y106.4049
G2 X141.8165 Y106.3479 I0.0039 J-0.1897
G1 X141.8241 Y106.3403
G2 X141.8811 Y106.2008 I-0.1327 J-0.1356
G1 Y106.1802
G2 X141.8241 Y106.0407 I-0.1897 J-0.0039
G1 X141.8165 Y106.0331
G2 X141.677 Y105.9761 I-0.1356 J0.1327
G1 X141.6667 Y105.9762
G1 X138.8952
G3 X138.448 Y105.6998 I0.0 J-0.5
G1 X137.6052 Y104.0141
G1 X137.5874 Y103.9742
G2 X137.3804 Y103.8333 I-0.2072 J0.0819
G1 X137.3706 Y103.8332
G2 X137.2311 Y103.8902 I-0.0039 J0.1897
G1 X137.2235 Y103.8978
G2 X137.1666 Y104.0373 I0.1327 J0.1356
G1 X137.1667 Y104.0473
G2 X137.1981 Y104.1781 I0.2889 J-0.0002
G1 X137.1994 Y104.1809
G1 X141.4423 Y112.6523
G1 X141.472 Y112.7256
G2 X141.6321 Y112.8345 I0.1492 J-0.0471
G1 X141.7013
G2 X141.8613 Y112.7256 I0.0108 J-0.1561
G1 X141.8907 Y112.6529
G1 X144.7607 Y106.9033
G0 Z5.0
G0 X143.4624 Y96.1502
G0 Z1.0
G1 F400.0 Z-1.5
G2 F800.0 X144.3197 Y95.8676 I-0.2747 J-2.275
G1 X144.322 Y95.8663
G2 X145.1601 Y95.0626 I-1.1337 J-2.0211
G2 X145.1954 Y94.9254 I-0.3017 J-0.1507
G2 X145.1384 Y94.7883 I-0.1897 J-0.0015
G1 X145.1308 Y94.7807
G2 X144.9913 Y94.7237 I-0.1356 J0.1327
G1 X144.9466 Y94.7226
G2 X144.8092 Y94.7993 I-0.0099 J0.1437
G1 X144.7991 Y94.8176
G3 X143.161 Y95.7381 I-1.5992 J-0.9281
G1 X140.3123
G3 X138.9488 Y95.1703 I-0.0194 J-1.8744
G3 X138.381 Y93.8067 I1.3066 J-1.3441
G1 Y89.5266
G3 X138.9488 Y88.1631 I1.8744 J-0.0194
G3 X140.3123 Y87.5952 I1.3441 J1.3066
G1 X143.7336
G3 X144.5988 Y87.9488 I0.0187 J1.1896
G3 X144.9524 Y88.814 I-0.836 J0.8465
G1 Y90.2381
G3 X144.4524 Y90.7381 I-0.5 J0.0
G1 X142.1667
G1 X142.1564 Y90.738
G2 X142.0169 Y90.795 I-0.0039 J0.1897
G1 X142.0093 Y90.8026
G2 X141.9523 Y90.9421 I0.1327 J0.1356
G1 Y90.9627
G2 X142.0093 Y91.1022 I0.1897 J0.0039
G1 X142.0169 Y91.1098
G2 X142.1564 Y91.1668 I0.1356 J-0.1327
G1 X142.1667 Y91.1667
G1 X145.1667
G1 X145.177 Y91.1668
G2 X145.3165 Y91.1098 I0.0039 J-0.1897
G1 X145.3241 Y91.1022
G2 X145.3811 Y90.9627 I-0.1327 J-0.1356
G1 X145.381 Y90.9524
G1 Y88.8095
G1 Y88.802
G2 X144.9047 Y87.6546 I-1.5638 J-0.0234
G1 X144.893 Y87.6429
G2 X143.7456 Y87.1666 I-1.124 J1.0875
G1 X143.7381 Y87.1667
G1 X140.3095
G1 X140.3035 Y87.1666
G2 X138.6556 Y87.8562 I-0.0272 J2.2488
G1 X138.6419 Y87.8698
G2 X137.9523 Y89.5178 I1.5592 J1.6207
G1 X137.9524 Y89.5238
G1 Y93.8095
G1 X137.9523 Y93.8156
G2 X138.6419 Y95.4635 I2.2488 J0.0272
G1 X138.6556 Y95.4772
G2 X140.3035 Y96.1667 I1.6207 J-1.5592
G1 X140.3095
G1 X143.1667
G1 X143.1704
G2 X143.4624 Y96.1502 I0.0173 J-2.2915
G1 F400.0 Z-3.0
G2 F800.0 X144.3197 Y95.8676 I-0.2747 J-2.275
G1 X144.322 Y95.8663
G2 X145.1601 Y95.0626 I-1.1337 J-2.0211
G2 X145.1954 Y94.9254 I-0.3017 J-0.1507
G2 X145.1384 Y94.7883 I-0.1897 J-0.0015
G1 X145.1308 Y94.7807
G2 X144.9913 Y94.7237 I-0.1356 J0.1327
G1 X144.9466 Y94.7226
G2 X144.8092 Y94.7993 I-0.0099 J0.1437
G1 X144.7991 Y94.8176
G3 X143.161 Y95.7381 I-1.5992 J-0.9281
G1 X140.3123
G3 X138.9488 Y95.1703 I-0.0194 J-1.8744
G3 X138.381 Y93.8067 I1.3066 J-1.3441
G1 Y89.5266
G3 X138.9488 Y88.1631 I1.8744 J-0.0194
G3 X140.3123 Y87.5952 I1.3441 J1.3066
G1 X143.7336
G3 X144.5988 Y87.9488 I0.0187 J1.1896
G3 X144.9524 Y88.814 I-0.836 J0.8465
G1 Y90.2381
G3 X144.4524 Y90.7381 I-0.5 J0.0
G1 X142.1667
G1 X142.1564 Y90.738
G2 X142.0169 Y90.795 I-0.0039 J0.1897
G1 X142.0093 Y90.8026
G2 X141.9523 Y90.9421 I0.1327 J0.1356
G1 Y90.9627
G2 X142.0093 Y91.1022 I0.1897 J0.0039
G1 X142.0169 Y91.1098
G2 X142.1564 Y91.1668 I0.1356 J-0.1327
G1 X142.1667 Y91.1667
G1 X145.1667
G1 X145.177 Y91.1668
G2 X145.3165 Y91.1098 I0.0039 J-0.1897
G1 X145.3241 Y91.1022
G2 X145.3811 Y90.9627 I-0.1327 J-0.1356
G1 X145.381 Y90.9524
G1 Y88.8095
G1 Y88.802
G2 X144.9047 Y87.6546 I-1.5638 J-0.0234
G1 X144.893 Y87.6429
G2 X143.7456 Y87.1666 I-1.124 J1.0875
G1 X143.7381 Y87.1667
G1 X140.3095
G1 X140.3035 Y87.1666
G2 X138.6556 Y87.8562 I-0.0272 J2.2488
G1 X138.6419 Y87.8698
G2 X137.9523 Y89.5178 I1.5592 J1.6207
G1 X137.9524 Y89.5238
G1 Y93.8095
G1 X137.9523 Y93.8156
G2 X138.6419 Y95.4635 I2.2488 J0.0272
G1 X138.6556 Y95.4772
G2 X140.3035 Y96.1667 I1.6207 J-1.5592
G1 X140.3095
G1 X143.1667
G1 X143.1704
G2 X143.4624 Y96.1502 I0.0173 J-2.2915
G0 Z5.0
G0 X154.8449 Y94.7462
G0 Z1.0
G1 F400.0 Z-1.5
G2 F800.0 X155.3096 Y95.6788 I1.5523 J-0.1915
G1 X155.3212 Y95.6904
G2 X156.4687 Y96.1667 I1.124 J-1.0875
G1 X156.4762
G1 X161.619
G1 X161.6294 Y96.1668
G2 X161.7689 Y96.1098 I0.0039 J-0.1897
G1 X161.7765 Y96.1022
G2 X161.8334 Y95.9627 I-0.1327 J-0.1356
G1 Y95.9421
G2 X161.7765 Y95.8026 I-0.1897 J-0.0039
G1 X161.7689 Y95.795
G2 X161.6294 Y95.738 I-0.1356 J0.1327
G1 X161.619 Y95.7381
G1 X156.4806
G3 X155.6155 Y95.3845 I-0.0187 J-1.1896
G3 X155.2619 Y94.5194 I0.836 J-0.8465
G1 Y92.381
G3 X155.7619 Y91.881 I0.5 J0.0
G1 X160.1905
G1 X160.2008 Y91.8811
G2 X160.3403 Y91.8241 I0.0039 J-0.1897
G1 X160.3479 Y91.8165
G2 X160.4049 Y91.677 I-0.1327 J-0.1356
G1 Y91.6564
G2 X160.3479 Y91.5169 I-0.1897 J-0.0039
G1 X160.3403 Y91.5093
G2 X160.2008 Y91.4523 I-0.1356 J0.1327
G1 X160.1905 Y91.4524
G1 X155.7619
G3 X155.2619 Y90.9524 I0.0 J-0.5
G1 Y88.814
G3 X155.6155 Y87.9488 I1.1896 J-0.0187
G3 X156.4806 Y87.5952 I0.8465 J0.836
G1 X161.619
G1 X161.6294 Y87.5953
G2 X161.7689 Y87.5384 I0.0039 J-0.1897
G1 X161.7765 Y87.5308
G2 X161.8334 Y87.3913 I-0.1327 J-0.1356
G1 Y87.3706
G2 X161.7765 Y87.2311 I-0.1897 J-0.0039
G1 X161.7689 Y87.2235
G2 X161.6294 Y87.1666 I-0.1356 J0.1327
G1 X161.619 Y87.1667
G1 X156.4762
G1 X156.4687 Y87.1666
G2 X155.3212 Y87.6429 I-0.0234 J1.5638
G1 X155.3096 Y87.6546
G2 X154.8333 Y88.802 I1.0875 J1.124
G1 Y88.8095
G1 Y94.5238
G1 Y94.5313
G2 X154.8449 Y94.7462 I1.5638 J0.0234
G1 F400.0 Z-3.0
G2 F800.0 X155.3096 Y95.6788 I1.5523 J-0.1915
G1 X155.3212 Y95.6904
G2 X156.4687 Y96.1667 I1.124 J-1.0875
G1 X156.4762
G1 X161.619
G1 X161.6294 Y96.1668
G2 X161.7689 Y96.1098 I0.0039 J-0.1897
G1 X161.7765 Y96.1022
G2 X161.8334 Y95.9627 I-0.1327 J-0.1356
G1 Y95.9421
G2 X161.7765 Y95.8026 I-0.1897 J-0.0039
G1 X161.7689 Y95.795
G2 X161.6294 Y95.738 I-0.1356 J0.1327
G1 X161.619 Y95.7381
G1 X156.4806
G3 X155.6155 Y95.3845 I-0.0187 J-1.1896
G3 X155.2619 Y94.5194 I0.836 J-0.8465
G1 Y92.381
G3 X155.7619 Y91.881 I0.5 J0.0
G1 X160.1905
G1 X160.2008 Y91.8811
G2 X160.3403 Y91.8241 I0.0039 J-0.1897
G1 X160.3479 Y91.8165
G2 X160.4049 Y91.677 I-0.1327 J-0.1356
G1 Y91.6564
G2 X160.3479 Y91.5169 I-0.1897 J-0.0039
G1 X160.3403 Y91.5093
G2 X160.2008 Y91.4523 I-0.1356 J0.1327
G1 X160.1905 Y91.4524
G1 X155.7619
G3 X155.2619 Y90.9524 I0.0 J-0.5
G1 Y88.814
G3 X155.6155 Y87.9488 I1.1896 J-0.0187
G3 X156.4806 Y87.5952 I0.8465 J0.836
G1 X161.619
G1 X161.6294 Y87.5953
G2 X161.7689 Y87.5384 I0.0039 J-0.1897
G1 X161.7765 Y87.5308
G2 X161.8334 Y87.3913 I-0.1327 J-0.1356
G1 Y87.3706
G2 X161.7765 Y87.2311 I-0.1897 J-0.0039
G1 X161.7689 Y87.2235
G2 X161.6294 Y87.1666 I-0.1356 J0.1327
G1 X161.619 Y87.1667
G1 X156.4762
G1 X156.4687 Y87.1666
G2 X155.3212 Y87.6429 I-0.0234 J1.5638
G1 X155.3096 Y87.6546
G2 X154.8333 Y88.802 I1.0875 J1.124
G1 Y88.8095
G1 Y94.5238
G1 Y94.5313
G2 X154.8449 Y94.7462 I1.5638 J0.0234
G0 Z5.0
G0 X154.0803 Y79.5002
G0 Z1.0
G1 F400.0 Z-1.5
G2 F800.0 X154.2479 Y79.3755 I-0.0094 J-0.1876
G1 X154.2718 Y79.3193
G1 X157.8861 Y72.0907
G3 X158.7805 I0.4472 J0.2236
G1 X162.3948 Y79.3193
G1 X162.4158 Y79.3672
G2 X162.6109 Y79.5001 I0.1918 J-0.0719
G1 X162.6294
G2 X162.7689 Y79.4431 I0.0039 J-0.1897
G1 X162.7765 Y79.4355
G2 X162.8335 Y79.3013 I-0.1327 J-0.1356
G2 X162.7951 Y79.1693 I-0.3149 J0.02
G1 X162.786 Y79.1519
G1 X158.5574 Y70.6804
G1 X158.528 Y70.6078
G2 X158.3679 Y70.4988 I-0.1492 J0.0471
G1 X158.2987
G2 X158.1387 Y70.6078 I-0.0108 J0.1561
G1 X158.109 Y70.6811
G1 X153.8661 Y79.1525
G1 X153.8647 Y79.1552
G2 X153.8333 Y79.286 I0.2575 J0.131
G1 X153.8332 Y79.296
G2 X153.8902 Y79.4355 I0.1897 J0.0039
G1 X153.8978 Y79.4431
G2 X154.0373 Y79.5001 I0.1356 J-0.1327
G1 X154.0646 Y79.5003
G1 X154.0803 Y79.5002
G1 F400.0 Z-3.0
G2 F800.0 X154.2479 Y79.3755 I-0.0094 J-0.1876
G1 X154.2718 Y79.3193
G1 X157.8861 Y72.0907
G3 X158.7805 I0.4472 J0.2236
G1 X162.3948 Y79.3193
G1 X162.4158 Y79.3672
G2 X162.6109 Y79.5001 I0.1918 J-0.0719
G1 X162.6294
G2 X162.7689 Y79.4431 I0.0039 J-0.1897
G1 X162.7765 Y79.4355
G2 X162.8335 Y79.3013 I-0.1327 J-0.1356
G2 X162.7951 Y79.1693 I-0.3149 J0.02
G1 X162.786 Y79.1519
G1 X158.5574 Y70.6804
G1 X158.528 Y70.6078
G2 X158.3679 Y70.4988 I-0.1492 J0.0471
G1 X158.2987
G2 X158.1387 Y70.6078 I-0.0108 J0.1561
G1 X158.109 Y70.6811
G1 X153.8661 Y79.1525
G1 X153.8647 Y79.1552
G2 X153.8333 Y79.286 I0.2575 J0.131
G1 X153.8332 Y79.296
G2 X153.8902 Y79.4355 I0.1897 J0.0039
G1 X153.8978 Y79.4431
G2 X154.0373 Y79.5001 I0.1356 J-0.1327
G1 X154.0646 Y79.5003
G1 X154.0803 Y79.5002
G0 Z5.0
G0 X145.0953 Y79.3041
G0 Z1.0
G1 F400.0 Z-1.5
G1 F800.0 Y79.296
G1 Y79.2754
G2 X145.0384 Y79.1359 I-0.1897 J-0.0039
G1 X145.0308 Y79.1283
G2 X144.8913 Y79.0713 I-0.1356 J0.1327
G1 X144.881 Y79.0714
G1 X139.8854
G3 X139.0202 Y78.7179 I-0.0187 J-1.1896
G3 X138.6667 Y77.8527 I0.836 J-0.8465
G1 Y75.7143
G3 X139.1667 Y75.2143 I0.5 J0.0
G1 X143.4524
G1 X143.4627 Y75.2144
G2 X143.6022 Y75.1574 I0.0039 J-0.1897
G1 X143.6098 Y75.1498
G2 X143.6668 Y75.0103 I-0.1327 J-0.1356
G1 Y74.9897
G2 X143.6098 Y74.8502 I-0.1897 J-0.0039
G1 X143.6022 Y74.8426
G2 X143.4627 Y74.7856 I-0.1356 J0.1327
G1 X143.4524 Y74.7857
G1 X139.1667
G3 X138.6667 Y74.2857 I0.0 J-0.5
G1 Y70.7143
G1 X138.6668 Y70.704
G2 X138.6098 Y70.5645 I-0.1897 J-0.0039
G1 X138.6022 Y70.5569
G2 X138.4627 Y70.4999 I-0.1356 J0.1327
G1 X138.4421
G2 X138.3026 Y70.5569 I-0.0039 J0.1897
G1 X138.295 Y70.5645
G2 X138.238 Y70.704 I0.1327 J0.1356
G1 X138.2381 Y70.7143
G1 Y77.8571
G1 X138.238 Y77.8646
G2 X138.7143 Y79.0121 I1.5638 J0.0234
G1 X138.726 Y79.0238
G2 X139.8735 Y79.5001 I1.124 J-1.0875
G1 X139.881 Y79.5
G1 X144.881
G1 X144.8913 Y79.5001
G2 X145.0308 Y79.4431 I0.0039 J-0.1897
G1 X145.0384 Y79.4355
G2 X145.0953 Y79.3041 I-0.1327 J-0.1356
G1 F400.0 Z-3.0
G1 F800.0 Y79.296
G1 Y79.2754
G2 X145.0384 Y79.1359 I-0.1897 J-0.0039
G1 X145.0308 Y79.1283
G2 X144.8913 Y79.0713 I-0.1356 J0.1327
G1 X144.881 Y79.0714
G1 X139.8854
G3 X139.0202 Y78.7179 I-0.0187 J-1.1896
G3 X138.6667 Y77.8527 I0.836 J-0.8465
G1 Y75.7143
G3 X139.1667 Y75.2143 I0.5 J0.0
G1 X143.4524
G1 X143.4627 Y75.2144
G2 X143.6022 Y75.1574 I0.0039 J-0.1897
G1 X143.6098 Y75.1498
G2 X143.6668 Y75.0103 I-0.1327 J-0.1356
G1 Y74.9897
G2 X143.6098 Y74.8502 I-0.1897 J-0.0039
G1 X143.6022 Y74.8426
G2 X143.4627 Y74.7856 I-0.1356 J0.1327
G1 X143.4524 Y74.7857
G1 X139.1667
G3 X138.6667 Y74.2857 I0.0 J-0.5
G1 Y70.7143
G1 X138.6668 Y70.704
G2 X138.6098 Y70.5645 I-0.1897 J-0.0039
G1 X138.6022 Y70.5569
G2 X138.4627 Y70.4999 I-0.1356 J0.1327
G1 X138.4421
G2 X138.3026 Y70.5569 I-0.0039 J0.1897
G1 X138.295 Y70.5645
G2 X138.238 Y70.704 I0.1327 J0.1356
G1 X138.2381 Y70.7143
G1 Y77.8571
G1 X138.238 Y77.8646
G2 X138.7143 Y79.0121 I1.5638 J0.0234
G1 X138.726 Y79.0238
G2 X139.8735 Y79.5001 I1.124 J-1.0875
G1 X139.881 Y79.5
G1 X144.881
G1 X144.8913 Y79.5001
G2 X145.0308 Y79.4431 I0.0039 J-0.1897
G1 X145.0384 Y79.4355
G2 X145.0953 Y79.3041 I-0.1327 J-0.1356
G0 Z5.0
G0 X145.4947 Y62.8338
G0 Z1.0
G1 F400.0 Z-1.5
G1 F800.0 X145.5051 Y62.8337
G1 X145.5341 Y62.8334
G2 X145.6736 Y62.7765 I0.0039 J-0.1897
G1 X145.6812 Y62.7689
G2 X145.7382 Y62.632 I-0.1327 J-0.1356
G2 X145.6503 Y62.4382 I-0.2841 J0.012
G1 X145.6231 Y62.4101
G1 X142.0088 Y58.3815
G3 X141.881 Y58.0476 I0.3722 J-0.3339
G1 Y54.0476
G1 X141.8811 Y54.0373
G2 X141.8241 Y53.8978 I-0.1897 J-0.0039
G1 X141.8165 Y53.8902
G2 X141.677 Y53.8332 I-0.1356 J0.1327
G1 X141.6564
G2 X141.5169 Y53.8902 I-0.0039 J0.1897
G1 X141.5093 Y53.8978
G2 X141.4523 Y54.0373 I0.1327 J0.1356
G1 X141.4524 Y54.0476
G1 Y58.0476
G3 X141.3246 Y58.3815 I-0.5 J0.0
G1 X137.7103 Y62.4101
G1 X137.6894 Y62.4319
G2 X137.5951 Y62.636 I0.225 J0.2278
G2 X137.6521 Y62.7689 I0.1897 J-0.0027
G1 X137.6597 Y62.7765
G2 X137.7992 Y62.8334 I0.1356 J-0.1327
G1 X137.8283 Y62.8337
G2 X137.9612 Y62.7762 I0.0063 J-0.1679
G1 X137.9664 Y62.7704
G1 X141.2949 Y59.0704
G3 X142.0384 I0.3717 J0.3344
G1 X145.367 Y62.7704
G1 X145.3721 Y62.7762
G2 X145.4947 Y62.8338 I0.1266 J-0.1104
G1 F400.0 Z-3.0
G1 F800.0 X145.5051 Y62.8337
G1 X145.5341 Y62.8334
G2 X145.6736 Y62.7765 I0.0039 J-0.1897
G1 X145.6812 Y62.7689
G2 X145.7382 Y62.632 I-0.1327 J-0.1356
G2 X145.6503 Y62.4382 I-0.2841 J0.012
G1 X145.6231 Y62.4101
G1 X142.0088 Y58.3815
G3 X141.881 Y58.0476 I0.3722 J-0.3339
G1 Y54.0476
G1 X141.8811 Y54.0373
G2 X141.8241 Y53.8978 I-0.1897 J-0.0039
G1 X141.8165 Y53.8902
G2 X141.677 Y53.8332 I-0.1356 J0.1327
G1 X141.6564
G2 X141.5169 Y53.8902 I-0.0039 J0.1897
G1 X141.5093 Y53.8978
G2 X141.4523 Y54.0373 I0.1327 J0.1356
G1 X141.4524 Y54.0476
G1 Y58.0476
G3 X141.3246 Y58.3815 I-0.5 J0.0
G1 X137.7103 Y62.4101
G1 X137.6894 Y62.4319
G2 X137.5951 Y62.636 I0.225 J0.2278
G2 X137.6521 Y62.7689 I0.1897 J-0.0027
G1 X137.6597 Y62.7765
G2 X137.7992 Y62.8334 I0.1356 J-0.1327
G1 X137.8283 Y62.8337
G2 X137.9612 Y62.7762 I0.0063 J-0.1679
G1 X137.9664 Y62.7704
G1 X141.2949 Y59.0704
G3 X142.0384 I0.3717 J0.3344
G1 X145.367 Y62.7704
G1 X145.3721 Y62.7762
G2 X145.4947 Y62.8338 I0.1266 J-0.1104
G0 Z5.0
G0 X155.0636 Y61.4459
G0 Z1.0
G1 F400.0 Z-1.5
G2 F800.0 X155.5239 Y62.3454 I1.5478 J-0.2245
G1 X155.5355 Y62.3571
G2 X156.683 Y62.8334 I1.124 J-1.0875
G1 X156.6905 Y62.8333
G1 X159.2619
G1 X159.268 Y62.8334
G2 X160.9159 Y62.1438 I0.0272 J-2.2488
G1 X160.9295 Y62.1302
G2 X161.6191 Y60.4822 I-1.5592 J-1.6207
G1 Y60.4701
G2 X160.9295 Y58.8222 I-2.2488 J-0.0272
G1 X160.9159 Y58.8086
G2 X159.268 Y58.119 I-1.6207 J1.5592
G1 X159.2619
G1 X157.8333
G1 X157.823 Y58.1189
G2 X157.6835 Y58.1759 I-0.0039 J0.1897
G1 X157.6759 Y58.1835
G2 X157.6189 Y58.323 I0.1327 J0.1356
G1 Y58.3436
G2 X157.6759 Y58.4831 I0.1897 J0.0039
G1 X157.6835 Y58.4907
G2 X157.823 Y58.5477 I0.1356 J-0.1327
G1 X157.8333 Y58.5476
G1 X157.8905
G1 X159.2591
G3 X160.6226 Y59.1154 I0.0194 J1.8744
G3 X161.1905 Y60.4762 I-1.3066 J1.3441
G3 X160.6226 Y61.8369 I-1.8744 J0.0166
G3 X159.2591 Y62.4048 I-1.3441 J-1.3066
G1 X156.6949
G3 X155.8298 Y62.0512 I-0.0187 J-1.1896
G3 X155.4762 Y61.186 I0.836 J-0.8465
G1 Y54.0476
G1 X155.4763 Y54.0373
G2 X155.4193 Y53.8978 I-0.1897 J-0.0039
G1 X155.4117 Y53.8902
G2 X155.2722 Y53.8332 I-0.1356 J0.1327
G1 X155.2516
G2 X155.1121 Y53.8902 I-0.0039 J0.1897
G1 X155.1045 Y53.8978
G2 X155.0475 Y54.0373 I0.1327 J0.1356
G1 X155.0476 Y54.0476
G1 Y61.1905
G1 Y61.198
G2 X155.0636 Y61.4459 I1.5638 J0.0234
G1 F400.0 Z-3.0
G2 F800.0 X155.5239 Y62.3454 I1.5478 J-0.2245
G1 X155.5355 Y62.3571
G2 X156.683 Y62.8334 I1.124 J-1.0875
G1 X156.6905 Y62.8333
G1 X159.2619
G1 X159.268 Y62.8334
G2 X160.9159 Y62.1438 I0.0272 J-2.2488
G1 X160.9295 Y62.1302
G2 X161.6191 Y60.4822 I-1.5592 J-1.6207
G1 Y60.4701
G2 X160.9295 Y58.8222 I-2.2488 J-0.0272
G1 X160.9159 Y58.8086
G2 X159.268 Y58.119 I-1.6207 J1.5592
G1 X159.2619
G1 X157.8333
G1 X157.823 Y58.1189
G2 X157.6835 Y58.1759 I-0.0039 J0.1897
G1 X157.6759 Y58.1835
G2 X157.6189 Y58.323 I0.1327 J0.1356
G1 Y58.3436
G2 X157.6759 Y58.4831 I0.1897 J0.0039
G1 X157.6835 Y58.4907
G2 X157.823 Y58.5477 I0.1356 J-0.1327
G1 X157.8333 Y58.5476
G1 X157.8905
G1 X159.2591
G3 X160.6226 Y59.1154 I0.0194 J1.8744
G3 X161.1905 Y60.4762 I-1.3066 J1.3441
G3 X160.6226 Y61.8369 I-1.8744 J0.0166
G3 X159.2591 Y62.4048 I-1.3441 J-1.3066
G1 X156.6949
G3 X155.8298 Y62.0512 I-0.0187 J-1.1896
G3 X155.4762 Y61.186 I0.836 J-0.8465
G1 Y54.0476
G1 X155.4763 Y54.0373
G2 X155.4193 Y53.8978 I-0.1897 J-0.0039
G1 X155.4117 Y53.8902
G2 X155.2722 Y53.8332 I-0.1356 J0.1327
G1 X155.2516
G2 X155.1121 Y53.8902 I-0.0039 J0.1897
G1 X155.1045 Y53.8978
G2 X155.0475 Y54.0373 I0.1327 J0.1356
G1 X155.0476 Y54.0476
G1 Y61.1905
G1 Y61.198
G2 X155.0636 Y61.4459 I1.5638 J0.0234
G0 Z5.0
G0 X156.6844 Y46.1543
G0 Z1.0
G1 F400.0 Z-1.5
G2 F800.0 X156.9487 Y46.1667 I0.2371 J-2.2364
G1 X156.9548
G1 X159.669
G1 X159.6728
G2 X160.8221 Y45.8676 I0.0173 J-2.2915
G1 X160.8244 Y45.8663
G2 X161.6705 Y45.0497 I-1.1337 J-2.0211
G1 X161.7006 Y45.0057
G2 X161.7082 Y44.8513 I-0.1081 J-0.0827
G1 X161.6932 Y44.8253
G2 X161.5108 Y44.7231 I-0.1717 J0.0925
G1 X161.449 Y44.7226
G2 X161.3116 Y44.7993 I-0.0099 J0.1437
G1 X161.3015 Y44.8176
G3 X159.6634 Y45.7381 I-1.5992 J-0.9281
G1 X156.9576
G3 X155.594 Y45.1703 I-0.0194 J-1.8744
G3 X155.0262 Y43.8095 I1.3066 J-1.3441
G3 X155.594 Y42.4488 I1.8744 J-0.0166
G3 X156.9576 Y41.881 I1.3441 J1.3066
G1 X159.8119
G1 X159.818
G2 X161.4659 Y41.1914 I0.0272 J-2.2488
G1 X161.4795 Y41.1778
G2 X162.1691 Y39.5299 I-1.5592 J-1.6207
G1 Y39.5178
G2 X161.4795 Y37.8698 I-2.2488 J-0.0272
G1 X161.4659 Y37.8562
G2 X159.818 Y37.1666 I-1.6207 J1.5592
G1 X159.8119 Y37.1667
G1 X156.5262
G1 X156.5224
G2 X155.3732 Y37.4657 I-0.0173 J2.2915
G1 X155.3708 Y37.467
G2 X154.5248 Y38.2837 I1.1337 J2.0211
G1 X154.5236 Y38.2856
G2 X154.4975 Y38.3827 I0.1508 J0.0927
G1 Y38.4055
G2 X154.5545 Y38.545 I0.1897 J0.0039
G1 X154.5621 Y38.5527
G2 X154.7016 Y38.6096 I0.1356 J-0.1327
G1 X154.7277 Y38.6098
G2 X154.8925 Y38.5178 I0.0058 J-0.1833
G1 X154.8937 Y38.5157
G3 X156.5319 Y37.5952 I1.5992 J0.9281
G1 X159.8091
G3 X161.1726 Y38.1631 I0.0194 J1.8744
G3 X161.7405 Y39.5238 I-1.3066 J1.3441
G3 X161.1726 Y40.8846 I-1.8744 J0.0166
G3 X159.8091 Y41.4524 I-1.3441 J-1.3066
G1 X156.9548
G1 X156.9487 Y41.4523
G2 X155.3008 Y42.1419 I-0.0272 J2.2488
G1 X155.2871 Y42.1556
G2 X154.5976 Y43.8035 I1.5592 J1.6207
G1 Y43.8156
G2 X155.2871 Y45.4635 I2.2488 J0.0272
G1 X155.3008 Y45.4772
G2 X156.6844 Y46.1543 I1.6207 J-1.5592
G1 F400.0 Z-3.0
G2 F800.0 X156.9487 Y46.1667 I0.2371 J-2.2364
G1 X156.9548
G1 X159.669
G1 X159.6728
G2 X160.8221 Y45.8676 I0.0173 J-2.2915
G1 X160.8244 Y45.8663
G2 X161.6705 Y45.0497 I-1.1337 J-2.0211
G1 X161.7006 Y45.0057
G2 X161.7082 Y44.8513 I-0.1081 J-0.0827
G1 X161.6932 Y44.8253
G2 X161.5108 Y44.7231 I-0.1717 J0.0925
G1 X161.449 Y44.7226
G2 X161.3116 Y44.7993 I-0.0099 J0.1437
G1 X161.3015 Y44.8176
G3 X159.6634 Y45.7381 I-1.5992 J-0.9281
G1 X156.9576
G3 X155.594 Y45.1703 I-0.0194 J-1.8744
G3 X155.0262 Y43.8095 I1.3066 J-1.3441
G3 X155.594 Y42.4488 I1.8744 J-0.0166
G3 X156.9576 Y41.881 I1.3441 J1.3066
G1 X159.8119
G1 X159.818
G2 X161.4659 Y41.1914 I0.0272 J-2.2488
G1 X161.4795 Y41.1778
G2 X162.1691 Y39.5299 I-1.5592 J-1.6207
G1 Y39.5178
G2 X161.4795 Y37.8698 I-2.2488 J-0.0272
G1 X161.4659 Y37.8562
G2 X159.818 Y37.1666 I-1.6207 J1.5592
G1 X159.8119 Y37.1667
G1 X156.5262
G1 X156.5224
G2 X155.3732 Y37.4657 I-0.0173 J2.2915
G1 X155.3708 Y37.467
G2 X154.5248 Y38.2837 I1.1337 J2.0211
G1 X154.5236 Y38.2856
G2 X154.4975 Y38.3827 I0.1508 J0.0927
G1 Y38.4055
G2 X154.5545 Y38.545 I0.1897 J0.0039
G1 X154.5621 Y38.5527
G2 X154.7016 Y38.6096 I0.1356 J-0.1327
G1 X154.7277 Y38.6098
G2 X154.8925 Y38.5178 I0.0058 J-0.1833
G1 X154.8937 Y38.5157
G3 X156.5319 Y37.5952 I1.5992 J0.9281
G1 X159.8091
G3 X161.1726 Y38.1631 I0.0194 J1.8744
G3 X161.7405 Y39.5238 I-1.3066 J1.3441
G3 X161.1726 Y40.8846 I-1.8744 J0.0166
G3 X159.8091 Y41.4524 I-1.3441 J-1.3066
G1 X156.9548
G1 X156.9487 Y41.4523
G2 X155.3008 Y42.1419 I-0.0272 J2.2488
G1 X155.2871 Y42.1556
G2 X154.5976 Y43.8035 I1.5592 J1.6207
G1 Y43.8156
G2 X155.2871 Y45.4635 I2.2488 J0.0272
G1 X155.3008 Y45.4772
G2 X156.6844 Y46.1543 I1.6207 J-1.5592
G0 Z5.0
G0 X145.1668 Y45.9696
G0 Z1.0
G1 F400.0 Z-1.5
G1 F800.0 Y45.9627
G1 Y45.9421
G2 X145.1098 Y45.8026 I-0.1897 J-0.0039
G1 X145.1022 Y45.795
G2 X144.9627 Y45.738 I-0.1356 J0.1327
G1 X144.9524 Y45.7381
G1 X139.814
G3 X138.9488 Y45.3845 I-0.0187 J-1.1896
G3 X138.5952 Y44.5194 I0.836 J-0.8465
G1 Y42.381
G3 X139.0952 Y41.881 I0.5 J0.0
G1 X143.5238
G1 X143.5341 Y41.8811
G2 X143.6736 Y41.8241 I0.0039 J-0.1897
G1 X143.6812 Y41.8165
G2 X143.7382 Y41.677 I-0.1327 J-0.1356
G1 Y41.6564
G2 X143.6812 Y41.5169 I-0.1897 J-0.0039
G1 X143.6736 Y41.5093
G2 X143.5341 Y41.4523 I-0.1356 J0.1327
G1 X143.5238 Y41.4524
G1 X139.0952
G3 X138.5952 Y40.9524 I0.0 J-0.5
G1 Y38.814
G3 X138.9488 Y37.9488 I1.1896 J-0.0187
G3 X139.814 Y37.5952 I0.8465 J0.836
G1 X144.9524
G1 X144.9627 Y37.5953
G2 X145.1022 Y37.5384 I0.0039 J-0.1897
G1 X145.1098 Y37.5308
G2 X145.1668 Y37.3913 I-0.1327 J-0.1356
G1 Y37.3706
G2 X145.1098 Y37.2311 I-0.1897 J-0.0039
G1 X145.1022 Y37.2235
G2 X144.9627 Y37.1666 I-0.1356 J0.1327
G1 X144.9524 Y37.1667
G1 X139.8095
G1 X139.802 Y37.1666
G2 X138.6546 Y37.6429 I-0.0234 J1.5638
G1 X138.6429 Y37.6546
G2 X138.1666 Y38.802 I1.0875 J1.124
G1 X138.1667 Y38.8095
G1 Y44.5238
G1 X138.1666 Y44.5313
G2 X138.6429 Y45.6788 I1.5638 J0.0234
G1 X138.6546 Y45.6904
G2 X139.802 Y46.1667 I1.124 J-1.0875
G1 X139.8095
G1 X144.9524
G1 X144.9627 Y46.1668
G2 X145.1022 Y46.1098 I0.0039 J-0.1897
G1 X145.1098 Y46.1022
G2 X145.1668 Y45.9696 I-0.1327 J-0.1356
G1 F400.0 Z-3.0
G1 F800.0 Y45.9627
G1 Y45.9421
G2 X145.1098 Y45.8026 I-0.1897 J-0.0039
G1 X145.1022 Y45.795
G2 X144.9627 Y45.738 I-0.1356 J0.1327
G1 X144.9524 Y45.7381
G1 X139.814
G3 X138.9488 Y45.3845 I-0.0187 J-1.1896
G3 X138.5952 Y44.5194 I0.836 J-0.8465
G1 Y42.381
G3 X139.0952 Y41.881 I0.5 J0.0
G1 X143.5238
G1 X143.5341 Y41.8811
G2 X143.6736 Y41.8241 I0.0039 J-0.1897
G1 X143.6812 Y41.8165
G2 X143.7382 Y41.677 I-0.1327 J-0.1356
G1 Y41.6564
G2 X143.6812 Y41.5169 I-0.1897 J-0.0039
G1 X143.6736 Y41.5093
G2 X143.5341 Y41.4523 I-0.1356 J0.1327
G1 X143.5238 Y41.4524
G1 X139.0952
G3 X138.5952 Y40.9524 I0.0 J-0.5
G1 Y38.814
G3 X138.9488 Y37.9488 I1.1896 J-0.0187
G3 X139.814 Y37.5952 I0.8465 J0.836
G1 X144.9524
G1 X144.9627 Y37.5953
G2 X145.1022 Y37.5384 I0.0039 J-0.1897
G1 X145.1098 Y37.5308
G2 X145.1668 Y37.3913 I-0.1327 J-0.1356
G1 Y37.3706
G2 X145.1098 Y37.2311 I-0.1897 J-0.0039
G1 X145.1022 Y37.2235
G2 X144.9627 Y37.1666 I-0.1356 J0.1327
G1 X144.9524 Y37.1667
G1 X139.8095
G1 X139.802 Y37.1666
G2 X138.6546 Y37.6429 I-0.0234 J1.5638
G1 X138.6429 Y37.6546
G2 X138.1666 Y38.802 I1.0875 J1.124
G1 X138.1667 Y38.8095
G1 Y44.5238
G1 X138.1666 Y44.5313
G2 X138.6429 Y45.6788 I1.5638 J0.0234
G1 X138.6546 Y45.6904
G2 X139.802 Y46.1667 I1.124 J-1.0875
G1 X139.8095
G1 X144.9524
G1 X144.9627 Y46.1668
G2 X145.1022 Y46.1098 I0.0039 J-0.1897
G1 X145.1098 Y46.1022
G2 X145.1668 Y45.9696 I-0.1327 J-0.1356
G0 Z5.0
G0 X128.5001 Y45.9666
G0 Z1.0
G1 F400.0 Z-1.5
G1 F800.0 Y45.9627
G1 Y45.9421
G2 X128.4431 Y45.8026 I-0.1897 J-0.0039
G1 X128.4355 Y45.795
G2 X128.296 Y45.738 I-0.1356 J0.1327
G1 X128.2857 Y45.7381
G1 X123.1473
G3 X122.2821 Y45.3845 I-0.0187 J-1.1896
G3 X121.9286 Y44.5194 I0.836 J-0.8465
G1 Y42.381
G3 X122.4286 Y41.881 I0.5 J0.0
G1 X126.8571
G1 X126.8675 Y41.8811
G2 X127.0069 Y41.8241 I0.0039 J-0.1897
G1 X127.0146 Y41.8165
G2 X127.0715 Y41.677 I-0.1327 J-0.1356
G1 Y41.6564
G2 X127.0146 Y41.5169 I-0.1897 J-0.0039
G1 X127.0069 Y41.5093
G2 X126.8675 Y41.4523 I-0.1356 J0.1327
G1 X126.8571 Y41.4524
G1 X122.4286
G3 X121.9286 Y40.9524 I0.0 J-0.5
G1 Y38.814
G3 X122.2821 Y37.9488 I1.1896 J-0.0187
G3 X123.1473 Y37.5952 I0.8465 J0.836
G1 X128.2857
G1 X128.296 Y37.5953
G2 X128.4355 Y37.5384 I0.0039 J-0.1897
G1 X128.4431 Y37.5308
G2 X128.5001 Y37.3913 I-0.1327 J-0.1356
G1 Y37.3706
G2 X128.4431 Y37.2311 I-0.1897 J-0.0039
G1 X128.4355 Y37.2235
G2 X128.296 Y37.1666 I-0.1356 J0.1327
G1 X128.2857 Y37.1667
G1 X123.1429
G1 X123.1354 Y37.1666
G2 X121.9879 Y37.6429 I-0.0234 J1.5638
G1 X121.9762 Y37.6546
G2 X121.4999 Y38.802 I1.0875 J1.124
G1 X121.5 Y38.8095
G1 Y44.5238
G1 X121.4999 Y44.5313
G2 X121.9762 Y45.6788 I1.5638 J0.0234
G1 X121.9879 Y45.6904
G2 X123.1354 Y46.1667 I1.124 J-1.0875
G1 X123.1429
G1 X128.2857
G1 X128.296 Y46.1668
G2 X128.4355 Y46.1098 I0.0039 J-0.1897
G1 X128.4431 Y46.1022
G2 X128.5001 Y45.9666 I-0.1327 J-0.1356
G1 F400.0 Z-3.0
G1 F800.0 Y45.9627
G1 Y45.9421
G2 X128.4431 Y45.8026 I-0.1897 J-0.0039
G1 X128.4355 Y45.795
G2 X128.296 Y45.738 I-0.1356 J0.1327
G1 X128.2857 Y45.7381
G1 X123.1473
G3 X122.2821 Y45.3845 I-0.0187 J-1.1896
G3 X121.9286 Y44.5194 I0.836 J-0.8465
G1 Y42.381
G3 X122.4286 Y41.881 I0.5 J0.0
G1 X126.8571
G1 X126.8675 Y41.8811
G2 X127.0069 Y41.8241 I0.0039 J-0.1897
G1 X127.0146 Y41.8165
G2 X127.0715 Y41.677 I-0.1327 J-0.1356
G1 Y41.6564
G2 X127.0146 Y41.5169 I-0.1897 J-0.0039
G1 X127.0069 Y41.5093
G2 X126.8675 Y41.4523 I-0.1356 J0.1327
G1 X126.8571 Y41.4524
G1 X122.4286
G3 X121.9286 Y40.9524 I0.0 J-0.5
G1 Y38.814
G3 X122.2821 Y37.9488 I1.1896 J-0.0187
G3 X123.1473 Y37.5952 I0.8465 J0.836
G1 X128.2857
G1 X128.296 Y37.5953
G2 X128.4355 Y37.5384 I0.0039 J-0.1897
G1 X128.4431 Y37.5308
G2 X128.5001 Y37.3913 I-0.1327 J-0.1356
G1 Y37.3706
G2 X128.4431 Y37.2311 I-0.1897 J-0.0039
G1 X128.4355 Y37.2235
G2 X128.296 Y37.1666 I-0.1356 J0.1327
G1 X128.2857 Y37.1667
G1 X123.1429
G1 X123.1354 Y37.1666
G2 X121.9879 Y37.6429 I-0.0234 J1.5638
G1 X121.9762 Y37.6546
G2 X121.4999 Y38.802 I1.0875 J1.124
G1 X121.5 Y38.8095
G1 Y44.5238
G1 X121.4999 Y44.5313
G2 X121.9762 Y45.6788 I1.5638 J0.0234
G1 X121.9879 Y45.6904
G2 X123.1354 Y46.1667 I1.124 J-1.0875
G1 X123.1429
G1 X128.2857
G1 X128.296 Y46.1668
G2 X128.4355 Y46.1098 I0.0039 J-0.1897
G1 X128.4431 Y46.1022
G2 X128.5001 Y45.9666 I-0.1327 J-0.1356
G0 Z5.0
G0 X126.9061 Y53.8774
G0 Z1.0
G1 F400.0 Z-1.5
G2 F800.0 X126.4346 Y53.8333 I-0.4442 J2.2046
G1 X126.4286
G1 X123.4286
G1 X123.4183 Y53.8332
G2 X123.2788 Y53.8902 I-0.0039 J0.1897
G1 X123.2712 Y53.8978
G2 X123.2142 Y54.0373 I0.1327 J0.1356
G1 Y54.0579
G2 X123.2712 Y54.1974 I0.1897 J0.0039
G1 X123.2788 Y54.205
G2 X123.4183 Y54.262 I0.1356 J-0.1327
G1 X123.4286 Y54.2619
G1 X126.4258
G3 X127.7893 Y54.8297 I0.0194 J1.8744
G3 X128.3572 Y56.1905 I-1.3066 J1.3441
G3 X127.7893 Y57.5512 I-1.8744 J0.0166
G3 X126.4258 Y58.119 I-1.3441 J-1.3066
G1 X125.7143
G1 X125.704 Y58.1189
G2 X125.5645 Y58.1759 I-0.0039 J0.1897
G1 X125.5569 Y58.1835
G2 X125.4999 Y58.323 I0.1327 J0.1356
G1 Y58.3436
G2 X125.5569 Y58.4831 I0.1897 J0.0039
G1 X125.5645 Y58.4907
G2 X125.704 Y58.5477 I0.1356 J-0.1327
G1 X125.7143 Y58.5476
G1 X126.4857
G1 X126.5044 Y58.548
G3 X127.8167 Y59.143 I-0.0712 J1.9017
G3 X128.3572 Y60.4764 I-1.3298 J1.3153
G3 X127.7893 Y61.8369 I-1.8744 J0.0164
G3 X126.4258 Y62.4048 I-1.3441 J-1.3066
G1 X122.8616
G3 X121.9964 Y62.0512 I-0.0187 J-1.1896
G3 X121.6429 Y61.186 I0.836 J-0.8465
G1 Y56.0762
G1 X121.643 Y56.0659
G2 X121.586 Y55.9264 I-0.1897 J-0.0039
G1 X121.5784 Y55.9188
G2 X121.4389 Y55.8618 I-0.1356 J0.1327
G1 X121.4183
G2 X121.2788 Y55.9188 I-0.0039 J0.1897
G1 X121.2712 Y55.9264
G2 X121.2142 Y56.0659 I0.1327 J0.1356
G1 X121.2143 Y56.0762
G1 Y61.1905
G1 X121.2142 Y61.198
G2 X121.6905 Y62.3454 I1.5638 J0.0234
G1 X121.7022 Y62.3571
G2 X122.8496 Y62.8334 I1.124 J-1.0875
G1 X122.8571 Y62.8333
G1 X126.4286
G1 X126.4346 Y62.8334
G2 X128.0825 Y62.1438 I0.0272 J-2.2488
G1 X128.0962 Y62.1302
G2 X128.7858 Y60.4822 I-1.5592 J-1.6207
G1 Y60.4654
G2 X127.9829 Y58.7199 I-2.1954 J-0.0475
G3 X127.9792 Y57.9498 I0.3171 J-0.3866
G2 X128.7858 Y56.1965 I-1.4436 J-1.7262
G1 Y56.1844
G2 X128.0962 Y54.5365 I-2.2488 J-0.0272
G1 X128.0825 Y54.5228
G2 X126.9061 Y53.8774 I-1.6207 J1.5592
G1 F400.0 Z-3.0
G2 F800.0 X126.4346 Y53.8333 I-0.4442 J2.2046
G1 X126.4286
G1 X123.4286
G1 X123.4183 Y53.8332
G2 X123.2788 Y53.8902 I-0.0039 J0.1897
G1 X123.2712 Y53.8978
G2 X123.2142 Y54.0373 I0.1327 J0.1356
G1 Y54.0579
G2 X123.2712 Y54.1974 I0.1897 J0.0039
G1 X123.2788 Y54.205
G2 X123.4183 Y54.262 I0.1356 J-0.1327
G1 X123.4286 Y54.2619
G1 X126.4258
G3 X127.7893 Y54.8297 I0.0194 J1.8744
G3 X128.3572 Y56.1905 I-1.3066 J1.3441
G3 X127.7893 Y57.5512 I-1.8744 J0.0166
G3 X126.4258 Y58.119 I-1.3441 J-1.3066
G1 X125.7143
G1 X125.704 Y58.1189
G2 X125.5645 Y58.1759 I-0.0039 J0.1897
G1 X125.5569 Y58.1835
G2 X125.4999 Y58.323 I0.1327 J0.1356
G1 Y58.3436
G2 X125.5569 Y58.4831 I0.1897 J0.0039
G1 X125.5645 Y58.4907
G2 X125.704 Y58.5477 I0.1356 J-0.1327
G1 X125.7143 Y58.5476
G1 X126.4857
G1 X126.5044 Y58.548
G3 X127.8167 Y59.143 I-0.0712 J1.9017
G3 X128.3572 Y60.4764 I-1.3298 J1.3153
G3 X127.7893 Y61.8369 I-1.8744 J0.0164
G3 X126.4258 Y62.4048 I-1.3441 J-1.3066
G1 X122.8616
G3 X121.9964 Y62.0512 I-0.0187 J-1.1896
G3 X121.6429 Y61.186 I0.836 J-0.8465
G1 Y56.0762
G1 X121.643 Y56.0659
G2 X121.586 Y55.9264 I-0.1897 J-0.0039
G1 X121.5784 Y55.9188
G2 X121.4389 Y55.8618 I-0.1356 J0.1327
G1 X121.4183
G2 X121.2788 Y55.9188 I-0.0039 J0.1897
G1 X121.2712 Y55.9264
G2 X121.2142 Y56.0659 I0.1327 J0.1356
G1 X121.2143 Y56.0762
G1 Y61.1905
G1 X121.2142 Y61.198
G2 X121.6905 Y62.3454 I1.5638 J0.0234
G1 X121.7022 Y62.3571
G2 X122.8496 Y62.8334 I1.124 J-1.0875
G1 X122.8571 Y62.8333
G1 X126.4286
G1 X126.4346 Y62.8334
G2 X128.0825 Y62.1438 I0.0272 J-2.2488
G1 X128.0962 Y62.1302
G2 X128.7858 Y60.4822 I-1.5592 J-1.6207
G1 Y60.4654
G2 X127.9829 Y58.7199 I-2.1954 J-0.0475
G3 X127.9792 Y57.9498 I0.3171 J-0.3866
G2 X128.7858 Y56.1965 I-1.4436 J-1.7262
G1 Y56.1844
G2 X128.0962 Y54.5365 I-2.2488 J-0.0272
G1 X128.0825 Y54.5228
G2 X126.9061 Y53.8774 I-1.6207 J1.5592
G0 Z5.0
G0 X111.8335 Y54.0315
G0 Z1.0
G1 F400.0 Z-1.5
G2 F800.0 X111.7765 Y53.8978 I-0.1897 J0.0019
G1 X111.7689 Y53.8902
G2 X111.6294 Y53.8332 I-0.1356 J0.1327
G1 X111.619 Y53.8333
G1 X111.5619
G1 X106.4762
G1 X106.4687
G2 X105.3212 Y54.3096 I-0.0234 J1.5638
G1 X105.3096 Y54.3212
G2 X104.8333 Y55.4687 I1.0875 J1.124
G1 Y55.4762
G1 Y62.5619
G1 Y62.619
G1 X104.8332 Y62.6294
G2 X104.8902 Y62.7689 I0.1897 J0.0039
G1 X104.8978 Y62.7765
G2 X105.0373 Y62.8334 I0.1356 J-0.1327
G1 X105.0579
G2 X105.1974 Y62.7765 I0.0039 J-0.1897
G1 X105.205 Y62.7689
G2 X105.262 Y62.6294 I-0.1327 J-0.1356
G1 X105.2619 Y62.619
G1 Y62.5619
G1 Y55.4806
G3 X105.6155 Y54.6155 I1.1896 J-0.0187
G3 X106.4806 Y54.2619 I0.8465 J0.836
G1 X111.619
G1 X111.6294 Y54.262
G2 X111.7689 Y54.205 I0.0039 J-0.1897
G1 X111.7765 Y54.1974
G2 X111.8334 Y54.0579 I-0.1327 J-0.1356
G1 Y54.0373
G1 X111.8335 Y54.0315
G1 F400.0 Z-3.0
G2 F800.0 X111.7765 Y53.8978 I-0.1897 J0.0019
G1 X111.7689 Y53.8902
G2 X111.6294 Y53.8332 I-0.1356 J0.1327
G1 X111.619 Y53.8333
G1 X111.5619
G1 X106.4762
G1 X106.4687
G2 X105.3212 Y54.3096 I-0.0234 J1.5638
G1 X105.3096 Y54.3212
G2 X104.8333 Y55.4687 I1.0875 J1.124
G1 Y55.4762
G1 Y62.5619
G1 Y62.619
G1 X104.8332 Y62.6294
G2 X104.8902 Y62.7689 I0.1897 J0.0039
G1 X104.8978 Y62.7765
G2 X105.0373 Y62.8334 I0.1356 J-0.1327
G1 X105.0579
G2 X105.1974 Y62.7765 I0.0039 J-0.1897
G1 X105.205 Y62.7689
G2 X105.262 Y62.6294 I-0.1327 J-0.1356
G1 X105.2619 Y62.619
G1 Y62.5619
G1 Y55.4806
G3 X105.6155 Y54.6155 I1.1896 J-0.0187
G3 X106.4806 Y54.2619 I0.8465 J0.836
G1 X111.619
G1 X111.6294 Y54.262
G2 X111.7689 Y54.205 I0.0039 J-0.1897
G1 X111.7765 Y54.1974
G2 X111.8334 Y54.0579 I-0.1327 J-0.1356
G1 Y54.0373
G1 X111.8335 Y54.0315
G0 Z5.0
G0 X112.3077 Y46.1665
G0 Z1.0
G1 F400.0 Z-1.5
G1 F800.0 X112.323 Y46.1668
G1 X112.3436
G2 X112.4831 Y46.1098 I0.0039 J-0.1897
G1 X112.4907 Y46.1022
G2 X112.5477 Y45.9627 I-0.1327 J-0.1356
G1 X112.5476 Y45.9524
G1 Y37.381
G1 X112.5477 Y37.3706
G2 X112.4907 Y37.2311 I-0.1897 J-0.0039
G1 X112.4831 Y37.2235
G2 X112.3436 Y37.1666 I-0.1356 J0.1327
G1 X112.3195 Y37.1665
G2 X112.188 Y37.2191 I-0.0049 J0.1783
G1 X112.1869 Y37.2202
G1 X112.15 Y37.2571
G1 X108.6987 Y40.9509
G3 X107.9686 Y40.9515 I-0.3653 J-0.3414
G1 X104.5258 Y37.2801
G1 X104.5133 Y37.2664
G2 X104.3157 Y37.1666 I-0.2213 J0.1927
G2 X104.1835 Y37.2235 I0.0034 J0.1897
G1 X104.1759 Y37.2311
G2 X104.1189 Y37.3706 I0.1327 J0.1356
G1 X104.119 Y37.381
G1 Y45.9524
G1 X104.1189 Y45.9627
G2 X104.1759 Y46.1022 I0.1897 J0.0039
G1 X104.1835 Y46.1098
G2 X104.323 Y46.1668 I0.1356 J-0.1327
G1 X104.3436
G2 X104.4831 Y46.1098 I0.0039 J-0.1897
G1 X104.4907 Y46.1022
G2 X104.5477 Y45.9627 I-0.1327 J-0.1356
G1 X104.5476 Y45.9524
G1 Y39.181
G3 X105.4142 Y38.8409 I0.5 J0.0
G1 X108.1507 Y41.7912
G1 X108.1726 Y41.8131
G1 X108.1788 Y41.8195
G2 X108.3265 Y41.881 I0.1449 J-0.1398
G1 X108.3399
G2 X108.4783 Y41.8174 I0.0023 J-0.1774
G1 X108.4962 Y41.7971
G1 X111.2533 Y38.84
G3 X112.119 Y39.181 I0.3657 J0.341
G1 Y45.9524
G1 X112.1189 Y45.9627
G2 X112.1759 Y46.1022 I0.1897 J0.0039
G1 X112.1835 Y46.1098
G2 X112.3077 Y46.1665 I0.1356 J-0.1327
G1 F400.0 Z-3.0
G1 F800.0 X112.323 Y46.1668
G1 X112.3436
G2 X112.4831 Y46.1098 I0.0039 J-0.1897
G1 X112.4907 Y46.1022
G2 X112.5477 Y45.9627 I-0.1327 J-0.1356
G1 X112.5476 Y45.9524
G1 Y37.381
G1 X112.5477 Y37.3706
G2 X112.4907 Y37.2311 I-0.1897 J-0.0039
G1 X112.4831 Y37.2235
G2 X112.3436 Y37.1666 I-0.1356 J0.1327
G1 X112.3195 Y37.1665
G2 X112.188 Y37.2191 I-0.0049 J0.1783
G1 X112.1869 Y37.2202
G1 X112.15 Y37.2571
G1 X108.6987 Y40.9509
G3 X107.9686 Y40.9515 I-0.3653 J-0.3414
G1 X104.5258 Y37.2801
G1 X104.5133 Y37.2664
G2 X104.3157 Y37.1666 I-0.2213 J0.1927
G2 X104.1835 Y37.2235 I0.0034 J0.1897
G1 X104.1759 Y37.2311
G2 X104.1189 Y37.3706 I0.1327 J0.1356
G1 X104.119 Y37.381
G1 Y45.9524
G1 X104.1189 Y45.9627
G2 X104.1759 Y46.1022 I0.1897 J0.0039
G1 X104.1835 Y46.1098
G2 X104.323 Y46.1668 I0.1356 J-0.1327
G1 X104.3436
G2 X104.4831 Y46.1098 I0.0039 J-0.1897
G1 X104.4907 Y46.1022
G2 X104.5477 Y45.9627 I-0.1327 J-0.1356
G1 X104.5476 Y45.9524
G1 Y39.181
G3 X105.4142 Y38.8409 I0.5 J0.0
G1 X108.1507 Y41.7912
G1 X108.1726 Y41.8131
G1 X108.1788 Y41.8195
G2 X108.3265 Y41.881 I0.1449 J-0.1398
G1 X108.3399
G2 X108.4783 Y41.8174 I0.0023 J-0.1774
G1 X108.4962 Y41.7971
G1 X111.2533 Y38.84
G3 X112.119 Y39.181 I0.3657 J0.341
G1 Y45.9524
G1 X112.1189 Y45.9627
G2 X112.1759 Y46.1022 I0.1897 J0.0039
G1 X112.1835 Y46.1098
G2 X112.3077 Y46.1665 I0.1356 J-0.1327
G0 Z5.0
G0 X95.1668 Y45.9688
G0 Z1.0
G1 F400.0 Z-1.5
G1 F800.0 Y45.9627
G1 Y45.9421
G2 X95.1098 Y45.8026 I-0.1897 J-0.0039
G1 X95.1022 Y45.795
G2 X94.9627 Y45.738 I-0.1356 J0.1327
G1 X94.9524 Y45.7381
G1 X89.814
G3 X88.9488 Y45.3845 I-0.0187 J-1.1896
G3 X88.5952 Y44.5194 I0.836 J-0.8465
G1 Y42.381
G3 X89.0952 Y41.881 I0.5 J0.0
G1 X93.5238
G1 X93.5341 Y41.8811
G2 X93.6736 Y41.8241 I0.0039 J-0.1897
G1 X93.6812 Y41.8165
G2 X93.7382 Y41.677 I-0.1327 J-0.1356
G1 Y41.6564
G2 X93.6812 Y41.5169 I-0.1897 J-0.0039
G1 X93.6736 Y41.5093
G2 X93.5341 Y41.4523 I-0.1356 J0.1327
G1 X93.5238 Y41.4524
G1 X89.0952
G3 X88.5952 Y40.9524 I0.0 J-0.5
G1 Y38.814
G3 X88.9488 Y37.9488 I1.1896 J-0.0187
G3 X89.814 Y37.5952 I0.8465 J0.836
G1 X94.9524
G1 X94.9627 Y37.5953
G2 X95.1022 Y37.5384 I0.0039 J-0.1897
G1 X95.1098 Y37.5308
G2 X95.1668 Y37.3913 I-0.1327 J-0.1356
G1 Y37.3706
G2 X95.1098 Y37.2311 I-0.1897 J-0.0039
G1 X95.1022 Y37.2235
G2 X94.9627 Y37.1666 I-0.1356 J0.1327
G1 X94.9524 Y37.1667
G1 X89.8095
G1 X89.802 Y37.1666
G2 X88.6546 Y37.6429 I-0.0234 J1.5638
G1 X88.6429 Y37.6546
G2 X88.1666 Y38.802 I1.0875 J1.124
G1 X88.1667 Y38.8095
G1 Y44.5238
G1 X88.1666 Y44.5313
G2 X88.6429 Y45.6788 I1.5638 J0.0234
G1 X88.6546 Y45.6904
G2 X89.802 Y46.1667 I1.124 J-1.0875
G1 X89.8095
G1 X94.9524
G1 X94.9627 Y46.1668
G2 X95.1022 Y46.1098 I0.0039 J-0.1897
G1 X95.1098 Y46.1022
G2 X95.1668 Y45.9688 I-0.1327 J-0.1356
G1 F400.0 Z-3.0
G1 F800.0 Y45.9627
G1 Y45.9421
G2 X95.1098 Y45.8026 I-0.1897 J-0.0039
G1 X95.1022 Y45.795
G2 X94.9627 Y45.738 I-0.1356 J0.1327
G1 X94.9524 Y45.7381
G1 X89.814
G3 X88.9488 Y45.3845 I-0.0187 J-1.1896
G3 X88.5952 Y44.5194 I0.836 J-0.8465
G1 Y42.381
G3 X89.0952 Y41.881 I0.5 J0.0
G1 X93.5238
G1 X93.5341 Y41.8811
G2 X93.6736 Y41.8241 I0.0039 J-0.1897
G1 X93.6812 Y41.8165
G2 X93.7382 Y41.677 I-0.1327 J-0.1356
G1 Y41.6564
G2 X93.6812 Y41.5169 I-0.1897 J-0.0039
G1 X93.6736 Y41.5093
G2 X93.5341 Y41.4523 I-0.1356 J0.1327
G1 X93.5238 Y41.4524
G1 X89.0952
G3 X88.5952 Y40.9524 I0.0 J-0.5
G1 Y38.814
G3 X88.9488 Y37.9488 I1.1896 J-0.0187
G3 X89.814 Y37.5952 I0.8465 J0.836
G1 X94.9524
G1 X94.9627 Y37.5953
G2 X95.1022 Y37.5384 I0.0039 J-0.1897
G1 X95.1098 Y37.5308
G2 X95.1668 Y37.3913 I-0.1327 J-0.1356
G1 Y37.3706
G2 X95.1098 Y37.2311 I-0.1897 J-0.0039
G1 X95.1022 Y37.2235
G2 X94.9627 Y37.1666 I-0.1356 J0.1327
G1 X94.9524 Y37.1667
G1 X89.8095
G1 X89.802 Y37.1666
G2 X88.6546 Y37.6429 I-0.0234 J1.5638
G1 X88.6429 Y37.6546
G2 X88.1666 Y38.802 I1.0875 J1.124
G1 X88.1667 Y38.8095
G1 Y44.5238
G1 X88.1666 Y44.5313
G2 X88.6429 Y45.6788 I1.5638 J0.0234
G1 X88.6546 Y45.6904
G2 X89.802 Y46.1667 I1.124 J-1.0875
G1 X89.8095
G1 X94.9524
G1 X94.9627 Y46.1668
G2 X95.1022 Y46.1098 I0.0039 J-0.1897
G1 X95.1098 Y46.1022
G2 X95.1668 Y45.9688 I-0.1327 J-0.1356
G0 Z5.0
G0 X95.1874 Y53.8326
G0 Z1.0
G1 F400.0 Z-1.5
G1 F800.0 X95.1796 Y53.8328
G1 X95.1416 Y53.8331
G2 X94.986 Y53.9123 I-0.0055 J0.1816
G1 X92.1045 Y58.2345
G1 X92.0848 Y58.3108
G1 X92.0852 Y58.3436
G2 X92.1422 Y58.4831 I0.1897 J0.0039
G1 X92.1498 Y58.4907
G2 X92.2893 Y58.5477 I0.1356 J-0.1327
G1 X92.2996 Y58.5476
G1 X93.071
G1 X93.0897 Y58.548
G3 X94.402 Y59.143 I-0.0712 J1.9017
G3 X94.9425 Y60.4762 I-1.3298 J1.3153
G3 X94.402 Y61.8094 I-1.8703 J0.018
G3 X93.0897 Y62.4044 I-1.3835 J-1.3067
G1 X93.071 Y62.4048
G1 X89.5897
G3 X88.7246 Y62.0512 I-0.0187 J-1.1896
G3 X88.371 Y61.186 I0.836 J-0.8465
G1 Y54.1048
G1 Y54.0476
G1 X88.3711 Y54.0373
G2 X88.3141 Y53.8978 I-0.1897 J-0.0039
G1 X88.3065 Y53.8902
G2 X88.167 Y53.8332 I-0.1356 J0.1327
G1 X88.1464
G2 X88.0069 Y53.8902 I-0.0039 J0.1897
G1 X87.9993 Y53.8978
G2 X87.9423 Y54.0373 I0.1327 J0.1356
G1 X87.9424 Y54.0476
G1 Y61.1905
G1 Y61.198
G2 X88.4187 Y62.3454 I1.5638 J0.0234
G1 X88.4303 Y62.3571
G2 X89.5778 Y62.8334 I1.124 J-1.0875
G1 X89.5853 Y62.8333
G1 X93.0679
G2 X94.6889 Y62.1299 I-0.0297 J-2.2879
G1 X94.6997 Y62.119
G2 X95.3711 Y60.4843 I-1.5656 J-1.5982
G1 X95.371 Y60.4719
G2 X94.8383 Y58.9908 I-2.2717 J-0.0193
G1 X94.8293 Y58.9798
G2 X93.5008 Y58.1663 I-1.7765 J1.4096
G3 X93.1835 Y57.3988 I0.0988 J-0.4901
G1 X95.355 Y54.1417
G1 X95.3629 Y54.1301
G2 X95.3679 Y53.9618 I-0.1242 J-0.0879
G1 X95.3499 Y53.9305
G2 X95.1874 Y53.8326 I-0.162 J0.0853
G1 F400.0 Z-3.0
G1 F800.0 X95.1796 Y53.8328
G1 X95.1416 Y53.8331
G2 X94.986 Y53.9123 I-0.0055 J0.1816
G1 X92.1045 Y58.2345
G1 X92.0848 Y58.3108
G1 X92.0852 Y58.3436
G2 X92.1422 Y58.4831 I0.1897 J0.0039
G1 X92.1498 Y58.4907
G2 X92.2893 Y58.5477 I0.1356 J-0.1327
G1 X92.2996 Y58.5476
G1 X93.071
G1 X93.0897 Y58.548
G3 X94.402 Y59.143 I-0.0712 J1.9017
G3 X94.9425 Y60.4762 I-1.3298 J1.3153
G3 X94.402 Y61.8094 I-1.8703 J0.018
G3 X93.0897 Y62.4044 I-1.3835 J-1.3067
G1 X93.071 Y62.4048
G1 X89.5897
G3 X88.7246 Y62.0512 I-0.0187 J-1.1896
G3 X88.371 Y61.186 I0.836 J-0.8465
G1 Y54.1048
G1 Y54.0476
G1 X88.3711 Y54.0373
G2 X88.3141 Y53.8978 I-0.1897 J-0.0039
G1 X88.3065 Y53.8902
G2 X88.167 Y53.8332 I-0.1356 J0.1327
G1 X88.1464
G2 X88.0069 Y53.8902 I-0.0039 J0.1897
G1 X87.9993 Y53.8978
G2 X87.9423 Y54.0373 I0.1327 J0.1356
G1 X87.9424 Y54.0476
G1 Y61.1905
G1 Y61.198
G2 X88.4187 Y62.3454 I1.5638 J0.0234
G1 X88.4303 Y62.3571
G2 X89.5778 Y62.8334 I1.124 J-1.0875
G1 X89.5853 Y62.8333
G1 X93.0679
G2 X94.6889 Y62.1299 I-0.0297 J-2.2879
G1 X94.6997 Y62.119
G2 X95.3711 Y60.4843 I-1.5656 J-1.5982
G1 X95.371 Y60.4719
G2 X94.8383 Y58.9908 I-2.2717 J-0.0193
G1 X94.8293 Y58.9798
G2 X93.5008 Y58.1663 I-1.7765 J1.4096
G3 X93.1835 Y57.3988 I0.0988 J-0.4901
G1 X95.355 Y54.1417
G1 X95.3629 Y54.1301
G2 X95.3679 Y53.9618 I-0.1242 J-0.0879
G1 X95.3499 Y53.9305
G2 X95.1874 Y53.8326 I-0.162 J0.0853
G0 Z5.0
G0 X78.6974 Y55.8801
G0 Z1.0
G1 F400.0 Z-1.5
G2 F800.0 X78.0248 Y54.5365 I-2.2318 J0.2771
G1 X78.0111 Y54.5228
G2 X76.3632 Y53.8333 I-1.6207 J1.5592
G1 X76.3571
G1 X73.6429
G1 X73.6368
G2 X71.9889 Y54.5228 I-0.0272 J2.2488
G1 X71.9752 Y54.5365
G2 X71.2857 Y56.1844 I1.5592 J1.6207
G1 Y56.1905
G1 Y62.5619
G1 Y62.619
G1 X71.2856 Y62.6294
G2 X71.3426 Y62.7689 I0.1897 J0.0039
G1 X71.3502 Y62.7765
G2 X71.4897 Y62.8334 I0.1356 J-0.1327
G1 X71.5103
G2 X71.6498 Y62.7765 I0.0039 J-0.1897
G1 X71.6574 Y62.7689
G2 X71.7144 Y62.6294 I-0.1327 J-0.1356
G1 X71.7143 Y62.619
G1 Y62.5619
G1 Y56.1933
G3 X72.2821 Y54.8297 I1.8744 J-0.0194
G3 X73.6457 Y54.2619 I1.3441 J1.3066
G1 X76.3544
G3 X77.7179 Y54.8297 I0.0194 J1.8744
G3 X78.2857 Y56.1933 I-1.3066 J1.3441
G1 Y62.619
G1 X78.2856 Y62.6294
G2 X78.3426 Y62.7689 I0.1897 J0.0039
G1 X78.3502 Y62.7765
G2 X78.4897 Y62.8334 I0.1356 J-0.1327
G1 X78.5103
G2 X78.6498 Y62.7765 I0.0039 J-0.1897
G1 X78.6574 Y62.7689
G2 X78.7144 Y62.6294 I-0.1327 J-0.1356
G1 X78.7143 Y62.619
G1 Y56.1905
G1 Y56.1844
G2 X78.6974 Y55.8801 I-2.2488 J-0.0272
G1 F400.0 Z-3.0
G2 F800.0 X78.0248 Y54.5365 I-2.2318 J0.2771
G1 X78.0111 Y54.5228
G2 X76.3632 Y53.8333 I-1.6207 J1.5592
G1 X76.3571
G1 X73.6429
G1 X73.6368
G2 X71.9889 Y54.5228 I-0.0272 J2.2488
G1 X71.9752 Y54.5365
G2 X71.2857 Y56.1844 I1.5592 J1.6207
G1 Y56.1905
G1 Y62.5619
G1 Y62.619
G1 X71.2856 Y62.6294
G2 X71.3426 Y62.7689 I0.1897 J0.0039
G1 X71.3502 Y62.7765
G2 X71.4897 Y62.8334 I0.1356 J-0.1327
G1 X71.5103
G2 X71.6498 Y62.7765 I0.0039 J-0.1897
G1 X71.6574 Y62.7689
G2 X71.7144 Y62.6294 I-0.1327 J-0.1356
G1 X71.7143 Y62.619
G1 Y62.5619
G1 Y56.1933
G3 X72.2821 Y54.8297 I1.8744 J-0.0194
G3 X73.6457 Y54.2619 I1.3441 J1.3066
G1 X76.3544
G3 X77.7179 Y54.8297 I0.0194 J1.8744
G3 X78.2857 Y56.1933 I-1.3066 J1.3441
G1 Y62.619
G1 X78.2856 Y62.6294
G2 X78.3426 Y62.7689 I0.1897 J0.0039
G1 X78.3502 Y62.7765
G2 X78.4897 Y62.8334 I0.1356 J-0.1327
G1 X78.5103
G2 X78.6498 Y62.7765 I0.0039 J-0.1897
G1 X78.6574 Y62.7689
G2 X78.7144 Y62.6294 I-0.1327 J-0.1356
G1 X78.7143 Y62.619
G1 Y56.1905
G1 Y56.1844
G2 X78.6974 Y55.8801 I-2.2488 J-0.0272
G0 Z5.0
G0 X76.9298 Y46.13
G0 Z1.0
G1 F400.0 Z-1.5
G2 F800.0 X77.653 Y45.8676 I-0.4088 J-2.2548
G1 X77.6554 Y45.8663
G2 X78.4935 Y45.0626 I-1.1337 J-2.0211
G2 X78.5287 Y44.9254 I-0.3017 J-0.1507
G2 X78.4717 Y44.7883 I-0.1897 J-0.0015
G1 X78.4641 Y44.7807
G2 X78.3246 Y44.7237 I-0.1356 J0.1327
G1 X78.28 Y44.7226
G2 X78.1426 Y44.7993 I-0.0099 J0.1437
G1 X78.1324 Y44.8176
G3 X76.4943 Y45.7381 I-1.5992 J-0.9281
G1 X73.6457
G3 X72.2821 Y45.1703 I-0.0194 J-1.8744
G3 X71.7143 Y43.8067 I1.3066 J-1.3441
G1 Y39.5266
G3 X72.2821 Y38.1631 I1.8744 J-0.0194
G3 X73.6457 Y37.5952 I1.3441 J1.3066
G1 X77.067
G3 X77.9321 Y37.9488 I0.0187 J1.1896
G3 X78.2857 Y38.814 I-0.836 J0.8465
G1 Y40.2381
G3 X77.7857 Y40.7381 I-0.5 J0.0
G1 X75.5
G1 X75.4897 Y40.738
G2 X75.3502 Y40.795 I-0.0039 J0.1897
G1 X75.3426 Y40.8026
G2 X75.2856 Y40.9421 I0.1327 J0.1356
G1 Y40.9627
G2 X75.3426 Y41.1022 I0.1897 J0.0039
G1 X75.3502 Y41.1098
G2 X75.4897 Y41.1668 I0.1356 J-0.1327
G1 X75.5 Y41.1667
G1 X78.5
G1 X78.5103 Y41.1668
G2 X78.6498 Y41.1098 I0.0039 J-0.1897
G1 X78.6574 Y41.1022
G2 X78.7144 Y40.9627 I-0.1327 J-0.1356
G1 X78.7143 Y40.9524
G1 Y38.8095
G1 Y38.802
G2 X78.238 Y37.6546 I-1.5638 J-0.0234
G1 X78.2264 Y37.6429
G2 X77.0789 Y37.1666 I-1.124 J1.0875
G1 X77.0714 Y37.1667
G1 X73.6429
G1 X73.6368 Y37.1666
G2 X71.9889 Y37.8562 I-0.0272 J2.2488
G1 X71.9752 Y37.8698
G2 X71.2857 Y39.5178 I1.5592 J1.6207
G1 Y39.5238
G1 Y43.8095
G1 Y43.8156
G2 X71.9752 Y45.4635 I2.2488 J0.0272
G1 X71.9889 Y45.4772
G2 X73.6368 Y46.1667 I1.6207 J-1.5592
G1 X73.6429
G1 X76.5
G1 X76.5038
G2 X76.9298 Y46.13 I0.0173 J-2.2915
G1 F400.0 Z-3.0
G2 F800.0 X77.653 Y45.8676 I-0.4088 J-2.2548
G1 X77.6554 Y45.8663
G2 X78.4935 Y45.0626 I-1.1337 J-2.0211
G2 X78.5287 Y44.9254 I-0.3017 J-0.1507
G2 X78.4717 Y44.7883 I-0.1897 J-0.0015
G1 X78.4641 Y44.7807
G2 X78.3246 Y44.7237 I-0.1356 J0.1327
G1 X78.28 Y44.7226
G2 X78.1426 Y44.7993 I-0.0099 J0.1437
G1 X78.1324 Y44.8176
G3 X76.4943 Y45.7381 I-1.5992 J-0.9281
G1 X73.6457
G3 X72.2821 Y45.1703 I-0.0194 J-1.8744
G3 X71.7143 Y43.8067 I1.3066 J-1.3441
G1 Y39.5266
G3 X72.2821 Y38.1631 I1.8744 J-0.0194
G3 X73.6457 Y37.5952 I1.3441 J1.3066
G1 X77.067
G3 X77.9321 Y37.9488 I0.0187 J1.1896
G3 X78.2857 Y38.814 I-0.836 J0.8465
G1 Y40.2381
G3 X77.7857 Y40.7381 I-0.5 J0.0
G1 X75.5
G1 X75.4897 Y40.738
G2 X75.3502 Y40.795 I-0.0039 J0.1897
G1 X75.3426 Y40.8026
G2 X75.2856 Y40.9421 I0.1327 J0.1356
G1 Y40.9627
G2 X75.3426 Y41.1022 I0.1897 J0.0039
G1 X75.3502 Y41.1098
G2 X75.4897 Y41.1668 I0.1356 J-0.1327
G1 X75.5 Y41.1667
G1 X78.5
G1 X78.5103 Y41.1668
G2 X78.6498 Y41.1098 I0.0039 J-0.1897
G1 X78.6574 Y41.1022
G2 X78.7144 Y40.9627 I-0.1327 J-0.1356
G1 X78.7143 Y40.9524
G1 Y38.8095
G1 Y38.802
G2 X78.238 Y37.6546 I-1.5638 J-0.0234
G1 X78.2264 Y37.6429
G2 X77.0789 Y37.1666 I-1.124 J1.0875
G1 X77.0714 Y37.1667
G1 X73.6429
G1 X73.6368 Y37.1666
G2 X71.9889 Y37.8562 I-0.0272 J2.2488
G1 X71.9752 Y37.8698
G2 X71.2857 Y39.5178 I1.5592 J1.6207
G1 Y39.5238
G1 Y43.8095
G1 Y43.8156
G2 X71.9752 Y45.4635 I2.2488 J0.0272
G1 X71.9889 Y45.4772
G2 X73.6368 Y46.1667 I1.6207 J-1.5592
G1 X73.6429
G1 X76.5
G1 X76.5038
G2 X76.9298 Y46.13 I0.0173 J-2.2915
G0 Z5.0
G0 X61.8085 Y37.4893
G0 Z1.0
G1 F400.0 Z-1.5
G2 F800.0 X61.8334 Y37.3913 I-0.1647 J-0.0941
G1 Y37.3706
G2 X61.7765 Y37.2311 I-0.1897 J-0.0039
G1 X61.7689 Y37.2235
G2 X61.6294 Y37.1666 I-0.1356 J0.1327
G1 X61.6191 Y37.1667
G1 X61.5619
G1 X56.4762
G1 X56.4687 Y37.1666
G2 X55.3212 Y37.6429 I-0.0234 J1.5638
G1 X55.3096 Y37.6546
G2 X54.8333 Y38.802 I1.0875 J1.124
G1 Y38.8095
G1 Y45.8952
G1 Y45.9524
G1 X54.8332 Y45.9627
G2 X54.8902 Y46.1022 I0.1897 J0.0039
G1 X54.8978 Y46.1098
G2 X55.0373 Y46.1668 I0.1356 J-0.1327
G1 X55.0579
G2 X55.1974 Y46.1098 I0.0039 J-0.1897
G1 X55.205 Y46.1022
G2 X55.262 Y45.9627 I-0.1327 J-0.1356
G1 X55.2619 Y45.9524
G1 Y45.8952
G1 Y38.814
G3 X55.6155 Y37.9488 I1.1896 J-0.0187
G3 X56.4807 Y37.5952 I0.8465 J0.836
G1 X61.6191
G1 X61.6294 Y37.5953
G2 X61.7689 Y37.5384 I0.0039 J-0.1897
G1 X61.7765 Y37.5308
G1 X61.8085 Y37.4893
G1 F400.0 Z-3.0
G2 F800.0 X61.8334 Y37.3913 I-0.1647 J-0.0941
G1 Y37.3706
G2 X61.7765 Y37.2311 I-0.1897 J-0.0039
G1 X61.7689 Y37.2235
G2 X61.6294 Y37.1666 I-0.1356 J0.1327
G1 X61.6191 Y37.1667
G1 X61.5619
G1 X56.4762
G1 X56.4687 Y37.1666
G2 X55.3212 Y37.6429 I-0.0234 J1.5638
G1 X55.3096 Y37.6546
G2 X54.8333 Y38.802 I1.0875 J1.124
G1 Y38.8095
G1 Y45.8952
G1 Y45.9524
G1 X54.8332 Y45.9627
G2 X54.8902 Y46.1022 I0.1897 J0.0039
G1 X54.8978 Y46.1098
G2 X55.0373 Y46.1668 I0.1356 J-0.1327
G1 X55.0579
G2 X55.1974 Y46.1098 I0.0039 J-0.1897
G1 X55.205 Y46.1022
G2 X55.262 Y45.9627 I-0.1327 J-0.1356
G1 X55.2619 Y45.9524
G1 Y45.8952
G1 Y38.814
G3 X55.6155 Y37.9488 I1.1896 J-0.0187
G3 X56.4807 Y37.5952 I0.8465 J0.836
G1 X61.6191
G1 X61.6294 Y37.5953
G2 X61.7689 Y37.5384 I0.0039 J-0.1897
G1 X61.7765 Y37.5308
G1 X61.8085 Y37.4893
G0 Z5.0
G0 X46.1668 Y37.3654
G0 Z1.0
G1 F400.0 Z-1.5
G2 F800.0 X46.1098 Y37.2311 I-0.1897 J0.0013
G1 X46.1022 Y37.2235
G2 X45.9627 Y37.1666 I-0.1356 J0.1327
G1 X45.9442
G2 X45.7491 Y37.2994 I-0.0033 J0.2048
G1 X45.7282 Y37.3474
G1 X42.1139 Y44.576
G3 X41.2195 I-0.4472 J-0.2236
G1 X39.1623 Y40.4617
G3 X39.6095 Y39.7381 I0.4472 J-0.2236
G1 X41.6667
G1 X41.677 Y39.7382
G2 X41.8165 Y39.6812 I0.0039 J-0.1897
G1 X41.8241 Y39.6736
G2 X41.8811 Y39.5341 I-0.1327 J-0.1356
G1 Y39.5135
G2 X41.8241 Y39.374 I-0.1897 J-0.0039
G1 X41.8165 Y39.3664
G2 X41.677 Y39.3094 I-0.1356 J0.1327
G1 X41.6667 Y39.3095
G1 X38.8952
G3 X38.448 Y39.0331 I0.0 J-0.5
G1 X37.6052 Y37.3474
G1 X37.5874 Y37.3076
G2 X37.3804 Y37.1667 I-0.2072 J0.0819
G1 X37.3706 Y37.1666
G2 X37.2312 Y37.2235 I-0.0039 J0.1897
G1 X37.2235 Y37.2311
G2 X37.1666 Y37.3706 I0.1327 J0.1356
G1 X37.1667 Y37.3806
G2 X37.1981 Y37.5114 I0.2889 J-0.0002
G1 X37.1994 Y37.5142
G1 X41.4423 Y45.9856
G1 X41.472 Y46.0589
G2 X41.6321 Y46.1679 I0.1492 J-0.0471
G1 X41.7013
G2 X41.8613 Y46.0589 I0.0108 J-0.1561
G1 X41.8907 Y45.9862
G1 X46.1193 Y37.5148
G1 X46.1285 Y37.4973
G2 X46.1668 Y37.3654 I-0.2765 J-0.1519
G1 F400.0 Z-3.0
G2 F800.0 X46.1098 Y37.2311 I-0.1897 J0.0013
G1 X46.1022 Y37.2235
G2 X45.9627 Y37.1666 I-0.1356 J0.1327
G1 X45.9442
G2 X45.7491 Y37.2994 I-0.0033 J0.2048
G1 X45.7282 Y37.3474
G1 X42.1139 Y44.576
G3 X41.2195 I-0.4472 J-0.2236
G1 X39.1623 Y40.4617
G3 X39.6095 Y39.7381 I0.4472 J-0.2236
G1 X41.6667
G1 X41.677 Y39.7382
G2 X41.8165 Y39.6812 I0.0039 J-0.1897
G1 X41.8241 Y39.6736
G2 X41.8811 Y39.5341 I-0.1327 J-0.1356
G1 Y39.5135
G2 X41.8241 Y39.374 I-0.1897 J-0.0039
G1 X41.8165 Y39.3664
G2 X41.677 Y39.3094 I-0.1356 J0.1327
G1 X41.6667 Y39.3095
G1 X38.8952
G3 X38.448 Y39.0331 I0.0 J-0.5
G1 X37.6052 Y37.3474
G1 X37.5874 Y37.3076
G2 X37.3804 Y37.1667 I-0.2072 J0.0819
G1 X37.3706 Y37.1666
G2 X37.2312 Y37.2235 I-0.0039 J0.1897
G1 X37.2235 Y37.2311
G2 X37.1666 Y37.3706 I0.1327 J0.1356
G1 X37.1667 Y37.3806
G2 X37.1981 Y37.5114 I0.2889 J-0.0002
G1 X37.1994 Y37.5142
G1 X41.4423 Y45.9856
G1 X41.472 Y46.0589
G2 X41.6321 Y46.1679 I0.1492 J-0.0471
G1 X41.7013
G2 X41.8613 Y46.0589 I0.0108 J-0.1561
G1 X41.8907 Y45.9862
G1 X46.1193 Y37.5148
G1 X46.1285 Y37.4973
G2 X46.1668 Y37.3654 I-0.2765 J-0.1519
G0 Z5.0
G0 X43.9752 Y53.8467
G0 Z1.0
G1 F400.0 Z-1.5
G2 F800.0 X43.7456 Y53.8333 I-0.2062 J1.5504
G1 X43.7381
G1 X40.3095
G1 X40.3035
G2 X38.6556 Y54.5228 I-0.0272 J2.2488
G1 X38.6419 Y54.5365
G2 X37.9523 Y56.1844 I1.5592 J1.6207
G1 X37.9524 Y56.1905
G1 Y60.4762
G1 X37.9523 Y60.4822
G2 X38.6419 Y62.1302 I2.2488 J0.0272
G1 X38.6556 Y62.1438
G2 X40.3035 Y62.8334 I1.6207 J-1.5592
G1 X40.3095 Y62.8333
G1 X43.1667
G1 X43.1704
G2 X44.3197 Y62.5343 I0.0173 J-2.2915
G1 X44.3221 Y62.533
G2 X45.1601 Y61.7293 I-1.1337 J-2.0211
G2 X45.1954 Y61.5921 I-0.3017 J-0.1507
G2 X45.1384 Y61.455 I-0.1897 J-0.0015
G1 X45.1308 Y61.4473
G2 X44.9913 Y61.3904 I-0.1356 J0.1327
G1 X44.9466 Y61.3893
G2 X44.8092 Y61.466 I-0.0099 J0.1437
G1 X44.7991 Y61.4843
G3 X43.161 Y62.4048 I-1.5992 J-0.9281
G1 X40.3123
G3 X38.9488 Y61.8369 I-0.0194 J-1.8744
G3 X38.381 Y60.4734 I1.3066 J-1.3441
G1 Y56.1933
G3 X38.9488 Y54.8297 I1.8744 J-0.0194
G3 X40.3123 Y54.2619 I1.3441 J1.3066
G1 X43.7336
G3 X44.5988 Y54.6155 I0.0187 J1.1896
G3 X44.9524 Y55.4806 I-0.836 J0.8465
G1 Y56.9048
G3 X44.4524 Y57.4048 I-0.5 J0.0
G1 X42.1667
G1 X42.1564 Y57.4047
G2 X42.0169 Y57.4616 I-0.0039 J0.1897
G1 X42.0093 Y57.4692
G2 X41.9523 Y57.6087 I0.1327 J0.1356
G1 Y57.6294
G2 X42.0093 Y57.7689 I0.1897 J0.0039
G1 X42.0169 Y57.7765
G2 X42.1564 Y57.8334 I0.1356 J-0.1327
G1 X42.1667 Y57.8333
G1 X45.1667
G1 X45.177 Y57.8334
G2 X45.3165 Y57.7765 I0.0039 J-0.1897
G1 X45.3241 Y57.7689
G2 X45.3811 Y57.6294 I-0.1327 J-0.1356
G1 X45.381 Y57.619
G1 Y55.4762
G1 Y55.4687
G2 X44.9047 Y54.3212 I-1.5638 J-0.0234
G1 X44.893 Y54.3096
G2 X43.9752 Y53.8467 I-1.124 J1.0875
G1 F400.0 Z-3.0
G2 F800.0 X43.7456 Y53.8333 I-0.2062 J1.5504
G1 X43.7381
G1 X40.3095
G1 X40.3035
G2 X38.6556 Y54.5228 I-0.0272 J2.2488
G1 X38.6419 Y54.5365
G2 X37.9523 Y56.1844 I1.5592 J1.6207
G1 X37.9524 Y56.1905
G1 Y60.4762
G1 X37.9523 Y60.4822
G2 X38.6419 Y62.1302 I2.2488 J0.0272
G1 X38.6556 Y62.1438
G2 X40.3035 Y62.8334 I1.6207 J-1.5592
G1 X40.3095 Y62.8333
G1 X43.1667
G1 X43.1704
G2 X44.3197 Y62.5343 I0.0173 J-2.2915
G1 X44.3221 Y62.533
G2 X45.1601 Y61.7293 I-1.1337 J-2.0211
G2 X45.1954 Y61.5921 I-0.3017 J-0.1507
G2 X45.1384 Y61.455 I-0.1897 J-0.0015
G1 X45.1308 Y61.4473
G2 X44.9913 Y61.3904 I-0.1356 J0.1327
G1 X44.9466 Y61.3893
G2 X44.8092 Y61.466 I-0.0099 J0.1437
G1 X44.7991 Y61.4843
G3 X43.161 Y62.4048 I-1.5992 J-0.9281
G1 X40.3123
G3 X38.9488 Y61.8369 I-0.0194 J-1.8744
G3 X38.381 Y60.4734 I1.3066 J-1.3441
G1 Y56.1933
G3 X38.9488 Y54.8297 I1.8744 J-0.0194
G3 X40.3123 Y54.2619 I1.3441 J1.3066
G1 X43.7336
G3 X44.5988 Y54.6155 I0.0187 J1.1896
G3 X44.9524 Y55.4806 I-0.836 J0.8465
G1 Y56.9048
G3 X44.4524 Y57.4048 I-0.5 J0.0
G1 X42.1667
G1 X42.1564 Y57.4047
G2 X42.0169 Y57.4616 I-0.0039 J0.1897
G1 X42.0093 Y57.4692
G2 X41.9523 Y57.6087 I0.1327 J0.1356
G1 Y57.6294
G2 X42.0093 Y57.7689 I0.1897 J0.0039
G1 X42.0169 Y57.7765
G2 X42.1564 Y57.8334 I0.1356 J-0.1327
G1 X42.1667 Y57.8333
G1 X45.1667
G1 X45.177 Y57.8334
G2 X45.3165 Y57.7765 I0.0039 J-0.1897
G1 X45.3241 Y57.7689
G2 X45.3811 Y57.6294 I-0.1327 J-0.1356
G1 X45.381 Y57.619
G1 Y55.4762
G1 Y55.4687
G2 X44.9047 Y54.3212 I-1.5638 J-0.0234
G1 X44.893 Y54.3096
G2 X43.9752 Y53.8467 I-1.124 J1.0875
G0 Z5.0
G0 X54.6541 Y55.7605
G0 Z1.0
G1 F400.0 Z-1.5
G2 F800.0 X54.619 Y56.1844 I2.2137 J0.3967
G1 X54.6191 Y56.1905
G1 Y62.5619
G1 Y62.619
G1 X54.6189 Y62.6294
G2 X54.6759 Y62.7689 I0.1897 J0.0039
G1 X54.6835 Y62.7765
G2 X54.823 Y62.8334 I0.1356 J-0.1327
G1 X54.8436
G2 X54.9831 Y62.7765 I0.0039 J-0.1897
G1 X54.9908 Y62.7689
G2 X55.0477 Y62.6294 I-0.1327 J-0.1356
G1 X55.0476 Y62.619
G1 Y62.5619
G1 Y56.1933
G3 X55.6154 Y54.8297 I1.8744 J-0.0194
G3 X56.979 Y54.2619 I1.3441 J1.3066
G1 X59.6877
G3 X61.0512 Y54.8297 I0.0194 J1.8744
G3 X61.6191 Y56.1933 I-1.3066 J1.3441
G1 Y62.619
G1 X61.6189 Y62.6294
G2 X61.6759 Y62.7689 I0.1897 J0.0039
G1 X61.6835 Y62.7765
G2 X61.823 Y62.8334 I0.1356 J-0.1327
G1 X61.8436
G2 X61.9831 Y62.7765 I0.0039 J-0.1897
G1 X61.9908 Y62.7689
G2 X62.0477 Y62.6294 I-0.1327 J-0.1356
G1 X62.0476 Y62.619
G1 Y56.1905
G1 X62.0477 Y56.1844
G2 X61.3581 Y54.5365 I-2.2488 J-0.0272
G1 X61.3444 Y54.5228
G2 X59.6965 Y53.8333 I-1.6207 J1.5592
G1 X59.6905
G1 X56.9762
G1 X56.9701
G2 X55.3222 Y54.5228 I-0.0272 J2.2488
G1 X55.3086 Y54.5365
G2 X54.6541 Y55.7605 I1.5592 J1.6207
G1 F400.0 Z-3.0
G2 F800.0 X54.619 Y56.1844 I2.2137 J0.3967
G1 X54.6191 Y56.1905
G1 Y62.5619
G1 Y62.619
G1 X54.6189 Y62.6294
G2 X54.6759 Y62.7689 I0.1897 J0.0039
G1 X54.6835 Y62.7765
G2 X54.823 Y62.8334 I0.1356 J-0.1327
G1 X54.8436
G2 X54.9831 Y62.7765 I0.0039 J-0.1897
G1 X54.9908 Y62.7689
G2 X55.0477 Y62.6294 I-0.1327 J-0.1356
G1 X55.0476 Y62.619
G1 Y62.5619
G1 Y56.1933
G3 X55.6154 Y54.8297 I1.8744 J-0.0194
G3 X56.979 Y54.2619 I1.3441 J1.3066
G1 X59.6877
G3 X61.0512 Y54.8297 I0.0194 J1.8744
G3 X61.6191 Y56.1933 I-1.3066 J1.3441
G1 Y62.619
G1 X61.6189 Y62.6294
G2 X61.6759 Y62.7689 I0.1897 J0.0039
G1 X61.6835 Y62.7765
G2 X61.823 Y62.8334 I0.1356 J-0.1327
G1 X61.8436
G2 X61.9831 Y62.7765 I0.0039 J-0.1897
G1 X61.9908 Y62.7689
G2 X62.0477 Y62.6294 I-0.1327 J-0.1356
G1 X62.0476 Y62.619
G1 Y56.1905
G1 X62.0477 Y56.1844
G2 X61.3581 Y54.5365 I-2.2488 J-0.0272
G1 X61.3444 Y54.5228
G2 X59.6965 Y53.8333 I-1.6207 J1.5592
G1 X59.6905
G1 X56.9762
G1 X56.9701
G2 X55.3222 Y54.5228 I-0.0272 J2.2488
G1 X55.3086 Y54.5365
G2 X54.6541 Y55.7605 I1.5592 J1.6207
G0 Z5.0
G0 X55.7338 Y70.5004
G0 Z1.0
G1 F400.0 Z-1.5
G2 F800.0 X55.6121 Y70.5569 I0.0139 J0.1892
G1 X55.6045 Y70.5645
G2 X55.5475 Y70.704 I0.1327 J0.1356
G1 Y70.7246
G2 X55.6045 Y70.8641 I0.1897 J0.0039
G1 X55.6121 Y70.8717
G2 X55.7516 Y70.9287 I0.1356 J-0.1327
G1 X55.7619 Y70.9286
G1 X55.8191
G1 X57.6191
G3 X58.1191 Y71.4286 I0.0 J0.5
G1 Y78.5714
G3 X57.6191 Y79.0714 I-0.5 J0.0
G1 X55.7619
G1 X55.7516 Y79.0713
G2 X55.6121 Y79.1283 I-0.0039 J0.1897
G1 X55.6045 Y79.1359
G2 X55.5475 Y79.2754 I0.1327 J0.1356
G1 Y79.296
G2 X55.6045 Y79.4355 I0.1897 J0.0039
G1 X55.6121 Y79.4431
G2 X55.7516 Y79.5001 I0.1356 J-0.1327
G1 X55.7619 Y79.5
G1 X55.8191
G1 X60.8476
G1 X60.9048
G1 X60.9151 Y79.5001
G2 X61.0546 Y79.4431 I0.0039 J-0.1897
G1 X61.0622 Y79.4355
G2 X61.1192 Y79.296 I-0.1327 J-0.1356
G1 Y79.2754
G2 X61.0622 Y79.1359 I-0.1897 J-0.0039
G1 X61.0546 Y79.1283
G2 X60.9151 Y79.0713 I-0.1356 J0.1327
G1 X60.9048 Y79.0714
G1 X59.0476
G3 X58.5476 Y78.5714 I0.0 J-0.5
G1 Y71.4286
G3 X59.0476 Y70.9286 I0.5 J0.0
G1 X60.9048
G1 X60.9151 Y70.9287
G2 X61.0546 Y70.8717 I0.0039 J-0.1897
G1 X61.0622 Y70.8641
G2 X61.1192 Y70.7246 I-0.1327 J-0.1356
G1 Y70.704
G2 X61.0622 Y70.5645 I-0.1897 J-0.0039
G1 X61.0546 Y70.5569
G2 X60.9151 Y70.4999 I-0.1356 J0.1327
G1 X60.9048 Y70.5
G1 X55.7619
G1 X55.7516 Y70.4999
G1 X55.7338 Y70.5004
G1 F400.0 Z-3.0
G2 F800.0 X55.6121 Y70.5569 I0.0139 J0.1892
G1 X55.6045 Y70.5645
G2 X55.5475 Y70.704 I0.1327 J0.1356
G1 Y70.7246
G2 X55.6045 Y70.8641 I0.1897 J0.0039
G1 X55.6121 Y70.8717
G2 X55.7516 Y70.9287 I0.1356 J-0.1327
G1 X55.7619 Y70.9286
G1 X55.8191
G1 X57.6191
G3 X58.1191 Y71.4286 I0.0 J0.5
G1 Y78.5714
G3 X57.6191 Y79.0714 I-0.5 J0.0
G1 X55.7619
G1 X55.7516 Y79.0713
G2 X55.6121 Y79.1283 I-0.0039 J0.1897
G1 X55.6045 Y79.1359
G2 X55.5475 Y79.2754 I0.1327 J0.1356
G1 Y79.296
G2 X55.6045 Y79.4355 I0.1897 J0.0039
G1 X55.6121 Y79.4431
G2 X55.7516 Y79.5001 I0.1356 J-0.1327
G1 X55.7619 Y79.5
G1 X55.8191
G1 X60.8476
G1 X60.9048
G1 X60.9151 Y79.5001
G2 X61.0546 Y79.4431 I0.0039 J-0.1897
G1 X61.0622 Y79.4355
G2 X61.1192 Y79.296 I-0.1327 J-0.1356
G1 Y79.2754
G2 X61.0622 Y79.1359 I-0.1897 J-0.0039
G1 X61.0546 Y79.1283
G2 X60.9151 Y79.0713 I-0.1356 J0.1327
G1 X60.9048 Y79.0714
G1 X59.0476
G3 X58.5476 Y78.5714 I0.0 J-0.5
G1 Y71.4286
G3 X59.0476 Y70.9286 I0.5 J0.0
G1 X60.9048
G1 X60.9151 Y70.9287
G2 X61.0546 Y70.8717 I0.0039 J-0.1897
G1 X61.0622 Y70.8641
G2 X61.1192 Y70.7246 I-0.1327 J-0.1356
G1 Y70.704
G2 X61.0622 Y70.5645 I-0.1897 J-0.0039
G1 X61.0546 Y70.5569
G2 X60.9151 Y70.4999 I-0.1356 J0.1327
G1 X60.9048 Y70.5
G1 X55.7619
G1 X55.7516 Y70.4999
G1 X55.7338 Y70.5004
G0 Z5.0
G0 X45.6923 Y79.1477
G0 Z1.0
G1 F400.0 Z-1.5
G1 F800.0 X45.6812 Y79.1359
G1 X45.6736 Y79.1283
G2 X45.5341 Y79.0713 I-0.1356 J0.1327
G1 X45.5238 Y79.0714
G1 X45.4667
G1 X42.381
G3 X41.881 Y78.5714 I0.0 J-0.5
G1 Y70.7714
G1 Y70.7143
G1 X41.8811 Y70.704
G2 X41.8241 Y70.5645 I-0.1897 J-0.0039
G1 X41.8165 Y70.5569
G2 X41.677 Y70.4999 I-0.1356 J0.1327
G1 X41.6564
G2 X41.5169 Y70.5569 I-0.0039 J0.1897
G1 X41.5093 Y70.5645
G2 X41.4523 Y70.704 I0.1327 J0.1356
G1 X41.4524 Y70.7143
G1 Y78.5714
G3 X40.9524 Y79.0714 I-0.5 J0.0
G1 X37.8667
G1 X37.8095
G1 X37.7992 Y79.0713
G2 X37.6597 Y79.1283 I-0.0039 J0.1897
G1 X37.6521 Y79.1359
G2 X37.5951 Y79.2754 I0.1327 J0.1356
G1 Y79.296
G2 X37.6521 Y79.4355 I0.1897 J0.0039
G1 X37.6597 Y79.4431
G2 X37.7992 Y79.5001 I0.1356 J-0.1327
G1 X37.8095 Y79.5
G1 X45.5238
G1 X45.5341 Y79.5001
G2 X45.6736 Y79.4431 I0.0039 J-0.1897
G1 X45.6812 Y79.4355
G2 X45.7382 Y79.296 I-0.1327 J-0.1356
G1 Y79.2754
G2 X45.6923 Y79.1477 I-0.1897 J-0.0039
G1 F400.0 Z-3.0
G1 F800.0 X45.6812 Y79.1359
G1 X45.6736 Y79.1283
G2 X45.5341 Y79.0713 I-0.1356 J0.1327
G1 X45.5238 Y79.0714
G1 X45.4667
G1 X42.381
G3 X41.881 Y78.5714 I0.0 J-0.5
G1 Y70.7714
G1 Y70.7143
G1 X41.8811 Y70.704
G2 X41.8241 Y70.5645 I-0.1897 J-0.0039
G1 X41.8165 Y70.5569
G2 X41.677 Y70.4999 I-0.1356 J0.1327
G1 X41.6564
G2 X41.5169 Y70.5569 I-0.0039 J0.1897
G1 X41.5093 Y70.5645
G2 X41.4523 Y70.704 I0.1327 J0.1356
G1 X41.4524 Y70.7143
G1 Y78.5714
G3 X40.9524 Y79.0714 I-0.5 J0.0
G1 X37.8667
G1 X37.8095
G1 X37.7992 Y79.0713
G2 X37.6597 Y79.1283 I-0.0039 J0.1897
G1 X37.6521 Y79.1359
G2 X37.5951 Y79.2754 I0.1327 J0.1356
G1 Y79.296
G2 X37.6521 Y79.4355 I0.1897 J0.0039
G1 X37.6597 Y79.4431
G2 X37.7992 Y79.5001 I0.1356 J-0.1327
G1 X37.8095 Y79.5
G1 X45.5238
G1 X45.5341 Y79.5001
G2 X45.6736 Y79.4431 I0.0039 J-0.1897
G1 X45.6812 Y79.4355
G2 X45.7382 Y79.296 I-0.1327 J-0.1356
G1 Y79.2754
G2 X45.6923 Y79.1477 I-0.1897 J-0.0039
G0 Z5.0
G0 X44.9833 Y87.1673
G0 Z1.0
G1 F400.0 Z-1.5
G1 F800.0 X44.9627 Y87.1666
G1 X44.9524 Y87.1667
G1 X44.8952
G1 X38.381
G1 X38.3706 Y87.1666
G2 X38.2312 Y87.2235 I-0.0039 J0.1897
G1 X38.2235 Y87.2311
G2 X38.1666 Y87.3706 I0.1327 J0.1356
G1 Y87.3915
G2 X38.2053 Y87.5005 I0.1633 J0.0034
G1 X38.2209 Y87.52
G1 X43.8924 Y94.9343
G3 X43.4952 Y95.7381 I-0.3971 J0.3038
G1 X38.381
G1 X38.3706 Y95.738
G2 X38.2312 Y95.795 I-0.0039 J0.1897
G1 X38.2235 Y95.8026
G2 X38.1666 Y95.9421 I0.1327 J0.1356
G1 Y95.9627
G2 X38.2235 Y96.1022 I0.1897 J0.0039
G1 X38.2312 Y96.1098
G2 X38.3706 Y96.1668 I0.1356 J-0.1327
G1 X38.381 Y96.1667
G1 X38.4381
G1 X44.9524
G1 X44.9627 Y96.1668
G2 X45.1022 Y96.1098 I0.0039 J-0.1897
G1 X45.1098 Y96.1022
G2 X45.1668 Y95.9627 I-0.1327 J-0.1356
G1 X45.1671 Y95.9319
G1 X45.1441 Y95.8417
G1 X39.4273 Y88.3998
G3 X39.8238 Y87.5952 I0.3965 J-0.3046
G1 X44.8952
G1 X44.9524
G1 X44.9627 Y87.5953
G2 X45.1022 Y87.5384 I0.0039 J-0.1897
G1 X45.1098 Y87.5308
G2 X45.1668 Y87.3913 I-0.1327 J-0.1356
G1 Y87.3706
G2 X45.1098 Y87.2311 I-0.1897 J-0.0039
G1 X45.1022 Y87.2235
G2 X44.9833 Y87.1673 I-0.1356 J0.1327
G1 F400.0 Z-3.0
G1 F800.0 X44.9627 Y87.1666
G1 X44.9524 Y87.1667
G1 X44.8952
G1 X38.381
G1 X38.3706 Y87.1666
G2 X38.2312 Y87.2235 I-0.0039 J0.1897
G1 X38.2235 Y87.2311
G2 X38.1666 Y87.3706 I0.1327 J0.1356
G1 Y87.3915
G2 X38.2053 Y87.5005 I0.1633 J0.0034
G1 X38.2209 Y87.52
G1 X43.8924 Y94.9343
G3 X43.4952 Y95.7381 I-0.3971 J0.3038
G1 X38.381
G1 X38.3706 Y95.738
G2 X38.2312 Y95.795 I-0.0039 J0.1897
G1 X38.2235 Y95.8026
G2 X38.1666 Y95.9421 I0.1327 J0.1356
G1 Y95.9627
G2 X38.2235 Y96.1022 I0.1897 J0.0039
G1 X38.2312 Y96.1098
G2 X38.3706 Y96.1668 I0.1356 J-0.1327
G1 X38.381 Y96.1667
G1 X38.4381
G1 X44.9524
G1 X44.9627 Y96.1668
G2 X45.1022 Y96.1098 I0.0039 J-0.1897
G1 X45.1098 Y96.1022
G2 X45.1668 Y95.9627 I-0.1327 J-0.1356
G1 X45.1671 Y95.9319
G1 X45.1441 Y95.8417
G1 X39.4273 Y88.3998
G3 X39.8238 Y87.5952 I0.3965 J-0.3046
G1 X44.8952
G1 X44.9524
G1 X44.9627 Y87.5953
G2 X45.1022 Y87.5384 I0.0039 J-0.1897
G1 X45.1098 Y87.5308
G2 X45.1668 Y87.3913 I-0.1327 J-0.1356
G1 Y87.3706
G2 X45.1098 Y87.2311 I-0.1897 J-0.0039
G1 X45.1022 Y87.2235
G2 X44.9833 Y87.1673 I-0.1356 J0.1327
G0 Z5.0
G0 X54.8485 Y88.56
G0 Z1.0
G1 F400.0 Z-1.5
G2 F800.0 X54.8333 Y88.802 I1.5487 J0.2186
G1 Y88.8095
G1 Y94.5238
G1 Y94.5313
G2 X55.3096 Y95.6788 I1.5638 J0.0234
G1 X55.3212 Y95.6904
G2 X56.4687 Y96.1667 I1.124 J-1.0875
G1 X56.4762
G1 X61.6191
G1 X61.6294 Y96.1668
G2 X61.7689 Y96.1098 I0.0039 J-0.1897
G1 X61.7765 Y96.1022
G2 X61.8334 Y95.9627 I-0.1327 J-0.1356
G1 Y95.9421
G2 X61.7765 Y95.8026 I-0.1897 J-0.0039
G1 X61.7689 Y95.795
G2 X61.6294 Y95.738 I-0.1356 J0.1327
G1 X61.6191 Y95.7381
G1 X56.4807
G3 X55.6155 Y95.3845 I-0.0187 J-1.1896
G3 X55.2619 Y94.5194 I0.836 J-0.8465
G1 Y92.381
G3 X55.7619 Y91.881 I0.5 J0.0
G1 X60.1905
G1 X60.2008 Y91.8811
G2 X60.3403 Y91.8241 I0.0039 J-0.1897
G1 X60.3479 Y91.8165
G2 X60.4049 Y91.677 I-0.1327 J-0.1356
G1 Y91.6564
G2 X60.3479 Y91.5169 I-0.1897 J-0.0039
G1 X60.3403 Y91.5093
G2 X60.2008 Y91.4523 I-0.1356 J0.1327
G1 X60.1905 Y91.4524
G1 X55.7619
G3 X55.2619 Y90.9524 I0.0 J-0.5
G1 Y88.814
G3 X55.6155 Y87.9488 I1.1896 J-0.0187
G3 X56.4807 Y87.5952 I0.8465 J0.836
G1 X61.6191
G1 X61.6294 Y87.5953
G2 X61.7689 Y87.5384 I0.0039 J-0.1897
G1 X61.7765 Y87.5308
G2 X61.8334 Y87.3913 I-0.1327 J-0.1356
G1 Y87.3706
G2 X61.7765 Y87.2311 I-0.1897 J-0.0039
G1 X61.7689 Y87.2235
G2 X61.6294 Y87.1666 I-0.1356 J0.1327
G1 X61.6191 Y87.1667
G1 X56.4762
G1 X56.4687 Y87.1666
G2 X55.3212 Y87.6429 I-0.0234 J1.5638
G1 X55.3096 Y87.6546
G2 X54.8485 Y88.56 I1.0875 J1.124
G1 F400.0 Z-3.0
G2 F800.0 X54.8333 Y88.802 I1.5487 J0.2186
G1 Y88.8095
G1 Y94.5238
G1 Y94.5313
G2 X55.3096 Y95.6788 I1.5638 J0.0234
G1 X55.3212 Y95.6904
G2 X56.4687 Y96.1667 I1.124 J-1.0875
G1 X56.4762
G1 X61.6191
G1 X61.6294 Y96.1668
G2 X61.7689 Y96.1098 I0.0039 J-0.1897
G1 X61.7765 Y96.1022
G2 X61.8334 Y95.9627 I-0.1327 J-0.1356
G1 Y95.9421
G2 X61.7765 Y95.8026 I-0.1897 J-0.0039
G1 X61.7689 Y95.795
G2 X61.6294 Y95.738 I-0.1356 J0.1327
G1 X61.6191 Y95.7381
G1 X56.4807
G3 X55.6155 Y95.3845 I-0.0187 J-1.1896
G3 X55.2619 Y94.5194 I0.836 J-0.8465
G1 Y92.381
G3 X55.7619 Y91.881 I0.5 J0.0
G1 X60.1905
G1 X60.2008 Y91.8811
G2 X60.3403 Y91.8241 I0.0039 J-0.1897
G1 X60.3479 Y91.8165
G2 X60.4049 Y91.677 I-0.1327 J-0.1356
G1 Y91.6564
G2 X60.3479 Y91.5169 I-0.1897 J-0.0039
G1 X60.3403 Y91.5093
G2 X60.2008 Y91.4523 I-0.1356 J0.1327
G1 X60.1905 Y91.4524
G1 X55.7619
G3 X55.2619 Y90.9524 I0.0 J-0.5
G1 Y88.814
G3 X55.6155 Y87.9488 I1.1896 J-0.0187
G3 X56.4807 Y87.5952 I0.8465 J0.836
G1 X61.6191
G1 X61.6294 Y87.5953
G2 X61.7689 Y87.5384 I0.0039 J-0.1897
G1 X61.7765 Y87.5308
G2 X61.8334 Y87.3913 I-0.1327 J-0.1356
G1 Y87.3706
G2 X61.7765 Y87.2311 I-0.1897 J-0.0039
G1 X61.7689 Y87.2235
G2 X61.6294 Y87.1666 I-0.1356 J0.1327
G1 X61.6191 Y87.1667
G1 X56.4762
G1 X56.4687 Y87.1666
G2 X55.3212 Y87.6429 I-0.0234 J1.5638
G1 X55.3096 Y87.6546
G2 X54.8485 Y88.56 I1.0875 J1.124
G0 Z5.0
G0 X54.3157 Y103.8332
G0 Z1.0
G1 F400.0 Z-1.5
G2 F800.0 X54.1835 Y103.8902 I0.0034 J0.1897
G1 X54.1759 Y103.8978
G2 X54.1189 Y104.0373 I0.1327 J0.1356
G1 X54.1191 Y104.0476
G1 Y112.619
G1 X54.1189 Y112.6294
G2 X54.1759 Y112.7689 I0.1897 J0.0039
G1 X54.1835 Y112.7765
G2 X54.323 Y112.8334 I0.1356 J-0.1327
G1 X54.3436
G2 X54.4831 Y112.7765 I0.0039 J-0.1897
G1 X54.4908 Y112.7689
G2 X54.5477 Y112.6294 I-0.1327 J-0.1356
G1 X54.5476 Y112.619
G1 Y105.8476
G3 X55.4142 Y105.5076 I0.5 J0.0
G1 X58.1507 Y108.4579
G1 X58.1726 Y108.4798
G1 X58.1788 Y108.4861
G2 X58.3265 Y108.5477 I0.1449 J-0.1398
G1 X58.3399
G2 X58.4783 Y108.4841 I0.0023 J-0.1774
G1 X58.4962 Y108.4638
G1 X61.2533 Y105.5066
G3 X62.1191 Y105.8476 I0.3657 J0.341
G1 Y112.619
G1 X62.1189 Y112.6294
G2 X62.1759 Y112.7689 I0.1897 J0.0039
G1 X62.1835 Y112.7765
G2 X62.323 Y112.8334 I0.1356 J-0.1327
G1 X62.3436
G2 X62.4831 Y112.7765 I0.0039 J-0.1897
G1 X62.4908 Y112.7689
G2 X62.5477 Y112.6294 I-0.1327 J-0.1356
G1 X62.5476 Y112.619
G1 Y104.0476
G1 X62.5477 Y104.0373
G2 X62.4908 Y103.8978 I-0.1897 J-0.0039
G1 X62.4831 Y103.8902
G2 X62.3436 Y103.8332 I-0.1356 J0.1327
G1 X62.3195 Y103.8331
G2 X62.188 Y103.8857 I-0.0049 J0.1783
G1 X62.1869 Y103.8869
G1 X62.15 Y103.9237
G1 X58.6987 Y107.6176
G3 X57.9686 Y107.6182 I-0.3653 J-0.3414
G1 X54.5258 Y103.9468
G1 X54.5133 Y103.933
G2 X54.3157 Y103.8332 I-0.2213 J0.1927
G1 F400.0 Z-3.0
G2 F800.0 X54.1835 Y103.8902 I0.0034 J0.1897
G1 X54.1759 Y103.8978
G2 X54.1189 Y104.0373 I0.1327 J0.1356
G1 X54.1191 Y104.0476
G1 Y112.619
G1 X54.1189 Y112.6294
G2 X54.1759 Y112.7689 I0.1897 J0.0039
G1 X54.1835 Y112.7765
G2 X54.323 Y112.8334 I0.1356 J-0.1327
G1 X54.3436
G2 X54.4831 Y112.7765 I0.0039 J-0.1897
G1 X54.4908 Y112.7689
G2 X54.5477 Y112.6294 I-0.1327 J-0.1356
G1 X54.5476 Y112.619
G1 Y105.8476
G3 X55.4142 Y105.5076 I0.5 J0.0
G1 X58.1507 Y108.4579
G1 X58.1726 Y108.4798
G1 X58.1788 Y108.4861
G2 X58.3265 Y108.5477 I0.1449 J-0.1398
G1 X58.3399
G2 X58.4783 Y108.4841 I0.0023 J-0.1774
G1 X58.4962 Y108.4638
G1 X61.2533 Y105.5066
G3 X62.1191 Y105.8476 I0.3657 J0.341
G1 Y112.619
G1 X62.1189 Y112.6294
G2 X62.1759 Y112.7689 I0.1897 J0.0039
G1 X62.1835 Y112.7765
G2 X62.323 Y112.8334 I0.1356 J-0.1327
G1 X62.3436
G2 X62.4831 Y112.7765 I0.0039 J-0.1897
G1 X62.4908 Y112.7689
G2 X62.5477 Y112.6294 I-0.1327 J-0.1356
G1 X62.5476 Y112.619
G1 Y104.0476
G1 X62.5477 Y104.0373
G2 X62.4908 Y103.8978 I-0.1897 J-0.0039
G1 X62.4831 Y103.8902
G2 X62.3436 Y103.8332 I-0.1356 J0.1327
G1 X62.3195 Y103.8331
G2 X62.188 Y103.8857 I-0.0049 J0.1783
G1 X62.1869 Y103.8869
G1 X62.15 Y103.9237
G1 X58.6987 Y107.6176
G3 X57.9686 Y107.6182 I-0.3653 J-0.3414
G1 X54.5258 Y103.9468
G1 X54.5133 Y103.933
G2 X54.3157 Y103.8332 I-0.2213 J0.1927
G0 Z5.0
G0 X45.6826 Y112.4706
G0 Z1.0
G1 F400.0 Z-1.5
G1 F800.0 X45.6812 Y112.4692
G1 X45.6736 Y112.4616
G2 X45.5341 Y112.4047 I-0.1356 J0.1327
G1 X45.5238 Y112.4048
G1 X45.4667
G1 X42.381
G3 X41.881 Y111.9048 I0.0 J-0.5
G1 Y104.1048
G1 Y104.0476
G1 X41.8811 Y104.0373
G2 X41.8241 Y103.8978 I-0.1897 J-0.0039
G1 X41.8165 Y103.8902
G2 X41.677 Y103.8332 I-0.1356 J0.1327
G1 X41.6564
G2 X41.5169 Y103.8902 I-0.0039 J0.1897
G1 X41.5093 Y103.8978
G2 X41.4523 Y104.0373 I0.1327 J0.1356
G1 X41.4524 Y104.0476
G1 Y111.9048
G3 X40.9524 Y112.4048 I-0.5 J0.0
G1 X37.8667
G1 X37.8095
G1 X37.7992 Y112.4047
G2 X37.6597 Y112.4616 I-0.0039 J0.1897
G1 X37.6521 Y112.4692
G2 X37.5951 Y112.6087 I0.1327 J0.1356
G1 Y112.6294
G2 X37.6521 Y112.7689 I0.1897 J0.0039
G1 X37.6597 Y112.7765
G2 X37.7992 Y112.8334 I0.1356 J-0.1327
G1 X37.8095 Y112.8333
G1 X45.5238
G1 X45.5341 Y112.8334
G2 X45.6736 Y112.7765 I0.0039 J-0.1897
G1 X45.6812 Y112.7689
G2 X45.7382 Y112.6294 I-0.1327 J-0.1356
G1 Y112.6087
G2 X45.6826 Y112.4706 I-0.1897 J-0.0039
G1 F400.0 Z-3.0
G1 F800.0 X45.6812 Y112.4692
G1 X45.6736 Y112.4616
G2 X45.5341 Y112.4047 I-0.1356 J0.1327
G1 X45.5238 Y112.4048
G1 X45.4667
G1 X42.381
G3 X41.881 Y111.9048 I0.0 J-0.5
G1 Y104.1048
G1 Y104.0476
G1 X41.8811 Y104.0373
G2 X41.8241 Y103.8978 I-0.1897 J-0.0039
G1 X41.8165 Y103.8902
G2 X41.677 Y103.8332 I-0.1356 J0.1327
G1 X41.6564
G2 X41.5169 Y103.8902 I-0.0039 J0.1897
G1 X41.5093 Y103.8978
G2 X41.4523 Y104.0373 I0.1327 J0.1356
G1 X41.4524 Y104.0476
G1 Y111.9048
G3 X40.9524 Y112.4048 I-0.5 J0.0
G1 X37.8667
G1 X37.8095
G1 X37.7992 Y112.4047
G2 X37.6597 Y112.4616 I-0.0039 J0.1897
G1 X37.6521 Y112.4692
G2 X37.5951 Y112.6087 I0.1327 J0.1356
G1 Y112.6294
G2 X37.6521 Y112.7689 I0.1897 J0.0039
G1 X37.6597 Y112.7765
G2 X37.7992 Y112.8334 I0.1356 J-0.1327
G1 X37.8095 Y112.8333
G1 X45.5238
G1 X45.5341 Y112.8334
G2 X45.6736 Y112.7765 I0.0039 J-0.1897
G1 X45.6812 Y112.7689
G2 X45.7382 Y112.6294 I-0.1327 J-0.1356
G1 Y112.6087
G2 X45.6826 Y112.4706 I-0.1897 J-0.0039
G0 Z5.0
G0 X43.6709 Y120.5662
G0 Z1.0
G1 F400.0 Z-1.5
G2 F800.0 X43.1013 Y120.5 I-0.5424 J2.1826
G1 X43.0952
G1 X40.0952
G1 X40.0849 Y120.4999
G2 X39.9454 Y120.5569 I-0.0039 J0.1897
G1 X39.9378 Y120.5645
G2 X39.8808 Y120.704 I0.1327 J0.1356
G1 Y120.7246
G2 X39.9378 Y120.8641 I0.1897 J0.0039
G1 X39.9454 Y120.8717
G2 X40.0849 Y120.9287 I0.1356 J-0.1327
G1 X40.0952 Y120.9286
G1 X43.0924
G3 X44.456 Y121.4964 I0.0194 J1.8744
G3 X45.0238 Y122.8599 I-1.3066 J1.3441
G1 Y127.1401
G3 X44.456 Y128.5036 I-1.8744 J0.0194
G3 X43.0924 Y129.0714 I-1.3441 J-1.3066
G1 X38.8095
G3 X38.3095 Y128.5714 I0.0 J-0.5
G1 Y122.7429
G1 X38.3096 Y122.7325
G2 X38.2527 Y122.5931 I-0.1897 J-0.0039
G1 X38.245 Y122.5854
G2 X38.1056 Y122.5285 I-0.1356 J0.1327
G1 X38.0849
G2 X37.9454 Y122.5854 I-0.0039 J0.1897
G1 X37.9378 Y122.5931
G2 X37.8808 Y122.7325 I0.1327 J0.1356
G1 X37.881 Y122.7429
G1 Y129.2857
G1 X37.8808 Y129.296
G2 X37.9378 Y129.4355 I0.1897 J0.0039
G1 X37.9454 Y129.4431
G2 X38.0849 Y129.5001 I0.1356 J-0.1327
G1 X38.0952 Y129.5
G1 X43.0952
G1 X43.1013
G2 X44.7492 Y128.8105 I0.0272 J-2.2488
G1 X44.7629 Y128.7968
G2 X45.4524 Y127.1489 I-1.5592 J-1.6207
G1 Y127.1429
G1 Y122.8571
G1 Y122.8511
G2 X44.7629 Y121.2032 I-2.2488 J-0.0272
G1 X44.7492 Y121.1895
G2 X43.6709 Y120.5662 I-1.6207 J1.5592
G1 F400.0 Z-3.0
G2 F800.0 X43.1013 Y120.5 I-0.5424 J2.1826
G1 X43.0952
G1 X40.0952
G1 X40.0849 Y120.4999
G2 X39.9454 Y120.5569 I-0.0039 J0.1897
G1 X39.9378 Y120.5645
G2 X39.8808 Y120.704 I0.1327 J0.1356
G1 Y120.7246
G2 X39.9378 Y120.8641 I0.1897 J0.0039
G1 X39.9454 Y120.8717
G2 X40.0849 Y120.9287 I0.1356 J-0.1327
G1 X40.0952 Y120.9286
G1 X43.0924
G3 X44.456 Y121.4964 I0.0194 J1.8744
G3 X45.0238 Y122.8599 I-1.3066 J1.3441
G1 Y127.1401
G3 X44.456 Y128.5036 I-1.8744 J0.0194
G3 X43.0924 Y129.0714 I-1.3441 J-1.3066
G1 X38.8095
G3 X38.3095 Y128.5714 I0.0 J-0.5
G1 Y122.7429
G1 X38.3096 Y122.7325
G2 X38.2527 Y122.5931 I-0.1897 J-0.0039
G1 X38.245 Y122.5854
G2 X38.1056 Y122.5285 I-0.1356 J0.1327
G1 X38.0849
G2 X37.9454 Y122.5854 I-0.0039 J0.1897
G1 X37.9378 Y122.5931
G2 X37.8808 Y122.7325 I0.1327 J0.1356
G1 X37.881 Y122.7429
G1 Y129.2857
G1 X37.8808 Y129.296
G2 X37.9378 Y129.4355 I0.1897 J0.0039
G1 X37.9454 Y129.4431
G2 X38.0849 Y129.5001 I0.1356 J-0.1327
G1 X38.0952 Y129.5
G1 X43.0952
G1 X43.1013
G2 X44.7492 Y128.8105 I0.0272 J-2.2488
G1 X44.7629 Y128.7968
G2 X45.4524 Y127.1489 I-1.5592 J-1.6207
G1 Y127.1429
G1 Y122.8571
G1 Y122.8511
G2 X44.7629 Y121.2032 I-2.2488 J-0.0272
G1 X44.7492 Y121.1895
G2 X43.6709 Y120.5662 I-1.6207 J1.5592
G0 Z5.0
G0 X54.609 Y120.6978
G0 Z1.0
G1 F400.0 Z-1.5
G1 F800.0 Y120.704
G1 X54.6091 Y120.7143
G1 Y127.8571
G1 X54.609 Y127.8646
G2 X55.0853 Y129.0121 I1.5638 J0.0234
G1 X55.097 Y129.0238
G2 X56.2445 Y129.5001 I1.124 J-1.0875
G1 X56.252 Y129.5
G1 X59.7346
G2 X61.3555 Y128.7966 I-0.0297 J-2.2879
G1 X61.3664 Y128.7857
G2 X62.0377 Y127.151 I-1.5656 J-1.5982
G1 Y127.1386
G2 X61.5049 Y125.6575 I-2.2717 J-0.0193
G1 X61.496 Y125.6465
G2 X60.1675 Y124.833 I-1.7765 J1.4096
G3 X59.8502 Y124.0655 I0.0988 J-0.4901
G1 X62.0216 Y120.8084
G1 X62.0296 Y120.7968
G2 X62.0346 Y120.6285 I-0.1242 J-0.0879
G1 X62.0166 Y120.5971
G2 X61.8462 Y120.4995 I-0.162 J0.0853
G1 X61.8082 Y120.4998
G2 X61.6526 Y120.5789 I-0.0055 J0.1816
G1 X58.7712 Y124.9011
G1 X58.7514 Y124.9774
G1 X58.7518 Y125.0103
G2 X58.8088 Y125.1498 I0.1897 J0.0039
G1 X58.8164 Y125.1574
G2 X58.9559 Y125.2144 I0.1356 J-0.1327
G1 X58.9662 Y125.2143
G1 X59.7377
G1 X59.7564 Y125.2146
G3 X61.0686 Y125.8096 I-0.0712 J1.9017
G3 X61.6091 Y127.1429 I-1.3298 J1.3153
G3 X61.0686 Y128.4761 I-1.8703 J0.018
G3 X59.7564 Y129.0711 I-1.3835 J-1.3067
G1 X59.7377 Y129.0714
G1 X56.2564
G3 X55.3912 Y128.7179 I-0.0187 J-1.1896
G3 X55.0377 Y127.8527 I0.836 J-0.8465
G1 Y120.7714
G1 Y120.7143
G1 X55.0378 Y120.704
G2 X54.9808 Y120.5645 I-0.1897 J-0.0039
G1 X54.9732 Y120.5569
G2 X54.8337 Y120.4999 I-0.1356 J0.1327
G1 X54.8131
G2 X54.6736 Y120.5569 I-0.0039 J0.1897
G1 X54.666 Y120.5645
G2 X54.609 Y120.6978 I0.1327 J0.1356
G1 F400.0 Z-3.0
G1 F800.0 Y120.704
G1 X54.6091 Y120.7143
G1 Y127.8571
G1 X54.609 Y127.8646
G2 X55.0853 Y129.0121 I1.5638 J0.0234
G1 X55.097 Y129.0238
G2 X56.2445 Y129.5001 I1.124 J-1.0875
G1 X56.252 Y129.5
G1 X59.7346
G2 X61.3555 Y128.7966 I-0.0297 J-2.2879
G1 X61.3664 Y128.7857
G2 X62.0377 Y127.151 I-1.5656 J-1.5982
G1 Y127.1386
G2 X61.5049 Y125.6575 I-2.2717 J-0.0193
G1 X61.496 Y125.6465
G2 X60.1675 Y124.833 I-1.7765 J1.4096
G3 X59.8502 Y124.0655 I0.0988 J-0.4901
G1 X62.0216 Y120.8084
G1 X62.0296 Y120.7968
G2 X62.0346 Y120.6285 I-0.1242 J-0.0879
G1 X62.0166 Y120.5971
G2 X61.8462 Y120.4995 I-0.162 J0.0853
G1 X61.8082 Y120.4998
G2 X61.6526 Y120.5789 I-0.0055 J0.1816
G1 X58.7712 Y124.9011
G1 X58.7514 Y124.9774
G1 X58.7518 Y125.0103
G2 X58.8088 Y125.1498 I0.1897 J0.0039
G1 X58.8164 Y125.1574
G2 X58.9559 Y125.2144 I0.1356 J-0.1327
G1 X58.9662 Y125.2143
G1 X59.7377
G1 X59.7564 Y125.2146
G3 X61.0686 Y125.8096 I-0.0712 J1.9017
G3 X61.6091 Y127.1429 I-1.3298 J1.3153
G3 X61.0686 Y128.4761 I-1.8703 J0.018
G3 X59.7564 Y129.0711 I-1.3835 J-1.3067
G1 X59.7377 Y129.0714
G1 X56.2564
G3 X55.3912 Y128.7179 I-0.0187 J-1.1896
G3 X55.0377 Y127.8527 I0.836 J-0.8465
G1 Y120.7714
G1 Y120.7143
G1 X55.0378 Y120.704
G2 X54.9808 Y120.5645 I-0.1897 J-0.0039
G1 X54.9732 Y120.5569
G2 X54.8337 Y120.4999 I-0.1356 J0.1327
G1 X54.8131
G2 X54.6736 Y120.5569 I-0.0039 J0.1897
G1 X54.666 Y120.5645
G2 X54.609 Y120.6978 I0.1327 J0.1356
G0 Z5.0
G0 X56.2868 Y137.1745
G0 Z1.0
G1 F400.0 Z-1.5
G2 F800.0 X55.3212 Y137.6429 I0.1584 J1.556
G1 X55.3096 Y137.6546
G2 X54.8333 Y138.802 I1.0875 J1.124
G1 Y138.8095
G1 Y144.5238
G1 Y144.5313
G2 X55.3096 Y145.6788 I1.5638 J0.0234
G1 X55.3212 Y145.6904
G2 X56.4687 Y146.1667 I1.124 J-1.0875
G1 X56.4762
G1 X61.6191
G1 X61.6294 Y146.1668
G2 X61.7689 Y146.1098 I0.0039 J-0.1897
G1 X61.7765 Y146.1022
G2 X61.8334 Y145.9627 I-0.1327 J-0.1356
G1 Y145.9421
G2 X61.7765 Y145.8026 I-0.1897 J-0.0039
G1 X61.7689 Y145.795
G2 X61.6294 Y145.738 I-0.1356 J0.1327
G1 X61.6191 Y145.7381
G1 X56.4807
G3 X55.6155 Y145.3845 I-0.0187 J-1.1896
G3 X55.2619 Y144.5194 I0.836 J-0.8465
G1 Y142.381
G3 X55.7619 Y141.881 I0.5 J0.0
G1 X60.1905
G1 X60.2008 Y141.8811
G2 X60.3403 Y141.8241 I0.0039 J-0.1897
G1 X60.3479 Y141.8165
G2 X60.4049 Y141.677 I-0.1327 J-0.1356
G1 Y141.6564
G2 X60.3479 Y141.5169 I-0.1897 J-0.0039
G1 X60.3403 Y141.5093
G2 X60.2008 Y141.4523 I-0.1356 J0.1327
G1 X60.1905 Y141.4524
G1 X55.7619
G3 X55.2619 Y140.9524 I0.0 J-0.5
G1 Y138.814
G3 X55.6155 Y137.9488 I1.1896 J-0.0187
G3 X56.4807 Y137.5952 I0.8465 J0.836
G1 X61.6191
G1 X61.6294 Y137.5953
G2 X61.7689 Y137.5384 I0.0039 J-0.1897
G1 X61.7765 Y137.5308
G2 X61.8334 Y137.3913 I-0.1327 J-0.1356
G1 Y137.3706
G2 X61.7765 Y137.2311 I-0.1897 J-0.0039
G1 X61.7689 Y137.2235
G2 X61.6294 Y137.1666 I-0.1356 J0.1327
G1 X61.6191 Y137.1667
G1 X56.4762
G1 X56.4687 Y137.1666
G2 X56.2868 Y137.1745 I-0.0234 J1.5638
G1 F400.0 Z-3.0
G2 F800.0 X55.3212 Y137.6429 I0.1584 J1.556
G1 X55.3096 Y137.6546
G2 X54.8333 Y138.802 I1.0875 J1.124
G1 Y138.8095
G1 Y144.5238
G1 Y144.5313
G2 X55.3096 Y145.6788 I1.5638 J0.0234
G1 X55.3212 Y145.6904
G2 X56.4687 Y146.1667 I1.124 J-1.0875
G1 X56.4762
G1 X61.6191
G1 X61.6294 Y146.1668
G2 X61.7689 Y146.1098 I0.0039 J-0.1897
G1 X61.7765 Y146.1022
G2 X61.8334 Y145.9627 I-0.1327 J-0.1356
G1 Y145.9421
G2 X61.7765 Y145.8026 I-0.1897 J-0.0039
G1 X61.7689 Y145.795
G2 X61.6294 Y145.738 I-0.1356 J0.1327
G1 X61.6191 Y145.7381
G1 X56.4807
G3 X55.6155 Y145.3845 I-0.0187 J-1.1896
G3 X55.2619 Y144.5194 I0.836 J-0.8465
G1 Y142.381
G3 X55.7619 Y141.881 I0.5 J0.0
G1 X60.1905
G1 X60.2008 Y141.8811
G2 X60.3403 Y141.8241 I0.0039 J-0.1897
G1 X60.3479 Y141.8165
G2 X60.4049 Y141.677 I-0.1327 J-0.1356
G1 Y141.6564
G2 X60.3479 Y141.5169 I-0.1897 J-0.0039
G1 X60.3403 Y141.5093
G2 X60.2008 Y141.4523 I-0.1356 J0.1327
G1 X60.1905 Y141.4524
G1 X55.7619
G3 X55.2619 Y140.9524 I0.0 J-0.5
G1 Y138.814
G3 X55.6155 Y137.9488 I1.1896 J-0.0187
G3 X56.4807 Y137.5952 I0.8465 J0.836
G1 X61.6191
G1 X61.6294 Y137.5953
G2 X61.7689 Y137.5384 I0.0039 J-0.1897
G1 X61.7765 Y137.5308
G2 X61.8334 Y137.3913 I-0.1327 J-0.1356
G1 Y137.3706
G2 X61.7765 Y137.2311 I-0.1897 J-0.0039
G1 X61.7689 Y137.2235
G2 X61.6294 Y137.1666 I-0.1356 J0.1327
G1 X61.6191 Y137.1667
G1 X56.4762
G1 X56.4687 Y137.1666
G2 X56.2868 Y137.1745 I-0.0234 J1.5638
G0 Z5.0
G0 X45.1668 Y137.3635
G0 Z1.0
G1 F400.0 Z-1.5
G2 F800.0 X45.1098 Y137.2311 I-0.1897 J0.0032
G1 X45.1022 Y137.2235
G2 X44.9627 Y137.1666 I-0.1356 J0.1327
G1 X44.9524 Y137.1667
G1 X44.8952
G1 X38.381
G1 X38.3706 Y137.1666
G2 X38.2312 Y137.2235 I-0.0039 J0.1897
G1 X38.2235 Y137.2311
G2 X38.1666 Y137.3706 I0.1327 J0.1356
G1 Y137.3915
G2 X38.2053 Y137.5005 I0.1633 J0.0034
G1 X38.2209 Y137.52
G1 X43.8924 Y144.9343
G3 X43.4952 Y145.7381 I-0.3971 J0.3038
G1 X38.381
G1 X38.3706 Y145.738
G2 X38.2312 Y145.795 I-0.0039 J0.1897
G1 X38.2235 Y145.8026
G2 X38.1666 Y145.9421 I0.1327 J0.1356
G1 Y145.9627
G2 X38.2235 Y146.1022 I0.1897 J0.0039
G1 X38.2312 Y146.1098
G2 X38.3706 Y146.1668 I0.1356 J-0.1327
G1 X38.381 Y146.1667
G1 X38.4381
G1 X44.9524
G1 X44.9627 Y146.1668
G2 X45.1022 Y146.1098 I0.0039 J-0.1897
G1 X45.1098 Y146.1022
G2 X45.1668 Y145.9627 I-0.1327 J-0.1356
G1 X45.1671 Y145.9319
G1 X45.1441 Y145.8417
G1 X39.4273 Y138.3998
G3 X39.8238 Y137.5952 I0.3965 J-0.3046
G1 X44.8952
G1 X44.9524
G1 X44.9627 Y137.5953
G2 X45.1022 Y137.5384 I0.0039 J-0.1897
G1 X45.1098 Y137.5308
G2 X45.1668 Y137.3913 I-0.1327 J-0.1356
G1 Y137.3706
G1 Y137.3635
G1 F400.0 Z-3.0
G2 F800.0 X45.1098 Y137.2311 I-0.1897 J0.0032
G1 X45.1022 Y137.2235
G2 X44.9627 Y137.1666 I-0.1356 J0.1327
G1 X44.9524 Y137.1667
G1 X44.8952
G1 X38.381
G1 X38.3706 Y137.1666
G2 X38.2312 Y137.2235 I-0.0039 J0.1897
G1 X38.2235 Y137.2311
G2 X38.1666 Y137.3706 I0.1327 J0.1356
G1 Y137.3915
G2 X38.2053 Y137.5005 I0.1633 J0.0034
G1 X38.2209 Y137.52
G1 X43.8924 Y144.9343
G3 X43.4952 Y145.7381 I-0.3971 J0.3038
G1 X38.381
G1 X38.3706 Y145.738
G2 X38.2312 Y145.795 I-0.0039 J0.1897
G1 X38.2235 Y145.8026
G2 X38.1666 Y145.9421 I0.1327 J0.1356
G1 Y145.9627
G2 X38.2235 Y146.1022 I0.1897 J0.0039
G1 X38.2312 Y146.1098
G2 X38.3706 Y146.1668 I0.1356 J-0.1327
G1 X38.381 Y146.1667
G1 X38.4381
G1 X44.9524
G1 X44.9627 Y146.1668
G2 X45.1022 Y146.1098 I0.0039 J-0.1897
G1 X45.1098 Y146.1022
G2 X45.1668 Y145.9627 I-0.1327 J-0.1356
G1 X45.1671 Y145.9319
G1 X45.1441 Y145.8417
G1 X39.4273 Y138.3998
G3 X39.8238 Y137.5952 I0.3965 J-0.3046
G1 X44.8952
G1 X44.9524
G1 X44.9627 Y137.5953
G2 X45.1022 Y137.5384 I0.0039 J-0.1897
G1 X45.1098 Y137.5308
G2 X45.1668 Y137.3913 I-0.1327 J-0.1356
G1 Y137.3706
G1 Y137.3635
G0 Z5.0
G0 X43.4576 Y153.8342
G0 Z1.0
G1 F400.0 Z-1.5
G1 F800.0 X43.4341 Y153.8332
G1 X43.4238 Y153.8333
G1 X40.0238
G1 X40.0178
G2 X38.3698 Y154.5228 I-0.0272 J2.2488
G1 X38.3562 Y154.5365
G2 X37.6666 Y156.1844 I1.5592 J1.6207
G1 X37.6667 Y156.1905
G1 Y160.4762
G1 X37.6666 Y160.4822
G2 X38.3562 Y162.1302 I2.2488 J0.0272
G1 X38.3698 Y162.1438
G2 X40.0178 Y162.8334 I1.6207 J-1.5592
G1 X40.0238 Y162.8333
G1 X43.3095
G1 X43.3156 Y162.8334
G2 X44.9635 Y162.1438 I0.0272 J-2.2488
G1 X44.9772 Y162.1302
G2 X45.6667 Y160.4822 I-1.5592 J-1.6207
G1 Y160.4762
G1 Y156.0762
G1 X45.6668 Y156.0659
