( Made using CamBam - http://www.cambam.co.uk )
( letterplaat-1mm_mirror 11/19/2017 8:36:59 PM )
( T2 : 1.5 )
(G21 G90 G64 G40)
G0 Z10.0
( Pocket1 )
G64 G17
M8
M3 S10000
G0 X125.1223 Y124.9761
G0 Z4.7
G1 F400.0 Z0.7
G2 F800.0 X124.9372 Y124.8692 I-0.1235 J0.0
G2 Y125.083 I0.0617 J0.1069
G2 X125.1223 Y124.9761 I0.0617 J-0.1069
G1 F400.0 X125.4223
G2 F800.0 X124.7872 Y124.6094 I-0.4235 J0.0
G2 Y125.3428 I0.2117 J0.3667
G2 X125.4223 Y124.9761 I0.2117 J-0.3667
G1 F400.0 X126.0223
G2 F800.0 X124.4872 Y124.0898 I-1.0235 J0.0
G2 Y125.8625 I0.5117 J0.8863
G2 X126.0223 Y124.9761 I0.5117 J-0.8863
G1 F400.0 X126.6223
G2 F800.0 X124.1872 Y123.5702 I-1.6235 J0.0
G2 Y126.3821 I0.8117 J1.406
G2 X126.6223 Y124.9761 I0.8117 J-1.406
G1 F400.0 X127.2223
G2 F800.0 X123.8872 Y123.0505 I-2.2235 J0.0
G2 Y126.9017 I1.1117 J1.9256
G2 X127.2223 Y124.9761 I1.1117 J-1.9256
G1 F400.0 X127.8223
G2 F800.0 X123.5872 Y122.5309 I-2.8235 J0.0
G2 Y127.4213 I1.4117 J2.4452
G2 X127.8223 Y124.9761 I1.4117 J-2.4452
G1 F400.0 X128.4223
G2 F800.0 X123.2872 Y122.0113 I-3.4235 J0.0
G2 Y127.9409 I1.7117 J2.9648
G2 X128.4223 Y124.9761 I1.7117 J-2.9648
G1 F400.0 X129.0223
G2 F800.0 X122.9872 Y121.4917 I-4.0235 J0.0
G2 Y128.4605 I2.0117 J3.4844
G2 X129.0223 Y124.9761 I2.0117 J-3.4844
G1 F400.0 X129.6223
G2 F800.0 X122.6872 Y120.9721 I-4.6235 J0.0
G2 Y128.9801 I2.3117 J4.004
G2 X129.6223 Y124.9761 I2.3117 J-4.004
G1 F400.0 X130.2223
G2 F800.0 X122.3872 Y120.4525 I-5.2235 J0.0
G2 Y129.4998 I2.6117 J4.5236
G2 X130.2223 Y124.9761 I2.6117 J-4.5236
G1 F400.0 X130.8223
G2 F800.0 X122.0872 Y119.9329 I-5.8235 J0.0
G2 Y130.0194 I2.9117 J5.0433
G2 X130.8223 Y124.9761 I2.9117 J-5.0433
G1 F400.0 X131.4223
G2 F800.0 X121.7872 Y119.4132 I-6.4235 J0.0
G2 Y130.539 I3.2117 J5.5629
G2 X131.4223 Y124.9761 I3.2117 J-5.5629
G0 Z10.0
G0 X141.542
G0 Z4.7
G1 F400.0 Z0.7
G2 F800.0 X141.6038 Y125.083 I0.1235 J0.0
G2 X141.7889 Y124.9761 I0.0617 J-0.1069
G2 X141.6038 Y124.8692 I-0.1235 J0.0
G2 X141.542 Y124.9761 I0.0617 J0.1069
G1 F400.0 X141.242
G2 F800.0 X141.4538 Y125.3428 I0.4235 J0.0
G2 X142.0889 Y124.9761 I0.2117 J-0.3667
G2 X141.4538 Y124.6094 I-0.4235 J0.0
G2 X141.242 Y124.9761 I0.2117 J0.3667
G1 F400.0 X140.642
G2 F800.0 X141.1538 Y125.8625 I1.0235 J0.0
G2 X142.6889 Y124.9761 I0.5117 J-0.8863
G2 X141.1538 Y124.0898 I-1.0235 J0.0
G2 X140.642 Y124.9761 I0.5117 J0.8863
G1 F400.0 X140.042
G2 F800.0 X140.8538 Y126.3821 I1.6235 J0.0
G2 X143.2889 Y124.9761 I0.8117 J-1.406
G2 X140.8538 Y123.5702 I-1.6235 J0.0
G2 X140.042 Y124.9761 I0.8117 J1.406
G1 F400.0 X139.442
G2 F800.0 X140.5538 Y126.9017 I2.2235 J0.0
G2 X143.8889 Y124.9761 I1.1117 J-1.9256
G2 X140.5538 Y123.0505 I-2.2235 J0.0
G2 X139.442 Y124.9761 I1.1117 J1.9256
G1 F400.0 X138.842
G2 F800.0 X140.2538 Y127.4213 I2.8235 J0.0
G2 X144.4889 Y124.9761 I1.4117 J-2.4452
G2 X140.2538 Y122.5309 I-2.8235 J0.0
G2 X138.842 Y124.9761 I1.4117 J2.4452
G1 F400.0 X138.242
G2 F800.0 X139.9538 Y127.9409 I3.4235 J0.0
G2 X145.0889 Y124.9761 I1.7117 J-2.9648
G2 X139.9538 Y122.0113 I-3.4235 J0.0
G2 X138.242 Y124.9761 I1.7117 J2.9648
G1 F400.0 X137.642
G2 F800.0 X139.6538 Y128.4605 I4.0235 J0.0
G2 X145.6889 Y124.9761 I2.0117 J-3.4844
G2 X139.6538 Y121.4917 I-4.0235 J0.0
G2 X137.642 Y124.9761 I2.0117 J3.4844
G1 F400.0 X137.042
G2 F800.0 X139.3538 Y128.9801 I4.6235 J0.0
G2 X146.2889 Y124.9761 I2.3117 J-4.004
G2 X139.3538 Y120.9721 I-4.6235 J0.0
G2 X137.042 Y124.9761 I2.3117 J4.004
G1 F400.0 X136.442
G2 F800.0 X139.0538 Y129.4998 I5.2235 J0.0
G2 X146.8889 Y124.9761 I2.6117 J-4.5236
G2 X139.0538 Y120.4525 I-5.2235 J0.0
G2 X136.442 Y124.9761 I2.6117 J4.5236
G1 F400.0 X135.842
G2 F800.0 X138.7538 Y130.0194 I5.8235 J0.0
G2 X147.4889 Y124.9761 I2.9117 J-5.0433
G2 X138.7538 Y119.9329 I-5.8235 J0.0
G2 X135.842 Y124.9761 I2.9117 J5.0433
G1 F400.0 X135.242
G2 F800.0 X138.4538 Y130.539 I6.4235 J0.0
G2 X148.0889 Y124.9761 I3.2117 J-5.5629
G2 X138.4538 Y119.4132 I-6.4235 J0.0
G2 X135.242 Y124.9761 I3.2117 J5.5629
G0 Z10.0
G0 X141.6211 Y141.5275
G0 Z4.7
G1 F400.0 Z0.7
G1 F800.0 X141.6038 Y141.5358
G2 Y141.7496 I0.0617 J0.1069
G2 X141.7889 Y141.6427 I0.0617 J-0.1069
G2 X141.6211 Y141.5275 I-0.1235 J0.0
G1 F400.0 X141.5132 Y141.2476
G1 F800.0 X141.4538 Y141.276
G2 Y142.0094 I0.2117 J0.3667
G2 X142.0889 Y141.6427 I0.2117 J-0.3667
G2 X141.5132 Y141.2476 I-0.4235 J0.0
G1 F400.0 X141.2974 Y140.6877
G2 F800.0 X141.1538 Y140.7564 I0.3681 J0.955
G2 Y142.5291 I0.5117 J0.8863
G2 X142.6889 Y141.6427 I0.5117 J-0.8863
G2 X141.2974 Y140.6877 I-1.0235 J0.0
G1 F400.0 X141.0816 Y140.1279
G2 F800.0 X140.8538 Y140.2368 I0.5838 J1.5148
G2 Y143.0487 I0.8117 J1.406
G2 X143.2889 Y141.6427 I0.8117 J-1.406
G2 X141.0816 Y140.1279 I-1.6235 J0.0
G1 F400.0 X140.8659 Y139.568
G2 F800.0 X140.5538 Y139.7171 I0.7996 J2.0747
G2 Y143.5683 I1.1117 J1.9256
G2 X143.8889 Y141.6427 I1.1117 J-1.9256
G2 X140.8659 Y139.568 I-2.2235 J0.0
G1 F400.0 X140.6501 Y139.0082
G2 F800.0 X140.2538 Y139.1975 I1.0154 J2.6346
G2 Y144.0879 I1.4117 J2.4452
G2 X144.4889 Y141.6427 I1.4117 J-2.4452
G2 X140.6501 Y139.0082 I-2.8235 J0.0
G1 F400.0 X140.4343 Y138.4483
G2 F800.0 X139.9538 Y138.6779 I1.2312 J3.1944
G2 Y144.6075 I1.7117 J2.9648
G2 X145.0889 Y141.6427 I1.7117 J-2.9648
G2 X140.4343 Y138.4483 I-3.4235 J0.0
G1 F400.0 X140.2186 Y137.8884
G2 F800.0 X139.6538 Y138.1583 I1.4469 J3.7543
G2 Y145.1271 I2.0117 J3.4844
G2 X145.6889 Y141.6427 I2.0117 J-3.4844
G2 X140.2186 Y137.8884 I-4.0235 J0.0
G1 F400.0 X140.0028 Y137.3286
G2 F800.0 X139.3538 Y137.6387 I1.6627 J4.3141
G2 Y145.6467 I2.3117 J4.004
G2 X146.2889 Y141.6427 I2.3117 J-4.004
G2 X140.0028 Y137.3286 I-4.6235 J0.0
G1 F400.0 X139.787 Y136.7687
G2 F800.0 X139.0538 Y137.1191 I1.8785 J4.874
G2 Y146.1664 I2.6117 J4.5236
G2 X146.8889 Y141.6427 I2.6117 J-4.5236
G2 X139.787 Y136.7687 I-5.2235 J0.0
G1 F400.0 X139.5712 Y136.2089
G2 F800.0 X138.7538 Y136.5995 I2.0943 J5.4339
G2 Y146.686 I2.9117 J5.0433
G2 X147.4889 Y141.6427 I2.9117 J-5.0433
G2 X139.5712 Y136.2089 I-5.8235 J0.0
G1 F400.0 X139.3555 Y135.649
G2 F800.0 X138.4538 Y136.0798 I2.31 J5.9937
G2 Y147.2056 I3.2117 J5.5629
G2 X148.0889 Y141.6427 I3.2117 J-5.5629
G2 X139.3555 Y135.649 I-6.4235 J0.0
G0 Z10.0
G0 X125.1128 Y141.5952
G0 Z4.7
G1 F400.0 Z0.7
G2 F800.0 X124.9372 Y141.5358 I-0.1139 J0.0476
G2 Y141.7496 I0.0617 J0.1069
G2 X125.1223 Y141.6427 I0.0617 J-0.1069
G1 X125.1128 Y141.5952
G1 F400.0 X125.3897 Y141.4796
G2 F800.0 X124.7872 Y141.276 I-0.3908 J0.1631
G2 Y142.0094 I0.2117 J0.3667
G2 X125.4223 Y141.6427 I0.2117 J-0.3667
G2 X125.3897 Y141.4796 I-0.4235 J0.0
G1 F400.0 X125.9433 Y141.2484
G2 F800.0 X124.4872 Y140.7564 I-0.9445 J0.3943
G2 Y142.5291 I0.5117 J0.8863
G2 X126.0223 Y141.6427 I0.5117 J-0.8863
G2 X125.9433 Y141.2484 I-1.0235 J0.0
G1 F400.0 X126.497 Y141.0173
G2 F800.0 X124.1872 Y140.2368 I-1.4981 J0.6255
G2 Y143.0487 I0.8117 J1.406
G2 X126.6223 Y141.6427 I0.8117 J-1.406
G2 X126.497 Y141.0173 I-1.6235 J0.0
G1 F400.0 X127.0507 Y140.7861
G2 F800.0 X123.8872 Y139.7171 I-2.0518 J0.8566
G2 Y143.5683 I1.1117 J1.9256
G2 X127.2223 Y141.6427 I1.1117 J-1.9256
G2 X127.0507 Y140.7861 I-2.2235 J0.0
G1 F400.0 X127.6044 Y140.5549
G2 F800.0 X123.5872 Y139.1975 I-2.6055 J1.0878
G2 Y144.0879 I1.4117 J2.4452
G2 X127.8223 Y141.6427 I1.4117 J-2.4452
G2 X127.6044 Y140.5549 I-2.8235 J0.0
G1 F400.0 X128.1581 Y140.3238
G2 F800.0 X123.2872 Y138.6779 I-3.1592 J1.3189
G2 Y144.6075 I1.7117 J2.9648
G2 X128.4223 Y141.6427 I1.7117 J-2.9648
G2 X128.1581 Y140.3238 I-3.4235 J0.0
G1 F400.0 X128.7118 Y140.0926
G2 F800.0 X122.9872 Y138.1583 I-3.7129 J1.5501
G2 Y145.1271 I2.0117 J3.4844
G2 X129.0223 Y141.6427 I2.0117 J-3.4844
G2 X128.7118 Y140.0926 I-4.0235 J0.0
G1 F400.0 X129.2654 Y139.8615
G2 F800.0 X122.6872 Y137.6387 I-4.2666 J1.7812
G2 Y145.6467 I2.3117 J4.004
G2 X129.6223 Y141.6427 I2.3117 J-4.004
G2 X129.2654 Y139.8615 I-4.6235 J0.0
G1 F400.0 X129.8191 Y139.6303
G2 F800.0 X122.3872 Y137.1191 I-4.8202 J2.0124
G2 Y146.1664 I2.6117 J4.5236
G2 X130.2223 Y141.6427 I2.6117 J-4.5236
G2 X129.8191 Y139.6303 I-5.2235 J0.0
G1 F400.0 X130.3728 Y139.3992
G2 F800.0 X122.0872 Y136.5995 I-5.3739 J2.2436
G2 Y146.686 I2.9117 J5.0433
G2 X130.8223 Y141.6427 I2.9117 J-5.0433
G2 X130.3728 Y139.3992 I-5.8235 J0.0
G1 F400.0 X130.9265 Y139.168
G2 F800.0 X121.7872 Y136.0798 I-5.9276 J2.4747
G2 Y147.2056 I3.2117 J5.5629
G2 X131.4223 Y141.6427 I3.2117 J-5.5629
G2 X130.9265 Y139.168 I-6.4235 J0.0
G0 Z10.0
G0 X125.0354 Y158.1914
G0 Z4.7
G1 F400.0 Z0.7
G1 F800.0 X124.9372 Y158.2024
G2 Y158.4162 I0.0617 J0.1069
G2 X125.1223 Y158.3093 I0.0617 J-0.1069
G2 X125.0354 Y158.1914 I-0.1235 J0.0
G1 F400.0 X125.1241 Y157.9048
G2 F800.0 X124.7872 Y157.9426 I-0.1253 J0.4045
G2 Y158.676 I0.2117 J0.3667
G2 X125.4223 Y158.3093 I0.2117 J-0.3667
G2 X125.1241 Y157.9048 I-0.4235 J0.0
G1 F400.0 X125.3016 Y157.3317
G2 F800.0 X124.4872 Y157.423 I-0.3028 J0.9777
G2 Y159.1957 I0.5117 J0.8863
G2 X126.0223 Y158.3093 I0.5117 J-0.8863
G2 X125.3016 Y157.3317 I-1.0235 J0.0
G1 F400.0 X125.4791 Y156.7585
G2 F800.0 X124.1872 Y156.9034 I-0.4802 J1.5508
G2 Y159.7153 I0.8117 J1.406
G2 X126.6223 Y158.3093 I0.8117 J-1.406
G2 X125.4791 Y156.7585 I-1.6235 J0.0
G1 F400.0 X125.6566 Y156.1854
G2 F800.0 X123.8872 Y156.3837 I-0.6577 J2.1239
G2 Y160.2349 I1.1117 J1.9256
G2 X127.2223 Y158.3093 I1.1117 J-1.9256
G2 X125.6566 Y156.1854 I-2.2235 J0.0
G1 F400.0 X125.8341 Y155.6122
G2 F800.0 X123.5872 Y155.8641 I-0.8352 J2.6971
G2 Y160.7545 I1.4117 J2.4452
G2 X127.8223 Y158.3093 I1.4117 J-2.4452
G2 X125.8341 Y155.6122 I-2.8235 J0.0
G1 F400.0 X126.0116 Y155.0391
G2 F800.0 X123.2872 Y155.3445 I-1.0127 J3.2702
G2 Y161.2741 I1.7117 J2.9648
G2 X128.4223 Y158.3093 I1.7117 J-2.9648
G2 X126.0116 Y155.0391 I-3.4235 J0.0
G1 F400.0 X126.1891 Y154.4659
G2 F800.0 X122.9872 Y154.8249 I-1.1902 J3.8434
G2 Y161.7937 I2.0117 J3.4844
G2 X129.0223 Y158.3093 I2.0117 J-3.4844
G2 X126.1891 Y154.4659 I-4.0235 J0.0
G1 F400.0 X126.3666 Y153.8928
G2 F800.0 X122.6872 Y154.3053 I-1.3677 J4.4165
G2 Y162.3133 I2.3117 J4.004
G2 X129.6223 Y158.3093 I2.3117 J-4.004
G2 X126.3666 Y153.8928 I-4.6235 J0.0
G1 F400.0 X126.5441 Y153.3196
G2 F800.0 X122.3872 Y153.7857 I-1.5452 J4.9897
G2 Y162.833 I2.6117 J4.5236
G2 X130.2223 Y158.3093 I2.6117 J-4.5236
G2 X126.5441 Y153.3196 I-5.2235 J0.0
G1 F400.0 X126.7216 Y152.7465
G2 F800.0 X122.0872 Y153.2661 I-1.7227 J5.5628
G2 Y163.3526 I2.9117 J5.0433
G2 X130.8223 Y158.3093 I2.9117 J-5.0433
G2 X126.7216 Y152.7465 I-5.8235 J0.0
G1 F400.0 X126.899 Y152.1733
G2 F800.0 X121.7872 Y152.7464 I-1.9002 J6.136
G2 Y163.8722 I3.2117 J5.5629
G2 X131.4223 Y158.3093 I3.2117 J-5.5629
G2 X126.899 Y152.1733 I-6.4235 J0.0
G0 Z10.0
G0 X141.5515 Y158.2619
G0 Z4.7
G1 F400.0 Z0.7
G2 F800.0 X141.6038 Y158.4162 I0.114 J0.0474
G2 X141.7889 Y158.3093 I0.0617 J-0.1069
G2 X141.6038 Y158.2024 I-0.1235 J0.0
G1 X141.5515 Y158.2619
G1 F400.0 X141.2744 Y158.1468
G2 F800.0 X141.4538 Y158.676 I0.391 J0.1625
G2 X142.0889 Y158.3093 I0.2117 J-0.3667
G2 X141.4538 Y157.9426 I-0.4235 J0.0
G2 X141.2744 Y158.1468 I0.2117 J0.3667
G1 F400.0 X140.7204 Y157.9166
G2 F800.0 X141.1538 Y159.1957 I0.9451 J0.3927
G2 X142.6889 Y158.3093 I0.5117 J-0.8863
G2 X141.1538 Y157.423 I-1.0235 J0.0
G2 X140.7204 Y157.9166 I0.5117 J0.8863
G1 F400.0 X140.1663 Y157.6864
G2 F800.0 X140.8538 Y159.7153 I1.4992 J0.623
G2 X143.2889 Y158.3093 I0.8117 J-1.406
G2 X140.8538 Y156.9034 I-1.6235 J0.0
G2 X140.1663 Y157.6864 I0.8117 J1.406
G1 F400.0 X139.6122 Y157.4561
G2 F800.0 X140.5538 Y160.2349 I2.0532 J0.8532
G2 X143.8889 Y158.3093 I1.1117 J-1.9256
G2 X140.5538 Y156.3837 I-2.2235 J0.0
G2 X139.6122 Y157.4561 I1.1117 J1.9256
G1 F400.0 X139.0582 Y157.2259
G2 F800.0 X140.2538 Y160.7545 I2.6073 J1.0834
G2 X144.4889 Y158.3093 I1.4117 J-2.4452
G2 X140.2538 Y155.8641 I-2.8235 J0.0
G2 X139.0582 Y157.2259 I1.4117 J2.4452
G1 F400.0 X138.5041 Y156.9956
G2 F800.0 X139.9538 Y161.2741 I3.1614 J1.3137
G2 X145.0889 Y158.3093 I1.7117 J-2.9648
G2 X139.9538 Y155.3445 I-3.4235 J0.0
G2 X138.5041 Y156.9956 I1.7117 J2.9648
G1 F400.0 X137.95 Y156.7654
G2 F800.0 X139.6538 Y161.7937 I3.7155 J1.5439
G2 X145.6889 Y158.3093 I2.0117 J-3.4844
G2 X139.6538 Y154.8249 I-4.0235 J0.0
G2 X137.95 Y156.7654 I2.0117 J3.4844
G1 F400.0 X137.396 Y156.5352
G2 F800.0 X139.3538 Y162.3133 I4.2695 J1.7741
G2 X146.2889 Y158.3093 I2.3117 J-4.004
G2 X139.3538 Y154.3053 I-4.6235 J0.0
G2 X137.396 Y156.5352 I2.3117 J4.004
G1 F400.0 X136.8419 Y156.3049
G2 F800.0 X139.0538 Y162.833 I4.8236 J2.0044
G2 X146.8889 Y158.3093 I2.6117 J-4.5236
G2 X139.0538 Y153.7857 I-5.2235 J0.0
G2 X136.8419 Y156.3049 I2.6117 J4.5236
G1 F400.0 X136.2878 Y156.0747
G2 F800.0 X138.7538 Y163.3526 I5.3777 J2.2346
G2 X147.4889 Y158.3093 I2.9117 J-5.0433
G2 X138.7538 Y153.2661 I-5.8235 J0.0
G2 X136.2878 Y156.0747 I2.9117 J5.0433
G1 F400.0 X135.7338 Y155.8445
G2 F800.0 X138.4538 Y163.8722 I5.9317 J2.4648
G2 X148.0889 Y158.3093 I3.2117 J-5.5629
G2 X138.4538 Y152.7464 I-6.4235 J0.0
G2 X135.7338 Y155.8445 I3.2117 J5.5629
G0 Z10.0
G0 X141.6289 Y174.858
G0 Z4.7
G1 F400.0 Z0.7
G1 F800.0 X141.6038 Y174.869
G2 Y175.0828 I0.0617 J0.1069
G2 X141.7889 Y174.9759 I0.0617 J-0.1069
G2 X141.6289 Y174.858 I-0.1235 J0.0
G1 F400.0 X141.5401 Y174.5715
G1 F800.0 X141.4538 Y174.6092
G2 Y175.3426 I0.2117 J0.3667
G2 X142.0889 Y174.9759 I0.2117 J-0.3667
G2 X141.5401 Y174.5715 I-0.4235 J0.0
G1 F400.0 X141.3624 Y173.9984
G2 F800.0 X141.1538 Y174.0896 I0.3031 J0.9775
G2 Y175.8623 I0.5117 J0.8863
G2 X142.6889 Y174.9759 I0.5117 J-0.8863
G2 X141.3624 Y173.9984 I-1.0235 J0.0
G1 F400.0 X141.1847 Y173.4253
G2 F800.0 X140.8538 Y173.57 I0.4808 J1.5506
G2 Y176.3819 I0.8117 J1.406
G2 X143.2889 Y174.9759 I0.8117 J-1.406
G2 X141.1847 Y173.4253 I-1.6235 J0.0
G1 F400.0 X141.007 Y172.8522
G2 F800.0 X140.5538 Y173.0503 I0.6585 J2.1237
G2 Y176.9015 I1.1117 J1.9256
G2 X143.8889 Y174.9759 I1.1117 J-1.9256
G2 X141.007 Y172.8522 I-2.2235 J0.0
G1 F400.0 X140.8293 Y172.2791
G2 F800.0 X140.2538 Y172.5307 I0.8361 J2.6968
G2 Y177.4211 I1.4117 J2.4452
G2 X144.4889 Y174.9759 I1.4117 J-2.4452
G2 X140.8293 Y172.2791 I-2.8235 J0.0
G1 F400.0 X140.6516 Y171.706
G2 F800.0 X139.9538 Y172.0111 I1.0138 J3.2699
G2 Y177.9407 I1.7117 J2.9648
G2 X145.0889 Y174.9759 I1.7117 J-2.9648
G2 X140.6516 Y171.706 I-3.4235 J0.0
G1 F400.0 X140.474 Y171.1329
G2 F800.0 X139.6538 Y171.4915 I1.1915 J3.843
G2 Y178.4603 I2.0117 J3.4844
G2 X145.6889 Y174.9759 I2.0117 J-3.4844
G2 X140.474 Y171.1329 I-4.0235 J0.0
G1 F400.0 X140.2963 Y170.5598
G2 F800.0 X139.3538 Y170.9719 I1.3692 J4.4161
G2 Y178.9799 I2.3117 J4.004
G2 X146.2889 Y174.9759 I2.3117 J-4.004
G2 X140.2963 Y170.5598 I-4.6235 J0.0
G1 F400.0 X140.1186 Y169.9868
G2 F800.0 X139.0538 Y170.4523 I1.5469 J4.9892
G2 Y179.4996 I2.6117 J4.5236
G2 X146.8889 Y174.9759 I2.6117 J-4.5236
G2 X140.1186 Y169.9868 I-5.2235 J0.0
G1 F400.0 X139.9409 Y169.4137
G2 F800.0 X138.7538 Y169.9327 I1.7246 J5.5622
G2 Y180.0192 I2.9117 J5.0433
G2 X147.4889 Y174.9759 I2.9117 J-5.0433
G2 X139.9409 Y169.4137 I-5.8235 J0.0
G1 F400.0 X139.7632 Y168.8406
G2 F800.0 X138.4538 Y169.413 I1.9023 J6.1353
G2 Y180.5388 I3.2117 J5.5629
G2 X148.0889 Y174.9759 I3.2117 J-5.5629
G2 X139.7632 Y168.8406 I-6.4235 J0.0
G0 Z10.0
G0 X125.1129 Y174.9285
G0 Z4.7
G1 F400.0 Z0.7
G2 F800.0 X124.9372 Y174.869 I-0.114 J0.0474
G2 Y175.0828 I0.0617 J0.1069
G2 X125.1223 Y174.9759 I0.0617 J-0.1069
G1 X125.1129 Y174.9285
G1 F400.0 X125.3899 Y174.8134
G2 F800.0 X124.7872 Y174.6092 I-0.391 J0.1625
G2 Y175.3426 I0.2117 J0.3667
G2 X125.4223 Y174.9759 I0.2117 J-0.3667
G2 X125.3899 Y174.8134 I-0.4235 J0.0
G1 F400.0 X125.944 Y174.5832
G2 F800.0 X124.4872 Y174.0896 I-0.9451 J0.3927
G2 Y175.8623 I0.5117 J0.8863
G2 X126.0223 Y174.9759 I0.5117 J-0.8863
G2 X125.944 Y174.5832 I-1.0235 J0.0
G1 F400.0 X126.4981 Y174.3529
G2 F800.0 X124.1872 Y173.57 I-1.4992 J0.623
G2 Y176.3819 I0.8117 J1.406
G2 X126.6223 Y174.9759 I0.8117 J-1.406
G2 X126.4981 Y174.3529 I-1.6235 J0.0
G1 F400.0 X127.0521 Y174.1227
G2 F800.0 X123.8872 Y173.0503 I-2.0532 J0.8532
G2 Y176.9015 I1.1117 J1.9256
G2 X127.2223 Y174.9759 I1.1117 J-1.9256
G2 X127.0521 Y174.1227 I-2.2235 J0.0
G1 F400.0 X127.6062 Y173.8925
G2 F800.0 X123.5872 Y172.5307 I-2.6073 J1.0835
G2 Y177.4211 I1.4117 J2.4452
G2 X127.8223 Y174.9759 I1.4117 J-2.4452
G2 X127.6062 Y173.8925 I-2.8235 J0.0
G1 F400.0 X128.1602 Y173.6622
G2 F800.0 X123.2872 Y172.0111 I-3.1614 J1.3137
G2 Y177.9407 I1.7117 J2.9648
G2 X128.4223 Y174.9759 I1.7117 J-2.9648
G2 X128.1602 Y173.6622 I-3.4235 J0.0
G1 F400.0 X128.7143 Y173.432
G2 F800.0 X122.9872 Y171.4915 I-3.7154 J1.5439
G2 Y178.4603 I2.0117 J3.4844
G2 X129.0223 Y174.9759 I2.0117 J-3.4844
G2 X128.7143 Y173.432 I-4.0235 J0.0
G1 F400.0 X129.2684 Y173.2017
G2 F800.0 X122.6872 Y170.9719 I-4.2695 J1.7742
G2 Y178.9799 I2.3117 J4.004
G2 X129.6223 Y174.9759 I2.3117 J-4.004
G2 X129.2684 Y173.2017 I-4.6235 J0.0
G1 F400.0 X129.8224 Y172.9715
G2 F800.0 X122.3872 Y170.4523 I-4.8236 J2.0044
G2 Y179.4996 I2.6117 J4.5236
G2 X130.2223 Y174.9759 I2.6117 J-4.5236
G2 X129.8224 Y172.9715 I-5.2235 J0.0
G1 F400.0 X130.3765 Y172.7412
G2 F800.0 X122.0872 Y169.9327 I-5.3776 J2.2347
G2 Y180.0192 I2.9117 J5.0433
G2 X130.8223 Y174.9759 I2.9117 J-5.0433
G2 X130.3765 Y172.7412 I-5.8235 J0.0
G1 F400.0 X130.9306 Y172.511
G2 F800.0 X121.7872 Y169.413 I-5.9317 J2.4649
G2 Y180.5388 I3.2117 J5.5629
G2 X131.4223 Y174.9759 I3.2117 J-5.5629
G2 X130.9306 Y172.511 I-6.4235 J0.0
G0 Z10.0
G0 X125.0354 Y191.5246
G0 Z4.7
G1 F400.0 Z0.7
G1 F800.0 X124.9372 Y191.5356
G2 Y191.7494 I0.0617 J0.1069
G2 X125.1223 Y191.6425 I0.0617 J-0.1069
G2 X125.0354 Y191.5246 I-0.1235 J0.0
G1 F400.0 X125.1243 Y191.2381
G2 F800.0 X124.7872 Y191.2758 I-0.1254 J0.4045
G2 Y192.0092 I0.2117 J0.3667
G2 X125.4223 Y191.6425 I0.2117 J-0.3667
G2 X125.1243 Y191.2381 I-0.4235 J0.0
G1 F400.0 X125.302 Y190.665
G2 F800.0 X124.4872 Y190.7562 I-0.3031 J0.9775
G2 Y192.5289 I0.5117 J0.8863
G2 X126.0223 Y191.6425 I0.5117 J-0.8863
G2 X125.302 Y190.665 I-1.0235 J0.0
G1 F400.0 X125.4797 Y190.0919
G2 F800.0 X124.1872 Y190.2366 I-0.4808 J1.5506
G2 Y193.0485 I0.8117 J1.406
G2 X126.6223 Y191.6425 I0.8117 J-1.406
G2 X125.4797 Y190.0919 I-1.6235 J0.0
G1 F400.0 X125.6573 Y189.5188
G2 F800.0 X123.8872 Y189.7169 I-0.6585 J2.1237
G2 Y193.5681 I1.1117 J1.9256
G2 X127.2223 Y191.6425 I1.1117 J-1.9256
G2 X125.6573 Y189.5188 I-2.2235 J0.0
G1 F400.0 X125.835 Y188.9457
G2 F800.0 X123.5872 Y189.1973 I-0.8361 J2.6968
G2 Y194.0877 I1.4117 J2.4452
G2 X127.8223 Y191.6425 I1.4117 J-2.4452
G2 X125.835 Y188.9457 I-2.8235 J0.0
G1 F400.0 X126.0127 Y188.3726
G2 F800.0 X123.2872 Y188.6777 I-1.0138 J3.2699
G2 Y194.6073 I1.7117 J2.9648
G2 X128.4223 Y191.6425 I1.7117 J-2.9648
G2 X126.0127 Y188.3726 I-3.4235 J0.0
G1 F400.0 X126.1904 Y187.7995
G2 F800.0 X122.9872 Y188.1581 I-1.1915 J3.843
G2 Y195.1269 I2.0117 J3.4844
G2 X129.0223 Y191.6425 I2.0117 J-3.4844
G2 X126.1904 Y187.7995 I-4.0235 J0.0
G1 F400.0 X126.3681 Y187.2264
G2 F800.0 X122.6872 Y187.6385 I-1.3692 J4.4161
G2 Y195.6465 I2.3117 J4.004
G2 X129.6223 Y191.6425 I2.3117 J-4.004
G2 X126.3681 Y187.2264 I-4.6235 J0.0
G1 F400.0 X126.5458 Y186.6534
G2 F800.0 X122.3872 Y187.1189 I-1.5469 J4.9892
G2 Y196.1662 I2.6117 J4.5236
G2 X130.2223 Y191.6425 I2.6117 J-4.5236
G2 X126.5458 Y186.6534 I-5.2235 J0.0
G1 F400.0 X126.7234 Y186.0803
G2 F800.0 X122.0872 Y186.5993 I-1.7246 J5.5622
G2 Y196.6858 I2.9117 J5.0433
G2 X130.8223 Y191.6425 I2.9117 J-5.0433
G2 X126.7234 Y186.0803 I-5.8235 J0.0
G1 F400.0 X126.9011 Y185.5072
G2 F800.0 X121.7872 Y186.0796 I-1.9022 J6.1353
G2 Y197.2054 I3.2117 J5.5629
G2 X131.4223 Y191.6425 I3.2117 J-5.5629
G2 X126.9011 Y185.5072 I-6.4235 J0.0
G0 Z10.0
G0 X141.5515 Y191.5951
G0 Z4.7
G1 F400.0 Z0.7
G2 F800.0 X141.6038 Y191.7494 I0.114 J0.0474
G2 X141.7889 Y191.6425 I0.0617 J-0.1069
G2 X141.6038 Y191.5356 I-0.1235 J0.0
G1 X141.5515 Y191.5951
G1 F400.0 X141.2744 Y191.48
G2 F800.0 X141.4538 Y192.0092 I0.391 J0.1625
G2 X142.0889 Y191.6425 I0.2117 J-0.3667
G2 X141.4538 Y191.2758 I-0.4235 J0.0
G2 X141.2744 Y191.48 I0.2117 J0.3667
G1 F400.0 X140.7204 Y191.2498
G2 F800.0 X141.1538 Y192.5289 I0.9451 J0.3927
G2 X142.6889 Y191.6425 I0.5117 J-0.8863
G2 X141.1538 Y190.7562 I-1.0235 J0.0
G2 X140.7204 Y191.2498 I0.5117 J0.8863
G1 F400.0 X140.1663 Y191.0195
G2 F800.0 X140.8538 Y193.0485 I1.4992 J0.623
G2 X143.2889 Y191.6425 I0.8117 J-1.406
G2 X140.8538 Y190.2366 I-1.6235 J0.0
G2 X140.1663 Y191.0195 I0.8117 J1.406
G1 F400.0 X139.6122 Y190.7893
G2 F800.0 X140.5538 Y193.5681 I2.0532 J0.8532
G2 X143.8889 Y191.6425 I1.1117 J-1.9256
G2 X140.5538 Y189.7169 I-2.2235 J0.0
G2 X139.6122 Y190.7893 I1.1117 J1.9256
G1 F400.0 X139.0582 Y190.5591
G2 F800.0 X140.2538 Y194.0877 I2.6073 J1.0835
G2 X144.4889 Y191.6425 I1.4117 J-2.4452
G2 X140.2538 Y189.1973 I-2.8235 J0.0
G2 X139.0582 Y190.5591 I1.4117 J2.4452
G1 F400.0 X138.5041 Y190.3288
G2 F800.0 X139.9538 Y194.6073 I3.1614 J1.3137
G2 X145.0889 Y191.6425 I1.7117 J-2.9648
G2 X139.9538 Y188.6777 I-3.4235 J0.0
G2 X138.5041 Y190.3288 I1.7117 J2.9648
G1 F400.0 X137.9501 Y190.0986
G2 F800.0 X139.6538 Y195.1269 I3.7154 J1.5439
G2 X145.6889 Y191.6425 I2.0117 J-3.4844
G2 X139.6538 Y188.1581 I-4.0235 J0.0
G2 X137.9501 Y190.0986 I2.0117 J3.4844
G1 F400.0 X137.396 Y189.8683
G2 F800.0 X139.3538 Y195.6465 I4.2695 J1.7742
G2 X146.2889 Y191.6425 I2.3117 J-4.004
G2 X139.3538 Y187.6385 I-4.6235 J0.0
G2 X137.396 Y189.8683 I2.3117 J4.004
G1 F400.0 X136.8419 Y189.6381
G2 F800.0 X139.0538 Y196.1662 I4.8236 J2.0044
G2 X146.8889 Y191.6425 I2.6117 J-4.5236
G2 X139.0538 Y187.1189 I-5.2235 J0.0
G2 X136.8419 Y189.6381 I2.6117 J4.5236
G1 F400.0 X136.2879 Y189.4078
G2 F800.0 X138.7538 Y196.6858 I5.3776 J2.2347
G2 X147.4889 Y191.6425 I2.9117 J-5.0433
G2 X138.7538 Y186.5993 I-5.8235 J0.0
G2 X136.2879 Y189.4078 I2.9117 J5.0433
G1 F400.0 X135.7338 Y189.1776
G2 F800.0 X138.4538 Y197.2054 I5.9317 J2.4649
G2 X148.0889 Y191.6425 I3.2117 J-5.5629
G2 X138.4538 Y186.0796 I-6.4235 J0.0
G2 X135.7338 Y189.1776 I3.2117 J5.5629
G0 Z10.0
G0 X141.6289 Y208.1912
G0 Z4.7
G1 F400.0 Z0.7
G1 F800.0 X141.6038 Y208.2022
G2 Y208.416 I0.0617 J0.1069
G2 X141.7889 Y208.3091 I0.0617 J-0.1069
G2 X141.6289 Y208.1912 I-0.1235 J0.0
G1 F400.0 X141.5401 Y207.9047
G1 F800.0 X141.4538 Y207.9424
G2 Y208.6758 I0.2117 J0.3667
G2 X142.0889 Y208.3091 I0.2117 J-0.3667
G2 X141.5401 Y207.9047 I-0.4235 J0.0
G1 F400.0 X141.3624 Y207.3316
G2 F800.0 X141.1538 Y207.4228 I0.3031 J0.9775
G2 Y209.1955 I0.5117 J0.8863
G2 X142.6889 Y208.3091 I0.5117 J-0.8863
G2 X141.3624 Y207.3316 I-1.0235 J0.0
G1 F400.0 X141.1847 Y206.7585
G2 F800.0 X140.8538 Y206.9032 I0.4808 J1.5506
G2 Y209.7151 I0.8117 J1.406
G2 X143.2889 Y208.3091 I0.8117 J-1.406
G2 X141.1847 Y206.7585 I-1.6235 J0.0
G1 F400.0 X141.007 Y206.1854
G2 F800.0 X140.5538 Y206.3835 I0.6585 J2.1237
G2 Y210.2347 I1.1117 J1.9256
G2 X143.8889 Y208.3091 I1.1117 J-1.9256
G2 X141.007 Y206.1854 I-2.2235 J0.0
G1 F400.0 X140.8293 Y205.6123
G2 F800.0 X140.2538 Y205.8639 I0.8361 J2.6968
G2 Y210.7543 I1.4117 J2.4452
G2 X144.4889 Y208.3091 I1.4117 J-2.4452
G2 X140.8293 Y205.6123 I-2.8235 J0.0
G1 F400.0 X140.6517 Y205.0392
G2 F800.0 X139.9538 Y205.3443 I1.0138 J3.2699
G2 Y211.2739 I1.7117 J2.9648
G2 X145.0889 Y208.3091 I1.7117 J-2.9648
G2 X140.6517 Y205.0392 I-3.4235 J0.0
G1 F400.0 X140.474 Y204.4661
G2 F800.0 X139.6538 Y204.8247 I1.1915 J3.843
G2 Y211.7935 I2.0117 J3.4844
G2 X145.6889 Y208.3091 I2.0117 J-3.4844
G2 X140.474 Y204.4661 I-4.0235 J0.0
G1 F400.0 X140.2963 Y203.893
G2 F800.0 X139.3538 Y204.3051 I1.3692 J4.4161
G2 Y212.3131 I2.3117 J4.004
G2 X146.2889 Y208.3091 I2.3117 J-4.004
G2 X140.2963 Y203.893 I-4.6235 J0.0
G1 F400.0 X140.1186 Y203.32
G2 F800.0 X139.0538 Y203.7855 I1.5469 J4.9892
G2 Y212.8328 I2.6117 J4.5236
G2 X146.8889 Y208.3091 I2.6117 J-4.5236
G2 X140.1186 Y203.32 I-5.2235 J0.0
G1 F400.0 X139.9409 Y202.7469
G2 F800.0 X138.7538 Y203.2659 I1.7246 J5.5622
G2 Y213.3524 I2.9117 J5.0433
G2 X147.4889 Y208.3091 I2.9117 J-5.0433
G2 X139.9409 Y202.7469 I-5.8235 J0.0
G1 F400.0 X139.7632 Y202.1738
G2 F800.0 X138.4538 Y202.7462 I1.9022 J6.1353
G2 Y213.872 I3.2117 J5.5629
G2 X148.0889 Y208.3091 I3.2117 J-5.5629
G2 X139.7632 Y202.1738 I-6.4235 J0.0
G0 Z10.0
G0 X125.1129 Y208.2617
G0 Z4.7
G1 F400.0 Z0.7
G2 F800.0 X124.9372 Y208.2022 I-0.114 J0.0474
G2 Y208.416 I0.0617 J0.1069
G2 X125.1223 Y208.3091 I0.0617 J-0.1069
G1 X125.1129 Y208.2617
G1 F400.0 X125.3899 Y208.1466
G2 F800.0 X124.7872 Y207.9424 I-0.391 J0.1625
G2 Y208.6758 I0.2117 J0.3667
G2 X125.4223 Y208.3091 I0.2117 J-0.3667
G2 X125.3899 Y208.1466 I-0.4235 J0.0
G1 F400.0 X125.944 Y207.9164
G2 F800.0 X124.4872 Y207.4228 I-0.9451 J0.3927
G2 Y209.1955 I0.5117 J0.8863
G2 X126.0223 Y208.3091 I0.5117 J-0.8863
G2 X125.944 Y207.9164 I-1.0235 J0.0
G1 F400.0 X126.4981 Y207.6861
G2 F800.0 X124.1872 Y206.9032 I-1.4992 J0.623
G2 Y209.7151 I0.8117 J1.406
G2 X126.6223 Y208.3091 I0.8117 J-1.406
G2 X126.4981 Y207.6861 I-1.6235 J0.0
G1 F400.0 X127.0521 Y207.4559
G2 F800.0 X123.8872 Y206.3835 I-2.0532 J0.8532
G2 Y210.2347 I1.1117 J1.9256
G2 X127.2223 Y208.3091 I1.1117 J-1.9256
G2 X127.0521 Y207.4559 I-2.2235 J0.0
G1 F400.0 X127.6062 Y207.2257
G2 F800.0 X123.5872 Y205.8639 I-2.6073 J1.0835
G2 Y210.7543 I1.4117 J2.4452
G2 X127.8223 Y208.3091 I1.4117 J-2.4452
G2 X127.6062 Y207.2257 I-2.8235 J0.0
G1 F400.0 X128.1602 Y206.9954
G2 F800.0 X123.2872 Y205.3443 I-3.1614 J1.3137
G2 Y211.2739 I1.7117 J2.9648
G2 X128.4223 Y208.3091 I1.7117 J-2.9648
G2 X128.1602 Y206.9954 I-3.4235 J0.0
G1 F400.0 X128.7143 Y206.7652
G2 F800.0 X122.9872 Y204.8247 I-3.7154 J1.5439
G2 Y211.7935 I2.0117 J3.4844
G2 X129.0223 Y208.3091 I2.0117 J-3.4844
G2 X128.7143 Y206.7652 I-4.0235 J0.0
G1 F400.0 X129.2684 Y206.5349
G2 F800.0 X122.6872 Y204.3051 I-4.2695 J1.7742
G2 Y212.3131 I2.3117 J4.004
G2 X129.6223 Y208.3091 I2.3117 J-4.004
G2 X129.2684 Y206.5349 I-4.6235 J0.0
G1 F400.0 X129.8224 Y206.3047
G2 F800.0 X122.3872 Y203.7855 I-4.8236 J2.0044
G2 Y212.8328 I2.6117 J4.5236
G2 X130.2223 Y208.3091 I2.6117 J-4.5236
G2 X129.8224 Y206.3047 I-5.2235 J0.0
G1 F400.0 X130.3765 Y206.0744
G2 F800.0 X122.0872 Y203.2659 I-5.3776 J2.2347
G2 Y213.3524 I2.9117 J5.0433
G2 X130.8223 Y208.3091 I2.9117 J-5.0433
G2 X130.3765 Y206.0744 I-5.8235 J0.0
G1 F400.0 X130.9306 Y205.8442
G2 F800.0 X121.7872 Y202.7462 I-5.9317 J2.4649
G2 Y213.872 I3.2117 J5.5629
G2 X131.4223 Y208.3091 I3.2117 J-5.5629
G2 X130.9306 Y205.8442 I-6.4235 J0.0
G0 Z10.0
G0 X108.455 Y208.2957
G0 Z4.7
G1 F400.0 Z0.7
G2 F800.0 X108.2706 Y208.2022 I-0.1227 J0.0134
G2 Y208.416 I0.0617 J0.1069
G2 X108.4557 Y208.3091 I0.0617 J-0.1069
G1 X108.455 Y208.2957
G1 F400.0 X108.7532 Y208.2632
G2 F800.0 X108.1206 Y207.9424 I-0.421 J0.0459
G2 Y208.6758 I0.2117 J0.3667
G2 X108.7557 Y208.3091 I0.2117 J-0.3667
G1 X108.7532 Y208.2632
G1 F400.0 X109.3497 Y208.1981
G2 F800.0 X107.8206 Y207.4228 I-1.0174 J0.111
G2 Y209.1955 I0.5117 J0.8863
G2 X109.3557 Y208.3091 I0.5117 J-0.8863
G2 X109.3497 Y208.1981 I-1.0235 J0.0
G1 F400.0 X109.9462 Y208.1331
G2 F800.0 X107.5206 Y206.9032 I-1.6139 J0.176
G2 Y209.7151 I0.8117 J1.406
G2 X109.9557 Y208.3091 I0.8117 J-1.406
G2 X109.9462 Y208.1331 I-1.6235 J0.0
G1 F400.0 X110.5426 Y208.068
G2 F800.0 X107.2206 Y206.3835 I-2.2103 J0.2411
G2 Y210.2347 I1.1117 J1.9256
G2 X110.5557 Y208.3091 I1.1117 J-1.9256
G2 X110.5426 Y208.068 I-2.2235 J0.0
G1 F400.0 X111.1391 Y208.003
G2 F800.0 X106.9206 Y205.8639 I-2.8068 J0.3062
G2 Y210.7543 I1.4117 J2.4452
G2 X111.1557 Y208.3091 I1.4117 J-2.4452
G2 X111.1391 Y208.003 I-2.8235 J0.0
G1 F400.0 X111.7356 Y207.9379
G2 F800.0 X106.6206 Y205.3443 I-3.4033 J0.3712
G2 Y211.2739 I1.7117 J2.9648
G2 X111.7557 Y208.3091 I1.7117 J-2.9648
G2 X111.7356 Y207.9379 I-3.4235 J0.0
G1 F400.0 X112.332 Y207.8728
G2 F800.0 X106.3206 Y204.8247 I-3.9997 J0.4363
G2 Y211.7935 I2.0117 J3.4844
G2 X112.3557 Y208.3091 I2.0117 J-3.4844
G2 X112.332 Y207.8728 I-4.0235 J0.0
G1 F400.0 X112.9285 Y207.8078
G2 F800.0 X106.0206 Y204.3051 I-4.5962 J0.5013
G2 Y212.3131 I2.3117 J4.004
G2 X112.9557 Y208.3091 I2.3117 J-4.004
G2 X112.9285 Y207.8078 I-4.6235 J0.0
G1 F400.0 X113.5249 Y207.7427
G2 F800.0 X105.7206 Y203.7855 I-5.1927 J0.5664
G2 Y212.8328 I2.6117 J4.5236
G2 X113.5557 Y208.3091 I2.6117 J-4.5236
G2 X113.5249 Y207.7427 I-5.2235 J0.0
G1 F400.0 X114.1214 Y207.6777
G2 F800.0 X105.4206 Y203.2659 I-5.7891 J0.6315
G2 Y213.3524 I2.9117 J5.0433
G2 X114.1557 Y208.3091 I2.9117 J-5.0433
G2 X114.1214 Y207.6777 I-5.8235 J0.0
G1 F400.0 X114.7179 Y207.6126
G2 F800.0 X105.1206 Y202.7462 I-6.3856 J0.6965
G2 Y213.872 I3.2117 J5.5629
G2 X114.7557 Y208.3091 I3.2117 J-5.5629
G2 X114.7179 Y207.6126 I-6.4235 J0.0
G0 Z10.0
G0 X108.3781 Y191.7571
G0 Z4.7
G1 F400.0 Z0.7
G2 F800.0 X108.4557 Y191.6425 I-0.0458 J-0.1146
G2 X108.2706 Y191.5356 I-0.1235 J0.0
G2 Y191.7494 I0.0617 J0.1069
G2 X108.3781 Y191.7571 I0.0617 J-0.1069
G1 F400.0 X108.4895 Y192.0357
G2 F800.0 X108.7557 Y191.6425 I-0.1572 J-0.3932
G2 X108.1206 Y191.2758 I-0.4235 J0.0
G2 Y192.0092 I0.2117 J0.3667
G2 X108.4895 Y192.0357 I0.2117 J-0.3667
G1 F400.0 X108.7123 Y192.5928
G2 F800.0 X109.3557 Y191.6425 I-0.38 J-0.9503
G2 X107.8206 Y190.7562 I-1.0235 J0.0
G2 Y192.5289 I0.5117 J0.8863
G2 X108.7123 Y192.5928 I0.5117 J-0.8863
G1 F400.0 X108.935 Y193.1499
G2 F800.0 X109.9557 Y191.6425 I-0.6027 J-1.5074
G2 X107.5206 Y190.2366 I-1.6235 J0.0
G2 Y193.0485 I0.8117 J1.406
G2 X108.935 Y193.1499 I0.8117 J-1.406
G1 F400.0 X109.1578 Y193.7071
G2 F800.0 X110.5557 Y191.6425 I-0.8255 J-2.0645
G2 X107.2206 Y189.7169 I-2.2235 J0.0
G2 Y193.5681 I1.1117 J1.9256
G2 X109.1578 Y193.7071 I1.1117 J-1.9256
G1 F400.0 X109.3805 Y194.2642
G2 F800.0 X111.1557 Y191.6425 I-1.0483 J-2.6217
G2 X106.9206 Y189.1973 I-2.8235 J0.0
G2 Y194.0877 I1.4117 J2.4452
G2 X109.3805 Y194.2642 I1.4117 J-2.4452
G1 F400.0 X109.6033 Y194.8213
G2 F800.0 X111.7557 Y191.6425 I-1.271 J-3.1788
G2 X106.6206 Y188.6777 I-3.4235 J0.0
G2 Y194.6073 I1.7117 J2.9648
G2 X109.6033 Y194.8213 I1.7117 J-2.9648
G1 F400.0 X109.8261 Y195.3784
G2 F800.0 X112.3557 Y191.6425 I-1.4938 J-3.7359
G2 X106.3206 Y188.1581 I-4.0235 J0.0
G2 Y195.1269 I2.0117 J3.4844
G2 X109.8261 Y195.3784 I2.0117 J-3.4844
G1 F400.0 X110.0488 Y195.9355
G2 F800.0 X112.9557 Y191.6425 I-1.7165 J-4.293
G2 X106.0206 Y187.6385 I-4.6235 J0.0
G2 Y195.6465 I2.3117 J4.004
G2 X110.0488 Y195.9355 I2.3117 J-4.004
G1 F400.0 X110.2716 Y196.4926
G2 F800.0 X113.5557 Y191.6425 I-1.9393 J-4.8501
G2 X105.7206 Y187.1189 I-5.2235 J0.0
G2 Y196.1662 I2.6117 J4.5236
G2 X110.2716 Y196.4926 I2.6117 J-4.5236
G1 F400.0 X110.4943 Y197.0497
G2 F800.0 X114.1557 Y191.6425 I-2.1621 J-5.4072
G2 X105.4206 Y186.5993 I-5.8235 J0.0
G2 Y196.6858 I2.9117 J5.0433
G2 X110.4943 Y197.0497 I2.9117 J-5.0433
G1 F400.0 X110.7171 Y197.6069
G2 F800.0 X114.7557 Y191.6425 I-2.3848 J-5.9643
G2 X105.1206 Y186.0796 I-6.4235 J0.0
G2 Y197.2054 I3.2117 J5.5629
G2 X110.7171 Y197.6069 I3.2117 J-5.5629
G0 Z10.0
G0 X91.7835 Y191.6794
G0 Z4.7
G1 F400.0 Z0.7
G1 F800.0 X91.7891 Y191.6425
G2 X91.604 Y191.5356 I-0.1235 J0.0
G2 Y191.7494 I0.0617 J0.1069
G2 X91.7835 Y191.6794 I0.0617 J-0.1069
G1 F400.0 X92.0698 Y191.769
G2 F800.0 X92.0891 Y191.6425 I-0.4041 J-0.1265
G2 X91.454 Y191.2758 I-0.4235 J0.0
G2 Y192.0092 I0.2117 J0.3667
G2 X92.0698 Y191.769 I0.2117 J-0.3667
G1 F400.0 X92.6424 Y191.9483
G2 F800.0 X92.6891 Y191.6425 I-0.9767 J-0.3058
G2 X91.154 Y190.7562 I-1.0235 J0.0
G2 Y192.5289 I0.5117 J0.8863
G2 X92.6424 Y191.9483 I0.5117 J-0.8863
G1 F400.0 X93.215 Y192.1276
G2 F800.0 X93.2891 Y191.6425 I-1.5493 J-0.485
G2 X90.854 Y190.2366 I-1.6235 J0.0
G2 Y193.0485 I0.8117 J1.406
G2 X93.215 Y192.1276 I0.8117 J-1.406
G1 F400.0 X93.7876 Y192.3068
G2 F800.0 X93.8891 Y191.6425 I-2.1219 J-0.6643
G2 X90.554 Y189.7169 I-2.2235 J0.0
G2 Y193.5681 I1.1117 J1.9256
G2 X93.7876 Y192.3068 I1.1117 J-1.9256
G1 F400.0 X94.3602 Y192.4861
G2 F800.0 X94.4891 Y191.6425 I-2.6945 J-0.8436
G2 X90.254 Y189.1973 I-2.8235 J0.0
G2 Y194.0877 I1.4117 J2.4452
G2 X94.3602 Y192.4861 I1.4117 J-2.4452
G1 F400.0 X94.9328 Y192.6653
G2 F800.0 X95.0891 Y191.6425 I-3.2671 J-1.0228
G2 X89.954 Y188.6777 I-3.4235 J0.0
G2 Y194.6073 I1.7117 J2.9648
G2 X94.9328 Y192.6653 I1.7117 J-2.9648
G1 F400.0 X95.5054 Y192.8446
G2 F800.0 X95.6891 Y191.6425 I-3.8397 J-1.2021
G2 X89.654 Y188.1581 I-4.0235 J0.0
G2 Y195.1269 I2.0117 J3.4844
G2 X95.5054 Y192.8446 I2.0117 J-3.4844
G1 F400.0 X96.078 Y193.0239
G2 F800.0 X96.2891 Y191.6425 I-4.4123 J-1.3813
G2 X89.354 Y187.6385 I-4.6235 J0.0
G2 Y195.6465 I2.3117 J4.004
G2 X96.078 Y193.0239 I2.3117 J-4.004
G1 F400.0 X96.6506 Y193.2031
G2 F800.0 X96.8891 Y191.6425 I-4.9849 J-1.5606
G2 X89.054 Y187.1189 I-5.2235 J0.0
G2 Y196.1662 I2.6117 J4.5236
G2 X96.6506 Y193.2031 I2.6117 J-4.5236
G1 F400.0 X97.2232 Y193.3824
G2 F800.0 X97.4891 Y191.6425 I-5.5575 J-1.7399
G2 X88.754 Y186.5993 I-5.8235 J0.0
G2 Y196.6858 I2.9117 J5.0433
G2 X97.2232 Y193.3824 I2.9117 J-5.0433
G1 F400.0 X97.7958 Y193.5616
G2 F800.0 X98.0891 Y191.6425 I-6.1301 J-1.9191
G2 X88.454 Y186.0796 I-6.4235 J0.0
G2 Y197.2054 I3.2117 J5.5629
G2 X97.7958 Y193.5616 I3.2117 J-5.5629
G0 Z10.0
G0 X91.7131 Y208.1951
G0 Z4.7
G1 F400.0 Z0.7
G2 F800.0 X91.604 Y208.2022 I-0.0474 J0.114
G2 Y208.416 I0.0617 J0.1069
G2 X91.7891 Y208.3091 I0.0617 J-0.1069
G2 X91.7131 Y208.1951 I-0.1235 J0.0
G1 F400.0 X91.8282 Y207.9181
G2 F800.0 X91.454 Y207.9424 I-0.1625 J0.391
G2 Y208.6758 I0.2117 J0.3667
G2 X92.0891 Y208.3091 I0.2117 J-0.3667
G2 X91.8282 Y207.9181 I-0.4235 J0.0
G1 F400.0 X92.0585 Y207.3641
G2 F800.0 X91.154 Y207.4228 I-0.3928 J0.9451
G2 Y209.1955 I0.5117 J0.8863
G2 X92.6891 Y208.3091 I0.5117 J-0.8863
G2 X92.0585 Y207.3641 I-1.0235 J0.0
G1 F400.0 X92.2888 Y206.81
G2 F800.0 X90.854 Y206.9032 I-0.6231 J1.4991
G2 Y209.7151 I0.8117 J1.406
G2 X93.2891 Y208.3091 I0.8117 J-1.406
G2 X92.2888 Y206.81 I-1.6235 J0.0
G1 F400.0 X92.5191 Y206.256
G2 F800.0 X90.554 Y206.3835 I-0.8534 J2.0531
G2 Y210.2347 I1.1117 J1.9256
G2 X93.8891 Y208.3091 I1.1117 J-1.9256
G2 X92.5191 Y206.256 I-2.2235 J0.0
G1 F400.0 X92.7494 Y205.7019
G2 F800.0 X90.254 Y205.8639 I-1.0837 J2.6072
G2 Y210.7543 I1.4117 J2.4452
G2 X94.4891 Y208.3091 I1.4117 J-2.4452
G2 X92.7494 Y205.7019 I-2.8235 J0.0
G1 F400.0 X92.9797 Y205.1479
G2 F800.0 X89.954 Y205.3443 I-1.314 J3.1612
G2 Y211.2739 I1.7117 J2.9648
G2 X95.0891 Y208.3091 I1.7117 J-2.9648
G2 X92.9797 Y205.1479 I-3.4235 J0.0
G1 F400.0 X93.21 Y204.5938
G2 F800.0 X89.654 Y204.8247 I-1.5443 J3.7153
G2 Y211.7935 I2.0117 J3.4844
G2 X95.6891 Y208.3091 I2.0117 J-3.4844
G2 X93.21 Y204.5938 I-4.0235 J0.0
G1 F400.0 X93.4403 Y204.0398
G2 F800.0 X89.354 Y204.3051 I-1.7746 J4.2693
G2 Y212.3131 I2.3117 J4.004
G2 X96.2891 Y208.3091 I2.3117 J-4.004
G2 X93.4403 Y204.0398 I-4.6235 J0.0
G1 F400.0 X93.6706 Y203.4858
G2 F800.0 X89.054 Y203.7855 I-2.0049 J4.8234
G2 Y212.8328 I2.6117 J4.5236
G2 X96.8891 Y208.3091 I2.6117 J-4.5236
G2 X93.6706 Y203.4858 I-5.2235 J0.0
G1 F400.0 X93.9009 Y202.9317
G2 F800.0 X88.754 Y203.2659 I-2.2352 J5.3774
G2 Y213.3524 I2.9117 J5.0433
G2 X97.4891 Y208.3091 I2.9117 J-5.0433
G2 X93.9009 Y202.9317 I-5.8235 J0.0
G1 F400.0 X94.1312 Y202.3777
G2 F800.0 X88.454 Y202.7462 I-2.4655 J5.9314
G2 Y213.872 I3.2117 J5.5629
G2 X98.0891 Y208.3091 I3.2117 J-5.5629
G2 X94.1312 Y202.3777 I-6.4235 J0.0
G0 Z10.0
G0 X75.117 Y208.2726
G0 Z4.7
G1 F400.0 Z0.7
G2 F800.0 X74.9374 Y208.2022 I-0.1179 J0.0366
G2 Y208.416 I0.0617 J0.1069
G2 X75.1225 Y208.3091 I0.0617 J-0.1069
G1 X75.117 Y208.2726
G1 F400.0 X75.4035 Y208.1837
G2 F800.0 X74.7874 Y207.9424 I-0.4045 J0.1254
G2 Y208.6758 I0.2117 J0.3667
G2 X75.4225 Y208.3091 I0.2117 J-0.3667
G2 X75.4035 Y208.1837 I-0.4235 J0.0
G1 F400.0 X75.9766 Y208.006
G2 F800.0 X74.4874 Y207.4228 I-0.9776 J0.3031
G2 Y209.1955 I0.5117 J0.8863
G2 X76.0225 Y208.3091 I0.5117 J-0.8863
G2 X75.9766 Y208.006 I-1.0235 J0.0
G1 F400.0 X76.5497 Y207.8284
G2 F800.0 X74.1874 Y206.9032 I-1.5506 J0.4807
G2 Y209.7151 I0.8117 J1.406
G2 X76.6225 Y208.3091 I0.8117 J-1.406
G2 X76.5497 Y207.8284 I-1.6235 J0.0
G1 F400.0 X77.1228 Y207.6507
G2 F800.0 X73.8874 Y206.3835 I-2.1237 J0.6584
G2 Y210.2347 I1.1117 J1.9256
G2 X77.2225 Y208.3091 I1.1117 J-1.9256
G2 X77.1228 Y207.6507 I-2.2235 J0.0
G1 F400.0 X77.6959 Y207.473
G2 F800.0 X73.5874 Y205.8639 I-2.6968 J0.8361
G2 Y210.7543 I1.4117 J2.4452
G2 X77.8225 Y208.3091 I1.4117 J-2.4452
G2 X77.6959 Y207.473 I-2.8235 J0.0
G1 F400.0 X78.269 Y207.2954
G2 F800.0 X73.2874 Y205.3443 I-3.2699 J1.0138
G2 Y211.2739 I1.7117 J2.9648
G2 X78.4225 Y208.3091 I1.7117 J-2.9648
G2 X78.269 Y207.2954 I-3.4235 J0.0
G1 F400.0 X78.8421 Y207.1177
G2 F800.0 X72.9874 Y204.8247 I-3.843 J1.1914
G2 Y211.7935 I2.0117 J3.4844
G2 X79.0225 Y208.3091 I2.0117 J-3.4844
G2 X78.8421 Y207.1177 I-4.0235 J0.0
G1 F400.0 X79.4152 Y206.94
G2 F800.0 X72.6874 Y204.3051 I-4.4161 J1.3691
G2 Y212.3131 I2.3117 J4.004
G2 X79.6225 Y208.3091 I2.3117 J-4.004
G2 X79.4152 Y206.94 I-4.6235 J0.0
G1 F400.0 X79.9883 Y206.7623
G2 F800.0 X72.3874 Y203.7855 I-4.9892 J1.5468
G2 Y212.8328 I2.6117 J4.5236
G2 X80.2225 Y208.3091 I2.6117 J-4.5236
G2 X79.9883 Y206.7623 I-5.2235 J0.0
G1 F400.0 X80.5614 Y206.5847
G2 F800.0 X72.0874 Y203.2659 I-5.5623 J1.7244
G2 Y213.3524 I2.9117 J5.0433
G2 X80.8225 Y208.3091 I2.9117 J-5.0433
G2 X80.5614 Y206.5847 I-5.8235 J0.0
G1 F400.0 X81.1345 Y206.407
G2 F800.0 X71.7874 Y202.7462 I-6.1354 J1.9021
G2 Y213.872 I3.2117 J5.5629
G2 X81.4225 Y208.3091 I3.2117 J-5.5629
G2 X81.1345 Y206.407 I-6.4235 J0.0
G0 Z10.0
G0 X75.0465 Y191.7565
G0 Z4.7
G1 F400.0 Z0.7
G2 F800.0 X75.1225 Y191.6425 I-0.0474 J-0.114
G2 X74.9374 Y191.5356 I-0.1235 J0.0
G2 Y191.7494 I0.0617 J0.1069
G2 X75.0465 Y191.7565 I0.0617 J-0.1069
G1 F400.0 X75.1616 Y192.0336
G2 F800.0 X75.4225 Y191.6425 I-0.1625 J-0.391
G2 X74.7874 Y191.2758 I-0.4235 J0.0
G2 Y192.0092 I0.2117 J0.3667
G2 X75.1616 Y192.0336 I0.2117 J-0.3667
G1 F400.0 X75.3918 Y192.5876
G2 F800.0 X76.0225 Y191.6425 I-0.3927 J-0.9451
G2 X74.4874 Y190.7562 I-1.0235 J0.0
G2 Y192.5289 I0.5117 J0.8863
G2 X75.3918 Y192.5876 I0.5117 J-0.8863
G1 F400.0 X75.6221 Y193.1417
G2 F800.0 X76.6225 Y191.6425 I-0.623 J-1.4992
G2 X74.1874 Y190.2366 I-1.6235 J0.0
G2 Y193.0485 I0.8117 J1.406
G2 X75.6221 Y193.1417 I0.8117 J-1.406
G1 F400.0 X75.8523 Y193.6958
G2 F800.0 X77.2225 Y191.6425 I-0.8532 J-2.0532
G2 X73.8874 Y189.7169 I-2.2235 J0.0
G2 Y193.5681 I1.1117 J1.9256
G2 X75.8523 Y193.6958 I1.1117 J-1.9256
G1 F400.0 X76.0825 Y194.2498
G2 F800.0 X77.8225 Y191.6425 I-1.0835 J-2.6073
G2 X73.5874 Y189.1973 I-2.8235 J0.0
G2 Y194.0877 I1.4117 J2.4452
G2 X76.0825 Y194.2498 I1.4117 J-2.4452
G1 F400.0 X76.3128 Y194.8039
G2 F800.0 X78.4225 Y191.6425 I-1.3137 J-3.1614
G2 X73.2874 Y188.6777 I-3.4235 J0.0
G2 Y194.6073 I1.7117 J2.9648
G2 X76.3128 Y194.8039 I1.7117 J-2.9648
G1 F400.0 X76.543 Y195.3579
G2 F800.0 X79.0225 Y191.6425 I-1.5439 J-3.7154
G2 X72.9874 Y188.1581 I-4.0235 J0.0
G2 Y195.1269 I2.0117 J3.4844
G2 X76.543 Y195.3579 I2.0117 J-3.4844
G1 F400.0 X76.7733 Y195.912
G2 F800.0 X79.6225 Y191.6425 I-1.7742 J-4.2695
G2 X72.6874 Y187.6385 I-4.6235 J0.0
G2 Y195.6465 I2.3117 J4.004
G2 X76.7733 Y195.912 I2.3117 J-4.004
G1 F400.0 X77.0035 Y196.4661
G2 F800.0 X80.2225 Y191.6425 I-2.0044 J-4.8236
G2 X72.3874 Y187.1189 I-5.2235 J0.0
G2 Y196.1662 I2.6117 J4.5236
G2 X77.0035 Y196.4661 I2.6117 J-4.5236
G1 F400.0 X77.2338 Y197.0201
G2 F800.0 X80.8225 Y191.6425 I-2.2347 J-5.3776
G2 X72.0874 Y186.5993 I-5.8235 J0.0
G2 Y196.6858 I2.9117 J5.0433
G2 X77.2338 Y197.0201 I2.9117 J-5.0433
G1 F400.0 X77.464 Y197.5742
G2 F800.0 X81.4225 Y191.6425 I-2.4649 J-5.9317
G2 X71.7874 Y186.0796 I-6.4235 J0.0
G2 Y197.2054 I3.2117 J5.5629
G2 X77.464 Y197.5742 I3.2117 J-5.5629
G0 Z10.0
G0 X58.4504 Y191.6791
G0 Z4.7
G1 F400.0 Z0.7
G1 F800.0 X58.4559 Y191.6425
G2 X58.2708 Y191.5356 I-0.1235 J0.0
G2 Y191.7494 I0.0617 J0.1069
G2 X58.4504 Y191.6791 I0.0617 J-0.1069
G1 F400.0 X58.7369 Y191.7679
G2 F800.0 X58.7559 Y191.6425 I-0.4045 J-0.1254
G2 X58.1208 Y191.2758 I-0.4235 J0.0
G2 Y192.0092 I0.2117 J0.3667
G2 X58.7369 Y191.7679 I0.2117 J-0.3667
G1 F400.0 X59.31 Y191.9456
G2 F800.0 X59.3559 Y191.6425 I-0.9775 J-0.3031
G2 X57.8208 Y190.7562 I-1.0235 J0.0
G2 Y192.5289 I0.5117 J0.8863
G2 X59.31 Y191.9456 I0.5117 J-0.8863
G1 F400.0 X59.8831 Y192.1233
G2 F800.0 X59.9559 Y191.6425 I-1.5506 J-0.4808
G2 X57.5208 Y190.2366 I-1.6235 J0.0
G2 Y193.0485 I0.8117 J1.406
G2 X59.8831 Y192.1233 I0.8117 J-1.406
G1 F400.0 X60.4562 Y192.301
G2 F800.0 X60.5559 Y191.6425 I-2.1237 J-0.6585
G2 X57.2208 Y189.7169 I-2.2235 J0.0
G2 Y193.5681 I1.1117 J1.9256
G2 X60.4562 Y192.301 I1.1117 J-1.9256
G1 F400.0 X61.0293 Y192.4787
G2 F800.0 X61.1559 Y191.6425 I-2.6968 J-0.8361
G2 X56.9208 Y189.1973 I-2.8235 J0.0
G2 Y194.0877 I1.4117 J2.4452
G2 X61.0293 Y192.4787 I1.4117 J-2.4452
G1 F400.0 X61.6024 Y192.6563
G2 F800.0 X61.7559 Y191.6425 I-3.2699 J-1.0138
G2 X56.6208 Y188.6777 I-3.4235 J0.0
G2 Y194.6073 I1.7117 J2.9648
G2 X61.6024 Y192.6563 I1.7117 J-2.9648
G1 F400.0 X62.1755 Y192.834
G2 F800.0 X62.3559 Y191.6425 I-3.843 J-1.1915
G2 X56.3208 Y188.1581 I-4.0235 J0.0
G2 Y195.1269 I2.0117 J3.4844
G2 X62.1755 Y192.834 I2.0117 J-3.4844
G1 F400.0 X62.7486 Y193.0117
G2 F800.0 X62.9559 Y191.6425 I-4.4161 J-1.3692
G2 X56.0208 Y187.6385 I-4.6235 J0.0
G2 Y195.6465 I2.3117 J4.004
G2 X62.7486 Y193.0117 I2.3117 J-4.004
G1 F400.0 X63.3216 Y193.1894
G2 F800.0 X63.5559 Y191.6425 I-4.9892 J-1.5469
G2 X55.7208 Y187.1189 I-5.2235 J0.0
G2 Y196.1662 I2.6117 J4.5236
G2 X63.3216 Y193.1894 I2.6117 J-4.5236
G1 F400.0 X63.8947 Y193.3671
G2 F800.0 X64.1559 Y191.6425 I-5.5622 J-1.7246
G2 X55.4208 Y186.5993 I-5.8235 J0.0
G2 Y196.6858 I2.9117 J5.0433
G2 X63.8947 Y193.3671 I2.9117 J-5.0433
G1 F400.0 X64.4678 Y193.5448
G2 F800.0 X64.7559 Y191.6425 I-6.1353 J-1.9022
G2 X55.1208 Y186.0796 I-6.4235 J0.0
G2 Y197.2054 I3.2117 J5.5629
G2 X64.4678 Y193.5448 I3.2117 J-5.5629
G0 Z10.0
G0 X58.3799 Y208.1951
G0 Z4.7
G1 F400.0 Z0.7
G2 F800.0 X58.2708 Y208.2022 I-0.0474 J0.114
G2 Y208.416 I0.0617 J0.1069
G2 X58.4559 Y208.3091 I0.0617 J-0.1069
G2 X58.3799 Y208.1951 I-0.1235 J0.0
G1 F400.0 X58.495 Y207.9181
G2 F800.0 X58.1208 Y207.9424 I-0.1625 J0.391
G2 Y208.6758 I0.2117 J0.3667
G2 X58.7559 Y208.3091 I0.2117 J-0.3667
G2 X58.495 Y207.9181 I-0.4235 J0.0
G1 F400.0 X58.7252 Y207.364
G2 F800.0 X57.8208 Y207.4228 I-0.3927 J0.9451
G2 Y209.1955 I0.5117 J0.8863
G2 X59.3559 Y208.3091 I0.5117 J-0.8863
G2 X58.7252 Y207.364 I-1.0235 J0.0
G1 F400.0 X58.9555 Y206.8099
G2 F800.0 X57.5208 Y206.9032 I-0.623 J1.4992
G2 Y209.7151 I0.8117 J1.406
G2 X59.9559 Y208.3091 I0.8117 J-1.406
G2 X58.9555 Y206.8099 I-1.6235 J0.0
G1 F400.0 X59.1857 Y206.2559
G2 F800.0 X57.2208 Y206.3835 I-0.8532 J2.0532
G2 Y210.2347 I1.1117 J1.9256
G2 X60.5559 Y208.3091 I1.1117 J-1.9256
G2 X59.1857 Y206.2559 I-2.2235 J0.0
G1 F400.0 X59.4159 Y205.7018
G2 F800.0 X56.9208 Y205.8639 I-1.0835 J2.6073
G2 Y210.7543 I1.4117 J2.4452
G2 X61.1559 Y208.3091 I1.4117 J-2.4452
G2 X59.4159 Y205.7018 I-2.8235 J0.0
G1 F400.0 X59.6462 Y205.1477
G2 F800.0 X56.6208 Y205.3443 I-1.3137 J3.1614
G2 Y211.2739 I1.7117 J2.9648
G2 X61.7559 Y208.3091 I1.7117 J-2.9648
G2 X59.6462 Y205.1477 I-3.4235 J0.0
G1 F400.0 X59.8764 Y204.5937
G2 F800.0 X56.3208 Y204.8247 I-1.5439 J3.7154
G2 Y211.7935 I2.0117 J3.4844
G2 X62.3559 Y208.3091 I2.0117 J-3.4844
G2 X59.8764 Y204.5937 I-4.0235 J0.0
G1 F400.0 X60.1067 Y204.0396
G2 F800.0 X56.0208 Y204.3051 I-1.7742 J4.2695
G2 Y212.3131 I2.3117 J4.004
G2 X62.9559 Y208.3091 I2.3117 J-4.004
G2 X60.1067 Y204.0396 I-4.6235 J0.0
G1 F400.0 X60.3369 Y203.4856
G2 F800.0 X55.7208 Y203.7855 I-2.0044 J4.8236
G2 Y212.8328 I2.6117 J4.5236
G2 X63.5559 Y208.3091 I2.6117 J-4.5236
G2 X60.3369 Y203.4856 I-5.2235 J0.0
G1 F400.0 X60.5672 Y202.9315
G2 F800.0 X55.4208 Y203.2659 I-2.2347 J5.3776
G2 Y213.3524 I2.9117 J5.0433
G2 X64.1559 Y208.3091 I2.9117 J-5.0433
G2 X60.5672 Y202.9315 I-5.8235 J0.0
G1 F400.0 X60.7974 Y202.3774
G2 F800.0 X55.1208 Y202.7462 I-2.4649 J5.9317
G2 Y213.872 I3.2117 J5.5629
G2 X64.7559 Y208.3091 I3.2117 J-5.5629
G2 X60.7974 Y202.3774 I-6.4235 J0.0
G0 Z10.0
G0 X41.7838 Y208.2726
G0 Z4.7
G1 F400.0 Z0.7
G2 F800.0 X41.6042 Y208.2022 I-0.1179 J0.0366
G2 Y208.416 I0.0617 J0.1069
G2 X41.7893 Y208.3091 I0.0617 J-0.1069
G1 X41.7838 Y208.2726
G1 F400.0 X42.0703 Y208.1837
G2 F800.0 X41.4542 Y207.9424 I-0.4045 J0.1254
G2 Y208.6758 I0.2117 J0.3667
G2 X42.0893 Y208.3091 I0.2117 J-0.3667
G2 X42.0703 Y208.1837 I-0.4235 J0.0
G1 F400.0 X42.6434 Y208.006
G2 F800.0 X41.1542 Y207.4228 I-0.9775 J0.3031
G2 Y209.1955 I0.5117 J0.8863
G2 X42.6893 Y208.3091 I0.5117 J-0.8863
G2 X42.6434 Y208.006 I-1.0235 J0.0
G1 F400.0 X43.2165 Y207.8283
G2 F800.0 X40.8542 Y206.9032 I-1.5506 J0.4808
G2 Y209.7151 I0.8117 J1.406
G2 X43.2893 Y208.3091 I0.8117 J-1.406
G2 X43.2165 Y207.8283 I-1.6235 J0.0
G1 F400.0 X43.7896 Y207.6507
G2 F800.0 X40.5542 Y206.3835 I-2.1237 J0.6585
G2 Y210.2347 I1.1117 J1.9256
G2 X43.8893 Y208.3091 I1.1117 J-1.9256
G2 X43.7896 Y207.6507 I-2.2235 J0.0
G1 F400.0 X44.3627 Y207.473
G2 F800.0 X40.2542 Y205.8639 I-2.6968 J0.8361
G2 Y210.7543 I1.4117 J2.4452
G2 X44.4893 Y208.3091 I1.4117 J-2.4452
G2 X44.3627 Y207.473 I-2.8235 J0.0
G1 F400.0 X44.9358 Y207.2953
G2 F800.0 X39.9542 Y205.3443 I-3.2699 J1.0138
G2 Y211.2739 I1.7117 J2.9648
G2 X45.0893 Y208.3091 I1.7117 J-2.9648
G2 X44.9358 Y207.2953 I-3.4235 J0.0
G1 F400.0 X45.5089 Y207.1176
G2 F800.0 X39.6542 Y204.8247 I-3.843 J1.1915
G2 Y211.7935 I2.0117 J3.4844
G2 X45.6893 Y208.3091 I2.0117 J-3.4844
G2 X45.5089 Y207.1176 I-4.0235 J0.0
G1 F400.0 X46.082 Y206.9399
G2 F800.0 X39.3542 Y204.3051 I-4.4161 J1.3692
G2 Y212.3131 I2.3117 J4.004
G2 X46.2893 Y208.3091 I2.3117 J-4.004
G2 X46.082 Y206.9399 I-4.6235 J0.0
G1 F400.0 X46.655 Y206.7622
G2 F800.0 X39.0542 Y203.7855 I-4.9892 J1.5469
G2 Y212.8328 I2.6117 J4.5236
G2 X46.8893 Y208.3091 I2.6117 J-4.5236
G2 X46.655 Y206.7622 I-5.2235 J0.0
G1 F400.0 X47.2281 Y206.5846
G2 F800.0 X38.7542 Y203.2659 I-5.5622 J1.7246
G2 Y213.3524 I2.9117 J5.0433
G2 X47.4893 Y208.3091 I2.9117 J-5.0433
G2 X47.2281 Y206.5846 I-5.8235 J0.0
G1 F400.0 X47.8012 Y206.4069
G2 F800.0 X38.4542 Y202.7462 I-6.1353 J1.9022
G2 Y213.872 I3.2117 J5.5629
G2 X48.0893 Y208.3091 I3.2117 J-5.5629
G2 X47.8012 Y206.4069 I-6.4235 J0.0
G0 Z10.0
G0 X41.7133 Y191.7565
G0 Z4.7
G1 F400.0 Z0.7
G2 F800.0 X41.7893 Y191.6425 I-0.0474 J-0.114
G2 X41.6042 Y191.5356 I-0.1235 J0.0
G2 Y191.7494 I0.0617 J0.1069
G2 X41.7133 Y191.7565 I0.0617 J-0.1069
G1 F400.0 X41.8284 Y192.0336
G2 F800.0 X42.0893 Y191.6425 I-0.1625 J-0.391
G2 X41.4542 Y191.2758 I-0.4235 J0.0
G2 Y192.0092 I0.2117 J0.3667
G2 X41.8284 Y192.0336 I0.2117 J-0.3667
G1 F400.0 X42.0586 Y192.5876
G2 F800.0 X42.6893 Y191.6425 I-0.3927 J-0.9451
G2 X41.1542 Y190.7562 I-1.0235 J0.0
G2 Y192.5289 I0.5117 J0.8863
G2 X42.0586 Y192.5876 I0.5117 J-0.8863
G1 F400.0 X42.2889 Y193.1417
G2 F800.0 X43.2893 Y191.6425 I-0.623 J-1.4992
G2 X40.8542 Y190.2366 I-1.6235 J0.0
G2 Y193.0485 I0.8117 J1.406
G2 X42.2889 Y193.1417 I0.8117 J-1.406
G1 F400.0 X42.5191 Y193.6958
G2 F800.0 X43.8893 Y191.6425 I-0.8532 J-2.0532
G2 X40.5542 Y189.7169 I-2.2235 J0.0
G2 Y193.5681 I1.1117 J1.9256
G2 X42.5191 Y193.6958 I1.1117 J-1.9256
G1 F400.0 X42.7493 Y194.2498
G2 F800.0 X44.4893 Y191.6425 I-1.0835 J-2.6073
G2 X40.2542 Y189.1973 I-2.8235 J0.0
G2 Y194.0877 I1.4117 J2.4452
G2 X42.7493 Y194.2498 I1.4117 J-2.4452
G1 F400.0 X42.9796 Y194.8039
G2 F800.0 X45.0893 Y191.6425 I-1.3137 J-3.1614
G2 X39.9542 Y188.6777 I-3.4235 J0.0
G2 Y194.6073 I1.7117 J2.9648
G2 X42.9796 Y194.8039 I1.7117 J-2.9648
G1 F400.0 X43.2098 Y195.3579
G2 F800.0 X45.6893 Y191.6425 I-1.5439 J-3.7154
G2 X39.6542 Y188.1581 I-4.0235 J0.0
G2 Y195.1269 I2.0117 J3.4844
G2 X43.2098 Y195.3579 I2.0117 J-3.4844
G1 F400.0 X43.4401 Y195.912
G2 F800.0 X46.2893 Y191.6425 I-1.7742 J-4.2695
G2 X39.3542 Y187.6385 I-4.6235 J0.0
G2 Y195.6465 I2.3117 J4.004
G2 X43.4401 Y195.912 I2.3117 J-4.004
G1 F400.0 X43.6703 Y196.4661
G2 F800.0 X46.8893 Y191.6425 I-2.0044 J-4.8236
G2 X39.0542 Y187.1189 I-5.2235 J0.0
G2 Y196.1662 I2.6117 J4.5236
G2 X43.6703 Y196.4661 I2.6117 J-4.5236
G1 F400.0 X43.9006 Y197.0201
G2 F800.0 X47.4893 Y191.6425 I-2.2347 J-5.3776
G2 X38.7542 Y186.5993 I-5.8235 J0.0
G2 Y196.6858 I2.9117 J5.0433
G2 X43.9006 Y197.0201 I2.9117 J-5.0433
G1 F400.0 X44.1308 Y197.5742
G2 F800.0 X48.0893 Y191.6425 I-2.4649 J-5.9317
G2 X38.4542 Y186.0796 I-6.4235 J0.0
G2 Y197.2054 I3.2117 J5.5629
G2 X44.1308 Y197.5742 I3.2117 J-5.5629
G0 Z10.0
G0 X41.6793 Y175.0986
G0 Z4.7
G1 F400.0 Z0.7
G2 F800.0 X41.7893 Y174.9759 I-0.0134 J-0.1227
G2 X41.6042 Y174.869 I-0.1235 J0.0
G2 Y175.0828 I0.0617 J0.1069
G1 X41.6793 Y175.0986
G1 F400.0 X41.7118 Y175.3969
G2 F800.0 X42.0893 Y174.9759 I-0.0459 J-0.421
G2 X41.4542 Y174.6092 I-0.4235 J0.0
G2 Y175.3426 I0.2117 J0.3667
G2 X41.7118 Y175.3969 I0.2117 J-0.3667
G1 F400.0 X41.7769 Y175.9933
G2 F800.0 X42.6893 Y174.9759 I-0.111 J-1.0174
G2 X41.1542 Y174.0896 I-1.0235 J0.0
G2 Y175.8623 I0.5117 J0.8863
G2 X41.7769 Y175.9933 I0.5117 J-0.8863
G1 F400.0 X41.8419 Y176.5898
G2 F800.0 X43.2893 Y174.9759 I-0.176 J-1.6139
G2 X40.8542 Y173.57 I-1.6235 J0.0
G2 Y176.3819 I0.8117 J1.406
G2 X41.8419 Y176.5898 I0.8117 J-1.406
G1 F400.0 X41.907 Y177.1863
G2 F800.0 X43.8893 Y174.9759 I-0.2411 J-2.2103
G2 X40.5542 Y173.0503 I-2.2235 J0.0
G2 Y176.9015 I1.1117 J1.9256
G2 X41.907 Y177.1863 I1.1117 J-1.9256
G1 F400.0 X41.972 Y177.7827
G2 F800.0 X44.4893 Y174.9759 I-0.3062 J-2.8068
G2 X40.2542 Y172.5307 I-2.8235 J0.0
G2 Y177.4211 I1.4117 J2.4452
G2 X41.972 Y177.7827 I1.4117 J-2.4452
G1 F400.0 X42.0371 Y178.3792
G2 F800.0 X45.0893 Y174.9759 I-0.3712 J-3.4033
G2 X39.9542 Y172.0111 I-3.4235 J0.0
G2 Y177.9407 I1.7117 J2.9648
G2 X42.0371 Y178.3792 I1.7117 J-2.9648
G1 F400.0 X42.1022 Y178.9757
G2 F800.0 X45.6893 Y174.9759 I-0.4363 J-3.9997
G2 X39.6542 Y171.4915 I-4.0235 J0.0
G2 Y178.4603 I2.0117 J3.4844
G2 X42.1022 Y178.9757 I2.0117 J-3.4844
G1 F400.0 X42.1672 Y179.5721
G2 F800.0 X46.2893 Y174.9759 I-0.5013 J-4.5962
G2 X39.3542 Y170.9719 I-4.6235 J0.0
G2 Y178.9799 I2.3117 J4.004
G2 X42.1672 Y179.5721 I2.3117 J-4.004
G1 F400.0 X42.2323 Y180.1686
G2 F800.0 X46.8893 Y174.9759 I-0.5664 J-5.1927
G2 X39.0542 Y170.4523 I-5.2235 J0.0
G2 Y179.4996 I2.6117 J4.5236
G2 X42.2323 Y180.1686 I2.6117 J-4.5236
G1 F400.0 X42.2973 Y180.765
G2 F800.0 X47.4893 Y174.9759 I-0.6315 J-5.7891
G2 X38.7542 Y169.9327 I-5.8235 J0.0
G2 Y180.0192 I2.9117 J5.0433
G2 X42.2973 Y180.765 I2.9117 J-5.0433
G1 F400.0 X42.3624 Y181.3615
G2 F800.0 X48.0893 Y174.9759 I-0.6965 J-6.3856
G2 X38.4542 Y169.413 I-6.4235 J0.0
G2 Y180.5388 I3.2117 J5.5629
G2 X42.3624 Y181.3615 I3.2117 J-5.5629
G0 Z10.0
G0 X58.2178 Y175.0218
G0 Z4.7
G1 F400.0 Z0.7
G1 F800.0 X58.2708 Y175.0828
G2 X58.4559 Y174.9759 I0.0617 J-0.1069
G2 X58.2708 Y174.869 I-0.1235 J0.0
G2 X58.2178 Y175.0218 I0.0617 J0.1069
G1 F400.0 X57.9393 Y175.1331
G2 F800.0 X58.1208 Y175.3426 I0.3932 J-0.1572
G2 X58.7559 Y174.9759 I0.2117 J-0.3667
G2 X58.1208 Y174.6092 I-0.4235 J0.0
G2 X57.9393 Y175.1331 I0.2117 J0.3667
G1 F400.0 X57.3822 Y175.3559
G2 F800.0 X57.8208 Y175.8623 I0.9503 J-0.38
G2 X59.3559 Y174.9759 I0.5117 J-0.8863
G2 X57.8208 Y174.0896 I-1.0235 J0.0
G2 X57.3822 Y175.3559 I0.5117 J0.8863
G1 F400.0 X56.8251 Y175.5787
G2 F800.0 X57.5208 Y176.3819 I1.5074 J-0.6027
G2 X59.9559 Y174.9759 I0.8117 J-1.406
G2 X57.5208 Y173.57 I-1.6235 J0.0
G2 X56.8251 Y175.5787 I0.8117 J1.406
G1 F400.0 X56.2679 Y175.8014
G2 F800.0 X57.2208 Y176.9015 I2.0645 J-0.8255
G2 X60.5559 Y174.9759 I1.1117 J-1.9256
G2 X57.2208 Y173.0503 I-2.2235 J0.0
G2 X56.2679 Y175.8014 I1.1117 J1.9256
G1 F400.0 X55.7108 Y176.0242
G2 F800.0 X56.9208 Y177.4211 I2.6217 J-1.0483
G2 X61.1559 Y174.9759 I1.4117 J-2.4452
G2 X56.9208 Y172.5307 I-2.8235 J0.0
G2 X55.7108 Y176.0242 I1.4117 J2.4452
G1 F400.0 X55.1537 Y176.2469
G2 F800.0 X56.6208 Y177.9407 I3.1788 J-1.271
G2 X61.7559 Y174.9759 I1.7117 J-2.9648
G2 X56.6208 Y172.0111 I-3.4235 J0.0
G2 X55.1537 Y176.2469 I1.7117 J2.9648
G1 F400.0 X54.5966 Y176.4697
G2 F800.0 X56.3208 Y178.4603 I3.7359 J-1.4938
G2 X62.3559 Y174.9759 I2.0117 J-3.4844
G2 X56.3208 Y171.4915 I-4.0235 J0.0
G2 X54.5966 Y176.4697 I2.0117 J3.4844
G1 F400.0 X54.0395 Y176.6925
G2 F800.0 X56.0208 Y178.9799 I4.293 J-1.7165
G2 X62.9559 Y174.9759 I2.3117 J-4.004
G2 X56.0208 Y170.9719 I-4.6235 J0.0
G2 X54.0395 Y176.6925 I2.3117 J4.004
G1 F400.0 X53.4824 Y176.9152
G2 F800.0 X55.7208 Y179.4996 I4.8501 J-1.9393
G2 X63.5559 Y174.9759 I2.6117 J-4.5236
G2 X55.7208 Y170.4523 I-5.2235 J0.0
G2 X53.4824 Y176.9152 I2.6117 J4.5236
G1 F400.0 X52.9253 Y177.138
G2 F800.0 X55.4208 Y180.0192 I5.4072 J-2.1621
G2 X64.1559 Y174.9759 I2.9117 J-5.0433
G2 X55.4208 Y169.9327 I-5.8235 J0.0
G2 X52.9253 Y177.138 I2.9117 J5.0433
G1 F400.0 X52.3681 Y177.3607
G2 F800.0 X55.1208 Y180.5388 I5.9643 J-2.3848
G2 X64.7559 Y174.9759 I3.2117 J-5.5629
G2 X55.1208 Y169.413 I-6.4235 J0.0
G2 X52.3681 Y177.3607 I3.2117 J5.5629
G0 Z10.0
G0 X58.2956 Y158.4271
G0 Z4.7
G1 F400.0 Z0.7
G2 F800.0 X58.4559 Y158.3093 I0.0369 J-0.1178
G2 X58.2708 Y158.2024 I-0.1235 J0.0
G2 Y158.4162 I0.0617 J0.1069
G1 X58.2956 Y158.4271
G1 F400.0 X58.206 Y158.7134
G2 F800.0 X58.7559 Y158.3093 I0.1265 J-0.4041
G2 X58.1208 Y157.9426 I-0.4235 J0.0
G2 Y158.676 I0.2117 J0.3667
G1 X58.206 Y158.7134
G1 F400.0 X58.0267 Y159.286
G2 F800.0 X59.3559 Y158.3093 I0.3058 J-0.9767
G2 X57.8208 Y157.423 I-1.0235 J0.0
G2 Y159.1957 I0.5117 J0.8863
G2 X58.0267 Y159.286 I0.5117 J-0.8863
G1 F400.0 X57.8474 Y159.8586
G2 F800.0 X59.9559 Y158.3093 I0.485 J-1.5493
G2 X57.5208 Y156.9034 I-1.6235 J0.0
G2 Y159.7153 I0.8117 J1.406
G2 X57.8474 Y159.8586 I0.8117 J-1.406
G1 F400.0 X57.6682 Y160.4312
G2 F800.0 X60.5559 Y158.3093 I0.6643 J-2.1219
G2 X57.2208 Y156.3837 I-2.2235 J0.0
G2 Y160.2349 I1.1117 J1.9256
G2 X57.6682 Y160.4312 I1.1117 J-1.9256
G1 F400.0 X57.4889 Y161.0038
G2 F800.0 X61.1559 Y158.3093 I0.8436 J-2.6945
G2 X56.9208 Y155.8641 I-2.8235 J0.0
G2 Y160.7545 I1.4117 J2.4452
G2 X57.4889 Y161.0038 I1.4117 J-2.4452
G1 F400.0 X57.3097 Y161.5764
G2 F800.0 X61.7559 Y158.3093 I1.0228 J-3.2671
G2 X56.6208 Y155.3445 I-3.4235 J0.0
G2 Y161.2741 I1.7117 J2.9648
G2 X57.3097 Y161.5764 I1.7117 J-2.9648
G1 F400.0 X57.1304 Y162.149
G2 F800.0 X62.3559 Y158.3093 I1.2021 J-3.8397
G2 X56.3208 Y154.8249 I-4.0235 J0.0
G2 Y161.7937 I2.0117 J3.4844
G2 X57.1304 Y162.149 I2.0117 J-3.4844
G1 F400.0 X56.9511 Y162.7216
G2 F800.0 X62.9559 Y158.3093 I1.3813 J-4.4123
G2 X56.0208 Y154.3053 I-4.6235 J0.0
G2 Y162.3133 I2.3117 J4.004
G2 X56.9511 Y162.7216 I2.3117 J-4.004
G1 F400.0 X56.7719 Y163.2942
G2 F800.0 X63.5559 Y158.3093 I1.5606 J-4.9849
G2 X55.7208 Y153.7857 I-5.2235 J0.0
G2 Y162.833 I2.6117 J4.5236
G2 X56.7719 Y163.2942 I2.6117 J-4.5236
G1 F400.0 X56.5926 Y163.8668
G2 F800.0 X64.1559 Y158.3093 I1.7399 J-5.5575
G2 X55.4208 Y153.2661 I-5.8235 J0.0
G2 Y163.3526 I2.9117 J5.0433
G2 X56.5926 Y163.8668 I2.9117 J-5.0433
G1 F400.0 X56.4134 Y164.4394
G2 F800.0 X64.7559 Y158.3093 I1.9191 J-6.1301
G2 X55.1208 Y152.7464 I-6.4235 J0.0
G2 Y163.8722 I3.2117 J5.5629
G2 X56.4134 Y164.4394 I3.2117 J-5.5629
G0 Z10.0
G0 X41.7799 Y158.3567
G0 Z4.7
G1 F400.0 Z0.7
G1 F800.0 X41.7893 Y158.3093
G2 X41.6042 Y158.2024 I-0.1235 J0.0
G2 Y158.4162 I0.0617 J0.1069
G2 X41.7799 Y158.3567 I0.0617 J-0.1069
G1 F400.0 X42.0569 Y158.4719
G2 F800.0 X42.0893 Y158.3093 I-0.391 J-0.1625
G2 X41.4542 Y157.9426 I-0.4235 J0.0
G2 Y158.676 I0.2117 J0.3667
G2 X42.0569 Y158.4719 I0.2117 J-0.3667
G1 F400.0 X42.6109 Y158.7021
G2 F800.0 X42.6893 Y158.3093 I-0.9451 J-0.3928
G2 X41.1542 Y157.423 I-1.0235 J0.0
G2 Y159.1957 I0.5117 J0.8863
G2 X42.6109 Y158.7021 I0.5117 J-0.8863
G1 F400.0 X43.165 Y158.9324
G2 F800.0 X43.2893 Y158.3093 I-1.4991 J-0.6231
G2 X40.8542 Y156.9034 I-1.6235 J0.0
G2 Y159.7153 I0.8117 J1.406
G2 X43.165 Y158.9324 I0.8117 J-1.406
G1 F400.0 X43.719 Y159.1627
G2 F800.0 X43.8893 Y158.3093 I-2.0531 J-0.8534
G2 X40.5542 Y156.3837 I-2.2235 J0.0
G2 Y160.2349 I1.1117 J1.9256
G2 X43.719 Y159.1627 I1.1117 J-1.9256
G1 F400.0 X44.2731 Y159.393
G2 F800.0 X44.4893 Y158.3093 I-2.6072 J-1.0837
G2 X40.2542 Y155.8641 I-2.8235 J0.0
G2 Y160.7545 I1.4117 J2.4452
G2 X44.2731 Y159.393 I1.4117 J-2.4452
G1 F400.0 X44.8271 Y159.6233
G2 F800.0 X45.0893 Y158.3093 I-3.1612 J-1.314
G2 X39.9542 Y155.3445 I-3.4235 J0.0
G2 Y161.2741 I1.7117 J2.9648
G2 X44.8271 Y159.6233 I1.7117 J-2.9648
G1 F400.0 X45.3812 Y159.8536
G2 F800.0 X45.6893 Y158.3093 I-3.7153 J-1.5443
G2 X39.6542 Y154.8249 I-4.0235 J0.0
G2 Y161.7937 I2.0117 J3.4844
G2 X45.3812 Y159.8536 I2.0117 J-3.4844
G1 F400.0 X45.9352 Y160.0839
G2 F800.0 X46.2893 Y158.3093 I-4.2693 J-1.7746
G2 X39.3542 Y154.3053 I-4.6235 J0.0
G2 Y162.3133 I2.3117 J4.004
G2 X45.9352 Y160.0839 I2.3117 J-4.004
G1 F400.0 X46.4892 Y160.3142
G2 F800.0 X46.8893 Y158.3093 I-4.8234 J-2.0049
G2 X39.0542 Y153.7857 I-5.2235 J0.0
G2 Y162.833 I2.6117 J4.5236
G2 X46.4892 Y160.3142 I2.6117 J-4.5236
G1 F400.0 X47.0433 Y160.5445
G2 F800.0 X47.4893 Y158.3093 I-5.3774 J-2.2352
G2 X38.7542 Y153.2661 I-5.8235 J0.0
G2 Y163.3526 I2.9117 J5.0433
G2 X47.0433 Y160.5445 I2.9117 J-5.0433
G1 F400.0 X47.5973 Y160.7748
G2 F800.0 X48.0893 Y158.3093 I-5.9314 J-2.4655
G2 X38.4542 Y152.7464 I-6.4235 J0.0
G2 Y163.8722 I3.2117 J5.5629
G2 X47.5973 Y160.7748 I3.2117 J-5.5629
G0 Z10.0
G0 X41.7024 Y141.7606
G0 Z4.7
G1 F400.0 Z0.7
G2 F800.0 X41.7893 Y141.6427 I-0.0366 J-0.1179
G2 X41.6042 Y141.5358 I-0.1235 J0.0
G2 Y141.7496 I0.0617 J0.1069
G1 X41.7024 Y141.7606
G1 F400.0 X41.7913 Y142.0472
G2 F800.0 X42.0893 Y141.6427 I-0.1254 J-0.4045
G2 X41.4542 Y141.276 I-0.4235 J0.0
G2 Y142.0094 I0.2117 J0.3667
G2 X41.7913 Y142.0472 I0.2117 J-0.3667
G1 F400.0 X41.969 Y142.6203
G2 F800.0 X42.6893 Y141.6427 I-0.3031 J-0.9776
G2 X41.1542 Y140.7564 I-1.0235 J0.0
G2 Y142.5291 I0.5117 J0.8863
G2 X41.969 Y142.6203 I0.5117 J-0.8863
G1 F400.0 X42.1466 Y143.1934
G2 F800.0 X43.2893 Y141.6427 I-0.4807 J-1.5506
G2 X40.8542 Y140.2368 I-1.6235 J0.0
G2 Y143.0487 I0.8117 J1.406
G2 X42.1466 Y143.1934 I0.8117 J-1.406
G1 F400.0 X42.3243 Y143.7665
G2 F800.0 X43.8893 Y141.6427 I-0.6584 J-2.1237
G2 X40.5542 Y139.7171 I-2.2235 J0.0
G2 Y143.5683 I1.1117 J1.9256
G2 X42.3243 Y143.7665 I1.1117 J-1.9256
G1 F400.0 X42.502 Y144.3395
G2 F800.0 X44.4893 Y141.6427 I-0.8361 J-2.6968
G2 X40.2542 Y139.1975 I-2.8235 J0.0
G2 Y144.0879 I1.4117 J2.4452
G2 X42.502 Y144.3395 I1.4117 J-2.4452
G1 F400.0 X42.6796 Y144.9126
G2 F800.0 X45.0893 Y141.6427 I-1.0138 J-3.2699
G2 X39.9542 Y138.6779 I-3.4235 J0.0
G2 Y144.6075 I1.7117 J2.9648
G2 X42.6796 Y144.9126 I1.7117 J-2.9648
G1 F400.0 X42.8573 Y145.4857
G2 F800.0 X45.6893 Y141.6427 I-1.1914 J-3.843
G2 X39.6542 Y138.1583 I-4.0235 J0.0
G2 Y145.1271 I2.0117 J3.4844
G2 X42.8573 Y145.4857 I2.0117 J-3.4844
G1 F400.0 X43.035 Y146.0588
G2 F800.0 X46.2893 Y141.6427 I-1.3691 J-4.4161
G2 X39.3542 Y137.6387 I-4.6235 J0.0
G2 Y145.6467 I2.3117 J4.004
G2 X43.035 Y146.0588 I2.3117 J-4.004
G1 F400.0 X43.2127 Y146.6319
G2 F800.0 X46.8893 Y141.6427 I-1.5468 J-4.9892
G2 X39.0542 Y137.1191 I-5.2235 J0.0
G2 Y146.1664 I2.6117 J4.5236
G2 X43.2127 Y146.6319 I2.6117 J-4.5236
G1 F400.0 X43.3903 Y147.205
G2 F800.0 X47.4893 Y141.6427 I-1.7244 J-5.5623
G2 X38.7542 Y136.5995 I-5.8235 J0.0
G2 Y146.686 I2.9117 J5.0433
G2 X43.3903 Y147.205 I2.9117 J-5.0433
G1 F400.0 X43.568 Y147.7781
G2 F800.0 X48.0893 Y141.6427 I-1.9021 J-6.1354
G2 X38.4542 Y136.0798 I-6.4235 J0.0
G2 Y147.2056 I3.2117 J5.5629
G2 X43.568 Y147.7781 I3.2117 J-5.5629
G0 Z10.0
G0 X58.2185 Y141.6901
G0 Z4.7
G1 F400.0 Z0.7
G1 F800.0 X58.2708 Y141.7496
G2 X58.4559 Y141.6427 I0.0617 J-0.1069
G2 X58.2708 Y141.5358 I-0.1235 J0.0
G2 X58.2185 Y141.6901 I0.0617 J0.1069
G1 F400.0 X57.9414 Y141.8052
G2 F800.0 X58.1208 Y142.0094 I0.391 J-0.1625
G2 X58.7559 Y141.6427 I0.2117 J-0.3667
G2 X58.1208 Y141.276 I-0.4235 J0.0
G2 X57.9414 Y141.8052 I0.2117 J0.3667
G1 F400.0 X57.3874 Y142.0355
G2 F800.0 X57.8208 Y142.5291 I0.9451 J-0.3927
G2 X59.3559 Y141.6427 I0.5117 J-0.8863
G2 X57.8208 Y140.7564 I-1.0235 J0.0
G2 X57.3874 Y142.0355 I0.5117 J0.8863
G1 F400.0 X56.8333 Y142.2657
G2 F800.0 X57.5208 Y143.0487 I1.4992 J-0.623
G2 X59.9559 Y141.6427 I0.8117 J-1.406
G2 X57.5208 Y140.2368 I-1.6235 J0.0
G2 X56.8333 Y142.2657 I0.8117 J1.406
G1 F400.0 X56.2792 Y142.4959
G2 F800.0 X57.2208 Y143.5683 I2.0532 J-0.8532
G2 X60.5559 Y141.6427 I1.1117 J-1.9256
G2 X57.2208 Y139.7171 I-2.2235 J0.0
G2 X56.2792 Y142.4959 I1.1117 J1.9256
G1 F400.0 X55.7252 Y142.7262
G2 F800.0 X56.9208 Y144.0879 I2.6073 J-1.0835
G2 X61.1559 Y141.6427 I1.4117 J-2.4452
G2 X56.9208 Y139.1975 I-2.8235 J0.0
G2 X55.7252 Y142.7262 I1.4117 J2.4452
G1 F400.0 X55.1711 Y142.9564
G2 F800.0 X56.6208 Y144.6075 I3.1614 J-1.3137
G2 X61.7559 Y141.6427 I1.7117 J-2.9648
G2 X56.6208 Y138.6779 I-3.4235 J0.0
G2 X55.1711 Y142.9564 I1.7117 J2.9648
G1 F400.0 X54.617 Y143.1867
G2 F800.0 X56.3208 Y145.1271 I3.7154 J-1.5439
G2 X62.3559 Y141.6427 I2.0117 J-3.4844
G2 X56.3208 Y138.1583 I-4.0235 J0.0
G2 X54.617 Y143.1867 I2.0117 J3.4844
G1 F400.0 X54.063 Y143.4169
G2 F800.0 X56.0208 Y145.6467 I4.2695 J-1.7742
G2 X62.9559 Y141.6427 I2.3117 J-4.004
G2 X56.0208 Y137.6387 I-4.6235 J0.0
G2 X54.063 Y143.4169 I2.3117 J4.004
G1 F400.0 X53.5089 Y143.6471
G2 F800.0 X55.7208 Y146.1664 I4.8236 J-2.0044
G2 X63.5559 Y141.6427 I2.6117 J-4.5236
G2 X55.7208 Y137.1191 I-5.2235 J0.0
G2 X53.5089 Y143.6471 I2.6117 J4.5236
G1 F400.0 X52.9549 Y143.8774
G2 F800.0 X55.4208 Y146.686 I5.3776 J-2.2347
G2 X64.1559 Y141.6427 I2.9117 J-5.0433
G2 X55.4208 Y136.5995 I-5.8235 J0.0
G2 X52.9549 Y143.8774 I2.9117 J5.0433
G1 F400.0 X52.4008 Y144.1076
G2 F800.0 X55.1208 Y147.2056 I5.9317 J-2.4649
G2 X64.7559 Y141.6427 I3.2117 J-5.5629
G2 X55.1208 Y136.0798 I-6.4235 J0.0
G2 X52.4008 Y144.1076 I3.2117 J5.5629
G0 Z10.0
G0 X58.2959 Y125.094
G0 Z4.7
G1 F400.0 Z0.7
G2 F800.0 X58.4559 Y124.9761 I0.0366 J-0.1179
G2 X58.2708 Y124.8692 I-0.1235 J0.0
G2 Y125.083 I0.0617 J0.1069
G1 X58.2959 Y125.094
G1 F400.0 X58.2071 Y125.3806
G2 F800.0 X58.7559 Y124.9761 I0.1254 J-0.4045
G2 X58.1208 Y124.6094 I-0.4235 J0.0
G2 Y125.3428 I0.2117 J0.3667
G1 X58.2071 Y125.3806
G1 F400.0 X58.0294 Y125.9537
G2 F800.0 X59.3559 Y124.9761 I0.3031 J-0.9775
G2 X57.8208 Y124.0898 I-1.0235 J0.0
G2 Y125.8625 I0.5117 J0.8863
G2 X58.0294 Y125.9537 I0.5117 J-0.8863
G1 F400.0 X57.8517 Y126.5268
G2 F800.0 X59.9559 Y124.9761 I0.4808 J-1.5506
G2 X57.5208 Y123.5702 I-1.6235 J0.0
G2 Y126.3821 I0.8117 J1.406
G2 X57.8517 Y126.5268 I0.8117 J-1.406
G1 F400.0 X57.674 Y127.0998
G2 F800.0 X60.5559 Y124.9761 I0.6585 J-2.1237
G2 X57.2208 Y123.0505 I-2.2235 J0.0
G2 Y126.9017 I1.1117 J1.9256
G2 X57.674 Y127.0998 I1.1117 J-1.9256
G1 F400.0 X57.4963 Y127.6729
G2 F800.0 X61.1559 Y124.9761 I0.8361 J-2.6968
G2 X56.9208 Y122.5309 I-2.8235 J0.0
G2 Y127.4213 I1.4117 J2.4452
G2 X57.4963 Y127.6729 I1.4117 J-2.4452
G1 F400.0 X57.3187 Y128.246
G2 F800.0 X61.7559 Y124.9761 I1.0138 J-3.2699
G2 X56.6208 Y122.0113 I-3.4235 J0.0
G2 Y127.9409 I1.7117 J2.9648
G2 X57.3187 Y128.246 I1.7117 J-2.9648
G1 F400.0 X57.141 Y128.8191
G2 F800.0 X62.3559 Y124.9761 I1.1915 J-3.843
G2 X56.3208 Y121.4917 I-4.0235 J0.0
G2 Y128.4605 I2.0117 J3.4844
G2 X57.141 Y128.8191 I2.0117 J-3.4844
G1 F400.0 X56.9633 Y129.3922
G2 F800.0 X62.9559 Y124.9761 I1.3692 J-4.4161
G2 X56.0208 Y120.9721 I-4.6235 J0.0
G2 Y128.9801 I2.3117 J4.004
G2 X56.9633 Y129.3922 I2.3117 J-4.004
G1 F400.0 X56.7856 Y129.9653
G2 F800.0 X63.5559 Y124.9761 I1.5469 J-4.9892
G2 X55.7208 Y120.4525 I-5.2235 J0.0
G2 Y129.4998 I2.6117 J4.5236
G2 X56.7856 Y129.9653 I2.6117 J-4.5236
G1 F400.0 X56.6079 Y130.5384
G2 F800.0 X64.1559 Y124.9761 I1.7246 J-5.5622
G2 X55.4208 Y119.9329 I-5.8235 J0.0
G2 Y130.0194 I2.9117 J5.0433
G2 X56.6079 Y130.5384 I2.9117 J-5.0433
G1 F400.0 X56.4302 Y131.1114
G2 F800.0 X64.7559 Y124.9761 I1.9022 J-6.1353
G2 X55.1208 Y119.4132 I-6.4235 J0.0
G2 Y130.539 I3.2117 J5.5629
G2 X56.4302 Y131.1114 I3.2117 J-5.5629
G0 Z10.0
G0 X41.7799 Y125.0235
G0 Z4.7
G1 F400.0 Z0.7
G1 F800.0 X41.7893 Y124.9761
G2 X41.6042 Y124.8692 I-0.1235 J0.0
G2 Y125.083 I0.0617 J0.1069
G2 X41.7799 Y125.0235 I0.0617 J-0.1069
G1 F400.0 X42.0569 Y125.1386
G2 F800.0 X42.0893 Y124.9761 I-0.391 J-0.1625
G2 X41.4542 Y124.6094 I-0.4235 J0.0
G2 Y125.3428 I0.2117 J0.3667
G2 X42.0569 Y125.1386 I0.2117 J-0.3667
G1 F400.0 X42.611 Y125.3689
G2 F800.0 X42.6893 Y124.9761 I-0.9451 J-0.3927
G2 X41.1542 Y124.0898 I-1.0235 J0.0
G2 Y125.8625 I0.5117 J0.8863
G2 X42.611 Y125.3689 I0.5117 J-0.8863
G1 F400.0 X43.1651 Y125.5991
G2 F800.0 X43.2893 Y124.9761 I-1.4992 J-0.623
G2 X40.8542 Y123.5702 I-1.6235 J0.0
G2 Y126.3821 I0.8117 J1.406
G2 X43.1651 Y125.5991 I0.8117 J-1.406
G1 F400.0 X43.7191 Y125.8293
G2 F800.0 X43.8893 Y124.9761 I-2.0532 J-0.8532
G2 X40.5542 Y123.0505 I-2.2235 J0.0
G2 Y126.9017 I1.1117 J1.9256
G2 X43.7191 Y125.8293 I1.1117 J-1.9256
G1 F400.0 X44.2732 Y126.0596
G2 F800.0 X44.4893 Y124.9761 I-2.6073 J-1.0835
G2 X40.2542 Y122.5309 I-2.8235 J0.0
G2 Y127.4213 I1.4117 J2.4452
G2 X44.2732 Y126.0596 I1.4117 J-2.4452
G1 F400.0 X44.8272 Y126.2898
G2 F800.0 X45.0893 Y124.9761 I-3.1614 J-1.3137
G2 X39.9542 Y122.0113 I-3.4235 J0.0
G2 Y127.9409 I1.7117 J2.9648
G2 X44.8272 Y126.2898 I1.7117 J-2.9648
G1 F400.0 X45.3813 Y126.5201
G2 F800.0 X45.6893 Y124.9761 I-3.7154 J-1.5439
G2 X39.6542 Y121.4917 I-4.0235 J0.0
G2 Y128.4605 I2.0117 J3.4844
G2 X45.3813 Y126.5201 I2.0117 J-3.4844
G1 F400.0 X45.9354 Y126.7503
G2 F800.0 X46.2893 Y124.9761 I-4.2695 J-1.7742
G2 X39.3542 Y120.9721 I-4.6235 J0.0
G2 Y128.9801 I2.3117 J4.004
G2 X45.9354 Y126.7503 I2.3117 J-4.004
G1 F400.0 X46.4894 Y126.9805
G2 F800.0 X46.8893 Y124.9761 I-4.8236 J-2.0044
G2 X39.0542 Y120.4525 I-5.2235 J0.0
G2 Y129.4998 I2.6117 J4.5236
G2 X46.4894 Y126.9805 I2.6117 J-4.5236
G1 F400.0 X47.0435 Y127.2108
G2 F800.0 X47.4893 Y124.9761 I-5.3776 J-2.2347
G2 X38.7542 Y119.9329 I-5.8235 J0.0
G2 Y130.0194 I2.9117 J5.0433
G2 X47.0435 Y127.2108 I2.9117 J-5.0433
G1 F400.0 X47.5976 Y127.441
G2 F800.0 X48.0893 Y124.9761 I-5.9317 J-2.4649
G2 X38.4542 Y119.4132 I-6.4235 J0.0
G2 Y130.539 I3.2117 J5.5629
G2 X47.5976 Y127.441 I3.2117 J-5.5629
G0 Z10.0
G0 X41.7024 Y108.4274
G0 Z4.7
G1 F400.0 Z0.7
G2 F800.0 X41.7893 Y108.3095 I-0.0366 J-0.1179
G2 X41.6042 Y108.2026 I-0.1235 J0.0
G2 Y108.4164 I0.0617 J0.1069
G1 X41.7024 Y108.4274
G1 F400.0 X41.7913 Y108.714
G2 F800.0 X42.0893 Y108.3095 I-0.1254 J-0.4045
G2 X41.4542 Y107.9428 I-0.4235 J0.0
G2 Y108.6762 I0.2117 J0.3667
G2 X41.7913 Y108.714 I0.2117 J-0.3667
G1 F400.0 X41.969 Y109.2871
G2 F800.0 X42.6893 Y108.3095 I-0.3031 J-0.9775
G2 X41.1542 Y107.4232 I-1.0235 J0.0
G2 Y109.1959 I0.5117 J0.8863
G2 X41.969 Y109.2871 I0.5117 J-0.8863
G1 F400.0 X42.1467 Y109.8602
G2 F800.0 X43.2893 Y108.3095 I-0.4808 J-1.5506
G2 X40.8542 Y106.9036 I-1.6235 J0.0
G2 Y109.7155 I0.8117 J1.406
G2 X42.1467 Y109.8602 I0.8117 J-1.406
G1 F400.0 X42.3243 Y110.4332
G2 F800.0 X43.8893 Y108.3095 I-0.6585 J-2.1237
G2 X40.5542 Y106.3839 I-2.2235 J0.0
G2 Y110.2351 I1.1117 J1.9256
G2 X42.3243 Y110.4332 I1.1117 J-1.9256
G1 F400.0 X42.502 Y111.0063
G2 F800.0 X44.4893 Y108.3095 I-0.8361 J-2.6968
G2 X40.2542 Y105.8643 I-2.8235 J0.0
G2 Y110.7547 I1.4117 J2.4452
G2 X42.502 Y111.0063 I1.4117 J-2.4452
G1 F400.0 X42.6797 Y111.5794
G2 F800.0 X45.0893 Y108.3095 I-1.0138 J-3.2699
G2 X39.9542 Y105.3447 I-3.4235 J0.0
G2 Y111.2743 I1.7117 J2.9648
G2 X42.6797 Y111.5794 I1.7117 J-2.9648
G1 F400.0 X42.8574 Y112.1525
G2 F800.0 X45.6893 Y108.3095 I-1.1915 J-3.843
G2 X39.6542 Y104.8251 I-4.0235 J0.0
G2 Y111.7939 I2.0117 J3.4844
G2 X42.8574 Y112.1525 I2.0117 J-3.4844
G1 F400.0 X43.0351 Y112.7256
G2 F800.0 X46.2893 Y108.3095 I-1.3692 J-4.4161
G2 X39.3542 Y104.3055 I-4.6235 J0.0
G2 Y112.3135 I2.3117 J4.004
G2 X43.0351 Y112.7256 I2.3117 J-4.004
G1 F400.0 X43.2128 Y113.2987
G2 F800.0 X46.8893 Y108.3095 I-1.5469 J-4.9892
G2 X39.0542 Y103.7859 I-5.2235 J0.0
G2 Y112.8332 I2.6117 J4.5236
G2 X43.2128 Y113.2987 I2.6117 J-4.5236
G1 F400.0 X43.3904 Y113.8718
G2 F800.0 X47.4893 Y108.3095 I-1.7246 J-5.5622
G2 X38.7542 Y103.2663 I-5.8235 J0.0
G2 Y113.3528 I2.9117 J5.0433
G2 X43.3904 Y113.8718 I2.9117 J-5.0433
G1 F400.0 X43.5681 Y114.4448
G2 F800.0 X48.0893 Y108.3095 I-1.9022 J-6.1353
G2 X38.4542 Y102.7466 I-6.4235 J0.0
G2 Y113.8724 I3.2117 J5.5629
G2 X43.5681 Y114.4448 I3.2117 J-5.5629
G0 Z10.0
G0 X58.2185 Y108.3569
G0 Z4.7
G1 F400.0 Z0.7
G1 F800.0 X58.2708 Y108.4164
G2 X58.4559 Y108.3095 I0.0617 J-0.1069
G2 X58.2708 Y108.2026 I-0.1235 J0.0
G2 X58.2185 Y108.3569 I0.0617 J0.1069
G1 F400.0 X57.9414 Y108.472
G2 F800.0 X58.1208 Y108.6762 I0.391 J-0.1625
G2 X58.7559 Y108.3095 I0.2117 J-0.3667
G2 X58.1208 Y107.9428 I-0.4235 J0.0
G2 X57.9414 Y108.472 I0.2117 J0.3667
G1 F400.0 X57.3874 Y108.7023
G2 F800.0 X57.8208 Y109.1959 I0.9451 J-0.3927
G2 X59.3559 Y108.3095 I0.5117 J-0.8863
G2 X57.8208 Y107.4232 I-1.0235 J0.0
G2 X57.3874 Y108.7023 I0.5117 J0.8863
G1 F400.0 X56.8333 Y108.9325
G2 F800.0 X57.5208 Y109.7155 I1.4992 J-0.623
G2 X59.9559 Y108.3095 I0.8117 J-1.406
G2 X57.5208 Y106.9036 I-1.6235 J0.0
G2 X56.8333 Y108.9325 I0.8117 J1.406
G1 F400.0 X56.2792 Y109.1627
G2 F800.0 X57.2208 Y110.2351 I2.0532 J-0.8532
G2 X60.5559 Y108.3095 I1.1117 J-1.9256
G2 X57.2208 Y106.3839 I-2.2235 J0.0
G2 X56.2792 Y109.1627 I1.1117 J1.9256
G1 F400.0 X55.7252 Y109.393
G2 F800.0 X56.9208 Y110.7547 I2.6073 J-1.0835
G2 X61.1559 Y108.3095 I1.4117 J-2.4452
G2 X56.9208 Y105.8643 I-2.8235 J0.0
G2 X55.7252 Y109.393 I1.4117 J2.4452
G1 F400.0 X55.1711 Y109.6232
G2 F800.0 X56.6208 Y111.2743 I3.1614 J-1.3137
G2 X61.7559 Y108.3095 I1.7117 J-2.9648
G2 X56.6208 Y105.3447 I-3.4235 J0.0
G2 X55.1711 Y109.6232 I1.7117 J2.9648
G1 F400.0 X54.6171 Y109.8535
G2 F800.0 X56.3208 Y111.7939 I3.7154 J-1.5439
G2 X62.3559 Y108.3095 I2.0117 J-3.4844
G2 X56.3208 Y104.8251 I-4.0235 J0.0
G2 X54.6171 Y109.8535 I2.0117 J3.4844
G1 F400.0 X54.063 Y110.0837
G2 F800.0 X56.0208 Y112.3135 I4.2695 J-1.7742
G2 X62.9559 Y108.3095 I2.3117 J-4.004
G2 X56.0208 Y104.3055 I-4.6235 J0.0
G2 X54.063 Y110.0837 I2.3117 J4.004
G1 F400.0 X53.5089 Y110.3139
G2 F800.0 X55.7208 Y112.8332 I4.8236 J-2.0044
G2 X63.5559 Y108.3095 I2.6117 J-4.5236
G2 X55.7208 Y103.7859 I-5.2235 J0.0
G2 X53.5089 Y110.3139 I2.6117 J4.5236
G1 F400.0 X52.9549 Y110.5442
G2 F800.0 X55.4208 Y113.3528 I5.3776 J-2.2347
G2 X64.1559 Y108.3095 I2.9117 J-5.0433
G2 X55.4208 Y103.2663 I-5.8235 J0.0
G2 X52.9549 Y110.5442 I2.9117 J5.0433
G1 F400.0 X52.4008 Y110.7744
G2 F800.0 X55.1208 Y113.8724 I5.9317 J-2.4649
G2 X64.7559 Y108.3095 I3.2117 J-5.5629
G2 X55.1208 Y102.7466 I-6.4235 J0.0
G2 X52.4008 Y110.7744 I3.2117 J5.5629
G0 Z10.0
G0 X58.2959 Y91.7608
G0 Z4.7
G1 F400.0 Z0.7
G2 F800.0 X58.4559 Y91.6429 I0.0366 J-0.1179
G2 X58.2708 Y91.536 I-0.1235 J0.0
G2 Y91.7498 I0.0617 J0.1069
G1 X58.2959 Y91.7608
G1 F400.0 X58.2071 Y92.0474
G2 F800.0 X58.7559 Y91.6429 I0.1254 J-0.4045
G2 X58.1208 Y91.2762 I-0.4235 J0.0
G2 Y92.0096 I0.2117 J0.3667
G1 X58.2071 Y92.0474
G1 F400.0 X58.0294 Y92.6205
G2 F800.0 X59.3559 Y91.6429 I0.3031 J-0.9775
G2 X57.8208 Y90.7566 I-1.0235 J0.0
G2 Y92.5293 I0.5117 J0.8863
G2 X58.0294 Y92.6205 I0.5117 J-0.8863
G1 F400.0 X57.8517 Y93.1936
G2 F800.0 X59.9559 Y91.6429 I0.4808 J-1.5506
G2 X57.5208 Y90.237 I-1.6235 J0.0
G2 Y93.0489 I0.8117 J1.406
G2 X57.8517 Y93.1936 I0.8117 J-1.406
G1 F400.0 X57.674 Y93.7666
G2 F800.0 X60.5559 Y91.6429 I0.6585 J-2.1237
G2 X57.2208 Y89.7173 I-2.2235 J0.0
G2 Y93.5685 I1.1117 J1.9256
G2 X57.674 Y93.7666 I1.1117 J-1.9256
G1 F400.0 X57.4963 Y94.3397
G2 F800.0 X61.1559 Y91.6429 I0.8361 J-2.6968
G2 X56.9208 Y89.1977 I-2.8235 J0.0
G2 Y94.0881 I1.4117 J2.4452
G2 X57.4963 Y94.3397 I1.4117 J-2.4452
G1 F400.0 X57.3187 Y94.9128
G2 F800.0 X61.7559 Y91.6429 I1.0138 J-3.2699
G2 X56.6208 Y88.6781 I-3.4235 J0.0
G2 Y94.6077 I1.7117 J2.9648
G2 X57.3187 Y94.9128 I1.7117 J-2.9648
G1 F400.0 X57.141 Y95.4859
G2 F800.0 X62.3559 Y91.6429 I1.1915 J-3.843
G2 X56.3208 Y88.1585 I-4.0235 J0.0
G2 Y95.1273 I2.0117 J3.4844
G2 X57.141 Y95.4859 I2.0117 J-3.4844
G1 F400.0 X56.9633 Y96.059
G2 F800.0 X62.9559 Y91.6429 I1.3692 J-4.4161
G2 X56.0208 Y87.6389 I-4.6235 J0.0
G2 Y95.6469 I2.3117 J4.004
G2 X56.9633 Y96.059 I2.3117 J-4.004
G1 F400.0 X56.7856 Y96.6321
G2 F800.0 X63.5559 Y91.6429 I1.5469 J-4.9892
G2 X55.7208 Y87.1193 I-5.2235 J0.0
G2 Y96.1666 I2.6117 J4.5236
G2 X56.7856 Y96.6321 I2.6117 J-4.5236
G1 F400.0 X56.6079 Y97.2052
G2 F800.0 X64.1559 Y91.6429 I1.7246 J-5.5622
G2 X55.4208 Y86.5997 I-5.8235 J0.0
G2 Y96.6862 I2.9117 J5.0433
G2 X56.6079 Y97.2052 I2.9117 J-5.0433
G1 F400.0 X56.4302 Y97.7782
G2 F800.0 X64.7559 Y91.6429 I1.9022 J-6.1353
G2 X55.1208 Y86.08 I-6.4235 J0.0
G2 Y97.2058 I3.2117 J5.5629
G2 X56.4302 Y97.7782 I3.2117 J-5.5629
G0 Z10.0
G0 X41.7799 Y91.6903
G0 Z4.7
G1 F400.0 Z0.7
G1 F800.0 X41.7893 Y91.6429
G2 X41.6042 Y91.536 I-0.1235 J0.0
G2 Y91.7498 I0.0617 J0.1069
G2 X41.7799 Y91.6903 I0.0617 J-0.1069
G1 F400.0 X42.0569 Y91.8054
G2 F800.0 X42.0893 Y91.6429 I-0.391 J-0.1625
G2 X41.4542 Y91.2762 I-0.4235 J0.0
G2 Y92.0096 I0.2117 J0.3667
G2 X42.0569 Y91.8054 I0.2117 J-0.3667
G1 F400.0 X42.611 Y92.0357
G2 F800.0 X42.6893 Y91.6429 I-0.9451 J-0.3927
G2 X41.1542 Y90.7566 I-1.0235 J0.0
G2 Y92.5293 I0.5117 J0.8863
G2 X42.611 Y92.0357 I0.5117 J-0.8863
G1 F400.0 X43.1651 Y92.2659
G2 F800.0 X43.2893 Y91.6429 I-1.4992 J-0.623
G2 X40.8542 Y90.237 I-1.6235 J0.0
G2 Y93.0489 I0.8117 J1.406
G2 X43.1651 Y92.2659 I0.8117 J-1.406
G1 F400.0 X43.7191 Y92.4961
G2 F800.0 X43.8893 Y91.6429 I-2.0532 J-0.8532
G2 X40.5542 Y89.7173 I-2.2235 J0.0
G2 Y93.5685 I1.1117 J1.9256
G2 X43.7191 Y92.4961 I1.1117 J-1.9256
G1 F400.0 X44.2732 Y92.7264
G2 F800.0 X44.4893 Y91.6429 I-2.6073 J-1.0835
G2 X40.2542 Y89.1977 I-2.8235 J0.0
G2 Y94.0881 I1.4117 J2.4452
G2 X44.2732 Y92.7264 I1.4117 J-2.4452
G1 F400.0 X44.8272 Y92.9566
G2 F800.0 X45.0893 Y91.6429 I-3.1614 J-1.3137
G2 X39.9542 Y88.6781 I-3.4235 J0.0
G2 Y94.6077 I1.7117 J2.9648
G2 X44.8272 Y92.9566 I1.7117 J-2.9648
G1 F400.0 X45.3813 Y93.1869
G2 F800.0 X45.6893 Y91.6429 I-3.7154 J-1.5439
G2 X39.6542 Y88.1585 I-4.0235 J0.0
G2 Y95.1273 I2.0117 J3.4844
G2 X45.3813 Y93.1869 I2.0117 J-3.4844
G1 F400.0 X45.9354 Y93.4171
G2 F800.0 X46.2893 Y91.6429 I-4.2695 J-1.7742
G2 X39.3542 Y87.6389 I-4.6235 J0.0
G2 Y95.6469 I2.3117 J4.004
G2 X45.9354 Y93.4171 I2.3117 J-4.004
G1 F400.0 X46.4894 Y93.6473
G2 F800.0 X46.8893 Y91.6429 I-4.8236 J-2.0044
G2 X39.0542 Y87.1193 I-5.2235 J0.0
G2 Y96.1666 I2.6117 J4.5236
G2 X46.4894 Y93.6473 I2.6117 J-4.5236
G1 F400.0 X47.0435 Y93.8776
G2 F800.0 X47.4893 Y91.6429 I-5.3776 J-2.2347
G2 X38.7542 Y86.5997 I-5.8235 J0.0
G2 Y96.6862 I2.9117 J5.0433
G2 X47.0435 Y93.8776 I2.9117 J-5.0433
G1 F400.0 X47.5976 Y94.1078
G2 F800.0 X48.0893 Y91.6429 I-5.9317 J-2.4649
G2 X38.4542 Y86.08 I-6.4235 J0.0
G2 Y97.2058 I3.2117 J5.5629
G2 X47.5976 Y94.1078 I3.2117 J-5.5629
G0 Z10.0
G0 X41.7024 Y75.0942
G0 Z4.7
G1 F400.0 Z0.7
G2 F800.0 X41.7893 Y74.9763 I-0.0366 J-0.1179
G2 X41.6042 Y74.8694 I-0.1235 J0.0
G2 Y75.0832 I0.0617 J0.1069
G1 X41.7024 Y75.0942
G1 F400.0 X41.7913 Y75.3808
G2 F800.0 X42.0893 Y74.9763 I-0.1254 J-0.4045
G2 X41.4542 Y74.6096 I-0.4235 J0.0
G2 Y75.343 I0.2117 J0.3667
G2 X41.7913 Y75.3808 I0.2117 J-0.3667
G1 F400.0 X41.969 Y75.9539
G2 F800.0 X42.6893 Y74.9763 I-0.3031 J-0.9775
G2 X41.1542 Y74.09 I-1.0235 J0.0
G2 Y75.8627 I0.5117 J0.8863
G2 X41.969 Y75.9539 I0.5117 J-0.8863
G1 F400.0 X42.1467 Y76.527
G2 F800.0 X43.2893 Y74.9763 I-0.4808 J-1.5506
G2 X40.8542 Y73.5704 I-1.6235 J0.0
G2 Y76.3823 I0.8117 J1.406
G2 X42.1467 Y76.527 I0.8117 J-1.406
G1 F400.0 X42.3243 Y77.1
G2 F800.0 X43.8893 Y74.9763 I-0.6585 J-2.1237
G2 X40.5542 Y73.0507 I-2.2235 J0.0
G2 Y76.9019 I1.1117 J1.9256
G2 X42.3243 Y77.1 I1.1117 J-1.9256
G1 F400.0 X42.502 Y77.6731
G2 F800.0 X44.4893 Y74.9763 I-0.8361 J-2.6968
G2 X40.2542 Y72.5311 I-2.8235 J0.0
G2 Y77.4215 I1.4117 J2.4452
G2 X42.502 Y77.6731 I1.4117 J-2.4452
G1 F400.0 X42.6797 Y78.2462
G2 F800.0 X45.0893 Y74.9763 I-1.0138 J-3.2699
G2 X39.9542 Y72.0115 I-3.4235 J0.0
G2 Y77.9411 I1.7117 J2.9648
G2 X42.6797 Y78.2462 I1.7117 J-2.9648
G1 F400.0 X42.8574 Y78.8193
G2 F800.0 X45.6893 Y74.9763 I-1.1915 J-3.843
G2 X39.6542 Y71.4919 I-4.0235 J0.0
G2 Y78.4607 I2.0117 J3.4844
G2 X42.8574 Y78.8193 I2.0117 J-3.4844
G1 F400.0 X43.0351 Y79.3924
G2 F800.0 X46.2893 Y74.9763 I-1.3692 J-4.4161
G2 X39.3542 Y70.9723 I-4.6235 J0.0
G2 Y78.9803 I2.3117 J4.004
G2 X43.0351 Y79.3924 I2.3117 J-4.004
G1 F400.0 X43.2128 Y79.9655
G2 F800.0 X46.8893 Y74.9763 I-1.5469 J-4.9892
G2 X39.0542 Y70.4527 I-5.2235 J0.0
G2 Y79.5 I2.6117 J4.5236
G2 X43.2128 Y79.9655 I2.6117 J-4.5236
G1 F400.0 X43.3904 Y80.5386
G2 F800.0 X47.4893 Y74.9763 I-1.7246 J-5.5622
G2 X38.7542 Y69.9331 I-5.8235 J0.0
G2 Y80.0196 I2.9117 J5.0433
G2 X43.3904 Y80.5386 I2.9117 J-5.0433
G1 F400.0 X43.5681 Y81.1116
G2 F800.0 X48.0893 Y74.9763 I-1.9022 J-6.1353
G2 X38.4542 Y69.4134 I-6.4235 J0.0
G2 Y80.5392 I3.2117 J5.5629
G2 X43.5681 Y81.1116 I3.2117 J-5.5629
G0 Z10.0
G0 X58.2185 Y75.0237
G0 Z4.7
G1 F400.0 Z0.7
G1 F800.0 X58.2708 Y75.0832
G2 X58.4559 Y74.9763 I0.0617 J-0.1069
G2 X58.2708 Y74.8694 I-0.1235 J0.0
G2 X58.2185 Y75.0237 I0.0617 J0.1069
G1 F400.0 X57.9414 Y75.1388
G2 F800.0 X58.1208 Y75.343 I0.391 J-0.1625
G2 X58.7559 Y74.9763 I0.2117 J-0.3667
G2 X58.1208 Y74.6096 I-0.4235 J0.0
G2 X57.9414 Y75.1388 I0.2117 J0.3667
G1 F400.0 X57.3874 Y75.3691
G2 F800.0 X57.8208 Y75.8627 I0.9451 J-0.3927
G2 X59.3559 Y74.9763 I0.5117 J-0.8863
G2 X57.8208 Y74.09 I-1.0235 J0.0
G2 X57.3874 Y75.3691 I0.5117 J0.8863
G1 F400.0 X56.8333 Y75.5993
G2 F800.0 X57.5208 Y76.3823 I1.4992 J-0.623
G2 X59.9559 Y74.9763 I0.8117 J-1.406
G2 X57.5208 Y73.5704 I-1.6235 J0.0
G2 X56.8333 Y75.5993 I0.8117 J1.406
G1 F400.0 X56.2792 Y75.8295
G2 F800.0 X57.2208 Y76.9019 I2.0532 J-0.8532
G2 X60.5559 Y74.9763 I1.1117 J-1.9256
G2 X57.2208 Y73.0507 I-2.2235 J0.0
G2 X56.2792 Y75.8295 I1.1117 J1.9256
G1 F400.0 X55.7252 Y76.0598
G2 F800.0 X56.9208 Y77.4215 I2.6073 J-1.0835
G2 X61.1559 Y74.9763 I1.4117 J-2.4452
G2 X56.9208 Y72.5311 I-2.8235 J0.0
G2 X55.7252 Y76.0598 I1.4117 J2.4452
G1 F400.0 X55.1711 Y76.29
G2 F800.0 X56.6208 Y77.9411 I3.1614 J-1.3137
G2 X61.7559 Y74.9763 I1.7117 J-2.9648
G2 X56.6208 Y72.0115 I-3.4235 J0.0
G2 X55.1711 Y76.29 I1.7117 J2.9648
G1 F400.0 X54.6171 Y76.5203
G2 F800.0 X56.3208 Y78.4607 I3.7154 J-1.5439
G2 X62.3559 Y74.9763 I2.0117 J-3.4844
G2 X56.3208 Y71.4919 I-4.0235 J0.0
G2 X54.6171 Y76.5203 I2.0117 J3.4844
G1 F400.0 X54.063 Y76.7505
G2 F800.0 X56.0208 Y78.9803 I4.2695 J-1.7742
G2 X62.9559 Y74.9763 I2.3117 J-4.004
G2 X56.0208 Y70.9723 I-4.6235 J0.0
G2 X54.063 Y76.7505 I2.3117 J4.004
G1 F400.0 X53.5089 Y76.9807
G2 F800.0 X55.7208 Y79.5 I4.8236 J-2.0044
G2 X63.5559 Y74.9763 I2.6117 J-4.5236
G2 X55.7208 Y70.4527 I-5.2235 J0.0
G2 X53.5089 Y76.9807 I2.6117 J4.5236
G1 F400.0 X52.9549 Y77.211
G2 F800.0 X55.4208 Y80.0196 I5.3776 J-2.2347
G2 X64.1559 Y74.9763 I2.9117 J-5.0433
G2 X55.4208 Y69.9331 I-5.8235 J0.0
G2 X52.9549 Y77.211 I2.9117 J5.0433
G1 F400.0 X52.4008 Y77.4412
G2 F800.0 X55.1208 Y80.5392 I5.9317 J-2.4649
G2 X64.7559 Y74.9763 I3.2117 J-5.5629
G2 X55.1208 Y69.4134 I-6.4235 J0.0
G2 X52.4008 Y77.4412 I3.2117 J5.5629
G0 Z10.0
G0 X58.2959 Y58.4276
G0 Z4.7
G1 F400.0 Z0.7
G2 F800.0 X58.4559 Y58.3097 I0.0366 J-0.1179
G2 X58.2708 Y58.2028 I-0.1235 J0.0
G2 Y58.4166 I0.0617 J0.1069
G1 X58.2959 Y58.4276
G1 F400.0 X58.2071 Y58.7142
G2 F800.0 X58.7559 Y58.3097 I0.1254 J-0.4045
G2 X58.1208 Y57.943 I-0.4235 J0.0
G2 Y58.6764 I0.2117 J0.3667
G1 X58.2071 Y58.7142
G1 F400.0 X58.0294 Y59.2873
G2 F800.0 X59.3559 Y58.3097 I0.3031 J-0.9775
G2 X57.8208 Y57.4234 I-1.0235 J0.0
G2 Y59.1961 I0.5117 J0.8863
G2 X58.0294 Y59.2873 I0.5117 J-0.8863
G1 F400.0 X57.8517 Y59.8604
G2 F800.0 X59.9559 Y58.3097 I0.4808 J-1.5506
G2 X57.5208 Y56.9038 I-1.6235 J0.0
G2 Y59.7157 I0.8117 J1.406
G2 X57.8517 Y59.8604 I0.8117 J-1.406
G1 F400.0 X57.674 Y60.4334
G2 F800.0 X60.5559 Y58.3097 I0.6585 J-2.1237
G2 X57.2208 Y56.3841 I-2.2235 J0.0
G2 Y60.2353 I1.1117 J1.9256
G2 X57.674 Y60.4334 I1.1117 J-1.9256
G1 F400.0 X57.4963 Y61.0065
G2 F800.0 X61.1559 Y58.3097 I0.8361 J-2.6968
G2 X56.9208 Y55.8645 I-2.8235 J0.0
G2 Y60.7549 I1.4117 J2.4452
G2 X57.4963 Y61.0065 I1.4117 J-2.4452
G1 F400.0 X57.3187 Y61.5796
G2 F800.0 X61.7559 Y58.3097 I1.0138 J-3.2699
G2 X56.6208 Y55.3449 I-3.4235 J0.0
G2 Y61.2745 I1.7117 J2.9648
G2 X57.3187 Y61.5796 I1.7117 J-2.9648
G1 F400.0 X57.141 Y62.1527
G2 F800.0 X62.3559 Y58.3097 I1.1915 J-3.843
G2 X56.3208 Y54.8253 I-4.0235 J0.0
G2 Y61.7941 I2.0117 J3.4844
G2 X57.141 Y62.1527 I2.0117 J-3.4844
G1 F400.0 X56.9633 Y62.7258
G2 F800.0 X62.9559 Y58.3097 I1.3692 J-4.4161
G2 X56.0208 Y54.3057 I-4.6235 J0.0
G2 Y62.3137 I2.3117 J4.004
G2 X56.9633 Y62.7258 I2.3117 J-4.004
G1 F400.0 X56.7856 Y63.2989
G2 F800.0 X63.5559 Y58.3097 I1.5469 J-4.9892
G2 X55.7208 Y53.7861 I-5.2235 J0.0
G2 Y62.8334 I2.6117 J4.5236
G2 X56.7856 Y63.2989 I2.6117 J-4.5236
G1 F400.0 X56.6079 Y63.872
G2 F800.0 X64.1559 Y58.3097 I1.7246 J-5.5622
G2 X55.4208 Y53.2665 I-5.8235 J0.0
G2 Y63.353 I2.9117 J5.0433
G2 X56.6079 Y63.872 I2.9117 J-5.0433
G1 F400.0 X56.4302 Y64.445
G2 F800.0 X64.7559 Y58.3097 I1.9022 J-6.1353
G2 X55.1208 Y52.7468 I-6.4235 J0.0
G2 Y63.8726 I3.2117 J5.5629
G2 X56.4302 Y64.445 I3.2117 J-5.5629
G0 Z10.0
G0 X41.7799 Y58.3571
G0 Z4.7
G1 F400.0 Z0.7
G1 F800.0 X41.7893 Y58.3097
G2 X41.6042 Y58.2028 I-0.1235 J0.0
G2 Y58.4166 I0.0617 J0.1069
G2 X41.7799 Y58.3571 I0.0617 J-0.1069
G1 F400.0 X42.0569 Y58.4722
G2 F800.0 X42.0893 Y58.3097 I-0.391 J-0.1625
G2 X41.4542 Y57.943 I-0.4235 J0.0
G2 Y58.6764 I0.2117 J0.3667
G2 X42.0569 Y58.4722 I0.2117 J-0.3667
G1 F400.0 X42.611 Y58.7025
G2 F800.0 X42.6893 Y58.3097 I-0.9451 J-0.3927
G2 X41.1542 Y57.4234 I-1.0235 J0.0
G2 Y59.1961 I0.5117 J0.8863
G2 X42.611 Y58.7025 I0.5117 J-0.8863
G1 F400.0 X43.1651 Y58.9327
G2 F800.0 X43.2893 Y58.3097 I-1.4992 J-0.623
G2 X40.8542 Y56.9038 I-1.6235 J0.0
G2 Y59.7157 I0.8117 J1.406
G2 X43.1651 Y58.9327 I0.8117 J-1.406
G1 F400.0 X43.7191 Y59.1629
G2 F800.0 X43.8893 Y58.3097 I-2.0532 J-0.8532
G2 X40.5542 Y56.3841 I-2.2235 J0.0
G2 Y60.2353 I1.1117 J1.9256
G2 X43.7191 Y59.1629 I1.1117 J-1.9256
G1 F400.0 X44.2732 Y59.3932
G2 F800.0 X44.4893 Y58.3097 I-2.6073 J-1.0835
G2 X40.2542 Y55.8645 I-2.8235 J0.0
G2 Y60.7549 I1.4117 J2.4452
G2 X44.2732 Y59.3932 I1.4117 J-2.4452
G1 F400.0 X44.8272 Y59.6234
G2 F800.0 X45.0893 Y58.3097 I-3.1614 J-1.3137
G2 X39.9542 Y55.3449 I-3.4235 J0.0
G2 Y61.2745 I1.7117 J2.9648
G2 X44.8272 Y59.6234 I1.7117 J-2.9648
G1 F400.0 X45.3813 Y59.8537
G2 F800.0 X45.6893 Y58.3097 I-3.7154 J-1.5439
G2 X39.6542 Y54.8253 I-4.0235 J0.0
G2 Y61.7941 I2.0117 J3.4844
G2 X45.3813 Y59.8537 I2.0117 J-3.4844
G1 F400.0 X45.9354 Y60.0839
G2 F800.0 X46.2893 Y58.3097 I-4.2695 J-1.7742
G2 X39.3542 Y54.3057 I-4.6235 J0.0
G2 Y62.3137 I2.3117 J4.004
G2 X45.9354 Y60.0839 I2.3117 J-4.004
G1 F400.0 X46.4894 Y60.3141
G2 F800.0 X46.8893 Y58.3097 I-4.8236 J-2.0044
G2 X39.0542 Y53.7861 I-5.2235 J0.0
G2 Y62.8334 I2.6117 J4.5236
G2 X46.4894 Y60.3141 I2.6117 J-4.5236
G1 F400.0 X47.0435 Y60.5444
G2 F800.0 X47.4893 Y58.3097 I-5.3776 J-2.2347
G2 X38.7542 Y53.2665 I-5.8235 J0.0
G2 Y63.353 I2.9117 J5.0433
G2 X47.0435 Y60.5444 I2.9117 J-5.0433
G1 F400.0 X47.5976 Y60.7746
G2 F800.0 X48.0893 Y58.3097 I-5.9317 J-2.4649
G2 X38.4542 Y52.7468 I-6.4235 J0.0
G2 Y63.8726 I3.2117 J5.5629
G2 X47.5976 Y60.7746 I3.2117 J-5.5629
G0 Z10.0
G0 X41.7024 Y41.761
G0 Z4.7
G1 F400.0 Z0.7
G2 F800.0 X41.7893 Y41.6431 I-0.0366 J-0.1179
G2 X41.6042 Y41.5362 I-0.1235 J0.0
G2 Y41.75 I0.0617 J0.1069
G1 X41.7024 Y41.761
G1 F400.0 X41.7913 Y42.0476
G2 F800.0 X42.0893 Y41.6431 I-0.1254 J-0.4045
G2 X41.4542 Y41.2764 I-0.4235 J0.0
G2 Y42.0098 I0.2117 J0.3667
G2 X41.7913 Y42.0476 I0.2117 J-0.3667
G1 F400.0 X41.969 Y42.6207
G2 F800.0 X42.6893 Y41.6431 I-0.3031 J-0.9775
G2 X41.1542 Y40.7568 I-1.0235 J0.0
G2 Y42.5295 I0.5117 J0.8863
G2 X41.969 Y42.6207 I0.5117 J-0.8863
G1 F400.0 X42.1467 Y43.1938
G2 F800.0 X43.2893 Y41.6431 I-0.4808 J-1.5506
G2 X40.8542 Y40.2372 I-1.6235 J0.0
G2 Y43.0491 I0.8117 J1.406
G2 X42.1467 Y43.1938 I0.8117 J-1.406
G1 F400.0 X42.3243 Y43.7668
G2 F800.0 X43.8893 Y41.6431 I-0.6585 J-2.1237
G2 X40.5542 Y39.7175 I-2.2235 J0.0
G2 Y43.5687 I1.1117 J1.9256
G2 X42.3243 Y43.7668 I1.1117 J-1.9256
G1 F400.0 X42.502 Y44.3399
G2 F800.0 X44.4893 Y41.6431 I-0.8361 J-2.6968
G2 X40.2542 Y39.1979 I-2.8235 J0.0
G2 Y44.0883 I1.4117 J2.4452
G2 X42.502 Y44.3399 I1.4117 J-2.4452
G1 F400.0 X42.6797 Y44.913
G2 F800.0 X45.0893 Y41.6431 I-1.0138 J-3.2699
G2 X39.9542 Y38.6783 I-3.4235 J0.0
G2 Y44.6079 I1.7117 J2.9648
G2 X42.6797 Y44.913 I1.7117 J-2.9648
G1 F400.0 X42.8574 Y45.4861
G2 F800.0 X45.6893 Y41.6431 I-1.1915 J-3.843
G2 X39.6542 Y38.1587 I-4.0235 J0.0
G2 Y45.1275 I2.0117 J3.4844
G2 X42.8574 Y45.4861 I2.0117 J-3.4844
G1 F400.0 X43.0351 Y46.0592
G2 F800.0 X46.2893 Y41.6431 I-1.3692 J-4.4161
G2 X39.3542 Y37.6391 I-4.6235 J0.0
G2 Y45.6471 I2.3117 J4.004
G2 X43.0351 Y46.0592 I2.3117 J-4.004
G1 F400.0 X43.2128 Y46.6323
G2 F800.0 X46.8893 Y41.6431 I-1.5469 J-4.9892
G2 X39.0542 Y37.1195 I-5.2235 J0.0
G2 Y46.1668 I2.6117 J4.5236
G2 X43.2128 Y46.6323 I2.6117 J-4.5236
G1 F400.0 X43.3904 Y47.2054
G2 F800.0 X47.4893 Y41.6431 I-1.7246 J-5.5622
G2 X38.7542 Y36.5999 I-5.8235 J0.0
G2 Y46.6864 I2.9117 J5.0433
G2 X43.3904 Y47.2054 I2.9117 J-5.0433
G1 F400.0 X43.5681 Y47.7784
G2 F800.0 X48.0893 Y41.6431 I-1.9022 J-6.1353
G2 X38.4542 Y36.0802 I-6.4235 J0.0
G2 Y47.206 I3.2117 J5.5629
G2 X43.5681 Y47.7784 I3.2117 J-5.5629
G0 Z10.0
G0 X58.2185 Y41.6905
G0 Z4.7
G1 F400.0 Z0.7
G1 F800.0 X58.2708 Y41.75
G2 X58.4559 Y41.6431 I0.0617 J-0.1069
G2 X58.2708 Y41.5362 I-0.1235 J0.0
G2 X58.2185 Y41.6905 I0.0617 J0.1069
G1 F400.0 X57.9414 Y41.8056
G2 F800.0 X58.1208 Y42.0098 I0.391 J-0.1625
G2 X58.7559 Y41.6431 I0.2117 J-0.3667
G2 X58.1208 Y41.2764 I-0.4235 J0.0
G2 X57.9414 Y41.8056 I0.2117 J0.3667
G1 F400.0 X57.3874 Y42.0359
G2 F800.0 X57.8208 Y42.5295 I0.9451 J-0.3927
G2 X59.3559 Y41.6431 I0.5117 J-0.8863
G2 X57.8208 Y40.7568 I-1.0235 J0.0
G2 X57.3874 Y42.0359 I0.5117 J0.8863
G1 F400.0 X56.8333 Y42.2661
G2 F800.0 X57.5208 Y43.0491 I1.4992 J-0.623
G2 X59.9559 Y41.6431 I0.8117 J-1.406
G2 X57.5208 Y40.2372 I-1.6235 J0.0
G2 X56.8333 Y42.2661 I0.8117 J1.406
G1 F400.0 X56.2792 Y42.4963
G2 F800.0 X57.2208 Y43.5687 I2.0532 J-0.8532
G2 X60.5559 Y41.6431 I1.1117 J-1.9256
G2 X57.2208 Y39.7175 I-2.2235 J0.0
G2 X56.2792 Y42.4963 I1.1117 J1.9256
G1 F400.0 X55.7252 Y42.7266
G2 F800.0 X56.9208 Y44.0883 I2.6073 J-1.0835
G2 X61.1559 Y41.6431 I1.4117 J-2.4452
G2 X56.9208 Y39.1979 I-2.8235 J0.0
G2 X55.7252 Y42.7266 I1.4117 J2.4452
G1 F400.0 X55.1711 Y42.9568
G2 F800.0 X56.6208 Y44.6079 I3.1614 J-1.3137
G2 X61.7559 Y41.6431 I1.7117 J-2.9648
G2 X56.6208 Y38.6783 I-3.4235 J0.0
G2 X55.1711 Y42.9568 I1.7117 J2.9648
G1 F400.0 X54.6171 Y43.1871
G2 F800.0 X56.3208 Y45.1275 I3.7154 J-1.5439
G2 X62.3559 Y41.6431 I2.0117 J-3.4844
G2 X56.3208 Y38.1587 I-4.0235 J0.0
G2 X54.6171 Y43.1871 I2.0117 J3.4844
G1 F400.0 X54.063 Y43.4173
G2 F800.0 X56.0208 Y45.6471 I4.2695 J-1.7742
G2 X62.9559 Y41.6431 I2.3117 J-4.004
G2 X56.0208 Y37.6391 I-4.6235 J0.0
G2 X54.063 Y43.4173 I2.3117 J4.004
G1 F400.0 X53.5089 Y43.6475
G2 F800.0 X55.7208 Y46.1668 I4.8236 J-2.0044
G2 X63.5559 Y41.6431 I2.6117 J-4.5236
G2 X55.7208 Y37.1195 I-5.2235 J0.0
G2 X53.5089 Y43.6475 I2.6117 J4.5236
G1 F400.0 X52.9549 Y43.8778
G2 F800.0 X55.4208 Y46.6864 I5.3776 J-2.2347
G2 X64.1559 Y41.6431 I2.9117 J-5.0433
G2 X55.4208 Y36.5999 I-5.8235 J0.0
G2 X52.9549 Y43.8778 I2.9117 J5.0433
G1 F400.0 X52.4008 Y44.108
G2 F800.0 X55.1208 Y47.206 I5.9317 J-2.4649
G2 X64.7559 Y41.6431 I3.2117 J-5.5629
G2 X55.1208 Y36.0802 I-6.4235 J0.0
G2 X52.4008 Y44.108 I3.2117 J5.5629
G0 Z10.0
G0 X74.8764 Y41.6565
G0 Z4.7
G1 F400.0 Z0.7
G2 F800.0 X74.9374 Y41.75 I0.1227 J-0.0134
G2 X75.1225 Y41.6431 I0.0617 J-0.1069
G2 X74.9374 Y41.5362 I-0.1235 J0.0
G2 X74.8764 Y41.6565 I0.0617 J0.1069
G1 F400.0 X74.5781 Y41.689
G2 F800.0 X74.7874 Y42.0098 I0.421 J-0.0459
G2 X75.4225 Y41.6431 I0.2117 J-0.3667
G2 X74.7874 Y41.2764 I-0.4235 J0.0
G2 X74.5781 Y41.689 I0.2117 J0.3667
G1 F400.0 X73.9817 Y41.7541
G2 F800.0 X74.4874 Y42.5295 I1.0174 J-0.111
G2 X76.0225 Y41.6431 I0.5117 J-0.8863
G2 X74.4874 Y40.7568 I-1.0235 J0.0
G2 X73.9817 Y41.7541 I0.5117 J0.8863
G1 F400.0 X73.3852 Y41.8192
G2 F800.0 X74.1874 Y43.0491 I1.6139 J-0.176
G2 X76.6225 Y41.6431 I0.8117 J-1.406
G2 X74.1874 Y40.2372 I-1.6235 J0.0
G2 X73.3852 Y41.8192 I0.8117 J1.406
G1 F400.0 X72.7887 Y41.8842
G2 F800.0 X73.8874 Y43.5687 I2.2103 J-0.2411
G2 X77.2225 Y41.6431 I1.1117 J-1.9256
G2 X73.8874 Y39.7175 I-2.2235 J0.0
G2 X72.7887 Y41.8842 I1.1117 J1.9256
G1 F400.0 X72.1923 Y41.9493
G2 F800.0 X73.5874 Y44.0883 I2.8068 J-0.3062
G2 X77.8225 Y41.6431 I1.4117 J-2.4452
G2 X73.5874 Y39.1979 I-2.8235 J0.0
G2 X72.1923 Y41.9493 I1.4117 J2.4452
G1 F400.0 X71.5958 Y42.0143
G2 F800.0 X73.2874 Y44.6079 I3.4033 J-0.3712
G2 X78.4225 Y41.6431 I1.7117 J-2.9648
G2 X73.2874 Y38.6783 I-3.4235 J0.0
G2 X71.5958 Y42.0143 I1.7117 J2.9648
G1 F400.0 X70.9993 Y42.0794
G2 F800.0 X72.9874 Y45.1275 I3.9997 J-0.4363
G2 X79.0225 Y41.6431 I2.0117 J-3.4844
G2 X72.9874 Y38.1587 I-4.0235 J0.0
G2 X70.9993 Y42.0794 I2.0117 J3.4844
G1 F400.0 X70.4029 Y42.1444
G2 F800.0 X72.6874 Y45.6471 I4.5962 J-0.5013
G2 X79.6225 Y41.6431 I2.3117 J-4.004
G2 X72.6874 Y37.6391 I-4.6235 J0.0
G2 X70.4029 Y42.1444 I2.3117 J4.004
G1 F400.0 X69.8064 Y42.2095
G2 F800.0 X72.3874 Y46.1668 I5.1927 J-0.5664
G2 X80.2225 Y41.6431 I2.6117 J-4.5236
G2 X72.3874 Y37.1195 I-5.2235 J0.0
G2 X69.8064 Y42.2095 I2.6117 J4.5236
G1 F400.0 X69.21 Y42.2746
G2 F800.0 X72.0874 Y46.6864 I5.7891 J-0.6315
G2 X80.8225 Y41.6431 I2.9117 J-5.0433
G2 X72.0874 Y36.5999 I-5.8235 J0.0
G2 X69.21 Y42.2746 I2.9117 J5.0433
G1 F400.0 X68.6135 Y42.3396
G2 F800.0 X71.7874 Y47.206 I6.3856 J-0.6965
G2 X81.4225 Y41.6431 I3.2117 J-5.5629
G2 X71.7874 Y36.0802 I-6.4235 J0.0
G2 X68.6135 Y42.3396 I3.2117 J5.5629
G0 Z10.0
G0 X74.9532 Y58.1951
G0 Z4.7
G1 F400.0 Z0.7
G1 F800.0 X74.9374 Y58.2028
G2 Y58.4166 I0.0617 J0.1069
G2 X75.1225 Y58.3097 I0.0617 J-0.1069
G2 X74.9532 Y58.1951 I-0.1235 J0.0
G1 F400.0 X74.8419 Y57.9165
G1 F800.0 X74.7874 Y57.943
G2 Y58.6764 I0.2117 J0.3667
G2 X75.4225 Y58.3097 I0.2117 J-0.3667
G2 X74.8419 Y57.9165 I-0.4235 J0.0
G1 F400.0 X74.6191 Y57.3594
G2 F800.0 X74.4874 Y57.4234 I0.38 J0.9503
G2 Y59.1961 I0.5117 J0.8863
G2 X76.0225 Y58.3097 I0.5117 J-0.8863
G2 X74.6191 Y57.3594 I-1.0235 J0.0
G1 F400.0 X74.3963 Y56.8023
G2 F800.0 X74.1874 Y56.9038 I0.6027 J1.5074
G2 Y59.7157 I0.8117 J1.406
G2 X76.6225 Y58.3097 I0.8117 J-1.406
G2 X74.3963 Y56.8023 I-1.6235 J0.0
G1 F400.0 X74.1736 Y56.2452
G2 F800.0 X73.8874 Y56.3841 I0.8255 J2.0645
G2 Y60.2353 I1.1117 J1.9256
G2 X77.2225 Y58.3097 I1.1117 J-1.9256
G2 X74.1736 Y56.2452 I-2.2235 J0.0
G1 F400.0 X73.9508 Y55.6881
G2 F800.0 X73.5874 Y55.8645 I1.0483 J2.6217
G2 Y60.7549 I1.4117 J2.4452
G2 X77.8225 Y58.3097 I1.4117 J-2.4452
G2 X73.9508 Y55.6881 I-2.8235 J0.0
G1 F400.0 X73.7281 Y55.1309
G2 F800.0 X73.2874 Y55.3449 I1.271 J3.1788
G2 Y61.2745 I1.7117 J2.9648
G2 X78.4225 Y58.3097 I1.7117 J-2.9648
G2 X73.7281 Y55.1309 I-3.4235 J0.0
G1 F400.0 X73.5053 Y54.5738
G2 F800.0 X72.9874 Y54.8253 I1.4938 J3.7359
G2 Y61.7941 I2.0117 J3.4844
G2 X79.0225 Y58.3097 I2.0117 J-3.4844
G2 X73.5053 Y54.5738 I-4.0235 J0.0
G1 F400.0 X73.2825 Y54.0167
G2 F800.0 X72.6874 Y54.3057 I1.7165 J4.293
G2 Y62.3137 I2.3117 J4.004
G2 X79.6225 Y58.3097 I2.3117 J-4.004
G2 X73.2825 Y54.0167 I-4.6235 J0.0
G1 F400.0 X73.0598 Y53.4596
G2 F800.0 X72.3874 Y53.7861 I1.9393 J4.8501
G2 Y62.8334 I2.6117 J4.5236
G2 X80.2225 Y58.3097 I2.6117 J-4.5236
G2 X73.0598 Y53.4596 I-5.2235 J0.0
G1 F400.0 X72.837 Y52.9025
G2 F800.0 X72.0874 Y53.2665 I2.1621 J5.4072
G2 Y63.353 I2.9117 J5.0433
G2 X80.8225 Y58.3097 I2.9117 J-5.0433
G2 X72.837 Y52.9025 I-5.8235 J0.0
G1 F400.0 X72.6143 Y52.3454
G2 F800.0 X71.7874 Y52.7468 I2.3848 J5.9643
G2 Y63.8726 I3.2117 J5.5629
G2 X81.4225 Y58.3097 I3.2117 J-5.5629
G2 X72.6143 Y52.3454 I-6.4235 J0.0
G0 Z10.0
G0 X91.5479 Y58.2728
G0 Z4.7
G1 F400.0 Z0.7
G2 F800.0 X91.604 Y58.4166 I0.1178 J0.0369
G2 X91.7891 Y58.3097 I0.0617 J-0.1069
G2 X91.604 Y58.2028 I-0.1235 J0.0
G1 X91.5479 Y58.2728
G1 F400.0 X91.2616 Y58.1832
G2 F800.0 X91.454 Y58.6764 I0.4041 J0.1265
G2 X92.0891 Y58.3097 I0.2117 J-0.3667
G2 X91.454 Y57.943 I-0.4235 J0.0
G2 X91.2616 Y58.1832 I0.2117 J0.3667
G1 F400.0 X90.689 Y58.0039
G2 F800.0 X91.154 Y59.1961 I0.9767 J0.3058
G2 X92.6891 Y58.3097 I0.5117 J-0.8863
G2 X91.154 Y57.4234 I-1.0235 J0.0
G2 X90.689 Y58.0039 I0.5117 J0.8863
G1 F400.0 X90.1164 Y57.8247
G2 F800.0 X90.854 Y59.7157 I1.5493 J0.485
G2 X93.2891 Y58.3097 I0.8117 J-1.406
G2 X90.854 Y56.9038 I-1.6235 J0.0
G2 X90.1164 Y57.8247 I0.8117 J1.406
G1 F400.0 X89.5438 Y57.6454
G2 F800.0 X90.554 Y60.2353 I2.1219 J0.6643
G2 X93.8891 Y58.3097 I1.1117 J-1.9256
G2 X90.554 Y56.3841 I-2.2235 J0.0
G2 X89.5438 Y57.6454 I1.1117 J1.9256
G1 F400.0 X88.9712 Y57.4662
G2 F800.0 X90.254 Y60.7549 I2.6945 J0.8436
G2 X94.4891 Y58.3097 I1.4117 J-2.4452
G2 X90.254 Y55.8645 I-2.8235 J0.0
G2 X88.9712 Y57.4662 I1.4117 J2.4452
G1 F400.0 X88.3986 Y57.2869
G2 F800.0 X89.954 Y61.2745 I3.2671 J1.0228
G2 X95.0891 Y58.3097 I1.7117 J-2.9648
G2 X89.954 Y55.3449 I-3.4235 J0.0
G2 X88.3986 Y57.2869 I1.7117 J2.9648
G1 F400.0 X87.826 Y57.1076
G2 F800.0 X89.654 Y61.7941 I3.8397 J1.2021
G2 X95.6891 Y58.3097 I2.0117 J-3.4844
G2 X89.654 Y54.8253 I-4.0235 J0.0
G2 X87.826 Y57.1076 I2.0117 J3.4844
G1 F400.0 X87.2534 Y56.9284
G2 F800.0 X89.354 Y62.3137 I4.4123 J1.3813
G2 X96.2891 Y58.3097 I2.3117 J-4.004
G2 X89.354 Y54.3057 I-4.6235 J0.0
G2 X87.2534 Y56.9284 I2.3117 J4.004
G1 F400.0 X86.6808 Y56.7491
G2 F800.0 X89.054 Y62.8334 I4.9849 J1.5606
G2 X96.8891 Y58.3097 I2.6117 J-4.5236
G2 X89.054 Y53.7861 I-5.2235 J0.0
G2 X86.6808 Y56.7491 I2.6117 J4.5236
G1 F400.0 X86.1082 Y56.5699
G2 F800.0 X88.754 Y63.353 I5.5575 J1.7399
G2 X97.4891 Y58.3097 I2.9117 J-5.0433
G2 X88.754 Y53.2665 I-5.8235 J0.0
G2 X86.1082 Y56.5699 I2.9117 J5.0433
G1 F400.0 X85.5356 Y56.3906
G2 F800.0 X88.454 Y63.8726 I6.1301 J1.9191
G2 X98.0891 Y58.3097 I3.2117 J-5.5629
G2 X88.454 Y52.7468 I-6.4235 J0.0
G2 X85.5356 Y56.3906 I3.2117 J5.5629
G0 Z10.0
G0 X91.6183 Y41.7571
G0 Z4.7
G1 F400.0 Z0.7
G2 F800.0 X91.7891 Y41.6431 I0.0474 J-0.114
G2 X91.604 Y41.5362 I-0.1235 J0.0
G2 Y41.75 I0.0617 J0.1069
G1 X91.6183 Y41.7571
G1 F400.0 X91.5031 Y42.0341
G2 F800.0 X92.0891 Y41.6431 I0.1625 J-0.391
G2 X91.454 Y41.2764 I-0.4235 J0.0
G2 Y42.0098 I0.2117 J0.3667
G1 X91.5031 Y42.0341
G1 F400.0 X91.2728 Y42.5882
G2 F800.0 X92.6891 Y41.6431 I0.3928 J-0.9451
G2 X91.154 Y40.7568 I-1.0235 J0.0
G2 Y42.5295 I0.5117 J0.8863
G2 X91.2728 Y42.5882 I0.5117 J-0.8863
G1 F400.0 X91.0426 Y43.1422
G2 F800.0 X93.2891 Y41.6431 I0.6231 J-1.4991
G2 X90.854 Y40.2372 I-1.6235 J0.0
G2 Y43.0491 I0.8117 J1.406
G2 X91.0426 Y43.1422 I0.8117 J-1.406
G1 F400.0 X90.8123 Y43.6963
G2 F800.0 X93.8891 Y41.6431 I0.8534 J-2.0531
G2 X90.554 Y39.7175 I-2.2235 J0.0
G2 Y43.5687 I1.1117 J1.9256
G2 X90.8123 Y43.6963 I1.1117 J-1.9256
G1 F400.0 X90.582 Y44.2503
G2 F800.0 X94.4891 Y41.6431 I1.0837 J-2.6072
G2 X90.254 Y39.1979 I-2.8235 J0.0
G2 Y44.0883 I1.4117 J2.4452
G2 X90.582 Y44.2503 I1.4117 J-2.4452
G1 F400.0 X90.3517 Y44.8043
G2 F800.0 X95.0891 Y41.6431 I1.314 J-3.1612
G2 X89.954 Y38.6783 I-3.4235 J0.0
G2 Y44.6079 I1.7117 J2.9648
G2 X90.3517 Y44.8043 I1.7117 J-2.9648
G1 F400.0 X90.1214 Y45.3584
G2 F800.0 X95.6891 Y41.6431 I1.5443 J-3.7153
G2 X89.654 Y38.1587 I-4.0235 J0.0
G2 Y45.1275 I2.0117 J3.4844
G2 X90.1214 Y45.3584 I2.0117 J-3.4844
G1 F400.0 X89.8911 Y45.9124
G2 F800.0 X96.2891 Y41.6431 I1.7746 J-4.2693
G2 X89.354 Y37.6391 I-4.6235 J0.0
G2 Y45.6471 I2.3117 J4.004
G2 X89.8911 Y45.9124 I2.3117 J-4.004
G1 F400.0 X89.6608 Y46.4665
G2 F800.0 X96.8891 Y41.6431 I2.0049 J-4.8234
G2 X89.054 Y37.1195 I-5.2235 J0.0
G2 Y46.1668 I2.6117 J4.5236
G2 X89.6608 Y46.4665 I2.6117 J-4.5236
G1 F400.0 X89.4305 Y47.0205
G2 F800.0 X97.4891 Y41.6431 I2.2352 J-5.3774
G2 X88.754 Y36.5999 I-5.8235 J0.0
G2 Y46.6864 I2.9117 J5.0433
G2 X89.4305 Y47.0205 I2.9117 J-5.0433
G1 F400.0 X89.2002 Y47.5746
G2 F800.0 X98.0891 Y41.6431 I2.4655 J-5.9314
G2 X88.454 Y36.0802 I-6.4235 J0.0
G2 Y47.206 I3.2117 J5.5629
G2 X89.2002 Y47.5746 I3.2117 J-5.5629
G0 Z10.0
G0 X108.2144 Y41.6797
G0 Z4.7
G1 F400.0 Z0.7
G1 F800.0 X108.2706 Y41.75
G2 X108.4557 Y41.6431 I0.0617 J-0.1069
G2 X108.2706 Y41.5362 I-0.1235 J0.0
G2 X108.2144 Y41.6797 I0.0617 J0.1069
G1 F400.0 X107.9278 Y41.7685
G2 F800.0 X108.1206 Y42.0098 I0.4045 J-0.1254
G2 X108.7557 Y41.6431 I0.2117 J-0.3667
G2 X108.1206 Y41.2764 I-0.4235 J0.0
G2 X107.9278 Y41.7685 I0.2117 J0.3667
G1 F400.0 X107.3547 Y41.9462
G2 F800.0 X107.8206 Y42.5295 I0.9776 J-0.3031
G2 X109.3557 Y41.6431 I0.5117 J-0.8863
G2 X107.8206 Y40.7568 I-1.0235 J0.0
G2 X107.3547 Y41.9462 I0.5117 J0.8863
G1 F400.0 X106.7816 Y42.1239
G2 F800.0 X107.5206 Y43.0491 I1.5506 J-0.4807
G2 X109.9557 Y41.6431 I0.8117 J-1.406
G2 X107.5206 Y40.2372 I-1.6235 J0.0
G2 X106.7816 Y42.1239 I0.8117 J1.406
G1 F400.0 X106.2085 Y42.3015
G2 F800.0 X107.2206 Y43.5687 I2.1237 J-0.6584
G2 X110.5557 Y41.6431 I1.1117 J-1.9256
G2 X107.2206 Y39.7175 I-2.2235 J0.0
G2 X106.2085 Y42.3015 I1.1117 J1.9256
G1 F400.0 X105.6355 Y42.4792
G2 F800.0 X106.9206 Y44.0883 I2.6968 J-0.8361
G2 X111.1557 Y41.6431 I1.4117 J-2.4452
G2 X106.9206 Y39.1979 I-2.8235 J0.0
G2 X105.6355 Y42.4792 I1.4117 J2.4452
G1 F400.0 X105.0624 Y42.6569
G2 F800.0 X106.6206 Y44.6079 I3.2699 J-1.0138
G2 X111.7557 Y41.6431 I1.7117 J-2.9648
G2 X106.6206 Y38.6783 I-3.4235 J0.0
G2 X105.0624 Y42.6569 I1.7117 J2.9648
G1 F400.0 X104.4893 Y42.8345
G2 F800.0 X106.3206 Y45.1275 I3.843 J-1.1914
G2 X112.3557 Y41.6431 I2.0117 J-3.4844
G2 X106.3206 Y38.1587 I-4.0235 J0.0
G2 X104.4893 Y42.8345 I2.0117 J3.4844
G1 F400.0 X103.9162 Y43.0122
G2 F800.0 X106.0206 Y45.6471 I4.4161 J-1.3691
G2 X112.9557 Y41.6431 I2.3117 J-4.004
G2 X106.0206 Y37.6391 I-4.6235 J0.0
G2 X103.9162 Y43.0122 I2.3117 J4.004
G1 F400.0 X103.3431 Y43.1899
G2 F800.0 X105.7206 Y46.1668 I4.9892 J-1.5468
G2 X113.5557 Y41.6431 I2.6117 J-4.5236
G2 X105.7206 Y37.1195 I-5.2235 J0.0
G2 X103.3431 Y43.1899 I2.6117 J4.5236
G1 F400.0 X102.77 Y43.3676
G2 F800.0 X105.4206 Y46.6864 I5.5623 J-1.7244
G2 X114.1557 Y41.6431 I2.9117 J-5.0433
G2 X105.4206 Y36.5999 I-5.8235 J0.0
G2 X102.77 Y43.3676 I2.9117 J5.0433
G1 F400.0 X102.1969 Y43.5452
G2 F800.0 X105.1206 Y47.206 I6.1354 J-1.9021
G2 X114.7557 Y41.6431 I3.2117 J-5.5629
G2 X105.1206 Y36.0802 I-6.4235 J0.0
G2 X102.1969 Y43.5452 I3.2117 J5.5629
G0 Z10.0
G0 X108.2849 Y58.1957
G0 Z4.7
G1 F400.0 Z0.7
G1 F800.0 X108.2706 Y58.2028
G2 Y58.4166 I0.0617 J0.1069
G2 X108.4557 Y58.3097 I0.0617 J-0.1069
G2 X108.2849 Y58.1957 I-0.1235 J0.0
G1 F400.0 X108.1698 Y57.9187
G1 F800.0 X108.1206 Y57.943
G2 Y58.6764 I0.2117 J0.3667
G2 X108.7557 Y58.3097 I0.2117 J-0.3667
G2 X108.1698 Y57.9187 I-0.4235 J0.0
G1 F400.0 X107.9395 Y57.3646
G2 F800.0 X107.8206 Y57.4234 I0.3927 J0.9451
G2 Y59.1961 I0.5117 J0.8863
G2 X109.3557 Y58.3097 I0.5117 J-0.8863
G2 X107.9395 Y57.3646 I-1.0235 J0.0
G1 F400.0 X107.7093 Y56.8105
G2 F800.0 X107.5206 Y56.9038 I0.623 J1.4992
G2 Y59.7157 I0.8117 J1.406
G2 X109.9557 Y58.3097 I0.8117 J-1.406
G2 X107.7093 Y56.8105 I-1.6235 J0.0
G1 F400.0 X107.4791 Y56.2565
G2 F800.0 X107.2206 Y56.3841 I0.8532 J2.0532
G2 Y60.2353 I1.1117 J1.9256
G2 X110.5557 Y58.3097 I1.1117 J-1.9256
G2 X107.4791 Y56.2565 I-2.2235 J0.0
G1 F400.0 X107.2488 Y55.7024
G2 F800.0 X106.9206 Y55.8645 I1.0835 J2.6073
G2 Y60.7549 I1.4117 J2.4452
G2 X111.1557 Y58.3097 I1.4117 J-2.4452
G2 X107.2488 Y55.7024 I-2.8235 J0.0
G1 F400.0 X107.0186 Y55.1483
G2 F800.0 X106.6206 Y55.3449 I1.3137 J3.1614
G2 Y61.2745 I1.7117 J2.9648
G2 X111.7557 Y58.3097 I1.7117 J-2.9648
G2 X107.0186 Y55.1483 I-3.4235 J0.0
G1 F400.0 X106.7883 Y54.5943
G2 F800.0 X106.3206 Y54.8253 I1.5439 J3.7154
G2 Y61.7941 I2.0117 J3.4844
G2 X112.3557 Y58.3097 I2.0117 J-3.4844
G2 X106.7883 Y54.5943 I-4.0235 J0.0
G1 F400.0 X106.5581 Y54.0402
G2 F800.0 X106.0206 Y54.3057 I1.7742 J4.2695
G2 Y62.3137 I2.3117 J4.004
G2 X112.9557 Y58.3097 I2.3117 J-4.004
G2 X106.5581 Y54.0402 I-4.6235 J0.0
G1 F400.0 X106.3279 Y53.4862
G2 F800.0 X105.7206 Y53.7861 I2.0044 J4.8236
G2 Y62.8334 I2.6117 J4.5236
G2 X113.5557 Y58.3097 I2.6117 J-4.5236
G2 X106.3279 Y53.4862 I-5.2235 J0.0
G1 F400.0 X106.0976 Y52.9321
G2 F800.0 X105.4206 Y53.2665 I2.2347 J5.3776
G2 Y63.353 I2.9117 J5.0433
G2 X114.1557 Y58.3097 I2.9117 J-5.0433
G2 X106.0976 Y52.9321 I-5.8235 J0.0
G1 F400.0 X105.8674 Y52.378
G2 F800.0 X105.1206 Y52.7468 I2.4649 J5.9317
G2 Y63.8726 I3.2117 J5.5629
G2 X114.7557 Y58.3097 I3.2117 J-5.5629
G2 X105.8674 Y52.378 I-6.4235 J0.0
G0 Z10.0
G0 X124.881 Y58.2732
G0 Z4.7
G1 F400.0 Z0.7
G2 F800.0 X124.9372 Y58.4166 I0.1179 J0.0366
G2 X125.1223 Y58.3097 I0.0617 J-0.1069
G2 X124.9372 Y58.2028 I-0.1235 J0.0
G1 X124.881 Y58.2732
G1 F400.0 X124.5944 Y58.1843
G2 F800.0 X124.7872 Y58.6764 I0.4045 J0.1254
G2 X125.4223 Y58.3097 I0.2117 J-0.3667
G2 X124.7872 Y57.943 I-0.4235 J0.0
G2 X124.5944 Y58.1843 I0.2117 J0.3667
G1 F400.0 X124.0213 Y58.0066
G2 F800.0 X124.4872 Y59.1961 I0.9775 J0.3031
G2 X126.0223 Y58.3097 I0.5117 J-0.8863
G2 X124.4872 Y57.4234 I-1.0235 J0.0
G2 X124.0213 Y58.0066 I0.5117 J0.8863
G1 F400.0 X123.4482 Y57.8289
G2 F800.0 X124.1872 Y59.7157 I1.5506 J0.4808
G2 X126.6223 Y58.3097 I0.8117 J-1.406
G2 X124.1872 Y56.9038 I-1.6235 J0.0
G2 X123.4482 Y57.8289 I0.8117 J1.406
G1 F400.0 X122.8752 Y57.6513
G2 F800.0 X123.8872 Y60.2353 I2.1237 J0.6585
G2 X127.2223 Y58.3097 I1.1117 J-1.9256
G2 X123.8872 Y56.3841 I-2.2235 J0.0
