%
(13X13_V2_RICHT_BACK_2MM)
(T2  D=2. CR=0. - ZMIN=-15. - FLAT END MILL)
N10 G90 G94 G17 G91.1
N15 G21
(DRILL1)
N20 M8
N25 S12000 M3
N30 G54
N35 G0 X502.778 Y17.996
N40 G43 Z15. H2
N45 G0 Z5.
N50 G98 G83 X502.778 Y17.996 Z-15. R5. Q3. F500.
N55 Y21.996
N60 X491.667 Y69.996
N65 X425.
N70 X325. Y69.994
N75 Y136.662
N80 X225.
N85 Y69.994
N90 X125. Y69.996
N95 X58.333
N100 X125. Y169.992
N105 X58.333 Y169.996
N110 Y236.657
N115 X125. Y236.662
N120 X225.
N125 X325.
N130 X425.
N135 X491.667 Y236.657
N140 Y169.996
N145 X425. Y169.992
N150 G80
N155 G0 Z15.
N160 M30
%
