%
(13X13_V2_RICHT_BACK_6MM)
(T2  D=6. CR=0. - ZMIN=-15. - FLAT END MILL)
N10 G90 G94 G17 G91.1
N15 G21
(WHEN USING FUSION 360 FOR PERSONAL USE, THE FEEDRATE OF)
(RAPID MOVES IS REDUCED TO MATCH THE FEEDRATE OF CUTTING)
(MOVES, WHICH CAN INCREASE MACHINING TIME. UNRESTRICTED RAPID)
(MOVES ARE AVAILABLE WITH A FUSION 360 SUBSCRIPTION.)
(2D CONTOUR3)
N20 M8
N25 S8000 M3
N30 G54
N35 G0 X76.2 Y2.729
N40 G43 Z15. H2
N45 G1 Z5. F2700.
N50 Z1. F1800.
N55 Z-0.4
N60 G18 G2 X76.8 Z-1. I0.6 K0. F2700.
N65 G1 X77.4
N70 G17 G3 X78. Y3.329 I0. J0.6
N75 G1 Y238.662
N80 X72.
N85 Y3.329
N90 G3 X72.6 Y2.729 I0.6 J0.
N95 G1 X73.2
N100 G18 G2 X73.8 Z-0.4 I0. K0.6
N105 G1 Z15.
N110 G17
(WHEN USING FUSION 360 FOR PERSONAL USE, THE FEEDRATE OF)
(RAPID MOVES IS REDUCED TO MATCH THE FEEDRATE OF CUTTING)
(MOVES, WHICH CAN INCREASE MACHINING TIME. UNRESTRICTED RAPID)
(MOVES ARE AVAILABLE WITH A FUSION 360 SUBSCRIPTION.)
(2D POCKET4)
N115 G0 X276.276 Y121.54
N120 G1 Z15. F2700.
N125 Z5.
N130 Z3.091 F1800.
N135 X276.248 Y121.563 Z2.886 F2700.
N140 X276.165 Y121.626 Z2.705
N145 X276.032 Y121.713 Z2.571
N150 X275.946 Y121.762 Z2.536
N155 X275.859 Y121.806 Z2.5
N160 G3 X274.141 Y118.194 Z1.392 I-0.859 J-1.806
N165 X275.859 Y121.806 Z0.284 I0.859 J1.806
N170 X274.141 Y118.194 Z-0.824 I-0.859 J-1.806
N175 X275.859 Y121.806 Z-1.932 I0.859 J1.806
N180 X274.141 Y118.194 Z-3.039 I-0.859 J-1.806
N185 X277. Y120. Z-3.75 I0.859 J1.806
N190 G1 Y122.
N195 X273.
N200 Y118.
N205 X277.
N210 Y120.
N215 Y122. Z-4.103
N220 X273. Z-4.808
N225 Y118. Z-5.513
N230 X277. Z-6.219
N235 Y122. Z-6.924
N240 X273.733 Z-7.5
N245 X273.
N250 Y118.
N255 X277.
N260 Y122.
N265 X273.733
N270 X273. Z-7.629
N275 Y118. Z-8.335
N280 X277. Z-9.04
N285 Y122. Z-9.745
N290 X273. Z-10.45
N295 Y118. Z-11.156
N300 X273.535 Z-11.25
N305 X277.
N310 Y122.
N315 X273.733
N320 X273.
N325 Y118.
N330 X273.535
N335 X277. Z-11.861
N340 Y122. Z-12.566
N345 X273. Z-13.272
N350 Y118. Z-13.977
N355 X277. Z-14.682
N360 Y119.802 Z-15.
N365 Y122.
N370 X273.
N375 Y118.
N380 X277.
N385 Y119.802
N390 X276.993 Y119.894 Z-14.985
N395 X276.972 Y119.984 Z-14.971
N400 X276.941 Y120.062 Z-14.928
N405 X276.899 Y120.135 Z-14.885
N410 X276.86 Y120.188 Z-14.819
N415 X276.814 Y120.236 Z-14.753
N420 X276.749 Y120.29 Z-14.585
N425 X276.724 Y120.307 Z-14.4
N430 Z5.
N435 X276.276 Y88.207
N440 Z3.091 F1800.
N445 X276.248 Y88.23 Z2.886 F2700.
N450 X276.165 Y88.292 Z2.705
N455 X276.032 Y88.38 Z2.571
N460 X275.946 Y88.429 Z2.536
N465 X275.859 Y88.473 Z2.5
N470 G3 X274.141 Y84.861 Z1.392 I-0.859 J-1.806
N475 X275.859 Y88.473 Z0.284 I0.859 J1.806
N480 X274.141 Y84.861 Z-0.824 I-0.859 J-1.806
N485 X275.859 Y88.473 Z-1.932 I0.859 J1.806
N490 X274.141 Y84.861 Z-3.039 I-0.859 J-1.806
N495 X277. Y86.667 Z-3.75 I0.859 J1.806
N500 G1 Y88.667
N505 X273.
N510 Y84.667
N515 X277.
N520 Y86.667
N525 Y88.667 Z-4.103
N530 X273. Z-4.808
N535 Y84.667 Z-5.513
N540 X277. Z-6.219
N545 Y88.667 Z-6.924
N550 X273.733 Z-7.5
N555 X273.
N560 Y84.667
N565 X277.
N570 Y88.667
N575 X273.733
N580 X273. Z-7.629
N585 Y84.667 Z-8.335
N590 X277. Z-9.04
N595 Y88.667 Z-9.745
N600 X273. Z-10.45
N605 Y84.667 Z-11.156
N610 X273.535 Z-11.25
N615 X277.
N620 Y88.667
N625 X273.733
N630 X273.
N635 Y84.667
N640 X273.535
N645 X277. Z-11.861
N650 Y88.667 Z-12.566
N655 X273. Z-13.272
N660 Y84.667 Z-13.977
N665 X277. Z-14.682
N670 Y86.469 Z-15.
N675 Y88.667
N680 X273.
N685 Y84.667
N690 X277.
N695 Y86.469
N700 X276.993 Y86.561 Z-14.985
N705 X276.972 Y86.651 Z-14.971
N710 X276.941 Y86.729 Z-14.928
N715 X276.899 Y86.801 Z-14.885
N720 X276.86 Y86.854 Z-14.819
N725 X276.814 Y86.903 Z-14.753
N730 X276.749 Y86.957 Z-14.585
N735 X276.724 Y86.974 Z-14.4
N740 Z5.
N745 X306.793 Y87.943
N750 Z3.091 F1800.
N755 X306.77 Y87.915 Z2.886 F2700.
N760 X306.707 Y87.832 Z2.705
N765 X306.62 Y87.698 Z2.571
N770 X306.571 Y87.613 Z2.536
N775 X306.527 Y87.526 Z2.5
N780 G3 X310.139 Y85.808 Z1.392 I1.806 J-0.859
N785 X306.527 Y87.526 Z0.284 I-1.806 J0.859
N790 X310.139 Y85.808 Z-0.824 I1.806 J-0.859
N795 X306.527 Y87.526 Z-1.932 I-1.806 J0.859
N800 X310.139 Y85.808 Z-3.039 I1.806 J-0.859
N805 X308.333 Y88.667 Z-3.75 I-1.806 J0.859
N810 G1 X306.333
N815 Y84.667
N820 X310.333
N825 Y88.667
N830 X308.333
N835 X306.333 Z-4.103
N840 Y84.667 Z-4.808
N845 X310.333 Z-5.513
N850 Y88.667 Z-6.219
N855 X306.333 Z-6.924
N860 Y85.399 Z-7.5
N865 Y84.667
N870 X310.333
N875 Y88.667
N880 X306.333
N885 Y85.399
N890 Y84.667 Z-7.629
N895 X310.333 Z-8.335
N900 Y88.667 Z-9.04
N905 X306.333 Z-9.745
N910 Y84.667 Z-10.45
N915 X310.333 Z-11.156
N920 Y85.201 Z-11.25
N925 Y88.667
N930 X306.333
N935 Y85.399
N940 Y84.667
N945 X310.333
N950 Y85.201
N955 Y88.667 Z-11.861
N960 X306.333 Z-12.566
N965 Y84.667 Z-13.272
N970 X310.333 Z-13.977
N975 Y88.667 Z-14.682
N980 X308.531 Z-15.
N985 X306.333
N990 Y84.667
N995 X310.333
N1000 Y88.667
N1005 X308.531
N1010 X308.439 Y88.66 Z-14.985
N1015 X308.349 Y88.638 Z-14.971
N1020 X308.271 Y88.607 Z-14.928
N1025 X308.198 Y88.566 Z-14.885
N1030 X308.145 Y88.526 Z-14.819
N1035 X308.097 Y88.481 Z-14.753
N1040 X308.043 Y88.415 Z-14.585
N1045 X308.026 Y88.391 Z-14.4
N1050 Z5.
N1055 X340.127 Y87.943
N1060 Z3.091 F1800.
N1065 X340.104 Y87.915 Z2.886 F2700.
N1070 X340.041 Y87.832 Z2.705
N1075 X339.954 Y87.698 Z2.571
N1080 X339.905 Y87.613 Z2.536
N1085 X339.861 Y87.526 Z2.5
N1090 G3 X343.473 Y85.808 Z1.392 I1.806 J-0.859
N1095 X339.861 Y87.526 Z0.284 I-1.806 J0.859
N1100 X343.473 Y85.808 Z-0.824 I1.806 J-0.859
N1105 X339.861 Y87.526 Z-1.932 I-1.806 J0.859
N1110 X343.473 Y85.808 Z-3.039 I1.806 J-0.859
N1115 X341.667 Y88.667 Z-3.75 I-1.806 J0.859
N1120 G1 X339.667
N1125 Y84.667
N1130 X343.667
N1135 Y88.667
N1140 X341.667
N1145 X339.667 Z-4.103
N1150 Y84.667 Z-4.808
N1155 X343.667 Z-5.513
N1160 Y88.667 Z-6.219
N1165 X339.667 Z-6.924
N1170 Y85.399 Z-7.5
N1175 Y84.667
N1180 X343.667
N1185 Y88.667
N1190 X339.667
N1195 Y85.399
N1200 Y84.667 Z-7.629
N1205 X343.667 Z-8.335
N1210 Y88.667 Z-9.04
N1215 X339.667 Z-9.745
N1220 Y84.667 Z-10.45
N1225 X343.667 Z-11.156
N1230 Y85.201 Z-11.25
N1235 Y88.667
N1240 X339.667
N1245 Y85.399
N1250 Y84.667
N1255 X343.667
N1260 Y85.201
N1265 Y88.667 Z-11.861
N1270 X339.667 Z-12.566
N1275 Y84.667 Z-13.272
N1280 X343.667 Z-13.977
N1285 Y88.667 Z-14.682
N1290 X341.865 Z-15.
N1295 X339.667
N1300 Y84.667
N1305 X343.667
N1310 Y88.667
N1315 X341.865
N1320 X341.773 Y88.66 Z-14.985
N1325 X341.683 Y88.638 Z-14.971
N1330 X341.605 Y88.607 Z-14.928
N1335 X341.532 Y88.566 Z-14.885
N1340 X341.479 Y88.526 Z-14.819
N1345 X341.431 Y88.481 Z-14.753
N1350 X341.377 Y88.415 Z-14.585
N1355 X341.36 Y88.391 Z-14.4
N1360 Z5.
N1365 X343.207 Y118.724
N1370 Z3.091 F1800.
N1375 X343.23 Y118.752 Z2.886 F2700.
N1380 X343.293 Y118.835 Z2.705
N1385 X343.38 Y118.968 Z2.571
N1390 X343.429 Y119.054 Z2.536
N1395 X343.473 Y119.141 Z2.5
N1400 G3 X339.861 Y120.859 Z1.392 I-1.806 J0.859
N1405 X343.473 Y119.141 Z0.284 I1.806 J-0.859
N1410 X339.861 Y120.859 Z-0.824 I-1.806 J0.859
N1415 X343.473 Y119.141 Z-1.932 I1.806 J-0.859
N1420 X339.861 Y120.859 Z-3.039 I-1.806 J0.859
N1425 X341.667 Y118. Z-3.75 I1.806 J-0.859
N1430 G1 X343.667
N1435 Y122.
N1440 X339.667
N1445 Y118.
N1450 X341.667
N1455 X343.667 Z-4.103
N1460 Y122. Z-4.808
N1465 X339.667 Z-5.513
N1470 Y118. Z-6.219
N1475 X343.667 Z-6.924
N1480 Y121.267 Z-7.5
N1485 Y122.
N1490 X339.667
N1495 Y118.
N1500 X343.667
N1505 Y121.267
N1510 Y122. Z-7.629
N1515 X339.667 Z-8.335
N1520 Y118. Z-9.04
N1525 X343.667 Z-9.745
N1530 Y122. Z-10.45
N1535 X339.667 Z-11.156
N1540 Y121.465 Z-11.25
N1545 Y118.
N1550 X343.667
N1555 Y121.267
N1560 Y122.
N1565 X339.667
N1570 Y121.465
N1575 Y118. Z-11.861
N1580 X343.667 Z-12.566
N1585 Y122. Z-13.272
N1590 X339.667 Z-13.977
N1595 Y118. Z-14.682
N1600 X341.469 Z-15.
N1605 X343.667
N1610 Y122.
N1615 X339.667
N1620 Y118.
N1625 X341.469
N1630 X341.561 Y118.007 Z-14.985
N1635 X341.651 Y118.028 Z-14.971
N1640 X341.729 Y118.059 Z-14.928
N1645 X341.802 Y118.101 Z-14.885
N1650 X341.855 Y118.14 Z-14.819
N1655 X341.903 Y118.186 Z-14.753
N1660 X341.957 Y118.252 Z-14.585
N1665 X341.974 Y118.276 Z-14.4
N1670 Z5.
N1675 X373.46 Y121.276
N1680 Z3.091 F1800.
N1685 X373.437 Y121.248 Z2.886 F2700.
N1690 X373.374 Y121.165 Z2.705
N1695 X373.287 Y121.032 Z2.571
N1700 X373.238 Y120.946 Z2.536
N1705 X373.194 Y120.859 Z2.5
N1710 G3 X376.806 Y119.141 Z1.392 I1.806 J-0.859
N1715 X373.194 Y120.859 Z0.284 I-1.806 J0.859
N1720 X376.806 Y119.141 Z-0.824 I1.806 J-0.859
N1725 X373.194 Y120.859 Z-1.932 I-1.806 J0.859
N1730 X376.806 Y119.141 Z-3.039 I1.806 J-0.859
N1735 X375. Y122. Z-3.75 I-1.806 J0.859
N1740 G1 X373.
N1745 Y118.
N1750 X377.
N1755 Y122.
N1760 X375.
N1765 X373. Z-4.103
N1770 Y118. Z-4.808
N1775 X377. Z-5.513
N1780 Y122. Z-6.219
N1785 X373. Z-6.924
N1790 Y118.733 Z-7.5
N1795 Y118.
N1800 X377.
N1805 Y122.
N1810 X373.
N1815 Y118.733
N1820 Y118. Z-7.629
N1825 X377. Z-8.335
N1830 Y122. Z-9.04
N1835 X373. Z-9.745
N1840 Y118. Z-10.45
N1845 X377. Z-11.156
N1850 Y118.535 Z-11.25
N1855 Y122.
N1860 X373.
N1865 Y118.733
N1870 Y118.
N1875 X377.
N1880 Y118.535
N1885 Y122. Z-11.861
N1890 X373. Z-12.566
N1895 Y118. Z-13.272
N1900 X377. Z-13.977
N1905 Y122. Z-14.682
N1910 X375.198 Z-15.
N1915 X373.
N1920 Y118.
N1925 X377.
N1930 Y122.
N1935 X375.198
N1940 X375.106 Y121.993 Z-14.985
N1945 X375.016 Y121.972 Z-14.971
N1950 X374.938 Y121.941 Z-14.928
N1955 X374.865 Y121.899 Z-14.885
N1960 X374.812 Y121.86 Z-14.819
N1965 X374.764 Y121.814 Z-14.753
N1970 X374.71 Y121.748 Z-14.585
N1975 X374.693 Y121.724 Z-14.4
N1980 Z5.
N1985 X373.46 Y154.609
N1990 Z3.091 F1800.
N1995 X373.437 Y154.581 Z2.886 F2700.
N2000 X373.374 Y154.498 Z2.705
N2005 X373.287 Y154.365 Z2.571
N2010 X373.238 Y154.279 Z2.536
N2015 X373.194 Y154.192 Z2.5
N2020 G3 X376.806 Y152.474 Z1.392 I1.806 J-0.859
N2025 X373.194 Y154.192 Z0.284 I-1.806 J0.859
N2030 X376.806 Y152.474 Z-0.824 I1.806 J-0.859
N2035 X373.194 Y154.192 Z-1.932 I-1.806 J0.859
N2040 X376.806 Y152.474 Z-3.039 I1.806 J-0.859
N2045 X375. Y155.333 Z-3.75 I-1.806 J0.859
N2050 G1 X373.
N2055 Y151.333
N2060 X377.
N2065 Y155.333
N2070 X375.
N2075 X373. Z-4.103
N2080 Y151.333 Z-4.808
N2085 X377. Z-5.513
N2090 Y155.333 Z-6.219
N2095 X373. Z-6.924
N2100 Y152.066 Z-7.5
N2105 Y151.333
N2110 X377.
N2115 Y155.333
N2120 X373.
N2125 Y152.066
N2130 Y151.333 Z-7.629
N2135 X377. Z-8.335
N2140 Y155.333 Z-9.04
N2145 X373. Z-9.745
N2150 Y151.333 Z-10.45
N2155 X377. Z-11.156
N2160 Y151.868 Z-11.25
N2165 Y155.333
N2170 X373.
N2175 Y152.066
N2180 Y151.333
N2185 X377.
N2190 Y151.868
N2195 Y155.333 Z-11.861
N2200 X373. Z-12.566
N2205 Y151.333 Z-13.272
N2210 X377. Z-13.977
N2215 Y155.333 Z-14.682
N2220 X375.198 Z-15.
N2225 X373.
N2230 Y151.333
N2235 X377.
N2240 Y155.333
N2245 X375.198
N2250 X375.106 Y155.326 Z-14.985
N2255 X375.016 Y155.305 Z-14.971
N2260 X374.938 Y155.274 Z-14.928
N2265 X374.865 Y155.232 Z-14.885
N2270 X374.812 Y155.193 Z-14.819
N2275 X374.764 Y155.147 Z-14.753
N2280 X374.71 Y155.081 Z-14.585
N2285 X374.693 Y155.057 Z-14.4
N2290 Z5.
N2295 X343.207 Y152.057
N2300 Z3.091 F1800.
N2305 X343.23 Y152.085 Z2.886 F2700.
N2310 X343.293 Y152.168 Z2.705
N2315 X343.38 Y152.301 Z2.571
N2320 X343.429 Y152.387 Z2.536
N2325 X343.473 Y152.474 Z2.5
N2330 G3 X339.861 Y154.192 Z1.392 I-1.806 J0.859
N2335 X343.473 Y152.474 Z0.284 I1.806 J-0.859
N2340 X339.861 Y154.192 Z-0.824 I-1.806 J0.859
N2345 X343.473 Y152.474 Z-1.932 I1.806 J-0.859
N2350 X339.861 Y154.192 Z-3.039 I-1.806 J0.859
N2355 X341.667 Y151.333 Z-3.75 I1.806 J-0.859
N2360 G1 X343.667
N2365 Y155.333
N2370 X339.667
N2375 Y151.333
N2380 X341.667
N2385 X343.667 Z-4.103
N2390 Y155.333 Z-4.808
N2395 X339.667 Z-5.513
N2400 Y151.333 Z-6.219
N2405 X343.667 Z-6.924
N2410 Y154.6 Z-7.5
N2415 Y155.333
N2420 X339.667
N2425 Y151.333
N2430 X343.667
N2435 Y154.6
N2440 Y155.333 Z-7.629
N2445 X339.667 Z-8.335
N2450 Y151.333 Z-9.04
N2455 X343.667 Z-9.745
N2460 Y155.333 Z-10.45
N2465 X339.667 Z-11.156
N2470 Y154.798 Z-11.25
N2475 Y151.333
N2480 X343.667
N2485 Y154.6
N2490 Y155.333
N2495 X339.667
N2500 Y154.798
N2505 Y151.333 Z-11.861
N2510 X343.667 Z-12.566
N2515 Y155.333 Z-13.272
N2520 X339.667 Z-13.977
N2525 Y151.333 Z-14.682
N2530 X341.469 Z-15.
N2535 X343.667
N2540 Y155.333
N2545 X339.667
N2550 Y151.333
N2555 X341.469
N2560 X341.561 Y151.34 Z-14.985
N2565 X341.651 Y151.361 Z-14.971
N2570 X341.729 Y151.392 Z-14.928
N2575 X341.802 Y151.434 Z-14.885
N2580 X341.855 Y151.473 Z-14.819
N2585 X341.903 Y151.519 Z-14.753
N2590 X341.957 Y151.585 Z-14.585
N2595 X341.974 Y151.609 Z-14.4
N2600 Z5.
N2605 X309.609 Y154.873
N2610 Z3.091 F1800.
N2615 X309.581 Y154.896 Z2.886 F2700.
N2620 X309.498 Y154.959 Z2.705
N2625 X309.365 Y155.046 Z2.571
N2630 X309.279 Y155.095 Z2.536
N2635 X309.192 Y155.139 Z2.5
N2640 G3 X307.474 Y151.527 Z1.392 I-0.859 J-1.806
N2645 X309.192 Y155.139 Z0.284 I0.859 J1.806
N2650 X307.474 Y151.527 Z-0.824 I-0.859 J-1.806
N2655 X309.192 Y155.139 Z-1.932 I0.859 J1.806
N2660 X307.474 Y151.527 Z-3.039 I-0.859 J-1.806
N2665 X310.333 Y153.333 Z-3.75 I0.859 J1.806
N2670 G1 Y155.333
N2675 X306.333
N2680 Y151.333
N2685 X310.333
N2690 Y153.333
N2695 Y155.333 Z-4.103
N2700 X306.333 Z-4.808
N2705 Y151.333 Z-5.513
N2710 X310.333 Z-6.219
N2715 Y155.333 Z-6.924
N2720 X307.066 Z-7.5
N2725 X306.333
N2730 Y151.333
N2735 X310.333
N2740 Y155.333
N2745 X307.066
N2750 X306.333 Z-7.629
N2755 Y151.333 Z-8.335
N2760 X310.333 Z-9.04
N2765 Y155.333 Z-9.745
N2770 X306.333 Z-10.45
N2775 Y151.333 Z-11.156
N2780 X306.868 Z-11.25
N2785 X310.333
N2790 Y155.333
N2795 X307.066
N2800 X306.333
N2805 Y151.333
N2810 X306.868
N2815 X310.333 Z-11.861
N2820 Y155.333 Z-12.566
N2825 X306.333 Z-13.272
N2830 Y151.333 Z-13.977
N2835 X310.333 Z-14.682
N2840 Y153.135 Z-15.
N2845 Y155.333
N2850 X306.333
N2855 Y151.333
N2860 X310.333
N2865 Y153.135
N2870 X310.326 Y153.227 Z-14.985
N2875 X310.305 Y153.317 Z-14.971
N2880 X310.274 Y153.395 Z-14.928
N2885 X310.232 Y153.468 Z-14.885
N2890 X310.193 Y153.521 Z-14.819
N2895 X310.147 Y153.569 Z-14.753
N2900 X310.081 Y153.623 Z-14.585
N2905 X310.057 Y153.64 Z-14.4
N2910 Z5.
N2915 X309.609 Y121.54
N2920 Z3.091 F1800.
N2925 X309.581 Y121.563 Z2.886 F2700.
N2930 X309.498 Y121.626 Z2.705
N2935 X309.365 Y121.713 Z2.571
N2940 X309.279 Y121.762 Z2.536
N2945 X309.192 Y121.806 Z2.5
N2950 G3 X307.474 Y118.194 Z1.392 I-0.859 J-1.806
N2955 X309.192 Y121.806 Z0.284 I0.859 J1.806
N2960 X307.474 Y118.194 Z-0.824 I-0.859 J-1.806
N2965 X309.192 Y121.806 Z-1.932 I0.859 J1.806
N2970 X307.474 Y118.194 Z-3.039 I-0.859 J-1.806
N2975 X310.333 Y120. Z-3.75 I0.859 J1.806
N2980 G1 Y122.
N2985 X306.333
N2990 Y118.
N2995 X310.333
N3000 Y120.
N3005 Y122. Z-4.103
N3010 X306.333 Z-4.808
N3015 Y118. Z-5.513
N3020 X310.333 Z-6.219
N3025 Y122. Z-6.924
N3030 X307.066 Z-7.5
N3035 X306.333
N3040 Y118.
N3045 X310.333
N3050 Y122.
N3055 X307.066
N3060 X306.333 Z-7.629
N3065 Y118. Z-8.335
N3070 X310.333 Z-9.04
N3075 Y122. Z-9.745
N3080 X306.333 Z-10.45
N3085 Y118. Z-11.156
N3090 X306.868 Z-11.25
N3095 X310.333
N3100 Y122.
N3105 X307.066
N3110 X306.333
N3115 Y118.
N3120 X306.868
N3125 X310.333 Z-11.861
N3130 Y122. Z-12.566
N3135 X306.333 Z-13.272
N3140 Y118. Z-13.977
N3145 X310.333 Z-14.682
N3150 Y119.802 Z-15.
N3155 Y122.
N3160 X306.333
N3165 Y118.
N3170 X310.333
N3175 Y119.802
N3180 X310.326 Y119.894 Z-14.985
N3185 X310.305 Y119.984 Z-14.971
N3190 X310.274 Y120.062 Z-14.928
N3195 X310.232 Y120.135 Z-14.885
N3200 X310.193 Y120.188 Z-14.819
N3205 X310.147 Y120.236 Z-14.753
N3210 X310.081 Y120.29 Z-14.585
N3215 X310.057 Y120.307 Z-14.4
N3220 Z5.
N3225 X276.276 Y154.873
N3230 Z3.091 F1800.
N3235 X276.248 Y154.896 Z2.886 F2700.
N3240 X276.165 Y154.959 Z2.705
N3245 X276.032 Y155.046 Z2.571
N3250 X275.946 Y155.095 Z2.536
N3255 X275.859 Y155.139 Z2.5
N3260 G3 X274.141 Y151.527 Z1.392 I-0.859 J-1.806
N3265 X275.859 Y155.139 Z0.284 I0.859 J1.806
N3270 X274.141 Y151.527 Z-0.824 I-0.859 J-1.806
N3275 X275.859 Y155.139 Z-1.932 I0.859 J1.806
N3280 X274.141 Y151.527 Z-3.039 I-0.859 J-1.806
N3285 X277. Y153.333 Z-3.75 I0.859 J1.806
N3290 G1 Y155.333
N3295 X273.
N3300 Y151.333
N3305 X277.
N3310 Y153.333
N3315 Y155.333 Z-4.103
N3320 X273. Z-4.808
N3325 Y151.333 Z-5.513
N3330 X277. Z-6.219
N3335 Y155.333 Z-6.924
N3340 X273.733 Z-7.5
N3345 X273.
N3350 Y151.333
N3355 X277.
N3360 Y155.333
N3365 X273.733
N3370 X273. Z-7.629
N3375 Y151.333 Z-8.335
N3380 X277. Z-9.04
N3385 Y155.333 Z-9.745
N3390 X273. Z-10.45
N3395 Y151.333 Z-11.156
N3400 X273.535 Z-11.25
N3405 X277.
N3410 Y155.333
N3415 X273.733
N3420 X273.
N3425 Y151.333
N3430 X273.535
N3435 X277. Z-11.861
N3440 Y155.333 Z-12.566
N3445 X273. Z-13.272
N3450 Y151.333 Z-13.977
N3455 X277. Z-14.682
N3460 Y153.135 Z-15.
N3465 Y155.333
N3470 X273.
N3475 Y151.333
N3480 X277.
N3485 Y153.135
N3490 X276.993 Y153.227 Z-14.985
N3495 X276.972 Y153.317 Z-14.971
N3500 X276.941 Y153.395 Z-14.928
N3505 X276.899 Y153.468 Z-14.885
N3510 X276.86 Y153.521 Z-14.819
N3515 X276.814 Y153.569 Z-14.753
N3520 X276.749 Y153.623 Z-14.585
N3525 X276.724 Y153.64 Z-14.4
N3530 Z5.
N3535 X276.54 Y185.391
N3540 Z3.091 F1800.
N3545 X276.563 Y185.419 Z2.886 F2700.
N3550 X276.626 Y185.502 Z2.705
N3555 X276.713 Y185.635 Z2.571
N3560 X276.762 Y185.721 Z2.536
N3565 X276.806 Y185.808 Z2.5
N3570 G3 X273.194 Y187.526 Z1.392 I-1.806 J0.859
N3575 X276.806 Y185.808 Z0.284 I1.806 J-0.859
N3580 X273.194 Y187.526 Z-0.824 I-1.806 J0.859
N3585 X276.806 Y185.808 Z-1.932 I1.806 J-0.859
N3590 X273.194 Y187.526 Z-3.039 I-1.806 J0.859
N3595 X275. Y184.667 Z-3.75 I1.806 J-0.859
N3600 G1 X277.
N3605 Y188.667
N3610 X273.
N3615 Y184.667
N3620 X275.
N3625 X277. Z-4.103
N3630 Y188.667 Z-4.808
N3635 X273. Z-5.513
N3640 Y184.667 Z-6.219
N3645 X277. Z-6.924
N3650 Y187.934 Z-7.5
N3655 Y188.667
N3660 X273.
N3665 Y184.667
N3670 X277.
N3675 Y187.934
N3680 Y188.667 Z-7.629
N3685 X273. Z-8.335
N3690 Y184.667 Z-9.04
N3695 X277. Z-9.745
N3700 Y188.667 Z-10.45
N3705 X273. Z-11.156
N3710 Y188.132 Z-11.25
N3715 Y184.667
N3720 X277.
N3725 Y187.934
N3730 Y188.667
N3735 X273.
N3740 Y188.132
N3745 Y184.667 Z-11.861
N3750 X277. Z-12.566
N3755 Y188.667 Z-13.272
N3760 X273. Z-13.977
N3765 Y184.667 Z-14.682
N3770 X274.802 Z-15.
N3775 X277.
N3780 Y188.667
N3785 X273.
N3790 Y184.667
N3795 X274.802
N3800 X274.894 Y184.674 Z-14.985
N3805 X274.984 Y184.695 Z-14.971
N3810 X275.062 Y184.726 Z-14.928
N3815 X275.135 Y184.768 Z-14.885
N3820 X275.188 Y184.807 Z-14.819
N3825 X275.236 Y184.853 Z-14.753
N3830 X275.29 Y184.919 Z-14.585
N3835 X275.307 Y184.943 Z-14.4
N3840 Z5.
N3845 X309.609 Y188.207
N3850 Z3.091 F1800.
N3855 X309.581 Y188.23 Z2.886 F2700.
N3860 X309.498 Y188.293 Z2.705
N3865 X309.365 Y188.38 Z2.571
N3870 X309.279 Y188.429 Z2.536
N3875 X309.192 Y188.473 Z2.5
N3880 G3 X307.474 Y184.861 Z1.392 I-0.859 J-1.806
N3885 X309.192 Y188.473 Z0.284 I0.859 J1.806
N3890 X307.474 Y184.861 Z-0.824 I-0.859 J-1.806
N3895 X309.192 Y188.473 Z-1.932 I0.859 J1.806
N3900 X307.474 Y184.861 Z-3.039 I-0.859 J-1.806
N3905 X310.333 Y186.667 Z-3.75 I0.859 J1.806
N3910 G1 Y188.667
N3915 X306.333
N3920 Y184.667
N3925 X310.333
N3930 Y186.667
N3935 Y188.667 Z-4.103
N3940 X306.333 Z-4.808
N3945 Y184.667 Z-5.513
N3950 X310.333 Z-6.219
N3955 Y188.667 Z-6.924
N3960 X307.066 Z-7.5
N3965 X306.333
N3970 Y184.667
N3975 X310.333
N3980 Y188.667
N3985 X307.066
N3990 X306.333 Z-7.629
N3995 Y184.667 Z-8.335
N4000 X310.333 Z-9.04
N4005 Y188.667 Z-9.745
N4010 X306.333 Z-10.45
N4015 Y184.667 Z-11.156
N4020 X306.868 Z-11.25
N4025 X310.333
N4030 Y188.667
N4035 X307.066
N4040 X306.333
N4045 Y184.667
N4050 X306.868
N4055 X310.333 Z-11.861
N4060 Y188.667 Z-12.566
N4065 X306.333 Z-13.272
N4070 Y184.667 Z-13.977
N4075 X310.333 Z-14.682
N4080 Y186.469 Z-15.
N4085 Y188.667
N4090 X306.333
N4095 Y184.667
N4100 X310.333
N4105 Y186.469
N4110 X310.326 Y186.561 Z-14.985
N4115 X310.305 Y186.651 Z-14.971
N4120 X310.274 Y186.729 Z-14.928
N4125 X310.232 Y186.802 Z-14.885
N4130 X310.193 Y186.855 Z-14.819
N4135 X310.147 Y186.903 Z-14.753
N4140 X310.081 Y186.957 Z-14.585
N4145 X310.057 Y186.974 Z-14.4
N4150 Z5.
N4155 X340.391 Y185.127
N4160 Z3.091 F1800.
N4165 X340.419 Y185.104 Z2.886 F2700.
N4170 X340.502 Y185.041 Z2.705
N4175 X340.635 Y184.954 Z2.571
N4180 X340.721 Y184.905 Z2.536
N4185 X340.808 Y184.861 Z2.5
N4190 G3 X342.526 Y188.473 Z1.392 I0.859 J1.806
N4195 X340.808 Y184.861 Z0.284 I-0.859 J-1.806
N4200 X342.526 Y188.473 Z-0.824 I0.859 J1.806
N4205 X340.808 Y184.861 Z-1.932 I-0.859 J-1.806
N4210 X342.526 Y188.473 Z-3.039 I0.859 J1.806
N4215 X339.667 Y186.667 Z-3.75 I-0.859 J-1.806
N4220 G1 Y184.667
N4225 X343.667
N4230 Y188.667
N4235 X339.667
N4240 Y186.667
N4245 Y184.667 Z-4.103
N4250 X343.667 Z-4.808
N4255 Y188.667 Z-5.513
N4260 X339.667 Z-6.219
N4265 Y184.667 Z-6.924
N4270 X342.934 Z-7.5
N4275 X343.667
N4280 Y188.667
N4285 X339.667
N4290 Y184.667
N4295 X342.934
N4300 X343.667 Z-7.629
N4305 Y188.667 Z-8.335
N4310 X339.667 Z-9.04
N4315 Y184.667 Z-9.745
N4320 X343.667 Z-10.45
N4325 Y188.667 Z-11.156
N4330 X343.132 Z-11.25
N4335 X339.667
N4340 Y184.667
N4345 X342.934
N4350 X343.667
N4355 Y188.667
N4360 X343.132
N4365 X339.667 Z-11.861
N4370 Y184.667 Z-12.566
N4375 X343.667 Z-13.272
N4380 Y188.667 Z-13.977
N4385 X339.667 Z-14.682
N4390 Y186.865 Z-15.
N4395 Y184.667
N4400 X343.667
N4405 Y188.667
N4410 X339.667
N4415 Y186.865
N4420 X339.674 Y186.773 Z-14.985
N4425 X339.695 Y186.683 Z-14.971
N4430 X339.726 Y186.605 Z-14.928
N4435 X339.768 Y186.532 Z-14.885
N4440 X339.807 Y186.479 Z-14.819
N4445 X339.853 Y186.431 Z-14.753
N4450 X339.919 Y186.377 Z-14.585
N4455 X339.943 Y186.36 Z-14.4
N4460 Z5.
N4465 X343.207 Y218.724
N4470 Z3.091 F1800.
N4475 X343.23 Y218.752 Z2.886 F2700.
N4480 X343.293 Y218.835 Z2.705
N4485 X343.38 Y218.968 Z2.571
N4490 X343.429 Y219.054 Z2.536
N4495 X343.473 Y219.141 Z2.5
N4500 G3 X339.861 Y220.859 Z1.392 I-1.806 J0.859
N4505 X343.473 Y219.141 Z0.284 I1.806 J-0.859
N4510 X339.861 Y220.859 Z-0.824 I-1.806 J0.859
N4515 X343.473 Y219.141 Z-1.932 I1.806 J-0.859
N4520 X339.861 Y220.859 Z-3.039 I-1.806 J0.859
N4525 X341.667 Y218. Z-3.75 I1.806 J-0.859
N4530 G1 X343.667
N4535 Y222.
N4540 X339.667
N4545 Y218.
N4550 X341.667
N4555 X343.667 Z-4.103
N4560 Y222. Z-4.808
N4565 X339.667 Z-5.513
N4570 Y218. Z-6.219
N4575 X343.667 Z-6.924
N4580 Y221.267 Z-7.5
N4585 Y222.
N4590 X339.667
N4595 Y218.
N4600 X343.667
N4605 Y221.267
N4610 Y222. Z-7.629
N4615 X339.667 Z-8.335
N4620 Y218. Z-9.04
N4625 X343.667 Z-9.745
N4630 Y222. Z-10.45
N4635 X339.667 Z-11.156
N4640 Y221.465 Z-11.25
N4645 Y218.
N4650 X343.667
N4655 Y221.267
N4660 Y222.
N4665 X339.667
N4670 Y221.465
N4675 Y218. Z-11.861
N4680 X343.667 Z-12.566
N4685 Y222. Z-13.272
N4690 X339.667 Z-13.977
N4695 Y218. Z-14.682
N4700 X341.469 Z-15.
N4705 X343.667
N4710 Y222.
N4715 X339.667
N4720 Y218.
N4725 X341.469
N4730 X341.561 Y218.007 Z-14.985
N4735 X341.651 Y218.028 Z-14.971
N4740 X341.729 Y218.059 Z-14.928
N4745 X341.802 Y218.101 Z-14.885
N4750 X341.855 Y218.14 Z-14.819
N4755 X341.903 Y218.186 Z-14.753
N4760 X341.957 Y218.252 Z-14.585
N4765 X341.974 Y218.276 Z-14.4
N4770 Z5.
N4775 X376.276 Y221.54
N4780 Z3.091 F1800.
N4785 X376.248 Y221.563 Z2.886 F2700.
N4790 X376.165 Y221.626 Z2.705
N4795 X376.032 Y221.713 Z2.571
N4800 X375.946 Y221.762 Z2.536
N4805 X375.859 Y221.806 Z2.5
N4810 G3 X374.141 Y218.194 Z1.392 I-0.859 J-1.806
N4815 X375.859 Y221.806 Z0.284 I0.859 J1.806
N4820 X374.141 Y218.194 Z-0.824 I-0.859 J-1.806
N4825 X375.859 Y221.806 Z-1.932 I0.859 J1.806
N4830 X374.141 Y218.194 Z-3.039 I-0.859 J-1.806
N4835 X377. Y220. Z-3.75 I0.859 J1.806
N4840 G1 Y222.
N4845 X373.
N4850 Y218.
N4855 X377.
N4860 Y220.
N4865 Y222. Z-4.103
N4870 X373. Z-4.808
N4875 Y218. Z-5.513
N4880 X377. Z-6.219
N4885 Y222. Z-6.924
N4890 X373.733 Z-7.5
N4895 X373.
N4900 Y218.
N4905 X377.
N4910 Y222.
N4915 X373.733
N4920 X373. Z-7.629
N4925 Y218. Z-8.335
N4930 X377. Z-9.04
N4935 Y222. Z-9.745
N4940 X373. Z-10.45
N4945 Y218. Z-11.156
N4950 X373.535 Z-11.25
N4955 X377.
N4960 Y222.
N4965 X373.733
N4970 X373.
N4975 Y218.
N4980 X373.535
N4985 X377. Z-11.861
N4990 Y222. Z-12.566
N4995 X373. Z-13.272
N5000 Y218. Z-13.977
N5005 X377. Z-14.682
N5010 Y219.802 Z-15.
N5015 Y222.
N5020 X373.
N5025 Y218.
N5030 X377.
N5035 Y219.802
N5040 X376.993 Y219.894 Z-14.985
N5045 X376.972 Y219.984 Z-14.971
N5050 X376.941 Y220.062 Z-14.928
N5055 X376.899 Y220.135 Z-14.885
N5060 X376.86 Y220.188 Z-14.819
N5065 X376.814 Y220.236 Z-14.753
N5070 X376.749 Y220.29 Z-14.585
N5075 X376.724 Y220.307 Z-14.4
N5080 Z5.
N5085 X407.057 Y218.46
N5090 Z3.091 F1800.
N5095 X407.085 Y218.437 Z2.886 F2700.
N5100 X407.168 Y218.374 Z2.705
N5105 X407.301 Y218.287 Z2.571
N5110 X407.387 Y218.238 Z2.536
N5115 X407.474 Y218.194 Z2.5
N5120 G3 X409.533 Y218.4 Z2.116 I0.859 J1.806
N5125 Y221.6 Z1.462 I-1.2 J1.6
N5130 X407.133 Y218.4 Z0.355 I-1.2 J-1.6
N5135 X409.533 Y221.6 Z-0.753 I1.2 J1.6
N5140 X407.133 Y218.4 Z-1.861 I-1.2 J-1.6
N5145 X409.533 Y221.6 Z-2.969 I1.2 J1.6
N5150 X406.333 Y220. Z-3.75 I-1.2 J-1.6
N5155 G1 Y218.
N5160 X410.333
N5165 Y222.
N5170 X406.333
N5175 Y220.
N5180 Y218. Z-4.103
N5185 X410.333 Z-4.808
N5190 Y222. Z-5.513
N5195 X406.333 Z-6.219
N5200 Y218. Z-6.924
N5205 X409.6 Z-7.5
N5210 X410.333
N5215 Y222.
N5220 X406.333
N5225 Y218.
N5230 X409.6
N5235 X410.333 Z-7.629
N5240 Y222. Z-8.335
N5245 X406.333 Z-9.04
N5250 Y218. Z-9.745
N5255 X410.333 Z-10.45
N5260 Y222. Z-11.156
N5265 X409.798 Z-11.25
N5270 X406.333
N5275 Y218.
N5280 X409.6
N5285 X410.333
N5290 Y222.
N5295 X409.798
N5300 X406.333 Z-11.861
N5305 Y218. Z-12.566
N5310 X410.333 Z-13.272
N5315 Y222. Z-13.977
N5320 X406.333 Z-14.682
N5325 Y220.198 Z-15.
N5330 Y218.
N5335 X410.333
N5340 Y222.
N5345 X406.333
N5350 Y220.198
N5355 X406.34 Y220.106 Z-14.985
N5360 X406.361 Y220.016 Z-14.971
N5365 X406.392 Y219.938 Z-14.928
N5370 X406.434 Y219.865 Z-14.885
N5375 X406.473 Y219.812 Z-14.819
N5380 X406.519 Y219.764 Z-14.753
N5385 X406.585 Y219.71 Z-14.585
N5390 X406.609 Y219.693 Z-14.4
N5395 Z5.
N5400 X409.609 Y188.207
N5405 Z3.091 F1800.
N5410 X409.581 Y188.23 Z2.886 F2700.
N5415 X409.498 Y188.293 Z2.705
N5420 X409.365 Y188.38 Z2.571
N5425 X409.279 Y188.429 Z2.536
N5430 X409.192 Y188.473 Z2.5
N5435 G3 X407.474 Y184.861 Z1.392 I-0.859 J-1.806
N5440 X409.192 Y188.473 Z0.284 I0.859 J1.806
N5445 X407.474 Y184.861 Z-0.824 I-0.859 J-1.806
N5450 X409.192 Y188.473 Z-1.932 I0.859 J1.806
N5455 X407.474 Y184.861 Z-3.039 I-0.859 J-1.806
N5460 X410.333 Y186.667 Z-3.75 I0.859 J1.806
N5465 G1 Y188.667
N5470 X406.333
N5475 Y184.667
N5480 X410.333
N5485 Y186.667
N5490 Y188.667 Z-4.103
N5495 X406.333 Z-4.808
N5500 Y184.667 Z-5.513
N5505 X410.333 Z-6.219
N5510 Y188.667 Z-6.924
N5515 X407.066 Z-7.5
N5520 X406.333
N5525 Y184.667
N5530 X410.333
N5535 Y188.667
N5540 X407.066
N5545 X406.333 Z-7.629
N5550 Y184.667 Z-8.335
N5555 X410.333 Z-9.04
N5560 Y188.667 Z-9.745
N5565 X406.333 Z-10.45
N5570 Y184.667 Z-11.156
N5575 X406.868 Z-11.25
N5580 X410.333
N5585 Y188.667
N5590 X407.066
N5595 X406.333
N5600 Y184.667
N5605 X406.868
N5610 X410.333 Z-11.861
N5615 Y188.667 Z-12.566
N5620 X406.333 Z-13.272
N5625 Y184.667 Z-13.977
N5630 X410.333 Z-14.682
N5635 Y186.469 Z-15.
N5640 Y188.667
N5645 X406.333
N5650 Y184.667
N5655 X410.333
N5660 Y186.469
N5665 X410.326 Y186.561 Z-14.985
N5670 X410.305 Y186.651 Z-14.971
N5675 X410.274 Y186.729 Z-14.928
N5680 X410.232 Y186.802 Z-14.885
N5685 X410.193 Y186.855 Z-14.819
N5690 X410.147 Y186.903 Z-14.753
N5695 X410.081 Y186.957 Z-14.585
N5700 X410.057 Y186.974 Z-14.4
N5705 Z5.
N5710 X406.793 Y154.609
N5715 Z3.091 F1800.
N5720 X406.77 Y154.581 Z2.886 F2700.
N5725 X406.707 Y154.498 Z2.705
N5730 X406.62 Y154.365 Z2.571
N5735 X406.571 Y154.279 Z2.536
N5740 X406.527 Y154.192 Z2.5
N5745 G3 X410.139 Y152.474 Z1.392 I1.806 J-0.859
N5750 X406.527 Y154.192 Z0.284 I-1.806 J0.859
N5755 X410.139 Y152.474 Z-0.824 I1.806 J-0.859
N5760 X406.527 Y154.192 Z-1.932 I-1.806 J0.859
N5765 X410.139 Y152.474 Z-3.039 I1.806 J-0.859
N5770 X408.333 Y155.333 Z-3.75 I-1.806 J0.859
N5775 G1 X406.333
N5780 Y151.333
N5785 X410.333
N5790 Y155.333
N5795 X408.333
N5800 X406.333 Z-4.103
N5805 Y151.333 Z-4.808
N5810 X410.333 Z-5.513
N5815 Y155.333 Z-6.219
N5820 X406.333 Z-6.924
N5825 Y152.066 Z-7.5
N5830 Y151.333
N5835 X410.333
N5840 Y155.333
N5845 X406.333
N5850 Y152.066
N5855 Y151.333 Z-7.629
N5860 X410.333 Z-8.335
N5865 Y155.333 Z-9.04
N5870 X406.333 Z-9.745
N5875 Y151.333 Z-10.45
N5880 X410.333 Z-11.156
N5885 Y151.868 Z-11.25
N5890 Y155.333
N5895 X406.333
N5900 Y152.066
N5905 Y151.333
N5910 X410.333
N5915 Y151.868
N5920 Y155.333 Z-11.861
N5925 X406.333 Z-12.566
N5930 Y151.333 Z-13.272
N5935 X410.333 Z-13.977
N5940 Y155.333 Z-14.682
N5945 X408.531 Z-15.
N5950 X406.333
N5955 Y151.333
N5960 X410.333
N5965 Y155.333
N5970 X408.531
N5975 X408.439 Y155.326 Z-14.985
N5980 X408.349 Y155.305 Z-14.971
N5985 X408.271 Y155.274 Z-14.928
N5990 X408.198 Y155.232 Z-14.885
N5995 X408.145 Y155.193 Z-14.819
N6000 X408.097 Y155.147 Z-14.753
N6005 X408.043 Y155.081 Z-14.585
N6010 X408.026 Y155.057 Z-14.4
N6015 Z5.
N6020 X440.391 Y151.793
N6025 Z3.091 F1800.
N6030 X440.419 Y151.77 Z2.886 F2700.
N6035 X440.502 Y151.707 Z2.705
N6040 X440.635 Y151.62 Z2.571
N6045 X440.721 Y151.571 Z2.536
N6050 X440.808 Y151.527 Z2.5
N6055 G3 X442.526 Y155.139 Z1.392 I0.859 J1.806
N6060 X440.808 Y151.527 Z0.284 I-0.859 J-1.806
N6065 X442.526 Y155.139 Z-0.824 I0.859 J1.806
N6070 X440.808 Y151.527 Z-1.932 I-0.859 J-1.806
N6075 X442.526 Y155.139 Z-3.039 I0.859 J1.806
N6080 X439.667 Y153.333 Z-3.75 I-0.859 J-1.806
N6085 G1 Y151.333
N6090 X443.667
N6095 Y155.333
N6100 X439.667
N6105 Y153.333
N6110 Y151.333 Z-4.103
N6115 X443.667 Z-4.808
N6120 Y155.333 Z-5.513
N6125 X439.667 Z-6.219
N6130 Y151.333 Z-6.924
N6135 X442.934 Z-7.5
N6140 X443.667
N6145 Y155.333
N6150 X439.667
N6155 Y151.333
N6160 X442.934
N6165 X443.667 Z-7.629
N6170 Y155.333 Z-8.335
N6175 X439.667 Z-9.04
N6180 Y151.333 Z-9.745
N6185 X443.667 Z-10.45
N6190 Y155.333 Z-11.156
N6195 X443.132 Z-11.25
N6200 X439.667
N6205 Y151.333
N6210 X442.934
N6215 X443.667
N6220 Y155.333
N6225 X443.132
N6230 X439.667 Z-11.861
N6235 Y151.333 Z-12.566
N6240 X443.667 Z-13.272
N6245 Y155.333 Z-13.977
N6250 X439.667 Z-14.682
N6255 Y153.531 Z-15.
N6260 Y151.333
N6265 X443.667
N6270 Y155.333
N6275 X439.667
N6280 Y153.531
N6285 X439.674 Y153.439 Z-14.985
N6290 X439.695 Y153.349 Z-14.971
N6295 X439.726 Y153.271 Z-14.928
N6300 X439.768 Y153.198 Z-14.885
N6305 X439.807 Y153.145 Z-14.819
N6310 X439.853 Y153.097 Z-14.753
N6315 X439.919 Y153.043 Z-14.585
N6320 X439.943 Y153.026 Z-14.4
N6325 Z5.
N6330 X443.207 Y185.391
N6335 Z3.091 F1800.
N6340 X443.23 Y185.419 Z2.886 F2700.
N6345 X443.293 Y185.502 Z2.705
N6350 X443.38 Y185.635 Z2.571
N6355 X443.429 Y185.721 Z2.536
N6360 X443.473 Y185.808 Z2.5
N6365 G3 X439.861 Y187.526 Z1.392 I-1.806 J0.859
N6370 X443.473 Y185.808 Z0.284 I1.806 J-0.859
N6375 X439.861 Y187.526 Z-0.824 I-1.806 J0.859
N6380 X443.473 Y185.808 Z-1.932 I1.806 J-0.859
N6385 X439.861 Y187.526 Z-3.039 I-1.806 J0.859
N6390 X441.667 Y184.667 Z-3.75 I1.806 J-0.859
N6395 G1 X443.667
N6400 Y188.667
N6405 X439.667
N6410 Y184.667
N6415 X441.667
N6420 X443.667 Z-4.103
N6425 Y188.667 Z-4.808
N6430 X439.667 Z-5.513
N6435 Y184.667 Z-6.219
N6440 X443.667 Z-6.924
N6445 Y187.934 Z-7.5
N6450 Y188.667
N6455 X439.667
N6460 Y184.667
N6465 X443.667
N6470 Y187.934
N6475 Y188.667 Z-7.629
N6480 X439.667 Z-8.335
N6485 Y184.667 Z-9.04
N6490 X443.667 Z-9.745
N6495 Y188.667 Z-10.45
N6500 X439.667 Z-11.156
N6505 Y188.132 Z-11.25
N6510 Y184.667
N6515 X443.667
N6520 Y187.934
N6525 Y188.667
N6530 X439.667
N6535 Y188.132
N6540 Y184.667 Z-11.861
N6545 X443.667 Z-12.566
N6550 Y188.667 Z-13.272
N6555 X439.667 Z-13.977
N6560 Y184.667 Z-14.682
N6565 X441.469 Z-15.
N6570 X443.667
N6575 Y188.667
N6580 X439.667
N6585 Y184.667
N6590 X441.469
N6595 X441.561 Y184.674 Z-14.985
N6600 X441.651 Y184.695 Z-14.971
N6605 X441.729 Y184.726 Z-14.928
N6610 X441.802 Y184.768 Z-14.885
N6615 X441.855 Y184.807 Z-14.819
N6620 X441.903 Y184.853 Z-14.753
N6625 X441.957 Y184.919 Z-14.585
N6630 X441.974 Y184.943 Z-14.4
N6635 Z5.
N6640 X473.46 Y187.943
N6645 Z3.091 F1800.
N6650 X473.437 Y187.915 Z2.886 F2700.
N6655 X473.374 Y187.832 Z2.705
N6660 X473.287 Y187.699 Z2.571
N6665 X473.238 Y187.613 Z2.536
N6670 X473.194 Y187.526 Z2.5
N6675 G3 X476.806 Y185.808 Z1.392 I1.806 J-0.859
N6680 X473.194 Y187.526 Z0.284 I-1.806 J0.859
N6685 X476.806 Y185.808 Z-0.824 I1.806 J-0.859
N6690 X473.194 Y187.526 Z-1.932 I-1.806 J0.859
N6695 X476.806 Y185.808 Z-3.039 I1.806 J-0.859
N6700 X475. Y188.667 Z-3.75 I-1.806 J0.859
N6705 G1 X473.
N6710 Y184.667
N6715 X477.
N6720 Y188.667
N6725 X475.
N6730 X473. Z-4.103
N6735 Y184.667 Z-4.808
N6740 X477. Z-5.513
N6745 Y188.667 Z-6.219
N6750 X473. Z-6.924
N6755 Y185.4 Z-7.5
N6760 Y184.667
N6765 X477.
N6770 Y188.667
N6775 X473.
N6780 Y185.4
N6785 Y184.667 Z-7.629
N6790 X477. Z-8.335
N6795 Y188.667 Z-9.04
N6800 X473. Z-9.745
N6805 Y184.667 Z-10.45
N6810 X477. Z-11.156
N6815 Y185.202 Z-11.25
N6820 Y188.667
N6825 X473.
N6830 Y185.4
N6835 Y184.667
N6840 X477.
N6845 Y185.202
N6850 Y188.667 Z-11.861
N6855 X473. Z-12.566
N6860 Y184.667 Z-13.272
N6865 X477. Z-13.977
N6870 Y188.667 Z-14.682
N6875 X475.198 Z-15.
N6880 X473.
N6885 Y184.667
N6890 X477.
N6895 Y188.667
N6900 X475.198
N6905 X475.106 Y188.66 Z-14.985
N6910 X475.016 Y188.639 Z-14.971
N6915 X474.938 Y188.608 Z-14.928
N6920 X474.865 Y188.566 Z-14.885
N6925 X474.812 Y188.527 Z-14.819
N6930 X474.764 Y188.481 Z-14.753
N6935 X474.71 Y188.415 Z-14.585
N6940 X474.693 Y188.391 Z-14.4
N6945 Z5.
N6950 X476.276 Y221.54
N6955 Z3.091 F1800.
N6960 X476.248 Y221.563 Z2.886 F2700.
N6965 X476.165 Y221.626 Z2.705
N6970 X476.032 Y221.713 Z2.571
N6975 X475.946 Y221.762 Z2.536
N6980 X475.859 Y221.806 Z2.5
N6985 G3 X474.141 Y218.194 Z1.392 I-0.859 J-1.806
N6990 X475.859 Y221.806 Z0.284 I0.859 J1.806
N6995 X474.141 Y218.194 Z-0.824 I-0.859 J-1.806
N7000 X475.859 Y221.806 Z-1.932 I0.859 J1.806
N7005 X474.141 Y218.194 Z-3.039 I-0.859 J-1.806
N7010 X477. Y220. Z-3.75 I0.859 J1.806
N7015 G1 Y222.
N7020 X473.
N7025 Y218.
N7030 X477.
N7035 Y220.
N7040 Y222. Z-4.103
N7045 X473. Z-4.808
N7050 Y218. Z-5.513
N7055 X477. Z-6.219
N7060 Y222. Z-6.924
N7065 X473.733 Z-7.5
N7070 X473.
N7075 Y218.
N7080 X477.
N7085 Y222.
N7090 X473.733
N7095 X473. Z-7.629
N7100 Y218. Z-8.335
N7105 X477. Z-9.04
N7110 Y222. Z-9.745
N7115 X473. Z-10.45
N7120 Y218. Z-11.156
N7125 X473.535 Z-11.25
N7130 X477.
N7135 Y222.
N7140 X473.733
N7145 X473.
N7150 Y218.
N7155 X473.535
N7160 X477. Z-11.861
N7165 Y222. Z-12.566
N7170 X473. Z-13.272
N7175 Y218. Z-13.977
N7180 X477. Z-14.682
N7185 Y219.802 Z-15.
N7190 Y222.
N7195 X473.
N7200 Y218.
N7205 X477.
N7210 Y219.802
N7215 X476.993 Y219.894 Z-14.985
N7220 X476.972 Y219.984 Z-14.971
N7225 X476.941 Y220.062 Z-14.928
N7230 X476.899 Y220.135 Z-14.885
N7235 X476.86 Y220.188 Z-14.819
N7240 X476.814 Y220.236 Z-14.753
N7245 X476.749 Y220.29 Z-14.585
N7250 X476.724 Y220.307 Z-14.4
N7255 Z5.
N7260 X440.127 Y221.276
N7265 Z3.091 F1800.
N7270 X440.104 Y221.248 Z2.886 F2700.
N7275 X440.041 Y221.165 Z2.705
N7280 X439.954 Y221.032 Z2.571
N7285 X439.905 Y220.946 Z2.536
N7290 X439.861 Y220.859 Z2.5
N7295 G3 X443.473 Y219.141 Z1.392 I1.806 J-0.859
N7300 X439.861 Y220.859 Z0.284 I-1.806 J0.859
N7305 X443.473 Y219.141 Z-0.824 I1.806 J-0.859
N7310 X439.861 Y220.859 Z-1.932 I-1.806 J0.859
N7315 X443.473 Y219.141 Z-3.039 I1.806 J-0.859
N7320 X441.667 Y222. Z-3.75 I-1.806 J0.859
N7325 G1 X439.667
N7330 Y218.
N7335 X443.667
N7340 Y222.
N7345 X441.667
N7350 X439.667 Z-4.103
N7355 Y218. Z-4.808
N7360 X443.667 Z-5.513
N7365 Y222. Z-6.219
N7370 X439.667 Z-6.924
N7375 Y218.733 Z-7.5
N7380 Y218.
N7385 X443.667
N7390 Y222.
N7395 X439.667
N7400 Y218.733
N7405 Y218. Z-7.629
N7410 X443.667 Z-8.335
N7415 Y222. Z-9.04
N7420 X439.667 Z-9.745
N7425 Y218. Z-10.45
N7430 X443.667 Z-11.156
N7435 Y218.535 Z-11.25
N7440 Y222.
N7445 X439.667
N7450 Y218.733
N7455 Y218.
N7460 X443.667
N7465 Y218.535
N7470 Y222. Z-11.861
N7475 X439.667 Z-12.566
N7480 Y218. Z-13.272
N7485 X443.667 Z-13.977
N7490 Y222. Z-14.682
N7495 X441.865 Z-15.
N7500 X439.667
N7505 Y218.
N7510 X443.667
N7515 Y222.
N7520 X441.865
N7525 X441.773 Y221.993 Z-14.985
N7530 X441.683 Y221.972 Z-14.971
N7535 X441.605 Y221.941 Z-14.928
N7540 X441.532 Y221.899 Z-14.885
N7545 X441.479 Y221.86 Z-14.819
N7550 X441.431 Y221.814 Z-14.753
N7555 X441.377 Y221.748 Z-14.585
N7560 X441.36 Y221.724 Z-14.4
N7565 Z5.
N7570 X376.276 Y188.207
N7575 Z3.091 F1800.
N7580 X376.248 Y188.23 Z2.886 F2700.
N7585 X376.165 Y188.293 Z2.705
N7590 X376.032 Y188.38 Z2.571
N7595 X375.946 Y188.429 Z2.536
N7600 X375.859 Y188.473 Z2.5
N7605 G3 X374.141 Y184.861 Z1.392 I-0.859 J-1.806
N7610 X375.859 Y188.473 Z0.284 I0.859 J1.806
N7615 X374.141 Y184.861 Z-0.824 I-0.859 J-1.806
N7620 X375.859 Y188.473 Z-1.932 I0.859 J1.806
N7625 X374.141 Y184.861 Z-3.039 I-0.859 J-1.806
N7630 X377. Y186.667 Z-3.75 I0.859 J1.806
N7635 G1 Y188.667
N7640 X373.
N7645 Y184.667
N7650 X377.
N7655 Y186.667
N7660 Y188.667 Z-4.103
N7665 X373. Z-4.808
N7670 Y184.667 Z-5.513
N7675 X377. Z-6.219
N7680 Y188.667 Z-6.924
N7685 X373.733 Z-7.5
N7690 X373.
N7695 Y184.667
N7700 X377.
N7705 Y188.667
N7710 X373.733
N7715 X373. Z-7.629
N7720 Y184.667 Z-8.335
N7725 X377. Z-9.04
N7730 Y188.667 Z-9.745
N7735 X373. Z-10.45
N7740 Y184.667 Z-11.156
N7745 X373.535 Z-11.25
N7750 X377.
N7755 Y188.667
N7760 X373.733
N7765 X373.
N7770 Y184.667
N7775 X373.535
N7780 X377. Z-11.861
N7785 Y188.667 Z-12.566
N7790 X373. Z-13.272
N7795 Y184.667 Z-13.977
N7800 X377. Z-14.682
N7805 Y186.469 Z-15.
N7810 Y188.667
N7815 X373.
N7820 Y184.667
N7825 X377.
N7830 Y186.469
N7835 X376.993 Y186.561 Z-14.985
N7840 X376.972 Y186.651 Z-14.971
N7845 X376.941 Y186.729 Z-14.928
N7850 X376.899 Y186.802 Z-14.885
N7855 X376.86 Y186.855 Z-14.819
N7860 X376.814 Y186.903 Z-14.753
N7865 X376.749 Y186.957 Z-14.585
N7870 X376.724 Y186.974 Z-14.4
N7875 Z5.
N7880 X409.873 Y118.724
N7885 Z3.091 F1800.
N7890 X409.896 Y118.752 Z2.886 F2700.
N7895 X409.959 Y118.835 Z2.705
N7900 X410.046 Y118.968 Z2.571
N7905 X410.095 Y119.054 Z2.536
N7910 X410.139 Y119.141 Z2.5
N7915 G3 X406.527 Y120.859 Z1.392 I-1.806 J0.859
N7920 X410.139 Y119.141 Z0.284 I1.806 J-0.859
N7925 X406.527 Y120.859 Z-0.824 I-1.806 J0.859
N7930 X410.139 Y119.141 Z-1.932 I1.806 J-0.859
N7935 X406.527 Y120.859 Z-3.039 I-1.806 J0.859
N7940 X408.333 Y118. Z-3.75 I1.806 J-0.859
N7945 G1 X410.333
N7950 Y122.
N7955 X406.333
N7960 Y118.
N7965 X408.333
N7970 X410.333 Z-4.103
N7975 Y122. Z-4.808
N7980 X406.333 Z-5.513
N7985 Y118. Z-6.219
N7990 X410.333 Z-6.924
N7995 Y121.267 Z-7.5
N8000 Y122.
N8005 X406.333
N8010 Y118.
N8015 X410.333
N8020 Y121.267
N8025 Y122. Z-7.629
N8030 X406.333 Z-8.335
N8035 Y118. Z-9.04
N8040 X410.333 Z-9.745
N8045 Y122. Z-10.45
N8050 X406.333 Z-11.156
N8055 Y121.465 Z-11.25
N8060 Y118.
N8065 X410.333
N8070 Y121.267
N8075 Y122.
N8080 X406.333
N8085 Y121.465
N8090 Y118. Z-11.861
N8095 X410.333 Z-12.566
N8100 Y122. Z-13.272
N8105 X406.333 Z-13.977
N8110 Y118. Z-14.682
N8115 X408.135 Z-15.
N8120 X410.333
N8125 Y122.
N8130 X406.333
N8135 Y118.
N8140 X408.135
N8145 X408.227 Y118.007 Z-14.985
N8150 X408.317 Y118.028 Z-14.971
N8155 X408.395 Y118.059 Z-14.928
N8160 X408.468 Y118.101 Z-14.885
N8165 X408.521 Y118.14 Z-14.819
N8170 X408.569 Y118.186 Z-14.753
N8175 X408.623 Y118.252 Z-14.585
N8180 X408.64 Y118.276 Z-14.4
N8185 Z5.
N8190 X409.873 Y85.391
N8195 Z3.091 F1800.
N8200 X409.896 Y85.419 Z2.886 F2700.
N8205 X409.959 Y85.502 Z2.705
N8210 X410.046 Y85.635 Z2.571
N8215 X410.095 Y85.72 Z2.536
N8220 X410.139 Y85.808 Z2.5
N8225 G3 X406.527 Y87.526 Z1.392 I-1.806 J0.859
N8230 X410.139 Y85.808 Z0.284 I1.806 J-0.859
N8235 X406.527 Y87.526 Z-0.824 I-1.806 J0.859
N8240 X410.139 Y85.808 Z-1.932 I1.806 J-0.859
N8245 X406.527 Y87.526 Z-3.039 I-1.806 J0.859
N8250 X408.333 Y84.667 Z-3.75 I1.806 J-0.859
N8255 G1 X410.333
N8260 Y88.667
N8265 X406.333
N8270 Y84.667
N8275 X408.333
N8280 X410.333 Z-4.103
N8285 Y88.667 Z-4.808
N8290 X406.333 Z-5.513
N8295 Y84.667 Z-6.219
N8300 X410.333 Z-6.924
N8305 Y87.934 Z-7.5
N8310 Y88.667
N8315 X406.333
N8320 Y84.667
N8325 X410.333
N8330 Y87.934
N8335 Y88.667 Z-7.629
N8340 X406.333 Z-8.335
N8345 Y84.667 Z-9.04
N8350 X410.333 Z-9.745
N8355 Y88.667 Z-10.45
N8360 X406.333 Z-11.156
N8365 Y88.132 Z-11.25
N8370 Y84.667
N8375 X410.333
N8380 Y87.934
N8385 Y88.667
N8390 X406.333
N8395 Y88.132
N8400 Y84.667 Z-11.861
N8405 X410.333 Z-12.566
N8410 Y88.667 Z-13.272
N8415 X406.333 Z-13.977
N8420 Y84.667 Z-14.682
N8425 X408.135 Z-15.
N8430 X410.333
N8435 Y88.667
N8440 X406.333
N8445 Y84.667
N8450 X408.135
N8455 X408.227 Y84.674 Z-14.985
N8460 X408.317 Y84.695 Z-14.971
N8465 X408.395 Y84.726 Z-14.928
N8470 X408.468 Y84.767 Z-14.885
N8475 X408.521 Y84.807 Z-14.819
N8480 X408.569 Y84.853 Z-14.753
N8485 X408.623 Y84.918 Z-14.585
N8490 X408.64 Y84.943 Z-14.4
N8495 Z5.
N8500 X409.609 Y54.873
N8505 Z3.091 F1800.
N8510 X409.581 Y54.896 Z2.886 F2700.
N8515 X409.498 Y54.959 Z2.705
N8520 X409.365 Y55.047 Z2.571
N8525 X409.279 Y55.095 Z2.536
N8530 X409.192 Y55.139 Z2.5
N8535 G3 X407.474 Y51.527 Z1.392 I-0.859 J-1.806
N8540 X409.192 Y55.139 Z0.284 I0.859 J1.806
N8545 X407.474 Y51.527 Z-0.824 I-0.859 J-1.806
N8550 X409.192 Y55.139 Z-1.932 I0.859 J1.806
N8555 X407.474 Y51.527 Z-3.039 I-0.859 J-1.806
N8560 X410.333 Y53.333 Z-3.75 I0.859 J1.806
N8565 G1 Y55.333
N8570 X406.333
N8575 Y51.333
N8580 X410.333
N8585 Y53.333
N8590 Y55.333 Z-4.103
N8595 X406.333 Z-4.808
N8600 Y51.333 Z-5.513
N8605 X410.333 Z-6.219
N8610 Y55.333 Z-6.924
N8615 X407.066 Z-7.5
N8620 X406.333
N8625 Y51.333
N8630 X410.333
N8635 Y55.333
N8640 X407.066
N8645 X406.333 Z-7.629
N8650 Y51.333 Z-8.335
N8655 X410.333 Z-9.04
N8660 Y55.333 Z-9.745
N8665 X406.333 Z-10.45
N8670 Y51.333 Z-11.156
N8675 X406.868 Z-11.25
N8680 X410.333
N8685 Y55.333
N8690 X407.066
N8695 X406.333
N8700 Y51.333
N8705 X406.868
N8710 X410.333 Z-11.861
N8715 Y55.333 Z-12.566
N8720 X406.333 Z-13.272
N8725 Y51.333 Z-13.977
N8730 X410.333 Z-14.682
N8735 Y53.135 Z-15.
N8740 Y55.333
N8745 X406.333
N8750 Y51.333
N8755 X410.333
N8760 Y53.135
N8765 X410.326 Y53.228 Z-14.985
N8770 X410.305 Y53.318 Z-14.971
N8775 X410.274 Y53.395 Z-14.928
N8780 X410.232 Y53.468 Z-14.885
N8785 X410.193 Y53.521 Z-14.819
N8790 X410.147 Y53.569 Z-14.753
N8795 X410.081 Y53.624 Z-14.585
N8800 X410.057 Y53.64 Z-14.4
N8805 Z5.
N8810 X440.127 Y54.609
N8815 Z3.091 F1800.
N8820 X440.104 Y54.581 Z2.886 F2700.
N8825 X440.041 Y54.498 Z2.705
N8830 X439.954 Y54.365 Z2.571
N8835 X439.905 Y54.28 Z2.536
N8840 X439.861 Y54.192 Z2.5
N8845 G3 X443.473 Y52.474 Z1.392 I1.806 J-0.859
N8850 X439.861 Y54.192 Z0.284 I-1.806 J0.859
N8855 X443.473 Y52.474 Z-0.824 I1.806 J-0.859
N8860 X439.861 Y54.192 Z-1.932 I-1.806 J0.859
N8865 X443.473 Y52.474 Z-3.039 I1.806 J-0.859
N8870 X441.667 Y55.333 Z-3.75 I-1.806 J0.859
N8875 G1 X439.667
N8880 Y51.333
N8885 X443.667
N8890 Y55.333
N8895 X441.667
N8900 X439.667 Z-4.103
N8905 Y51.333 Z-4.808
N8910 X443.667 Z-5.513
N8915 Y55.333 Z-6.219
N8920 X439.667 Z-6.924
N8925 Y52.066 Z-7.5
N8930 Y51.333
N8935 X443.667
N8940 Y55.333
N8945 X439.667
N8950 Y52.066
N8955 Y51.333 Z-7.629
N8960 X443.667 Z-8.335
N8965 Y55.333 Z-9.04
N8970 X439.667 Z-9.745
N8975 Y51.333 Z-10.45
N8980 X443.667 Z-11.156
N8985 Y51.868 Z-11.25
N8990 Y55.333
N8995 X439.667
N9000 Y52.066
N9005 Y51.333
N9010 X443.667
N9015 Y51.868
N9020 Y55.333 Z-11.861
N9025 X439.667 Z-12.566
N9030 Y51.333 Z-13.272
N9035 X443.667 Z-13.977
N9040 Y55.333 Z-14.682
N9045 X441.865 Z-15.
N9050 X439.667
N9055 Y51.333
N9060 X443.667
N9065 Y55.333
N9070 X441.865
N9075 X441.773 Y55.326 Z-14.985
N9080 X441.683 Y55.305 Z-14.971
N9085 X441.605 Y55.274 Z-14.928
N9090 X441.532 Y55.233 Z-14.885
N9095 X441.479 Y55.193 Z-14.819
N9100 X441.431 Y55.147 Z-14.753
N9105 X441.377 Y55.082 Z-14.585
N9110 X441.36 Y55.057 Z-14.4
N9115 Z5.
N9120 X440.127 Y87.943
N9125 Z3.091 F1800.
N9130 X440.104 Y87.915 Z2.886 F2700.
N9135 X440.041 Y87.832 Z2.705
N9140 X439.954 Y87.698 Z2.571
N9145 X439.905 Y87.613 Z2.536
N9150 X439.861 Y87.526 Z2.5
N9155 G3 X443.473 Y85.808 Z1.392 I1.806 J-0.859
N9160 X439.861 Y87.526 Z0.284 I-1.806 J0.859
N9165 X443.473 Y85.808 Z-0.824 I1.806 J-0.859
N9170 X439.861 Y87.526 Z-1.932 I-1.806 J0.859
N9175 X443.473 Y85.808 Z-3.039 I1.806 J-0.859
N9180 X441.667 Y88.667 Z-3.75 I-1.806 J0.859
N9185 G1 X439.667
N9190 Y84.667
N9195 X443.667
N9200 Y88.667
N9205 X441.667
N9210 X439.667 Z-4.103
N9215 Y84.667 Z-4.808
N9220 X443.667 Z-5.513
N9225 Y88.667 Z-6.219
N9230 X439.667 Z-6.924
N9235 Y85.399 Z-7.5
N9240 Y84.667
N9245 X443.667
N9250 Y88.667
N9255 X439.667
N9260 Y85.399
N9265 Y84.667 Z-7.629
N9270 X443.667 Z-8.335
N9275 Y88.667 Z-9.04
N9280 X439.667 Z-9.745
N9285 Y84.667 Z-10.45
N9290 X443.667 Z-11.156
N9295 Y85.201 Z-11.25
N9300 Y88.667
N9305 X439.667
N9310 Y85.399
N9315 Y84.667
N9320 X443.667
N9325 Y85.201
N9330 Y88.667 Z-11.861
N9335 X439.667 Z-12.566
N9340 Y84.667 Z-13.272
N9345 X443.667 Z-13.977
N9350 Y88.667 Z-14.682
N9355 X441.865 Z-15.
N9360 X439.667
N9365 Y84.667
N9370 X443.667
N9375 Y88.667
N9380 X441.865
N9385 X441.773 Y88.66 Z-14.985
N9390 X441.683 Y88.638 Z-14.971
N9395 X441.605 Y88.607 Z-14.928
N9400 X441.532 Y88.566 Z-14.885
N9405 X441.479 Y88.526 Z-14.819
N9410 X441.431 Y88.481 Z-14.753
N9415 X441.377 Y88.415 Z-14.585
N9420 X441.36 Y88.391 Z-14.4
N9425 Z5.
N9430 X443.207 Y118.724
N9435 Z3.091 F1800.
N9440 X443.23 Y118.752 Z2.886 F2700.
N9445 X443.293 Y118.835 Z2.705
N9450 X443.38 Y118.968 Z2.571
N9455 X443.429 Y119.054 Z2.536
N9460 X443.473 Y119.141 Z2.5
N9465 G3 X439.861 Y120.859 Z1.392 I-1.806 J0.859
N9470 X443.473 Y119.141 Z0.284 I1.806 J-0.859
N9475 X439.861 Y120.859 Z-0.824 I-1.806 J0.859
N9480 X443.473 Y119.141 Z-1.932 I1.806 J-0.859
N9485 X439.861 Y120.859 Z-3.039 I-1.806 J0.859
N9490 X441.667 Y118. Z-3.75 I1.806 J-0.859
N9495 G1 X443.667
N9500 Y122.
N9505 X439.667
N9510 Y118.
N9515 X441.667
N9520 X443.667 Z-4.103
N9525 Y122. Z-4.808
N9530 X439.667 Z-5.513
N9535 Y118. Z-6.219
N9540 X443.667 Z-6.924
N9545 Y121.267 Z-7.5
N9550 Y122.
N9555 X439.667
N9560 Y118.
N9565 X443.667
N9570 Y121.267
N9575 Y122. Z-7.629
N9580 X439.667 Z-8.335
N9585 Y118. Z-9.04
N9590 X443.667 Z-9.745
N9595 Y122. Z-10.45
N9600 X439.667 Z-11.156
N9605 Y121.465 Z-11.25
N9610 Y118.
N9615 X443.667
N9620 Y121.267
N9625 Y122.
N9630 X439.667
N9635 Y121.465
N9640 Y118. Z-11.861
N9645 X443.667 Z-12.566
N9650 Y122. Z-13.272
N9655 X439.667 Z-13.977
N9660 Y118. Z-14.682
N9665 X441.469 Z-15.
N9670 X443.667
N9675 Y122.
N9680 X439.667
N9685 Y118.
N9690 X441.469
N9695 X441.561 Y118.007 Z-14.985
N9700 X441.651 Y118.028 Z-14.971
N9705 X441.729 Y118.059 Z-14.928
N9710 X441.802 Y118.101 Z-14.885
N9715 X441.855 Y118.14 Z-14.819
N9720 X441.903 Y118.186 Z-14.753
N9725 X441.957 Y118.252 Z-14.585
N9730 X441.974 Y118.276 Z-14.4
N9735 Z5.
N9740 X476.54 Y118.724
N9745 Z3.091 F1800.
N9750 X476.563 Y118.752 Z2.886 F2700.
N9755 X476.626 Y118.835 Z2.705
N9760 X476.713 Y118.968 Z2.571
N9765 X476.762 Y119.054 Z2.536
N9770 X476.806 Y119.141 Z2.5
N9775 G3 X473.194 Y120.859 Z1.392 I-1.806 J0.859
N9780 X476.806 Y119.141 Z0.284 I1.806 J-0.859
N9785 X473.194 Y120.859 Z-0.824 I-1.806 J0.859
N9790 X476.806 Y119.141 Z-1.932 I1.806 J-0.859
N9795 X473.194 Y120.859 Z-3.039 I-1.806 J0.859
N9800 X475. Y118. Z-3.75 I1.806 J-0.859
N9805 G1 X477.
N9810 Y122.
N9815 X473.
N9820 Y118.
N9825 X475.
N9830 X477. Z-4.103
N9835 Y122. Z-4.808
N9840 X473. Z-5.513
N9845 Y118. Z-6.219
N9850 X477. Z-6.924
N9855 Y121.267 Z-7.5
N9860 Y122.
N9865 X473.
N9870 Y118.
N9875 X477.
N9880 Y121.267
N9885 Y122. Z-7.629
N9890 X473. Z-8.335
N9895 Y118. Z-9.04
N9900 X477. Z-9.745
N9905 Y122. Z-10.45
N9910 X473. Z-11.156
N9915 Y121.465 Z-11.25
N9920 Y118.
N9925 X477.
N9930 Y121.267
N9935 Y122.
N9940 X473.
N9945 Y121.465
N9950 Y118. Z-11.861
N9955 X477. Z-12.566
N9960 Y122. Z-13.272
N9965 X473. Z-13.977
N9970 Y118. Z-14.682
N9975 X474.802 Z-15.
N9980 X477.
N9985 Y122.
N9990 X473.
N9995 Y118.
N10000 X474.802
N10005 X474.894 Y118.007 Z-14.985
N10010 X474.984 Y118.028 Z-14.971
N10015 X475.062 Y118.059 Z-14.928
N10020 X475.135 Y118.101 Z-14.885
N10025 X475.188 Y118.14 Z-14.819
N10030 X475.236 Y118.186 Z-14.753
N10035 X475.29 Y118.252 Z-14.585
N10040 X475.307 Y118.276 Z-14.4
N10045 Z5.
N10050 X473.724 Y85.127
N10055 Z3.091 F1800.
N10060 X473.752 Y85.104 Z2.886 F2700.
N10065 X473.835 Y85.041 Z2.705
N10070 X473.968 Y84.953 Z2.571
N10075 X474.054 Y84.905 Z2.536
N10080 X474.141 Y84.861 Z2.5
N10085 G3 X475.859 Y88.473 Z1.392 I0.859 J1.806
N10090 X474.141 Y84.861 Z0.284 I-0.859 J-1.806
N10095 X475.859 Y88.473 Z-0.824 I0.859 J1.806
N10100 X474.141 Y84.861 Z-1.932 I-0.859 J-1.806
N10105 X475.859 Y88.473 Z-3.039 I0.859 J1.806
N10110 X473. Y86.667 Z-3.75 I-0.859 J-1.806
N10115 G1 Y84.667
N10120 X477.
N10125 Y88.667
N10130 X473.
N10135 Y86.667
N10140 Y84.667 Z-4.103
N10145 X477. Z-4.808
N10150 Y88.667 Z-5.513
N10155 X473. Z-6.219
N10160 Y84.667 Z-6.924
N10165 X476.267 Z-7.5
N10170 X477.
N10175 Y88.667
N10180 X473.
N10185 Y84.667
N10190 X476.267
N10195 X477. Z-7.629
N10200 Y88.667 Z-8.335
N10205 X473. Z-9.04
N10210 Y84.667 Z-9.745
N10215 X477. Z-10.45
N10220 Y88.667 Z-11.156
N10225 X476.465 Z-11.25
N10230 X473.
N10235 Y84.667
N10240 X476.267
N10245 X477.
N10250 Y88.667
N10255 X476.465
N10260 X473. Z-11.861
N10265 Y84.667 Z-12.566
N10270 X477. Z-13.272
N10275 Y88.667 Z-13.977
N10280 X473. Z-14.682
N10285 Y86.865 Z-15.
N10290 Y84.667
N10295 X477.
N10300 Y88.667
N10305 X473.
N10310 Y86.865
N10315 X473.007 Y86.772 Z-14.985
N10320 X473.028 Y86.682 Z-14.971
N10325 X473.059 Y86.605 Z-14.928
N10330 X473.101 Y86.532 Z-14.885
N10335 X473.14 Y86.479 Z-14.819
N10340 X473.186 Y86.431 Z-14.753
N10345 X473.251 Y86.376 Z-14.585
N10350 X473.276 Y86.36 Z-14.4
N10355 Z5.
N10360 X476.54 Y52.057
N10365 Z3.091 F1800.
N10370 X476.563 Y52.085 Z2.886 F2700.
N10375 X476.626 Y52.168 Z2.705
N10380 X476.713 Y52.302 Z2.571
N10385 X476.762 Y52.387 Z2.536
N10390 X476.806 Y52.474 Z2.5
N10395 G3 X473.194 Y54.192 Z1.392 I-1.806 J0.859
N10400 X476.806 Y52.474 Z0.284 I1.806 J-0.859
N10405 X473.194 Y54.192 Z-0.824 I-1.806 J0.859
N10410 X476.806 Y52.474 Z-1.932 I1.806 J-0.859
N10415 X473.194 Y54.192 Z-3.039 I-1.806 J0.859
N10420 X475. Y51.333 Z-3.75 I1.806 J-0.859
N10425 G1 X477.
N10430 Y55.333
N10435 X473.
N10440 Y51.333
N10445 X475.
N10450 X477. Z-4.103
N10455 Y55.333 Z-4.808
N10460 X473. Z-5.513
N10465 Y51.333 Z-6.219
N10470 X477. Z-6.924
N10475 Y54.601 Z-7.5
N10480 Y55.333
N10485 X473.
N10490 Y51.333
N10495 X477.
N10500 Y54.601
N10505 Y55.333 Z-7.629
N10510 X473. Z-8.335
N10515 Y51.333 Z-9.04
N10520 X477. Z-9.745
N10525 Y55.333 Z-10.45
N10530 X473. Z-11.156
N10535 Y54.799 Z-11.25
N10540 Y51.333
N10545 X477.
N10550 Y54.601
N10555 Y55.333
N10560 X473.
N10565 Y54.799
N10570 Y51.333 Z-11.861
N10575 X477. Z-12.566
N10580 Y55.333 Z-13.272
N10585 X473. Z-13.977
N10590 Y51.333 Z-14.682
N10595 X474.802 Z-15.
N10600 X477.
N10605 Y55.333
N10610 X473.
N10615 Y51.333
N10620 X474.802
N10625 X474.894 Y51.34 Z-14.985
N10630 X474.984 Y51.362 Z-14.971
N10635 X475.062 Y51.393 Z-14.928
N10640 X475.135 Y51.434 Z-14.885
N10645 X475.188 Y51.474 Z-14.819
N10650 X475.236 Y51.519 Z-14.753
N10655 X475.29 Y51.585 Z-14.585
N10660 X475.307 Y51.609 Z-14.4
N10665 Z5.
N10670 X473.46 Y21.276
N10675 Z3.091 F1800.
N10680 X473.437 Y21.248 Z2.886 F2700.
N10685 X473.374 Y21.165 Z2.705
N10690 X473.287 Y21.032 Z2.571
N10695 X473.238 Y20.946 Z2.536
N10700 X473.194 Y20.859 Z2.5
N10705 G3 X476.806 Y19.141 Z1.392 I1.806 J-0.859
N10710 X473.194 Y20.859 Z0.284 I-1.806 J0.859
N10715 X476.806 Y19.141 Z-0.824 I1.806 J-0.859
N10720 X473.194 Y20.859 Z-1.932 I-1.806 J0.859
N10725 X476.806 Y19.141 Z-3.039 I1.806 J-0.859
N10730 X475. Y22. Z-3.75 I-1.806 J0.859
N10735 G1 X473.
N10740 Y18.
N10745 X477.
N10750 Y22.
N10755 X475.
N10760 X473. Z-4.103
N10765 Y18. Z-4.808
N10770 X477. Z-5.513
N10775 Y22. Z-6.219
N10780 X473. Z-6.924
N10785 Y18.733 Z-7.5
N10790 Y18.
N10795 X477.
N10800 Y22.
N10805 X473.
N10810 Y18.733
N10815 Y18. Z-7.629
N10820 X477. Z-8.335
N10825 Y22. Z-9.04
N10830 X473. Z-9.745
N10835 Y18. Z-10.45
N10840 X477. Z-11.156
N10845 Y18.535 Z-11.25
N10850 Y22.
N10855 X473.
N10860 Y18.733
N10865 Y18.
N10870 X477.
N10875 Y18.535
N10880 Y22. Z-11.861
N10885 X473. Z-12.566
N10890 Y18. Z-13.272
N10895 X477. Z-13.977
N10900 Y22. Z-14.682
N10905 X475.198 Z-15.
N10910 X473.
N10915 Y18.
N10920 X477.
N10925 Y22.
N10930 X475.198
N10935 X475.106 Y21.993 Z-14.985
N10940 X475.016 Y21.972 Z-14.971
N10945 X474.938 Y21.941 Z-14.928
N10950 X474.865 Y21.899 Z-14.885
N10955 X474.812 Y21.86 Z-14.819
N10960 X474.764 Y21.814 Z-14.753
N10965 X474.71 Y21.748 Z-14.585
N10970 X474.693 Y21.724 Z-14.4
N10975 Z5.
N10980 X442.943 Y21.54
N10985 Z3.091 F1800.
N10990 X442.915 Y21.563 Z2.886 F2700.
N10995 X442.832 Y21.626 Z2.705
N11000 X442.699 Y21.713 Z2.571
N11005 X442.613 Y21.762 Z2.536
N11010 X442.526 Y21.806 Z2.5
N11015 G3 X440.467 Y21.6 Z2.116 I-0.859 J-1.806
N11020 X442.867 Y18.4 Z1.009 I1.2 J-1.6
N11025 X440.467 Y21.6 Z-0.099 I-1.2 J1.6
N11030 X442.867 Y18.4 Z-1.207 I1.2 J-1.6
N11035 X440.467 Y21.6 Z-2.315 I-1.2 J1.6
N11040 X442.867 Y18.4 Z-3.423 I1.2 J-1.6
N11045 X443.667 Y20. Z-3.75 I-1.2 J1.6
N11050 G1 Y22.
N11055 X439.667
N11060 Y18.
N11065 X443.667
N11070 Y20.
N11075 Y22. Z-4.103
N11080 X439.667 Z-4.808
N11085 Y18. Z-5.513
N11090 X443.667 Z-6.219
N11095 Y22. Z-6.924
N11100 X440.4 Z-7.5
N11105 X439.667
N11110 Y18.
N11115 X443.667
N11120 Y22.
N11125 X440.4
N11130 X439.667 Z-7.629
N11135 Y18. Z-8.335
N11140 X443.667 Z-9.04
N11145 Y22. Z-9.745
N11150 X439.667 Z-10.45
N11155 Y18. Z-11.156
N11160 X440.202 Z-11.25
N11165 X443.667
N11170 Y22.
N11175 X440.4
N11180 X439.667
N11185 Y18.
N11190 X440.202
N11195 X443.667 Z-11.861
N11200 Y22. Z-12.566
N11205 X439.667 Z-13.272
N11210 Y18. Z-13.977
N11215 X443.667 Z-14.682
N11220 Y19.802 Z-15.
N11225 Y22.
N11230 X439.667
N11235 Y18.
N11240 X443.667
N11245 Y19.802
N11250 X443.66 Y19.894 Z-14.985
N11255 X443.639 Y19.984 Z-14.971
N11260 X443.608 Y20.062 Z-14.928
N11265 X443.566 Y20.135 Z-14.885
N11270 X443.527 Y20.188 Z-14.819
N11275 X443.481 Y20.236 Z-14.753
N11280 X443.415 Y20.29 Z-14.585
N11285 X443.391 Y20.307 Z-14.4
N11290 Z5.
N11295 X409.609 Y21.54
N11300 Z3.091 F1800.
N11305 X409.581 Y21.563 Z2.886 F2700.
N11310 X409.498 Y21.626 Z2.705
N11315 X409.365 Y21.713 Z2.571
N11320 X409.279 Y21.762 Z2.536
N11325 X409.192 Y21.806 Z2.5
N11330 G3 X407.474 Y18.194 Z1.392 I-0.859 J-1.806
N11335 X409.192 Y21.806 Z0.284 I0.859 J1.806
N11340 X407.474 Y18.194 Z-0.824 I-0.859 J-1.806
N11345 X409.192 Y21.806 Z-1.932 I0.859 J1.806
N11350 X407.474 Y18.194 Z-3.039 I-0.859 J-1.806
N11355 X410.333 Y20. Z-3.75 I0.859 J1.806
N11360 G1 Y22.
N11365 X406.333
N11370 Y18.
N11375 X410.333
N11380 Y20.
N11385 Y22. Z-4.103
N11390 X406.333 Z-4.808
N11395 Y18. Z-5.513
N11400 X410.333 Z-6.219
N11405 Y22. Z-6.924
N11410 X407.066 Z-7.5
N11415 X406.333
N11420 Y18.
N11425 X410.333
N11430 Y22.
N11435 X407.066
N11440 X406.333 Z-7.629
N11445 Y18. Z-8.335
N11450 X410.333 Z-9.04
N11455 Y22. Z-9.745
N11460 X406.333 Z-10.45
N11465 Y18. Z-11.156
N11470 X406.868 Z-11.25
N11475 X410.333
N11480 Y22.
N11485 X407.066
N11490 X406.333
N11495 Y18.
N11500 X406.868
N11505 X410.333 Z-11.861
N11510 Y22. Z-12.566
N11515 X406.333 Z-13.272
N11520 Y18. Z-13.977
N11525 X410.333 Z-14.682
N11530 Y19.802 Z-15.
N11535 Y22.
N11540 X406.333
N11545 Y18.
N11550 X410.333
N11555 Y19.802
N11560 X410.326 Y19.894 Z-14.985
N11565 X410.305 Y19.984 Z-14.971
N11570 X410.274 Y20.062 Z-14.928
N11575 X410.232 Y20.135 Z-14.885
N11580 X410.193 Y20.188 Z-14.819
N11585 X410.147 Y20.236 Z-14.753
N11590 X410.081 Y20.29 Z-14.585
N11595 X410.057 Y20.307 Z-14.4
N11600 Z5.
N11605 X376.276 Y21.54
N11610 Z3.091 F1800.
N11615 X376.248 Y21.563 Z2.886 F2700.
N11620 X376.165 Y21.626 Z2.705
N11625 X376.032 Y21.713 Z2.571
N11630 X375.946 Y21.762 Z2.536
N11635 X375.859 Y21.806 Z2.5
N11640 G3 X374.141 Y18.194 Z1.392 I-0.859 J-1.806
N11645 X375.859 Y21.806 Z0.284 I0.859 J1.806
N11650 X374.141 Y18.194 Z-0.824 I-0.859 J-1.806
N11655 X375.859 Y21.806 Z-1.932 I0.859 J1.806
N11660 X374.141 Y18.194 Z-3.039 I-0.859 J-1.806
N11665 X377. Y20. Z-3.75 I0.859 J1.806
N11670 G1 Y22.
N11675 X373.
N11680 Y18.
N11685 X377.
N11690 Y20.
N11695 Y22. Z-4.103
N11700 X373. Z-4.808
N11705 Y18. Z-5.513
N11710 X377. Z-6.219
N11715 Y22. Z-6.924
N11720 X373.733 Z-7.5
N11725 X373.
N11730 Y18.
N11735 X377.
N11740 Y22.
N11745 X373.733
N11750 X373. Z-7.629
N11755 Y18. Z-8.335
N11760 X377. Z-9.04
N11765 Y22. Z-9.745
N11770 X373. Z-10.45
N11775 Y18. Z-11.156
N11780 X373.535 Z-11.25
N11785 X377.
N11790 Y22.
N11795 X373.733
N11800 X373.
N11805 Y18.
N11810 X373.535
N11815 X377. Z-11.861
N11820 Y22. Z-12.566
N11825 X373. Z-13.272
N11830 Y18. Z-13.977
N11835 X377. Z-14.682
N11840 Y19.802 Z-15.
N11845 Y22.
N11850 X373.
N11855 Y18.
N11860 X377.
N11865 Y19.802
N11870 X376.993 Y19.894 Z-14.985
N11875 X376.972 Y19.984 Z-14.971
N11880 X376.941 Y20.062 Z-14.928
N11885 X376.899 Y20.135 Z-14.885
N11890 X376.86 Y20.188 Z-14.819
N11895 X376.814 Y20.236 Z-14.753
N11900 X376.749 Y20.29 Z-14.585
N11905 X376.724 Y20.307 Z-14.4
N11910 Z5.
N11915 X376.276 Y54.873
N11920 Z3.091 F1800.
N11925 X376.248 Y54.896 Z2.886 F2700.
N11930 X376.165 Y54.959 Z2.705
N11935 X376.032 Y55.047 Z2.571
N11940 X375.946 Y55.095 Z2.536
N11945 X375.859 Y55.139 Z2.5
N11950 G3 X374.141 Y51.527 Z1.392 I-0.859 J-1.806
N11955 X375.859 Y55.139 Z0.284 I0.859 J1.806
N11960 X374.141 Y51.527 Z-0.824 I-0.859 J-1.806
N11965 X375.859 Y55.139 Z-1.932 I0.859 J1.806
N11970 X374.141 Y51.527 Z-3.039 I-0.859 J-1.806
N11975 X377. Y53.333 Z-3.75 I0.859 J1.806
N11980 G1 Y55.333
N11985 X373.
N11990 Y51.333
N11995 X377.
N12000 Y53.333
N12005 Y55.333 Z-4.103
N12010 X373. Z-4.808
N12015 Y51.333 Z-5.513
N12020 X377. Z-6.219
N12025 Y55.333 Z-6.924
N12030 X373.733 Z-7.5
N12035 X373.
N12040 Y51.333
N12045 X377.
N12050 Y55.333
N12055 X373.733
N12060 X373. Z-7.629
N12065 Y51.333 Z-8.335
N12070 X377. Z-9.04
N12075 Y55.333 Z-9.745
N12080 X373. Z-10.45
N12085 Y51.333 Z-11.156
N12090 X373.535 Z-11.25
N12095 X377.
N12100 Y55.333
N12105 X373.733
N12110 X373.
N12115 Y51.333
N12120 X373.535
N12125 X377. Z-11.861
N12130 Y55.333 Z-12.566
N12135 X373. Z-13.272
N12140 Y51.333 Z-13.977
N12145 X377. Z-14.682
N12150 Y53.135 Z-15.
N12155 Y55.333
N12160 X373.
N12165 Y51.333
N12170 X377.
N12175 Y53.135
N12180 X376.993 Y53.228 Z-14.985
N12185 X376.972 Y53.318 Z-14.971
N12190 X376.941 Y53.395 Z-14.928
N12195 X376.899 Y53.468 Z-14.885
N12200 X376.86 Y53.521 Z-14.819
N12205 X376.814 Y53.569 Z-14.753
N12210 X376.749 Y53.624 Z-14.585
N12215 X376.724 Y53.64 Z-14.4
N12220 Z5.
N12225 X343.207 Y52.057
N12230 Z3.091 F1800.
N12235 X343.23 Y52.085 Z2.886 F2700.
N12240 X343.293 Y52.168 Z2.705
N12245 X343.38 Y52.302 Z2.571
N12250 X343.429 Y52.387 Z2.536
N12255 X343.473 Y52.474 Z2.5
N12260 G3 X339.861 Y54.192 Z1.392 I-1.806 J0.859
N12265 X343.473 Y52.474 Z0.284 I1.806 J-0.859
N12270 X339.861 Y54.192 Z-0.824 I-1.806 J0.859
N12275 X343.473 Y52.474 Z-1.932 I1.806 J-0.859
N12280 X339.861 Y54.192 Z-3.039 I-1.806 J0.859
N12285 X341.667 Y51.333 Z-3.75 I1.806 J-0.859
N12290 G1 X343.667
N12295 Y55.333
N12300 X339.667
N12305 Y51.333
N12310 X341.667
N12315 X343.667 Z-4.103
N12320 Y55.333 Z-4.808
N12325 X339.667 Z-5.513
N12330 Y51.333 Z-6.219
N12335 X343.667 Z-6.924
N12340 Y54.601 Z-7.5
N12345 Y55.333
N12350 X339.667
N12355 Y51.333
N12360 X343.667
N12365 Y54.601
N12370 Y55.333 Z-7.629
N12375 X339.667 Z-8.335
N12380 Y51.333 Z-9.04
N12385 X343.667 Z-9.745
N12390 Y55.333 Z-10.45
N12395 X339.667 Z-11.156
N12400 Y54.799 Z-11.25
N12405 Y51.333
N12410 X343.667
N12415 Y54.601
N12420 Y55.333
N12425 X339.667
N12430 Y54.799
N12435 Y51.333 Z-11.861
N12440 X343.667 Z-12.566
N12445 Y55.333 Z-13.272
N12450 X339.667 Z-13.977
N12455 Y51.333 Z-14.682
N12460 X341.469 Z-15.
N12465 X343.667
N12470 Y55.333
N12475 X339.667
N12480 Y51.333
N12485 X341.469
N12490 X341.561 Y51.34 Z-14.985
N12495 X341.651 Y51.362 Z-14.971
N12500 X341.729 Y51.393 Z-14.928
N12505 X341.802 Y51.434 Z-14.885
N12510 X341.855 Y51.474 Z-14.819
N12515 X341.903 Y51.519 Z-14.753
N12520 X341.957 Y51.585 Z-14.585
N12525 X341.974 Y51.609 Z-14.4
N12530 Z5.
N12535 X340.391 Y18.46
N12540 Z3.091 F1800.
N12545 X340.419 Y18.437 Z2.886 F2700.
N12550 X340.502 Y18.374 Z2.705
N12555 X340.635 Y18.287 Z2.571
N12560 X340.721 Y18.238 Z2.536
N12565 X340.808 Y18.194 Z2.5
N12570 G3 X342.526 Y21.806 Z1.392 I0.859 J1.806
N12575 X340.808 Y18.194 Z0.284 I-0.859 J-1.806
N12580 X342.526 Y21.806 Z-0.824 I0.859 J1.806
N12585 X340.808 Y18.194 Z-1.932 I-0.859 J-1.806
N12590 X342.526 Y21.806 Z-3.039 I0.859 J1.806
N12595 X339.667 Y20. Z-3.75 I-0.859 J-1.806
N12600 G1 Y18.
N12605 X343.667
N12610 Y22.
N12615 X339.667
N12620 Y20.
N12625 Y18. Z-4.103
N12630 X343.667 Z-4.808
N12635 Y22. Z-5.513
N12640 X339.667 Z-6.219
N12645 Y18. Z-6.924
N12650 X342.934 Z-7.5
N12655 X343.667
N12660 Y22.
N12665 X339.667
N12670 Y18.
N12675 X342.934
N12680 X343.667 Z-7.629
N12685 Y22. Z-8.335
N12690 X339.667 Z-9.04
N12695 Y18. Z-9.745
N12700 X343.667 Z-10.45
N12705 Y22. Z-11.156
N12710 X343.132 Z-11.25
N12715 X339.667
N12720 Y18.
N12725 X342.934
N12730 X343.667
N12735 Y22.
N12740 X343.132
N12745 X339.667 Z-11.861
N12750 Y18. Z-12.566
N12755 X343.667 Z-13.272
N12760 Y22. Z-13.977
N12765 X339.667 Z-14.682
N12770 Y20.198 Z-15.
N12775 Y18.
N12780 X343.667
N12785 Y22.
N12790 X339.667
N12795 Y20.198
N12800 X339.674 Y20.106 Z-14.985
N12805 X339.695 Y20.016 Z-14.971
N12810 X339.726 Y19.938 Z-14.928
N12815 X339.768 Y19.865 Z-14.885
N12820 X339.807 Y19.812 Z-14.819
N12825 X339.853 Y19.764 Z-14.753
N12830 X339.919 Y19.71 Z-14.585
N12835 X339.943 Y19.693 Z-14.4
N12840 Z5.
N12845 X309.609 Y21.54
N12850 Z3.091 F1800.
N12855 X309.581 Y21.563 Z2.886 F2700.
N12860 X309.498 Y21.626 Z2.705
N12865 X309.365 Y21.713 Z2.571
N12870 X309.279 Y21.762 Z2.536
N12875 X309.192 Y21.806 Z2.5
N12880 G3 X307.474 Y18.194 Z1.392 I-0.859 J-1.806
N12885 X309.192 Y21.806 Z0.284 I0.859 J1.806
N12890 X307.474 Y18.194 Z-0.824 I-0.859 J-1.806
N12895 X309.192 Y21.806 Z-1.932 I0.859 J1.806
N12900 X307.474 Y18.194 Z-3.039 I-0.859 J-1.806
N12905 X310.333 Y20. Z-3.75 I0.859 J1.806
N12910 G1 Y22.
N12915 X306.333
N12920 Y18.
N12925 X310.333
N12930 Y20.
N12935 Y22. Z-4.103
N12940 X306.333 Z-4.808
N12945 Y18. Z-5.513
N12950 X310.333 Z-6.219
N12955 Y22. Z-6.924
N12960 X307.066 Z-7.5
N12965 X306.333
N12970 Y18.
N12975 X310.333
N12980 Y22.
N12985 X307.066
N12990 X306.333 Z-7.629
N12995 Y18. Z-8.335
N13000 X310.333 Z-9.04
N13005 Y22. Z-9.745
N13010 X306.333 Z-10.45
N13015 Y18. Z-11.156
N13020 X306.868 Z-11.25
N13025 X310.333
N13030 Y22.
N13035 X307.066
N13040 X306.333
N13045 Y18.
N13050 X306.868
N13055 X310.333 Z-11.861
N13060 Y22. Z-12.566
N13065 X306.333 Z-13.272
N13070 Y18. Z-13.977
N13075 X310.333 Z-14.682
N13080 Y19.802 Z-15.
N13085 Y22.
N13090 X306.333
N13095 Y18.
N13100 X310.333
N13105 Y19.802
N13110 X310.326 Y19.894 Z-14.985
N13115 X310.305 Y19.984 Z-14.971
N13120 X310.274 Y20.062 Z-14.928
N13125 X310.232 Y20.135 Z-14.885
N13130 X310.193 Y20.188 Z-14.819
N13135 X310.147 Y20.236 Z-14.753
N13140 X310.081 Y20.29 Z-14.585
N13145 X310.057 Y20.307 Z-14.4
N13150 Z5.
N13155 X307.057 Y51.793
N13160 Z3.091 F1800.
N13165 X307.085 Y51.77 Z2.886 F2700.
N13170 X307.168 Y51.708 Z2.705
N13175 X307.301 Y51.62 Z2.571
N13180 X307.387 Y51.571 Z2.536
N13185 X307.474 Y51.527 Z2.5
N13190 G3 X309.533 Y51.733 Z2.116 I0.859 J1.806
N13195 X307.133 Y54.933 Z1.009 I-1.2 J1.6
N13200 X309.533 Y51.733 Z-0.099 I1.2 J-1.6
N13205 X307.133 Y54.933 Z-1.207 I-1.2 J1.6
N13210 X309.533 Y51.733 Z-2.315 I1.2 J-1.6
N13215 X307.133 Y54.933 Z-3.423 I-1.2 J1.6
N13220 X306.333 Y53.333 Z-3.75 I1.2 J-1.6
N13225 G1 Y51.333
N13230 X310.333
N13235 Y55.333
N13240 X306.333
N13245 Y53.333
N13250 Y51.333 Z-4.103
N13255 X310.333 Z-4.808
N13260 Y55.333 Z-5.513
N13265 X306.333 Z-6.219
N13270 Y51.333 Z-6.924
N13275 X309.6 Z-7.5
N13280 X310.333
N13285 Y55.333
N13290 X306.333
N13295 Y51.333
N13300 X309.6
N13305 X310.333 Z-7.629
N13310 Y55.333 Z-8.335
N13315 X306.333 Z-9.04
N13320 Y51.333 Z-9.745
N13325 X310.333 Z-10.45
N13330 Y55.333 Z-11.156
N13335 X309.798 Z-11.25
N13340 X306.333
N13345 Y51.333
N13350 X309.6
N13355 X310.333
N13360 Y55.333
N13365 X309.798
N13370 X306.333 Z-11.861
N13375 Y51.333 Z-12.566
N13380 X310.333 Z-13.272
N13385 Y55.333 Z-13.977
N13390 X306.333 Z-14.682
N13395 Y53.531 Z-15.
N13400 Y51.333
N13405 X310.333
N13410 Y55.333
N13415 X306.333
N13420 Y53.531
N13425 X306.34 Y53.439 Z-14.985
N13430 X306.361 Y53.349 Z-14.971
N13435 X306.392 Y53.271 Z-14.928
N13440 X306.434 Y53.199 Z-14.885
N13445 X306.473 Y53.146 Z-14.819
N13450 X306.519 Y53.097 Z-14.753
N13455 X306.585 Y53.043 Z-14.585
N13460 X306.609 Y53.026 Z-14.4
N13465 Z5.
N13470 X273.724 Y51.793
N13475 Z3.091 F1800.
N13480 X273.752 Y51.77 Z2.886 F2700.
N13485 X273.835 Y51.708 Z2.705
N13490 X273.968 Y51.62 Z2.571
N13495 X274.054 Y51.571 Z2.536
N13500 X274.141 Y51.527 Z2.5
N13505 G3 X275.859 Y55.139 Z1.392 I0.859 J1.806
N13510 X274.141 Y51.527 Z0.284 I-0.859 J-1.806
N13515 X275.859 Y55.139 Z-0.824 I0.859 J1.806
N13520 X274.141 Y51.527 Z-1.932 I-0.859 J-1.806
N13525 X275.859 Y55.139 Z-3.039 I0.859 J1.806
N13530 X273. Y53.333 Z-3.75 I-0.859 J-1.806
N13535 G1 Y51.333
N13540 X277.
N13545 Y55.333
N13550 X273.
N13555 Y53.333
N13560 Y51.333 Z-4.103
N13565 X277. Z-4.808
N13570 Y55.333 Z-5.513
N13575 X273. Z-6.219
N13580 Y51.333 Z-6.924
N13585 X276.267 Z-7.5
N13590 X277.
N13595 Y55.333
N13600 X273.
N13605 Y51.333
N13610 X276.267
N13615 X277. Z-7.629
N13620 Y55.333 Z-8.335
N13625 X273. Z-9.04
N13630 Y51.333 Z-9.745
N13635 X277. Z-10.45
N13640 Y55.333 Z-11.156
N13645 X276.465 Z-11.25
N13650 X273.
N13655 Y51.333
N13660 X276.267
N13665 X277.
N13670 Y55.333
N13675 X276.465
N13680 X273. Z-11.861
N13685 Y51.333 Z-12.566
N13690 X277. Z-13.272
N13695 Y55.333 Z-13.977
N13700 X273. Z-14.682
N13705 Y53.531 Z-15.
N13710 Y51.333
N13715 X277.
N13720 Y55.333
N13725 X273.
N13730 Y53.531
N13735 X273.007 Y53.439 Z-14.985
N13740 X273.028 Y53.349 Z-14.971
N13745 X273.059 Y53.271 Z-14.928
N13750 X273.101 Y53.199 Z-14.885
N13755 X273.14 Y53.146 Z-14.819
N13760 X273.186 Y53.097 Z-14.753
N13765 X273.251 Y53.043 Z-14.585
N13770 X273.276 Y53.026 Z-14.4
N13775 Z5.
N13780 X243.207 Y52.057
N13785 Z3.091 F1800.
N13790 X243.23 Y52.085 Z2.886 F2700.
N13795 X243.293 Y52.168 Z2.705
N13800 X243.38 Y52.302 Z2.571
N13805 X243.429 Y52.387 Z2.536
N13810 X243.473 Y52.474 Z2.5
N13815 G3 X239.861 Y54.192 Z1.392 I-1.806 J0.859
N13820 X243.473 Y52.474 Z0.284 I1.806 J-0.859
N13825 X239.861 Y54.192 Z-0.824 I-1.806 J0.859
N13830 X243.473 Y52.474 Z-1.932 I1.806 J-0.859
N13835 X239.861 Y54.192 Z-3.039 I-1.806 J0.859
N13840 X241.667 Y51.333 Z-3.75 I1.806 J-0.859
N13845 G1 X243.667
N13850 Y55.333
N13855 X239.667
N13860 Y51.333
N13865 X241.667
N13870 X243.667 Z-4.103
N13875 Y55.333 Z-4.808
N13880 X239.667 Z-5.513
N13885 Y51.333 Z-6.219
N13890 X243.667 Z-6.924
N13895 Y54.601 Z-7.5
N13900 Y55.333
N13905 X239.667
N13910 Y51.333
N13915 X243.667
N13920 Y54.601
N13925 Y55.333 Z-7.629
N13930 X239.667 Z-8.335
N13935 Y51.333 Z-9.04
N13940 X243.667 Z-9.745
N13945 Y55.333 Z-10.45
N13950 X239.667 Z-11.156
N13955 Y54.799 Z-11.25
N13960 Y51.333
N13965 X243.667
N13970 Y54.601
N13975 Y55.333
N13980 X239.667
N13985 Y54.799
N13990 Y51.333 Z-11.861
N13995 X243.667 Z-12.566
N14000 Y55.333 Z-13.272
N14005 X239.667 Z-13.977
N14010 Y51.333 Z-14.682
N14015 X241.469 Z-15.
N14020 X243.667
N14025 Y55.333
N14030 X239.667
N14035 Y51.333
N14040 X241.469
N14045 X241.561 Y51.34 Z-14.985
N14050 X241.651 Y51.362 Z-14.971
N14055 X241.729 Y51.393 Z-14.928
N14060 X241.802 Y51.434 Z-14.885
N14065 X241.855 Y51.474 Z-14.819
N14070 X241.903 Y51.519 Z-14.753
N14075 X241.957 Y51.585 Z-14.585
N14080 X241.974 Y51.609 Z-14.4
N14085 Z5.
N14090 X242.943 Y21.54
N14095 Z3.091 F1800.
N14100 X242.915 Y21.563 Z2.886 F2700.
N14105 X242.832 Y21.626 Z2.705
N14110 X242.699 Y21.713 Z2.571
N14115 X242.613 Y21.762 Z2.536
N14120 X242.526 Y21.806 Z2.5
N14125 G3 X240.808 Y18.194 Z1.392 I-0.859 J-1.806
N14130 X242.526 Y21.806 Z0.284 I0.859 J1.806
N14135 X240.808 Y18.194 Z-0.824 I-0.859 J-1.806
N14140 X242.526 Y21.806 Z-1.932 I0.859 J1.806
N14145 X240.808 Y18.194 Z-3.039 I-0.859 J-1.806
N14150 X243.667 Y20. Z-3.75 I0.859 J1.806
N14155 G1 Y22.
N14160 X239.667
N14165 Y18.
N14170 X243.667
N14175 Y20.
N14180 Y22. Z-4.103
N14185 X239.667 Z-4.808
N14190 Y18. Z-5.513
N14195 X243.667 Z-6.219
N14200 Y22. Z-6.924
N14205 X240.4 Z-7.5
N14210 X239.667
N14215 Y18.
N14220 X243.667
N14225 Y22.
N14230 X240.4
N14235 X239.667 Z-7.629
N14240 Y18. Z-8.335
N14245 X243.667 Z-9.04
N14250 Y22. Z-9.745
N14255 X239.667 Z-10.45
N14260 Y18. Z-11.156
N14265 X240.202 Z-11.25
N14270 X243.667
N14275 Y22.
N14280 X240.4
N14285 X239.667
N14290 Y18.
N14295 X240.202
N14300 X243.667 Z-11.861
N14305 Y22. Z-12.566
N14310 X239.667 Z-13.272
N14315 Y18. Z-13.977
N14320 X243.667 Z-14.682
N14325 Y19.802 Z-15.
N14330 Y22.
N14335 X239.667
N14340 Y18.
N14345 X243.667
N14350 Y19.802
N14355 X243.66 Y19.894 Z-14.985
N14360 X243.639 Y19.984 Z-14.971
N14365 X243.608 Y20.062 Z-14.928
N14370 X243.566 Y20.135 Z-14.885
N14375 X243.527 Y20.188 Z-14.819
N14380 X243.481 Y20.236 Z-14.753
N14385 X243.415 Y20.29 Z-14.585
N14390 X243.391 Y20.307 Z-14.4
N14395 Z5.
N14400 X273.46 Y21.276
N14405 Z3.091 F1800.
N14410 X273.437 Y21.248 Z2.886 F2700.
N14415 X273.374 Y21.165 Z2.705
N14420 X273.287 Y21.032 Z2.571
N14425 X273.238 Y20.946 Z2.536
N14430 X273.194 Y20.859 Z2.5
N14435 G3 X276.806 Y19.141 Z1.392 I1.806 J-0.859
N14440 X273.194 Y20.859 Z0.284 I-1.806 J0.859
N14445 X276.806 Y19.141 Z-0.824 I1.806 J-0.859
N14450 X273.194 Y20.859 Z-1.932 I-1.806 J0.859
N14455 X276.806 Y19.141 Z-3.039 I1.806 J-0.859
N14460 X275. Y22. Z-3.75 I-1.806 J0.859
N14465 G1 X273.
N14470 Y18.
N14475 X277.
N14480 Y22.
N14485 X275.
N14490 X273. Z-4.103
N14495 Y18. Z-4.808
N14500 X277. Z-5.513
N14505 Y22. Z-6.219
N14510 X273. Z-6.924
N14515 Y18.733 Z-7.5
N14520 Y18.
N14525 X277.
N14530 Y22.
N14535 X273.
N14540 Y18.733
N14545 Y18. Z-7.629
N14550 X277. Z-8.335
N14555 Y22. Z-9.04
N14560 X273. Z-9.745
N14565 Y18. Z-10.45
N14570 X277. Z-11.156
N14575 Y18.535 Z-11.25
N14580 Y22.
N14585 X273.
N14590 Y18.733
N14595 Y18.
N14600 X277.
N14605 Y18.535
N14610 Y22. Z-11.861
N14615 X273. Z-12.566
N14620 Y18. Z-13.272
N14625 X277. Z-13.977
N14630 Y22. Z-14.682
N14635 X275.198 Z-15.
N14640 X273.
N14645 Y18.
N14650 X277.
N14655 Y22.
N14660 X275.198
N14665 X275.106 Y21.993 Z-14.985
N14670 X275.016 Y21.972 Z-14.971
N14675 X274.938 Y21.941 Z-14.928
N14680 X274.865 Y21.899 Z-14.885
N14685 X274.812 Y21.86 Z-14.819
N14690 X274.764 Y21.814 Z-14.753
N14695 X274.71 Y21.748 Z-14.585
N14700 X274.693 Y21.724 Z-14.4
N14705 Z5.
N14710 X209.609 Y21.54
N14715 Z3.091 F1800.
N14720 X209.581 Y21.563 Z2.886 F2700.
N14725 X209.498 Y21.626 Z2.705
N14730 X209.365 Y21.713 Z2.571
N14735 X209.279 Y21.762 Z2.536
N14740 X209.192 Y21.806 Z2.5
N14745 G3 X207.474 Y18.194 Z1.392 I-0.859 J-1.806
N14750 X209.192 Y21.806 Z0.284 I0.859 J1.806
N14755 X207.474 Y18.194 Z-0.824 I-0.859 J-1.806
N14760 X209.192 Y21.806 Z-1.932 I0.859 J1.806
N14765 X207.474 Y18.194 Z-3.039 I-0.859 J-1.806
N14770 X210.333 Y20. Z-3.75 I0.859 J1.806
N14775 G1 Y22.
N14780 X206.333
N14785 Y18.
N14790 X210.333
N14795 Y20.
N14800 Y22. Z-4.103
N14805 X206.333 Z-4.808
N14810 Y18. Z-5.513
N14815 X210.333 Z-6.219
N14820 Y22. Z-6.924
N14825 X207.066 Z-7.5
N14830 X206.333
N14835 Y18.
N14840 X210.333
N14845 Y22.
N14850 X207.066
N14855 X206.333 Z-7.629
N14860 Y18. Z-8.335
N14865 X210.333 Z-9.04
N14870 Y22. Z-9.745
N14875 X206.333 Z-10.45
N14880 Y18. Z-11.156
N14885 X206.868 Z-11.25
N14890 X210.333
N14895 Y22.
N14900 X207.066
N14905 X206.333
N14910 Y18.
N14915 X206.868
N14920 X210.333 Z-11.861
N14925 Y22. Z-12.566
N14930 X206.333 Z-13.272
N14935 Y18. Z-13.977
N14940 X210.333 Z-14.682
N14945 Y19.802 Z-15.
N14950 Y22.
N14955 X206.333
N14960 Y18.
N14965 X210.333
N14970 Y19.802
N14975 X210.326 Y19.894 Z-14.985
N14980 X210.305 Y19.984 Z-14.971
N14985 X210.274 Y20.062 Z-14.928
N14990 X210.232 Y20.135 Z-14.885
N14995 X210.193 Y20.188 Z-14.819
N15000 X210.147 Y20.236 Z-14.753
N15005 X210.081 Y20.29 Z-14.585
N15010 X210.057 Y20.307 Z-14.4
N15015 Z5.
N15020 X207.057 Y51.793
N15025 Z3.091 F1800.
N15030 X207.085 Y51.77 Z2.886 F2700.
N15035 X207.168 Y51.708 Z2.705
N15040 X207.301 Y51.62 Z2.571
N15045 X207.387 Y51.571 Z2.536
N15050 X207.474 Y51.527 Z2.5
N15055 G3 X209.192 Y55.139 Z1.392 I0.859 J1.806
N15060 X207.474 Y51.527 Z0.284 I-0.859 J-1.806
N15065 X209.192 Y55.139 Z-0.824 I0.859 J1.806
N15070 X207.474 Y51.527 Z-1.932 I-0.859 J-1.806
N15075 X209.192 Y55.139 Z-3.039 I0.859 J1.806
N15080 X206.333 Y53.333 Z-3.75 I-0.859 J-1.806
N15085 G1 Y51.333
N15090 X210.333
N15095 Y55.333
N15100 X206.333
N15105 Y53.333
N15110 Y51.333 Z-4.103
N15115 X210.333 Z-4.808
N15120 Y55.333 Z-5.513
N15125 X206.333 Z-6.219
N15130 Y51.333 Z-6.924
N15135 X209.6 Z-7.5
N15140 X210.333
N15145 Y55.333
N15150 X206.333
N15155 Y51.333
N15160 X209.6
N15165 X210.333 Z-7.629
N15170 Y55.333 Z-8.335
N15175 X206.333 Z-9.04
N15180 Y51.333 Z-9.745
N15185 X210.333 Z-10.45
N15190 Y55.333 Z-11.156
N15195 X209.798 Z-11.25
N15200 X206.333
N15205 Y51.333
N15210 X209.6
N15215 X210.333
N15220 Y55.333
N15225 X209.798
N15230 X206.333 Z-11.861
N15235 Y51.333 Z-12.566
N15240 X210.333 Z-13.272
N15245 Y55.333 Z-13.977
N15250 X206.333 Z-14.682
N15255 Y53.531 Z-15.
N15260 Y51.333
N15265 X210.333
N15270 Y55.333
N15275 X206.333
N15280 Y53.531
N15285 X206.34 Y53.439 Z-14.985
N15290 X206.361 Y53.349 Z-14.971
N15295 X206.392 Y53.271 Z-14.928
N15300 X206.434 Y53.199 Z-14.885
N15305 X206.473 Y53.146 Z-14.819
N15310 X206.519 Y53.097 Z-14.753
N15315 X206.585 Y53.043 Z-14.585
N15320 X206.609 Y53.026 Z-14.4
N15325 Z5.
N15330 X209.873 Y85.391
N15335 Z3.091 F1800.
N15340 X209.896 Y85.419 Z2.886 F2700.
N15345 X209.959 Y85.502 Z2.705
N15350 X210.046 Y85.635 Z2.571
N15355 X210.095 Y85.72 Z2.536
N15360 X210.139 Y85.808 Z2.5
N15365 G3 X206.527 Y87.526 Z1.392 I-1.806 J0.859
N15370 X210.139 Y85.808 Z0.284 I1.806 J-0.859
N15375 X206.527 Y87.526 Z-0.824 I-1.806 J0.859
N15380 X210.139 Y85.808 Z-1.932 I1.806 J-0.859
N15385 X206.527 Y87.526 Z-3.039 I-1.806 J0.859
N15390 X208.333 Y84.667 Z-3.75 I1.806 J-0.859
N15395 G1 X210.333
N15400 Y88.667
N15405 X206.333
N15410 Y84.667
N15415 X208.333
N15420 X210.333 Z-4.103
N15425 Y88.667 Z-4.808
N15430 X206.333 Z-5.513
N15435 Y84.667 Z-6.219
N15440 X210.333 Z-6.924
N15445 Y87.934 Z-7.5
N15450 Y88.667
N15455 X206.333
N15460 Y84.667
N15465 X210.333
N15470 Y87.934
N15475 Y88.667 Z-7.629
N15480 X206.333 Z-8.335
N15485 Y84.667 Z-9.04
N15490 X210.333 Z-9.745
N15495 Y88.667 Z-10.45
N15500 X206.333 Z-11.156
N15505 Y88.132 Z-11.25
N15510 Y84.667
N15515 X210.333
N15520 Y87.934
N15525 Y88.667
N15530 X206.333
N15535 Y88.132
N15540 Y84.667 Z-11.861
N15545 X210.333 Z-12.566
N15550 Y88.667 Z-13.272
N15555 X206.333 Z-13.977
N15560 Y84.667 Z-14.682
N15565 X208.135 Z-15.
N15570 X210.333
N15575 Y88.667
N15580 X206.333
N15585 Y84.667
N15590 X208.135
N15595 X208.227 Y84.674 Z-14.985
N15600 X208.317 Y84.695 Z-14.971
N15605 X208.395 Y84.726 Z-14.928
N15610 X208.468 Y84.767 Z-14.885
N15615 X208.521 Y84.807 Z-14.819
N15620 X208.569 Y84.853 Z-14.753
N15625 X208.623 Y84.918 Z-14.585
N15630 X208.64 Y84.943 Z-14.4
N15635 Z5.
N15640 X209.873 Y118.724
N15645 Z3.091 F1800.
N15650 X209.896 Y118.752 Z2.886 F2700.
N15655 X209.959 Y118.835 Z2.705
N15660 X210.046 Y118.968 Z2.571
N15665 X210.095 Y119.054 Z2.536
N15670 X210.139 Y119.141 Z2.5
N15675 G3 X206.527 Y120.859 Z1.392 I-1.806 J0.859
N15680 X210.139 Y119.141 Z0.284 I1.806 J-0.859
N15685 X206.527 Y120.859 Z-0.824 I-1.806 J0.859
N15690 X210.139 Y119.141 Z-1.932 I1.806 J-0.859
N15695 X206.527 Y120.859 Z-3.039 I-1.806 J0.859
N15700 X208.333 Y118. Z-3.75 I1.806 J-0.859
N15705 G1 X210.333
N15710 Y122.
N15715 X206.333
N15720 Y118.
N15725 X208.333
N15730 X210.333 Z-4.103
N15735 Y122. Z-4.808
N15740 X206.333 Z-5.513
N15745 Y118. Z-6.219
N15750 X210.333 Z-6.924
N15755 Y121.267 Z-7.5
N15760 Y122.
N15765 X206.333
N15770 Y118.
N15775 X210.333
N15780 Y121.267
N15785 Y122. Z-7.629
N15790 X206.333 Z-8.335
N15795 Y118. Z-9.04
N15800 X210.333 Z-9.745
N15805 Y122. Z-10.45
N15810 X206.333 Z-11.156
N15815 Y121.465 Z-11.25
N15820 Y118.
N15825 X210.333
N15830 Y121.267
N15835 Y122.
N15840 X206.333
N15845 Y121.465
N15850 Y118. Z-11.861
N15855 X210.333 Z-12.566
N15860 Y122. Z-13.272
N15865 X206.333 Z-13.977
N15870 Y118. Z-14.682
N15875 X208.135 Z-15.
N15880 X210.333
N15885 Y122.
N15890 X206.333
N15895 Y118.
N15900 X208.135
N15905 X208.227 Y118.007 Z-14.985
N15910 X208.317 Y118.028 Z-14.971
N15915 X208.395 Y118.059 Z-14.928
N15920 X208.468 Y118.101 Z-14.885
N15925 X208.521 Y118.14 Z-14.819
N15930 X208.569 Y118.186 Z-14.753
N15935 X208.623 Y118.252 Z-14.585
N15940 X208.64 Y118.276 Z-14.4
N15945 Z5.
N15950 X240.391 Y118.46
N15955 Z3.091 F1800.
N15960 X240.419 Y118.437 Z2.886 F2700.
N15965 X240.502 Y118.374 Z2.705
N15970 X240.635 Y118.287 Z2.571
N15975 X240.721 Y118.238 Z2.536
N15980 X240.808 Y118.194 Z2.5
N15985 G3 X242.526 Y121.806 Z1.392 I0.859 J1.806
N15990 X240.808 Y118.194 Z0.284 I-0.859 J-1.806
N15995 X242.526 Y121.806 Z-0.824 I0.859 J1.806
N16000 X240.808 Y118.194 Z-1.932 I-0.859 J-1.806
N16005 X242.526 Y121.806 Z-3.039 I0.859 J1.806
N16010 X239.667 Y120. Z-3.75 I-0.859 J-1.806
N16015 G1 Y118.
N16020 X243.667
N16025 Y122.
N16030 X239.667
N16035 Y120.
N16040 Y118. Z-4.103
N16045 X243.667 Z-4.808
N16050 Y122. Z-5.513
N16055 X239.667 Z-6.219
N16060 Y118. Z-6.924
N16065 X242.934 Z-7.5
N16070 X243.667
N16075 Y122.
N16080 X239.667
N16085 Y118.
N16090 X242.934
N16095 X243.667 Z-7.629
N16100 Y122. Z-8.335
N16105 X239.667 Z-9.04
N16110 Y118. Z-9.745
N16115 X243.667 Z-10.45
N16120 Y122. Z-11.156
N16125 X243.132 Z-11.25
N16130 X239.667
N16135 Y118.
N16140 X242.934
N16145 X243.667
N16150 Y122.
N16155 X243.132
N16160 X239.667 Z-11.861
N16165 Y118. Z-12.566
N16170 X243.667 Z-13.272
N16175 Y122. Z-13.977
N16180 X239.667 Z-14.682
N16185 Y120.198 Z-15.
N16190 Y118.
N16195 X243.667
N16200 Y122.
N16205 X239.667
N16210 Y120.198
N16215 X239.674 Y120.106 Z-14.985
N16220 X239.695 Y120.016 Z-14.971
N16225 X239.726 Y119.938 Z-14.928
N16230 X239.768 Y119.865 Z-14.885
N16235 X239.807 Y119.812 Z-14.819
N16240 X239.853 Y119.764 Z-14.753
N16245 X239.919 Y119.71 Z-14.585
N16250 X239.943 Y119.693 Z-14.4
N16255 Z5.
N16260 X243.207 Y85.391
N16265 Z3.091 F1800.
N16270 X243.23 Y85.419 Z2.886 F2700.
N16275 X243.293 Y85.502 Z2.705
N16280 X243.38 Y85.635 Z2.571
N16285 X243.429 Y85.72 Z2.536
N16290 X243.473 Y85.808 Z2.5
N16295 G3 X239.861 Y87.526 Z1.392 I-1.806 J0.859
N16300 X243.473 Y85.808 Z0.284 I1.806 J-0.859
N16305 X239.861 Y87.526 Z-0.824 I-1.806 J0.859
N16310 X243.473 Y85.808 Z-1.932 I1.806 J-0.859
N16315 X239.861 Y87.526 Z-3.039 I-1.806 J0.859
N16320 X241.667 Y84.667 Z-3.75 I1.806 J-0.859
N16325 G1 X243.667
N16330 Y88.667
N16335 X239.667
N16340 Y84.667
N16345 X241.667
N16350 X243.667 Z-4.103
N16355 Y88.667 Z-4.808
N16360 X239.667 Z-5.513
N16365 Y84.667 Z-6.219
N16370 X243.667 Z-6.924
N16375 Y87.934 Z-7.5
N16380 Y88.667
N16385 X239.667
N16390 Y84.667
N16395 X243.667
N16400 Y87.934
N16405 Y88.667 Z-7.629
N16410 X239.667 Z-8.335
N16415 Y84.667 Z-9.04
N16420 X243.667 Z-9.745
N16425 Y88.667 Z-10.45
N16430 X239.667 Z-11.156
N16435 Y88.132 Z-11.25
N16440 Y84.667
N16445 X243.667
N16450 Y87.934
N16455 Y88.667
N16460 X239.667
N16465 Y88.132
N16470 Y84.667 Z-11.861
N16475 X243.667 Z-12.566
N16480 Y88.667 Z-13.272
N16485 X239.667 Z-13.977
N16490 Y84.667 Z-14.682
N16495 X241.469 Z-15.
N16500 X243.667
N16505 Y88.667
N16510 X239.667
N16515 Y84.667
N16520 X241.469
N16525 X241.561 Y84.674 Z-14.985
N16530 X241.651 Y84.695 Z-14.971
N16535 X241.729 Y84.726 Z-14.928
N16540 X241.802 Y84.767 Z-14.885
N16545 X241.855 Y84.807 Z-14.819
N16550 X241.903 Y84.853 Z-14.753
N16555 X241.957 Y84.918 Z-14.585
N16560 X241.974 Y84.943 Z-14.4
N16565 Z5.
N16570 X173.46 Y87.943
N16575 Z3.091 F1800.
N16580 X173.437 Y87.915 Z2.886 F2700.
N16585 X173.374 Y87.832 Z2.705
N16590 X173.287 Y87.698 Z2.571
N16595 X173.238 Y87.613 Z2.536
N16600 X173.194 Y87.526 Z2.5
N16605 G3 X176.806 Y85.808 Z1.392 I1.806 J-0.859
N16610 X173.194 Y87.526 Z0.284 I-1.806 J0.859
N16615 X176.806 Y85.808 Z-0.824 I1.806 J-0.859
N16620 X173.194 Y87.526 Z-1.932 I-1.806 J0.859
N16625 X176.806 Y85.808 Z-3.039 I1.806 J-0.859
N16630 X175. Y88.667 Z-3.75 I-1.806 J0.859
N16635 G1 X173.
N16640 Y84.667
N16645 X177.
N16650 Y88.667
N16655 X175.
N16660 X173. Z-4.103
N16665 Y84.667 Z-4.808
N16670 X177. Z-5.513
N16675 Y88.667 Z-6.219
N16680 X173. Z-6.924
N16685 Y85.399 Z-7.5
N16690 Y84.667
N16695 X177.
N16700 Y88.667
N16705 X173.
N16710 Y85.399
N16715 Y84.667 Z-7.629
N16720 X177. Z-8.335
N16725 Y88.667 Z-9.04
N16730 X173. Z-9.745
N16735 Y84.667 Z-10.45
N16740 X177. Z-11.156
N16745 Y85.201 Z-11.25
N16750 Y88.667
N16755 X173.
N16760 Y85.399
N16765 Y84.667
N16770 X177.
N16775 Y85.201
N16780 Y88.667 Z-11.861
N16785 X173. Z-12.566
N16790 Y84.667 Z-13.272
N16795 X177. Z-13.977
N16800 Y88.667 Z-14.682
N16805 X175.198 Z-15.
N16810 X173.
N16815 Y84.667
N16820 X177.
N16825 Y88.667
N16830 X175.198
N16835 X175.106 Y88.66 Z-14.985
N16840 X175.016 Y88.638 Z-14.971
N16845 X174.938 Y88.607 Z-14.928
N16850 X174.865 Y88.566 Z-14.885
N16855 X174.812 Y88.526 Z-14.819
N16860 X174.764 Y88.481 Z-14.753
N16865 X174.71 Y88.415 Z-14.585
N16870 X174.693 Y88.391 Z-14.4
N16875 Z5.
N16880 X173.724 Y118.46
N16885 Z3.091 F1800.
N16890 X173.752 Y118.437 Z2.886 F2700.
N16895 X173.835 Y118.374 Z2.705
N16900 X173.968 Y118.287 Z2.571
N16905 X174.054 Y118.238 Z2.536
N16910 X174.141 Y118.194 Z2.5
N16915 G3 X175.859 Y121.806 Z1.392 I0.859 J1.806
N16920 X174.141 Y118.194 Z0.284 I-0.859 J-1.806
N16925 X175.859 Y121.806 Z-0.824 I0.859 J1.806
N16930 X174.141 Y118.194 Z-1.932 I-0.859 J-1.806
N16935 X175.859 Y121.806 Z-3.039 I0.859 J1.806
N16940 X173. Y120. Z-3.75 I-0.859 J-1.806
N16945 G1 Y118.
N16950 X177.
N16955 Y122.
N16960 X173.
N16965 Y120.
N16970 Y118. Z-4.103
N16975 X177. Z-4.808
N16980 Y122. Z-5.513
N16985 X173. Z-6.219
N16990 Y118. Z-6.924
N16995 X176.267 Z-7.5
N17000 X177.
N17005 Y122.
N17010 X173.
N17015 Y118.
N17020 X176.267
N17025 X177. Z-7.629
N17030 Y122. Z-8.335
N17035 X173. Z-9.04
N17040 Y118. Z-9.745
N17045 X177. Z-10.45
N17050 Y122. Z-11.156
N17055 X176.465 Z-11.25
N17060 X173.
N17065 Y118.
N17070 X176.267
N17075 X177.
N17080 Y122.
N17085 X176.465
N17090 X173. Z-11.861
N17095 Y118. Z-12.566
N17100 X177. Z-13.272
N17105 Y122. Z-13.977
N17110 X173. Z-14.682
N17115 Y120.198 Z-15.
N17120 Y118.
N17125 X177.
N17130 Y122.
N17135 X173.
N17140 Y120.198
N17145 X173.007 Y120.106 Z-14.985
N17150 X173.028 Y120.016 Z-14.971
N17155 X173.059 Y119.938 Z-14.928
N17160 X173.101 Y119.865 Z-14.885
N17165 X173.14 Y119.812 Z-14.819
N17170 X173.186 Y119.764 Z-14.753
N17175 X173.252 Y119.71 Z-14.585
N17180 X173.276 Y119.693 Z-14.4
N17185 Z5.
N17190 X140.127 Y121.276
N17195 Z3.091 F1800.
N17200 X140.104 Y121.248 Z2.886 F2700.
N17205 X140.041 Y121.165 Z2.705
N17210 X139.954 Y121.032 Z2.571
N17215 X139.905 Y120.946 Z2.536
N17220 X139.861 Y120.859 Z2.5
N17225 G3 X143.473 Y119.141 Z1.392 I1.806 J-0.859
N17230 X139.861 Y120.859 Z0.284 I-1.806 J0.859
N17235 X143.473 Y119.141 Z-0.824 I1.806 J-0.859
N17240 X139.861 Y120.859 Z-1.932 I-1.806 J0.859
N17245 X143.473 Y119.141 Z-3.039 I1.806 J-0.859
N17250 X141.667 Y122. Z-3.75 I-1.806 J0.859
N17255 G1 X139.667
N17260 Y118.
N17265 X143.667
N17270 Y122.
N17275 X141.667
N17280 X139.667 Z-4.103
N17285 Y118. Z-4.808
N17290 X143.667 Z-5.513
N17295 Y122. Z-6.219
N17300 X139.667 Z-6.924
N17305 Y118.733 Z-7.5
N17310 Y118.
N17315 X143.667
N17320 Y122.
N17325 X139.667
N17330 Y118.733
N17335 Y118. Z-7.629
N17340 X143.667 Z-8.335
N17345 Y122. Z-9.04
N17350 X139.667 Z-9.745
N17355 Y118. Z-10.45
N17360 X143.667 Z-11.156
N17365 Y118.535 Z-11.25
N17370 Y122.
N17375 X139.667
N17380 Y118.733
N17385 Y118.
N17390 X143.667
N17395 Y118.535
N17400 Y122. Z-11.861
N17405 X139.667 Z-12.566
N17410 Y118. Z-13.272
N17415 X143.667 Z-13.977
N17420 Y122. Z-14.682
N17425 X141.865 Z-15.
N17430 X139.667
N17435 Y118.
N17440 X143.667
N17445 Y122.
N17450 X141.865
N17455 X141.773 Y121.993 Z-14.985
N17460 X141.683 Y121.972 Z-14.971
N17465 X141.605 Y121.941 Z-14.928
N17470 X141.532 Y121.899 Z-14.885
N17475 X141.479 Y121.86 Z-14.819
N17480 X141.431 Y121.814 Z-14.753
N17485 X141.377 Y121.748 Z-14.585
N17490 X141.36 Y121.724 Z-14.4
N17495 Z5.
N17500 X109.609 Y121.54
N17505 Z3.091 F1800.
N17510 X109.581 Y121.563 Z2.886 F2700.
N17515 X109.498 Y121.626 Z2.705
N17520 X109.365 Y121.713 Z2.571
N17525 X109.279 Y121.762 Z2.536
N17530 X109.192 Y121.806 Z2.5
N17535 G3 X107.474 Y118.194 Z1.392 I-0.859 J-1.806
N17540 X109.192 Y121.806 Z0.284 I0.859 J1.806
N17545 X107.474 Y118.194 Z-0.824 I-0.859 J-1.806
N17550 X109.192 Y121.806 Z-1.932 I0.859 J1.806
N17555 X107.474 Y118.194 Z-3.039 I-0.859 J-1.806
N17560 X110.333 Y120. Z-3.75 I0.859 J1.806
N17565 G1 Y122.
N17570 X106.333
N17575 Y118.
N17580 X110.333
N17585 Y120.
N17590 Y122. Z-4.103
N17595 X106.333 Z-4.808
N17600 Y118. Z-5.513
N17605 X110.333 Z-6.219
N17610 Y122. Z-6.924
N17615 X107.066 Z-7.5
N17620 X106.333
N17625 Y118.
N17630 X110.333
N17635 Y122.
N17640 X107.066
N17645 X106.333 Z-7.629
N17650 Y118. Z-8.335
N17655 X110.333 Z-9.04
N17660 Y122. Z-9.745
N17665 X106.333 Z-10.45
N17670 Y118. Z-11.156
N17675 X106.868 Z-11.25
N17680 X110.333
N17685 Y122.
N17690 X107.066
N17695 X106.333
N17700 Y118.
N17705 X106.868
N17710 X110.333 Z-11.861
N17715 Y122. Z-12.566
N17720 X106.333 Z-13.272
N17725 Y118. Z-13.977
N17730 X110.333 Z-14.682
N17735 Y119.802 Z-15.
N17740 Y122.
N17745 X106.333
N17750 Y118.
N17755 X110.333
N17760 Y119.802
N17765 X110.326 Y119.894 Z-14.985
N17770 X110.305 Y119.984 Z-14.971
N17775 X110.274 Y120.062 Z-14.928
N17780 X110.232 Y120.135 Z-14.885
N17785 X110.193 Y120.188 Z-14.819
N17790 X110.147 Y120.236 Z-14.753
N17795 X110.081 Y120.29 Z-14.585
N17800 X110.057 Y120.307 Z-14.4
N17805 Z5.
N17810 X107.057 Y151.793
N17815 Z3.091 F1800.
N17820 X107.085 Y151.77 Z2.886 F2700.
N17825 X107.168 Y151.707 Z2.705
N17830 X107.301 Y151.62 Z2.571
N17835 X107.387 Y151.571 Z2.536
N17840 X107.474 Y151.527 Z2.5
N17845 G3 X109.192 Y155.139 Z1.392 I0.859 J1.806
N17850 X107.474 Y151.527 Z0.284 I-0.859 J-1.806
N17855 X109.192 Y155.139 Z-0.824 I0.859 J1.806
N17860 X107.474 Y151.527 Z-1.932 I-0.859 J-1.806
N17865 X109.192 Y155.139 Z-3.039 I0.859 J1.806
N17870 X106.333 Y153.333 Z-3.75 I-0.859 J-1.806
N17875 G1 Y151.333
N17880 X110.333
N17885 Y155.333
N17890 X106.333
N17895 Y153.333
N17900 Y151.333 Z-4.103
N17905 X110.333 Z-4.808
N17910 Y155.333 Z-5.513
N17915 X106.333 Z-6.219
N17920 Y151.333 Z-6.924
N17925 X109.6 Z-7.5
N17930 X110.333
N17935 Y155.333
N17940 X106.333
N17945 Y151.333
N17950 X109.6
N17955 X110.333 Z-7.629
N17960 Y155.333 Z-8.335
N17965 X106.333 Z-9.04
N17970 Y151.333 Z-9.745
N17975 X110.333 Z-10.45
N17980 Y155.333 Z-11.156
N17985 X109.798 Z-11.25
N17990 X106.333
N17995 Y151.333
N18000 X109.6
N18005 X110.333
N18010 Y155.333
N18015 X109.798
N18020 X106.333 Z-11.861
N18025 Y151.333 Z-12.566
N18030 X110.333 Z-13.272
N18035 Y155.333 Z-13.977
N18040 X106.333 Z-14.682
N18045 Y153.531 Z-15.
N18050 Y151.333
N18055 X110.333
N18060 Y155.333
N18065 X106.333
N18070 Y153.531
N18075 X106.34 Y153.439 Z-14.985
N18080 X106.361 Y153.349 Z-14.971
N18085 X106.392 Y153.271 Z-14.928
N18090 X106.434 Y153.198 Z-14.885
N18095 X106.473 Y153.145 Z-14.819
N18100 X106.519 Y153.097 Z-14.753
N18105 X106.585 Y153.043 Z-14.585
N18110 X106.609 Y153.026 Z-14.4
N18115 Z5.
N18120 X76.276 Y154.873
N18125 Z3.091 F1800.
N18130 X76.248 Y154.896 Z2.886 F2700.
N18135 X76.165 Y154.959 Z2.705
N18140 X76.032 Y155.046 Z2.571
N18145 X75.946 Y155.095 Z2.536
N18150 X75.859 Y155.139 Z2.5
N18155 G3 X74.141 Y151.527 Z1.392 I-0.859 J-1.806
N18160 X75.859 Y155.139 Z0.284 I0.859 J1.806
N18165 X74.141 Y151.527 Z-0.824 I-0.859 J-1.806
N18170 X75.859 Y155.139 Z-1.932 I0.859 J1.806
N18175 X74.141 Y151.527 Z-3.039 I-0.859 J-1.806
N18180 X77. Y153.333 Z-3.75 I0.859 J1.806
N18185 G1 Y155.333
N18190 X73.
N18195 Y151.333
N18200 X77.
N18205 Y153.333
N18210 Y155.333 Z-4.103
N18215 X73. Z-4.808
N18220 Y151.333 Z-5.513
N18225 X77. Z-6.219
N18230 Y155.333 Z-6.924
N18235 X73.733 Z-7.5
N18240 X73.
N18245 Y151.333
N18250 X77.
N18255 Y155.333
N18260 X73.733
N18265 X73. Z-7.629
N18270 Y151.333 Z-8.335
N18275 X77. Z-9.04
N18280 Y155.333 Z-9.745
N18285 X73. Z-10.45
N18290 Y151.333 Z-11.156
N18295 X73.535 Z-11.25
N18300 X77.
N18305 Y155.333
N18310 X73.733
N18315 X73.
N18320 Y151.333
N18325 X73.535
N18330 X77. Z-11.861
N18335 Y155.333 Z-12.566
N18340 X73. Z-13.272
N18345 Y151.333 Z-13.977
N18350 X77. Z-14.682
N18355 Y153.135 Z-15.
N18360 Y155.333
N18365 X73.
N18370 Y151.333
N18375 X77.
N18380 Y153.135
N18385 X76.993 Y153.227 Z-14.985
N18390 X76.972 Y153.317 Z-14.971
N18395 X76.941 Y153.395 Z-14.928
N18400 X76.899 Y153.468 Z-14.885
N18405 X76.86 Y153.521 Z-14.819
N18410 X76.814 Y153.569 Z-14.753
N18415 X76.748 Y153.623 Z-14.585
N18420 X76.724 Y153.64 Z-14.4
N18425 Z5.
N18430 X76.54 Y185.391
N18435 Z3.091 F1800.
N18440 X76.563 Y185.419 Z2.886 F2700.
N18445 X76.626 Y185.502 Z2.705
N18450 X76.713 Y185.635 Z2.571
N18455 X76.762 Y185.721 Z2.536
N18460 X76.806 Y185.808 Z2.5
N18465 G3 X73.194 Y187.526 Z1.392 I-1.806 J0.859
N18470 X76.806 Y185.808 Z0.284 I1.806 J-0.859
N18475 X73.194 Y187.526 Z-0.824 I-1.806 J0.859
N18480 X76.806 Y185.808 Z-1.932 I1.806 J-0.859
N18485 X73.194 Y187.526 Z-3.039 I-1.806 J0.859
N18490 X75. Y184.667 Z-3.75 I1.806 J-0.859
N18495 G1 X77.
N18500 Y188.667
N18505 X73.
N18510 Y184.667
N18515 X75.
N18520 X77. Z-4.103
N18525 Y188.667 Z-4.808
N18530 X73. Z-5.513
N18535 Y184.667 Z-6.219
N18540 X77. Z-6.924
N18545 Y187.934 Z-7.5
N18550 Y188.667
N18555 X73.
N18560 Y184.667
N18565 X77.
N18570 Y187.934
N18575 Y188.667 Z-7.629
N18580 X73. Z-8.335
N18585 Y184.667 Z-9.04
N18590 X77. Z-9.745
N18595 Y188.667 Z-10.45
N18600 X73. Z-11.156
N18605 Y188.132 Z-11.25
N18610 Y184.667
N18615 X77.
N18620 Y187.934
N18625 Y188.667
N18630 X73.
N18635 Y188.132
N18640 Y184.667 Z-11.861
N18645 X77. Z-12.566
N18650 Y188.667 Z-13.272
N18655 X73. Z-13.977
N18660 Y184.667 Z-14.682
N18665 X74.802 Z-15.
N18670 X77.
N18675 Y188.667
N18680 X73.
N18685 Y184.667
N18690 X74.802
N18695 X74.894 Y184.674 Z-14.985
N18700 X74.984 Y184.695 Z-14.971
N18705 X75.062 Y184.726 Z-14.928
N18710 X75.135 Y184.768 Z-14.885
N18715 X75.188 Y184.807 Z-14.819
N18720 X75.236 Y184.853 Z-14.753
N18725 X75.29 Y184.919 Z-14.585
N18730 X75.307 Y184.943 Z-14.4
N18735 Z5.
N18740 X107.057 Y185.127
N18745 Z3.091 F1800.
N18750 X107.085 Y185.104 Z2.886 F2700.
N18755 X107.168 Y185.041 Z2.705
N18760 X107.301 Y184.954 Z2.571
N18765 X107.387 Y184.905 Z2.536
N18770 X107.474 Y184.861 Z2.5
N18775 G3 X109.192 Y188.473 Z1.392 I0.859 J1.806
N18780 X107.474 Y184.861 Z0.284 I-0.859 J-1.806
N18785 X109.192 Y188.473 Z-0.824 I0.859 J1.806
N18790 X107.474 Y184.861 Z-1.932 I-0.859 J-1.806
N18795 X109.192 Y188.473 Z-3.039 I0.859 J1.806
N18800 X106.333 Y186.667 Z-3.75 I-0.859 J-1.806
N18805 G1 Y184.667
N18810 X110.333
N18815 Y188.667
N18820 X106.333
N18825 Y186.667
N18830 Y184.667 Z-4.103
N18835 X110.333 Z-4.808
N18840 Y188.667 Z-5.513
N18845 X106.333 Z-6.219
N18850 Y184.667 Z-6.924
N18855 X109.6 Z-7.5
N18860 X110.333
N18865 Y188.667
N18870 X106.333
N18875 Y184.667
N18880 X109.6
N18885 X110.333 Z-7.629
N18890 Y188.667 Z-8.335
N18895 X106.333 Z-9.04
N18900 Y184.667 Z-9.745
N18905 X110.333 Z-10.45
N18910 Y188.667 Z-11.156
N18915 X109.798 Z-11.25
N18920 X106.333
N18925 Y184.667
N18930 X109.6
N18935 X110.333
N18940 Y188.667
N18945 X109.798
N18950 X106.333 Z-11.861
N18955 Y184.667 Z-12.566
N18960 X110.333 Z-13.272
N18965 Y188.667 Z-13.977
N18970 X106.333 Z-14.682
N18975 Y186.865 Z-15.
N18980 Y184.667
N18985 X110.333
N18990 Y188.667
N18995 X106.333
N19000 Y186.865
N19005 X106.34 Y186.773 Z-14.985
N19010 X106.361 Y186.683 Z-14.971
N19015 X106.392 Y186.605 Z-14.928
N19020 X106.434 Y186.532 Z-14.885
N19025 X106.473 Y186.479 Z-14.819
N19030 X106.519 Y186.431 Z-14.753
N19035 X106.585 Y186.377 Z-14.585
N19040 X106.609 Y186.36 Z-14.4
N19045 Z5.
N19050 X140.391 Y185.127
N19055 Z3.091 F1800.
N19060 X140.419 Y185.104 Z2.886 F2700.
N19065 X140.502 Y185.041 Z2.705
N19070 X140.635 Y184.954 Z2.571
N19075 X140.721 Y184.905 Z2.536
N19080 X140.808 Y184.861 Z2.5
N19085 G3 X142.526 Y188.473 Z1.392 I0.859 J1.806
N19090 X140.808 Y184.861 Z0.284 I-0.859 J-1.806
N19095 X142.526 Y188.473 Z-0.824 I0.859 J1.806
N19100 X140.808 Y184.861 Z-1.932 I-0.859 J-1.806
N19105 X142.526 Y188.473 Z-3.039 I0.859 J1.806
N19110 X139.667 Y186.667 Z-3.75 I-0.859 J-1.806
N19115 G1 Y184.667
N19120 X143.667
N19125 Y188.667
N19130 X139.667
N19135 Y186.667
N19140 Y184.667 Z-4.103
N19145 X143.667 Z-4.808
N19150 Y188.667 Z-5.513
N19155 X139.667 Z-6.219
N19160 Y184.667 Z-6.924
N19165 X142.934 Z-7.5
N19170 X143.667
N19175 Y188.667
N19180 X139.667
N19185 Y184.667
N19190 X142.934
N19195 X143.667 Z-7.629
N19200 Y188.667 Z-8.335
N19205 X139.667 Z-9.04
N19210 Y184.667 Z-9.745
N19215 X143.667 Z-10.45
N19220 Y188.667 Z-11.156
N19225 X143.132 Z-11.25
N19230 X139.667
N19235 Y184.667
N19240 X142.934
N19245 X143.667
N19250 Y188.667
N19255 X143.132
N19260 X139.667 Z-11.861
N19265 Y184.667 Z-12.566
N19270 X143.667 Z-13.272
N19275 Y188.667 Z-13.977
N19280 X139.667 Z-14.682
N19285 Y186.865 Z-15.
N19290 Y184.667
N19295 X143.667
N19300 Y188.667
N19305 X139.667
N19310 Y186.865
N19315 X139.674 Y186.773 Z-14.985
N19320 X139.695 Y186.683 Z-14.971
N19325 X139.726 Y186.605 Z-14.928
N19330 X139.768 Y186.532 Z-14.885
N19335 X139.807 Y186.479 Z-14.819
N19340 X139.853 Y186.431 Z-14.753
N19345 X139.919 Y186.377 Z-14.585
N19350 X139.943 Y186.36 Z-14.4
N19355 Z5.
N19360 X140.127 Y154.609
N19365 Z3.091 F1800.
N19370 X140.104 Y154.581 Z2.886 F2700.
N19375 X140.041 Y154.498 Z2.705
N19380 X139.954 Y154.365 Z2.571
N19385 X139.905 Y154.279 Z2.536
N19390 X139.861 Y154.192 Z2.5
N19395 G3 X143.473 Y152.474 Z1.392 I1.806 J-0.859
N19400 X139.861 Y154.192 Z0.284 I-1.806 J0.859
N19405 X143.473 Y152.474 Z-0.824 I1.806 J-0.859
N19410 X139.861 Y154.192 Z-1.932 I-1.806 J0.859
N19415 X143.473 Y152.474 Z-3.039 I1.806 J-0.859
N19420 X141.667 Y155.333 Z-3.75 I-1.806 J0.859
N19425 G1 X139.667
N19430 Y151.333
N19435 X143.667
N19440 Y155.333
N19445 X141.667
N19450 X139.667 Z-4.103
N19455 Y151.333 Z-4.808
N19460 X143.667 Z-5.513
N19465 Y155.333 Z-6.219
N19470 X139.667 Z-6.924
N19475 Y152.066 Z-7.5
N19480 Y151.333
N19485 X143.667
N19490 Y155.333
N19495 X139.667
N19500 Y152.066
N19505 Y151.333 Z-7.629
N19510 X143.667 Z-8.335
N19515 Y155.333 Z-9.04
N19520 X139.667 Z-9.745
N19525 Y151.333 Z-10.45
N19530 X143.667 Z-11.156
N19535 Y151.868 Z-11.25
N19540 Y155.333
N19545 X139.667
N19550 Y152.066
N19555 Y151.333
N19560 X143.667
N19565 Y151.868
N19570 Y155.333 Z-11.861
N19575 X139.667 Z-12.566
N19580 Y151.333 Z-13.272
N19585 X143.667 Z-13.977
N19590 Y155.333 Z-14.682
N19595 X141.865 Z-15.
N19600 X139.667
N19605 Y151.333
N19610 X143.667
N19615 Y155.333
N19620 X141.865
N19625 X141.773 Y155.326 Z-14.985
N19630 X141.683 Y155.305 Z-14.971
N19635 X141.605 Y155.274 Z-14.928
N19640 X141.532 Y155.232 Z-14.885
N19645 X141.479 Y155.193 Z-14.819
N19650 X141.431 Y155.147 Z-14.753
N19655 X141.377 Y155.081 Z-14.585
N19660 X141.36 Y155.057 Z-14.4
N19665 Z5.
N19670 X176.276 Y154.873
N19675 Z3.091 F1800.
N19680 X176.248 Y154.896 Z2.886 F2700.
N19685 X176.165 Y154.959 Z2.705
N19690 X176.032 Y155.046 Z2.571
N19695 X175.946 Y155.095 Z2.536
N19700 X175.859 Y155.139 Z2.5
N19705 G3 X174.141 Y151.527 Z1.392 I-0.859 J-1.806
N19710 X175.859 Y155.139 Z0.284 I0.859 J1.806
N19715 X174.141 Y151.527 Z-0.824 I-0.859 J-1.806
N19720 X175.859 Y155.139 Z-1.932 I0.859 J1.806
N19725 X174.141 Y151.527 Z-3.039 I-0.859 J-1.806
N19730 X177. Y153.333 Z-3.75 I0.859 J1.806
N19735 G1 Y155.333
N19740 X173.
N19745 Y151.333
N19750 X177.
N19755 Y153.333
N19760 Y155.333 Z-4.103
N19765 X173. Z-4.808
N19770 Y151.333 Z-5.513
N19775 X177. Z-6.219
N19780 Y155.333 Z-6.924
N19785 X173.733 Z-7.5
N19790 X173.
N19795 Y151.333
N19800 X177.
N19805 Y155.333
N19810 X173.733
N19815 X173. Z-7.629
N19820 Y151.333 Z-8.335
N19825 X177. Z-9.04
N19830 Y155.333 Z-9.745
N19835 X173. Z-10.45
N19840 Y151.333 Z-11.156
N19845 X173.535 Z-11.25
N19850 X177.
N19855 Y155.333
N19860 X173.733
N19865 X173.
N19870 Y151.333
N19875 X173.535
N19880 X177. Z-11.861
N19885 Y155.333 Z-12.566
N19890 X173. Z-13.272
N19895 Y151.333 Z-13.977
N19900 X177. Z-14.682
N19905 Y153.135 Z-15.
N19910 Y155.333
N19915 X173.
N19920 Y151.333
N19925 X177.
N19930 Y153.135
N19935 X176.993 Y153.227 Z-14.985
N19940 X176.972 Y153.317 Z-14.971
N19945 X176.941 Y153.395 Z-14.928
N19950 X176.899 Y153.468 Z-14.885
N19955 X176.86 Y153.521 Z-14.819
N19960 X176.814 Y153.569 Z-14.753
N19965 X176.748 Y153.623 Z-14.585
N19970 X176.724 Y153.64 Z-14.4
N19975 Z5.
N19980 X209.873 Y152.057
N19985 Z3.091 F1800.
N19990 X209.896 Y152.085 Z2.886 F2700.
N19995 X209.959 Y152.168 Z2.705
N20000 X210.046 Y152.301 Z2.571
N20005 X210.095 Y152.387 Z2.536
N20010 X210.139 Y152.474 Z2.5
N20015 G3 X206.527 Y154.192 Z1.392 I-1.806 J0.859
N20020 X210.139 Y152.474 Z0.284 I1.806 J-0.859
N20025 X206.527 Y154.192 Z-0.824 I-1.806 J0.859
N20030 X210.139 Y152.474 Z-1.932 I1.806 J-0.859
N20035 X206.527 Y154.192 Z-3.039 I-1.806 J0.859
N20040 X208.333 Y151.333 Z-3.75 I1.806 J-0.859
N20045 G1 X210.333
N20050 Y155.333
N20055 X206.333
N20060 Y151.333
N20065 X208.333
N20070 X210.333 Z-4.103
N20075 Y155.333 Z-4.808
N20080 X206.333 Z-5.513
N20085 Y151.333 Z-6.219
N20090 X210.333 Z-6.924
N20095 Y154.6 Z-7.5
N20100 Y155.333
N20105 X206.333
N20110 Y151.333
N20115 X210.333
N20120 Y154.6
N20125 Y155.333 Z-7.629
N20130 X206.333 Z-8.335
N20135 Y151.333 Z-9.04
N20140 X210.333 Z-9.745
N20145 Y155.333 Z-10.45
N20150 X206.333 Z-11.156
N20155 Y154.798 Z-11.25
N20160 Y151.333
N20165 X210.333
N20170 Y154.6
N20175 Y155.333
N20180 X206.333
N20185 Y154.798
N20190 Y151.333 Z-11.861
N20195 X210.333 Z-12.566
N20200 Y155.333 Z-13.272
N20205 X206.333 Z-13.977
N20210 Y151.333 Z-14.682
N20215 X208.135 Z-15.
N20220 X210.333
N20225 Y155.333
N20230 X206.333
N20235 Y151.333
N20240 X208.135
N20245 X208.227 Y151.34 Z-14.985
N20250 X208.317 Y151.361 Z-14.971
N20255 X208.395 Y151.392 Z-14.928
N20260 X208.468 Y151.434 Z-14.885
N20265 X208.521 Y151.473 Z-14.819
N20270 X208.569 Y151.519 Z-14.753
N20275 X208.623 Y151.585 Z-14.585
N20280 X208.64 Y151.609 Z-14.4
N20285 Z5.
N20290 X240.127 Y154.609
N20295 Z3.091 F1800.
N20300 X240.104 Y154.581 Z2.886 F2700.
N20305 X240.041 Y154.498 Z2.705
N20310 X239.954 Y154.365 Z2.571
N20315 X239.905 Y154.279 Z2.536
N20320 X239.861 Y154.192 Z2.5
N20325 G3 X243.473 Y152.474 Z1.392 I1.806 J-0.859
N20330 X239.861 Y154.192 Z0.284 I-1.806 J0.859
N20335 X243.473 Y152.474 Z-0.824 I1.806 J-0.859
N20340 X239.861 Y154.192 Z-1.932 I-1.806 J0.859
N20345 X243.473 Y152.474 Z-3.039 I1.806 J-0.859
N20350 X241.667 Y155.333 Z-3.75 I-1.806 J0.859
N20355 G1 X239.667
N20360 Y151.333
N20365 X243.667
N20370 Y155.333
N20375 X241.667
N20380 X239.667 Z-4.103
N20385 Y151.333 Z-4.808
N20390 X243.667 Z-5.513
N20395 Y155.333 Z-6.219
N20400 X239.667 Z-6.924
N20405 Y152.066 Z-7.5
N20410 Y151.333
N20415 X243.667
N20420 Y155.333
N20425 X239.667
N20430 Y152.066
N20435 Y151.333 Z-7.629
N20440 X243.667 Z-8.335
N20445 Y155.333 Z-9.04
N20450 X239.667 Z-9.745
N20455 Y151.333 Z-10.45
N20460 X243.667 Z-11.156
N20465 Y151.868 Z-11.25
N20470 Y155.333
N20475 X239.667
N20480 Y152.066
N20485 Y151.333
N20490 X243.667
N20495 Y151.868
N20500 Y155.333 Z-11.861
N20505 X239.667 Z-12.566
N20510 Y151.333 Z-13.272
N20515 X243.667 Z-13.977
N20520 Y155.333 Z-14.682
N20525 X241.865 Z-15.
N20530 X239.667
N20535 Y151.333
N20540 X243.667
N20545 Y155.333
N20550 X241.865
N20555 X241.773 Y155.326 Z-14.985
N20560 X241.683 Y155.305 Z-14.971
N20565 X241.605 Y155.274 Z-14.928
N20570 X241.532 Y155.232 Z-14.885
N20575 X241.479 Y155.193 Z-14.819
N20580 X241.431 Y155.147 Z-14.753
N20585 X241.377 Y155.081 Z-14.585
N20590 X241.36 Y155.057 Z-14.4
N20595 Z5.
N20600 X240.391 Y185.127
N20605 Z3.091 F1800.
N20610 X240.419 Y185.104 Z2.886 F2700.
N20615 X240.502 Y185.041 Z2.705
N20620 X240.635 Y184.954 Z2.571
N20625 X240.721 Y184.905 Z2.536
N20630 X240.808 Y184.861 Z2.5
N20635 G3 X242.526 Y188.473 Z1.392 I0.859 J1.806
N20640 X240.808 Y184.861 Z0.284 I-0.859 J-1.806
N20645 X242.526 Y188.473 Z-0.824 I0.859 J1.806
N20650 X240.808 Y184.861 Z-1.932 I-0.859 J-1.806
N20655 X242.526 Y188.473 Z-3.039 I0.859 J1.806
N20660 X239.667 Y186.667 Z-3.75 I-0.859 J-1.806
N20665 G1 Y184.667
N20670 X243.667
N20675 Y188.667
N20680 X239.667
N20685 Y186.667
N20690 Y184.667 Z-4.103
N20695 X243.667 Z-4.808
N20700 Y188.667 Z-5.513
N20705 X239.667 Z-6.219
N20710 Y184.667 Z-6.924
N20715 X242.934 Z-7.5
N20720 X243.667
N20725 Y188.667
N20730 X239.667
N20735 Y184.667
N20740 X242.934
N20745 X243.667 Z-7.629
N20750 Y188.667 Z-8.335
N20755 X239.667 Z-9.04
N20760 Y184.667 Z-9.745
N20765 X243.667 Z-10.45
N20770 Y188.667 Z-11.156
N20775 X243.132 Z-11.25
N20780 X239.667
N20785 Y184.667
N20790 X242.934
N20795 X243.667
N20800 Y188.667
N20805 X243.132
N20810 X239.667 Z-11.861
