%
(13X13_V2_RIGHT_FRONT_VBIT)
(T50  D=32. CR=0. TAPER=30DEG - ZMIN=-15.5 - CHAMFER MILL)
N10 G90 G94 G17 G91.1
N15 G21
(WHEN USING FUSION 360 FOR PERSONAL USE, THE FEEDRATE OF)
(RAPID MOVES IS REDUCED TO MATCH THE FEEDRATE OF CUTTING)
(MOVES, WHICH CAN INCREASE MACHINING TIME. UNRESTRICTED RAPID)
(MOVES ARE AVAILABLE WITH A FUSION 360 SUBSCRIPTION.)
(2D CONTOUR2)
N20 M8
N25 S14000 M3
N30 G54
N35 G0 X281.163 Y116.9
N45 G1 Z5. F400.
N50 Z4.2 F500.
N55 G19 G3 Y120.1 Z1. J3.2 K0. F400.
N60 G1 Y123.3
N65 G17 G3 X277.963 Y126.5 I-3.2 J0.
N70 G1 X270. Z0.722
N75 G3 X268.5 Y125. Z0.64 I0. J-1.5
N80 G1 Y115. Z0.29
N85 G3 X270. Y113.5 Z0.208 I1.5 J0.
N90 G1 X280. Z-0.141
N95 G3 X281.5 Y115. Z-0.223 I0. J1.5
N100 G1 Y125. Z-0.573
N105 G3 X280. Y126.5 Z-0.655 I-1.5 J0.
N110 G1 X270. Z-1.004
N115 G3 X268.5 Y125. Z-1.086 I0. J-1.5
N120 G1 Y115. Z-1.436
N125 G3 X270. Y113.5 Z-1.518 I1.5 J0.
N130 G1 X280. Z-1.867
N135 G3 X281.5 Y115. Z-1.949 I0. J1.5
N140 G1 Y125. Z-2.298
N145 G3 X280. Y126.5 Z-2.381 I-1.5 J0.
N150 G1 X270. Z-2.73
N155 G3 X268.5 Y125. Z-2.812 I0. J-1.5
N160 G1 Y115. Z-3.161
N165 G3 X270. Y113.5 Z-3.244 I1.5 J0.
N170 G1 X280. Z-3.593
N175 G3 X281.5 Y115. Z-3.675 I0. J1.5
N180 G1 Y125. Z-4.024
N185 G3 X280. Y126.5 Z-4.107 I-1.5 J0.
N190 G1 X270. Z-4.456
N195 G3 X268.5 Y125. Z-4.538 I0. J-1.5
N200 G1 Y115. Z-4.887
N205 G3 X270. Y113.5 Z-4.97 I1.5 J0.
N210 G1 X280. Z-5.319
N215 G3 X281.5 Y115. Z-5.401 I0. J1.5
N220 G1 Y125. Z-5.75
N225 G3 X280. Y126.5 Z-5.833 I-1.5 J0.
N230 G1 X270. Z-6.182
N235 G3 X268.5 Y125. Z-6.264 I0. J-1.5
N240 G1 Y115. Z-6.613
N245 G3 X270. Y113.5 Z-6.696 I1.5 J0.
N250 G1 X280. Z-7.045
N255 G3 X281.5 Y115. Z-7.127 I0. J1.5
N260 G1 Y125. Z-7.476
N265 G3 X280. Y126.5 Z-7.559 I-1.5 J0.
N270 G1 X270. Z-7.908
N275 G3 X268.5 Y125. Z-7.99 I0. J-1.5
N280 G1 Y115. Z-8.339
N285 G3 X270. Y113.5 Z-8.422 I1.5 J0.
N290 G1 X280. Z-8.771
N295 G3 X281.5 Y115. Z-8.853 I0. J1.5
N300 G1 Y125. Z-9.202
N305 G3 X280. Y126.5 Z-9.285 I-1.5 J0.
N310 G1 X270. Z-9.634
N315 G3 X268.5 Y125. Z-9.716 I0. J-1.5
N320 G1 Y115. Z-10.065
N325 G3 X270. Y113.5 Z-10.148 I1.5 J0.
N330 G1 X280. Z-10.497
N335 G3 X281.5 Y115. Z-10.579 I0. J1.5
N340 G1 Y125. Z-10.928
N345 G3 X280. Y126.5 Z-11.011 I-1.5 J0.
N350 G1 X270. Z-11.36
N355 G3 X268.5 Y125. Z-11.442 I0. J-1.5
N360 G1 Y115. Z-11.791
N365 G3 X270. Y113.5 Z-11.873 I1.5 J0.
N370 G1 X280. Z-12.223
N375 G3 X281.5 Y115. Z-12.305 I0. J1.5
N380 G1 Y125. Z-12.654
N385 G3 X280. Y126.5 Z-12.736 I-1.5 J0.
N390 G1 X270. Z-13.086
N395 G3 X268.5 Y125. Z-13.168 I0. J-1.5
N400 G1 Y115. Z-13.517
N405 G3 X270. Y113.5 Z-13.599 I1.5 J0.
N410 G1 X280. Z-13.949
N415 G3 X281.5 Y115. Z-14.031 I0. J1.5
N420 G1 Y125. Z-14.38
N425 G3 X280. Y126.5 Z-14.462 I-1.5 J0.
N430 G1 X270. Z-14.812
N435 G3 X268.5 Y125. Z-14.894 I0. J-1.5
N440 G1 Y115. Z-15.243
N445 G3 X270. Y113.5 Z-15.325 I1.5 J0.
N450 G1 X275. Z-15.5
N455 X280.
N460 G3 X281.5 Y115. I0. J1.5
N465 G1 Y125.
N470 G3 X280. Y126.5 I-1.5 J0.
N475 G1 X270.
N480 G3 X268.5 Y125. I0. J-1.5
N485 G1 Y115.
N490 G3 X270. Y113.5 I1.5 J0.
N495 G1 X275.
N500 G3 X278.2 Y116.7 I0. J3.2 F1000.
N505 G1 Y119.9
N510 G19 G3 Y123.1 Z-12.3 J0. K3.2
N515 G1 Z5. F400.
N520 X305.233 Y113.837
N525 Z4.2 F500.
N530 G18 G2 X308.433 Z1. I3.2 K0. F400.
N535 G1 X311.633
N540 G17 G3 X314.833 Y117.037 I0. J3.2
N545 G1 Y125. Z0.722
N550 G3 X313.333 Y126.5 Z0.64 I-1.5 J0.
N555 G1 X303.333 Z0.29
N560 G3 X301.833 Y125. Z0.208 I0. J-1.5
N565 G1 Y115. Z-0.141
N570 G3 X303.333 Y113.5 Z-0.223 I1.5 J0.
N575 G1 X313.333 Z-0.573
N580 G3 X314.833 Y115. Z-0.655 I0. J1.5
N585 G1 Y125. Z-1.004
N590 G3 X313.333 Y126.5 Z-1.086 I-1.5 J0.
N595 G1 X303.333 Z-1.436
N600 G3 X301.833 Y125. Z-1.518 I0. J-1.5
N605 G1 Y115. Z-1.867
N610 G3 X303.333 Y113.5 Z-1.949 I1.5 J0.
N615 G1 X313.333 Z-2.298
N620 G3 X314.833 Y115. Z-2.381 I0. J1.5
N625 G1 Y125. Z-2.73
N630 G3 X313.333 Y126.5 Z-2.812 I-1.5 J0.
N635 G1 X303.333 Z-3.161
N640 G3 X301.833 Y125. Z-3.244 I0. J-1.5
N645 G1 Y115. Z-3.593
N650 G3 X303.333 Y113.5 Z-3.675 I1.5 J0.
N655 G1 X313.333 Z-4.024
N660 G3 X314.833 Y115. Z-4.107 I0. J1.5
N665 G1 Y125. Z-4.456
N670 G3 X313.333 Y126.5 Z-4.538 I-1.5 J0.
N675 G1 X303.333 Z-4.887
N680 G3 X301.833 Y125. Z-4.97 I0. J-1.5
N685 G1 Y115. Z-5.319
N690 G3 X303.333 Y113.5 Z-5.401 I1.5 J0.
N695 G1 X313.333 Z-5.75
N700 G3 X314.833 Y115. Z-5.833 I0. J1.5
N705 G1 Y125. Z-6.182
N710 G3 X313.333 Y126.5 Z-6.264 I-1.5 J0.
N715 G1 X303.333 Z-6.613
N720 G3 X301.833 Y125. Z-6.696 I0. J-1.5
N725 G1 Y115. Z-7.045
N730 G3 X303.333 Y113.5 Z-7.127 I1.5 J0.
N735 G1 X313.333 Z-7.476
N740 G3 X314.833 Y115. Z-7.559 I0. J1.5
N745 G1 Y125. Z-7.908
N750 G3 X313.333 Y126.5 Z-7.99 I-1.5 J0.
N755 G1 X303.333 Z-8.339
N760 G3 X301.833 Y125. Z-8.422 I0. J-1.5
N765 G1 Y115. Z-8.771
N770 G3 X303.333 Y113.5 Z-8.853 I1.5 J0.
N775 G1 X313.333 Z-9.202
N780 G3 X314.833 Y115. Z-9.285 I0. J1.5
N785 G1 Y125. Z-9.634
N790 G3 X313.333 Y126.5 Z-9.716 I-1.5 J0.
N795 G1 X303.333 Z-10.065
N800 G3 X301.833 Y125. Z-10.148 I0. J-1.5
N805 G1 Y115. Z-10.497
N810 G3 X303.333 Y113.5 Z-10.579 I1.5 J0.
N815 G1 X313.333 Z-10.928
N820 G3 X314.833 Y115. Z-11.011 I0. J1.5
N825 G1 Y125. Z-11.36
N830 G3 X313.333 Y126.5 Z-11.442 I-1.5 J0.
N835 G1 X303.333 Z-11.791
N840 G3 X301.833 Y125. Z-11.873 I0. J-1.5
N845 G1 Y115. Z-12.223
N850 G3 X303.333 Y113.5 Z-12.305 I1.5 J0.
N855 G1 X313.333 Z-12.654
N860 G3 X314.833 Y115. Z-12.736 I0. J1.5
N865 G1 Y125. Z-13.086
N870 G3 X313.333 Y126.5 Z-13.168 I-1.5 J0.
N875 G1 X303.333 Z-13.517
N880 G3 X301.833 Y125. Z-13.599 I0. J-1.5
N885 G1 Y115. Z-13.949
N890 G3 X303.333 Y113.5 Z-14.031 I1.5 J0.
N895 G1 X313.333 Z-14.38
N900 G3 X314.833 Y115. Z-14.462 I0. J1.5
N905 G1 Y125. Z-14.812
N910 G3 X313.333 Y126.5 Z-14.894 I-1.5 J0.
N915 G1 X303.333 Z-15.243
N920 G3 X301.833 Y125. Z-15.325 I0. J-1.5
N925 G1 Y120. Z-15.5
N930 Y115.
N935 G3 X303.333 Y113.5 I1.5 J0.
N940 G1 X313.333
N945 G3 X314.833 Y115. I0. J1.5
N950 G1 Y125.
N955 G3 X313.333 Y126.5 I-1.5 J0.
N960 G1 X303.333
N965 G3 X301.833 Y125. I0. J-1.5
N970 G1 Y120.
N975 G3 X305.033 Y116.8 I3.2 J0. F1000.
N980 G1 X308.233
N985 G18 G2 X311.433 Z-12.3 I0. K3.2
N990 G1 Z5. F400.
N995 X302.17 Y89.767
N1000 Z4.2 F500.
N1005 G19 G2 Y86.567 Z1. J-3.2 K0. F400.
N1010 G1 Y83.367
N1015 G17 G3 X305.37 Y80.167 I3.2 J0.
N1020 G1 X313.333 Z0.722
N1025 G3 X314.833 Y81.667 Z0.64 I0. J1.5
N1030 G1 Y91.667 Z0.29
N1035 G3 X313.333 Y93.167 Z0.208 I-1.5 J0.
N1040 G1 X303.333 Z-0.141
N1045 G3 X301.833 Y91.667 Z-0.223 I0. J-1.5
N1050 G1 Y81.667 Z-0.573
N1055 G3 X303.333 Y80.167 Z-0.655 I1.5 J0.
N1060 G1 X313.333 Z-1.004
N1065 G3 X314.833 Y81.667 Z-1.086 I0. J1.5
N1070 G1 Y91.667 Z-1.436
N1075 G3 X313.333 Y93.167 Z-1.518 I-1.5 J0.
N1080 G1 X303.333 Z-1.867
N1085 G3 X301.833 Y91.667 Z-1.949 I0. J-1.5
N1090 G1 Y81.667 Z-2.298
N1095 G3 X303.333 Y80.167 Z-2.381 I1.5 J0.
N1100 G1 X313.333 Z-2.73
N1105 G3 X314.833 Y81.667 Z-2.812 I0. J1.5
N1110 G1 Y91.667 Z-3.161
N1115 G3 X313.333 Y93.167 Z-3.244 I-1.5 J0.
N1120 G1 X303.333 Z-3.593
N1125 G3 X301.833 Y91.667 Z-3.675 I0. J-1.5
N1130 G1 Y81.667 Z-4.024
N1135 G3 X303.333 Y80.167 Z-4.107 I1.5 J0.
N1140 G1 X313.333 Z-4.456
N1145 G3 X314.833 Y81.667 Z-4.538 I0. J1.5
N1150 G1 Y91.667 Z-4.887
N1155 G3 X313.333 Y93.167 Z-4.97 I-1.5 J0.
N1160 G1 X303.333 Z-5.319
N1165 G3 X301.833 Y91.667 Z-5.401 I0. J-1.5
N1170 G1 Y81.667 Z-5.75
N1175 G3 X303.333 Y80.167 Z-5.833 I1.5 J0.
N1180 G1 X313.333 Z-6.182
N1185 G3 X314.833 Y81.667 Z-6.264 I0. J1.5
N1190 G1 Y91.667 Z-6.613
N1195 G3 X313.333 Y93.167 Z-6.696 I-1.5 J0.
N1200 G1 X303.333 Z-7.045
N1205 G3 X301.833 Y91.667 Z-7.127 I0. J-1.5
N1210 G1 Y81.667 Z-7.476
N1215 G3 X303.333 Y80.167 Z-7.559 I1.5 J0.
N1220 G1 X313.333 Z-7.908
N1225 G3 X314.833 Y81.667 Z-7.99 I0. J1.5
N1230 G1 Y91.667 Z-8.339
N1235 G3 X313.333 Y93.167 Z-8.422 I-1.5 J0.
N1240 G1 X303.333 Z-8.771
N1245 G3 X301.833 Y91.667 Z-8.853 I0. J-1.5
N1250 G1 Y81.667 Z-9.202
N1255 G3 X303.333 Y80.167 Z-9.285 I1.5 J0.
N1260 G1 X313.333 Z-9.634
N1265 G3 X314.833 Y81.667 Z-9.716 I0. J1.5
N1270 G1 Y91.667 Z-10.065
N1275 G3 X313.333 Y93.167 Z-10.148 I-1.5 J0.
N1280 G1 X303.333 Z-10.497
N1285 G3 X301.833 Y91.667 Z-10.579 I0. J-1.5
N1290 G1 Y81.667 Z-10.928
N1295 G3 X303.333 Y80.167 Z-11.011 I1.5 J0.
N1300 G1 X313.333 Z-11.36
N1305 G3 X314.833 Y81.667 Z-11.442 I0. J1.5
N1310 G1 Y91.667 Z-11.791
N1315 G3 X313.333 Y93.167 Z-11.873 I-1.5 J0.
N1320 G1 X303.333 Z-12.223
N1325 G3 X301.833 Y91.667 Z-12.305 I0. J-1.5
N1330 G1 Y81.667 Z-12.654
N1335 G3 X303.333 Y80.167 Z-12.736 I1.5 J0.
N1340 G1 X313.333 Z-13.086
N1345 G3 X314.833 Y81.667 Z-13.168 I0. J1.5
N1350 G1 Y91.667 Z-13.517
N1355 G3 X313.333 Y93.167 Z-13.599 I-1.5 J0.
N1360 G1 X303.333 Z-13.949
N1365 G3 X301.833 Y91.667 Z-14.031 I0. J-1.5
N1370 G1 Y81.667 Z-14.38
N1375 G3 X303.333 Y80.167 Z-14.462 I1.5 J0.
N1380 G1 X313.333 Z-14.812
N1385 G3 X314.833 Y81.667 Z-14.894 I0. J1.5
N1390 G1 Y91.667 Z-15.243
N1395 G3 X313.333 Y93.167 Z-15.325 I-1.5 J0.
N1400 G1 X308.333 Z-15.5
N1405 X303.333
N1410 G3 X301.833 Y91.667 I0. J-1.5
N1415 G1 Y81.667
N1420 G3 X303.333 Y80.167 I1.5 J0.
N1425 G1 X313.333
N1430 G3 X314.833 Y81.667 I0. J1.5
N1435 G1 Y91.667
N1440 G3 X313.333 Y93.167 I-1.5 J0.
N1445 G1 X308.333
N1450 G3 X305.133 Y89.967 I0. J-3.2 F1000.
N1455 G1 Y86.767
N1460 G19 G2 Y83.567 Z-12.3 J0. K3.2
N1465 G1 Z5. F400.
N1470 X281.163
N1475 Z4.2 F500.
N1480 G3 Y86.767 Z1. J3.2 K0. F400.
N1485 G1 Y89.967
N1490 G17 G3 X277.963 Y93.167 I-3.2 J0.
N1495 G1 X270. Z0.722
N1500 G3 X268.5 Y91.667 Z0.64 I0. J-1.5
N1505 G1 Y81.667 Z0.29
N1510 G3 X270. Y80.167 Z0.208 I1.5 J0.
N1515 G1 X280. Z-0.141
N1520 G3 X281.5 Y81.667 Z-0.223 I0. J1.5
N1525 G1 Y91.667 Z-0.573
N1530 G3 X280. Y93.167 Z-0.655 I-1.5 J0.
N1535 G1 X270. Z-1.004
N1540 G3 X268.5 Y91.667 Z-1.086 I0. J-1.5
N1545 G1 Y81.667 Z-1.436
N1550 G3 X270. Y80.167 Z-1.518 I1.5 J0.
N1555 G1 X280. Z-1.867
N1560 G3 X281.5 Y81.667 Z-1.949 I0. J1.5
N1565 G1 Y91.667 Z-2.298
N1570 G3 X280. Y93.167 Z-2.381 I-1.5 J0.
N1575 G1 X270. Z-2.73
N1580 G3 X268.5 Y91.667 Z-2.812 I0. J-1.5
N1585 G1 Y81.667 Z-3.161
N1590 G3 X270. Y80.167 Z-3.244 I1.5 J0.
N1595 G1 X280. Z-3.593
N1600 G3 X281.5 Y81.667 Z-3.675 I0. J1.5
N1605 G1 Y91.667 Z-4.024
N1610 G3 X280. Y93.167 Z-4.107 I-1.5 J0.
N1615 G1 X270. Z-4.456
N1620 G3 X268.5 Y91.667 Z-4.538 I0. J-1.5
N1625 G1 Y81.667 Z-4.887
N1630 G3 X270. Y80.167 Z-4.97 I1.5 J0.
N1635 G1 X280. Z-5.319
N1640 G3 X281.5 Y81.667 Z-5.401 I0. J1.5
N1645 G1 Y91.667 Z-5.75
N1650 G3 X280. Y93.167 Z-5.833 I-1.5 J0.
N1655 G1 X270. Z-6.182
N1660 G3 X268.5 Y91.667 Z-6.264 I0. J-1.5
N1665 G1 Y81.667 Z-6.613
N1670 G3 X270. Y80.167 Z-6.696 I1.5 J0.
N1675 G1 X280. Z-7.045
N1680 G3 X281.5 Y81.667 Z-7.127 I0. J1.5
N1685 G1 Y91.667 Z-7.476
N1690 G3 X280. Y93.167 Z-7.559 I-1.5 J0.
N1695 G1 X270. Z-7.908
N1700 G3 X268.5 Y91.667 Z-7.99 I0. J-1.5
N1705 G1 Y81.667 Z-8.339
N1710 G3 X270. Y80.167 Z-8.422 I1.5 J0.
N1715 G1 X280. Z-8.771
N1720 G3 X281.5 Y81.667 Z-8.853 I0. J1.5
N1725 G1 Y91.667 Z-9.202
N1730 G3 X280. Y93.167 Z-9.285 I-1.5 J0.
N1735 G1 X270. Z-9.634
N1740 G3 X268.5 Y91.667 Z-9.716 I0. J-1.5
N1745 G1 Y81.667 Z-10.065
N1750 G3 X270. Y80.167 Z-10.148 I1.5 J0.
N1755 G1 X280. Z-10.497
N1760 G3 X281.5 Y81.667 Z-10.579 I0. J1.5
N1765 G1 Y91.667 Z-10.928
N1770 G3 X280. Y93.167 Z-11.011 I-1.5 J0.
N1775 G1 X270. Z-11.36
N1780 G3 X268.5 Y91.667 Z-11.442 I0. J-1.5
N1785 G1 Y81.667 Z-11.791
N1790 G3 X270. Y80.167 Z-11.873 I1.5 J0.
N1795 G1 X280. Z-12.223
N1800 G3 X281.5 Y81.667 Z-12.305 I0. J1.5
N1805 G1 Y91.667 Z-12.654
N1810 G3 X280. Y93.167 Z-12.736 I-1.5 J0.
N1815 G1 X270. Z-13.086
N1820 G3 X268.5 Y91.667 Z-13.168 I0. J-1.5
N1825 G1 Y81.667 Z-13.517
N1830 G3 X270. Y80.167 Z-13.599 I1.5 J0.
N1835 G1 X280. Z-13.949
N1840 G3 X281.5 Y81.667 Z-14.031 I0. J1.5
N1845 G1 Y91.667 Z-14.38
N1850 G3 X280. Y93.167 Z-14.462 I-1.5 J0.
N1855 G1 X270. Z-14.812
N1860 G3 X268.5 Y91.667 Z-14.894 I0. J-1.5
N1865 G1 Y81.667 Z-15.243
N1870 G3 X270. Y80.167 Z-15.325 I1.5 J0.
N1875 G1 X275. Z-15.5
N1880 X280.
N1885 G3 X281.5 Y81.667 I0. J1.5
N1890 G1 Y91.667
N1895 G3 X280. Y93.167 I-1.5 J0.
N1900 G1 X270.
N1905 G3 X268.5 Y91.667 I0. J-1.5
N1910 G1 Y81.667
N1915 G3 X270. Y80.167 I1.5 J0.
N1920 G1 X275.
N1925 G3 X278.2 Y83.367 I0. J3.2 F1000.
N1930 G1 Y86.567
N1935 G19 G3 Y89.767 Z-12.3 J0. K3.2
N1940 G1 Z5. F400.
N1945 X268.837 Y56.433
N1950 Z4.2 F500.
N1955 G2 Y53.233 Z1. J-3.2 K0. F400.
N1960 G1 Y50.033
N1965 G17 G3 X272.037 Y46.833 I3.2 J0.
N1970 G1 X280. Z0.722
N1975 G3 X281.5 Y48.333 Z0.64 I0. J1.5
N1980 G1 Y58.333 Z0.29
N1985 G3 X280. Y59.833 Z0.208 I-1.5 J0.
N1990 G1 X270. Z-0.141
N1995 G3 X268.5 Y58.333 Z-0.223 I0. J-1.5
N2000 G1 Y48.333 Z-0.573
N2005 G3 X270. Y46.833 Z-0.655 I1.5 J0.
N2010 G1 X280. Z-1.004
N2015 G3 X281.5 Y48.333 Z-1.086 I0. J1.5
N2020 G1 Y58.333 Z-1.436
N2025 G3 X280. Y59.833 Z-1.518 I-1.5 J0.
N2030 G1 X270. Z-1.867
N2035 G3 X268.5 Y58.333 Z-1.949 I0. J-1.5
N2040 G1 Y48.333 Z-2.298
N2045 G3 X270. Y46.833 Z-2.381 I1.5 J0.
N2050 G1 X280. Z-2.73
N2055 G3 X281.5 Y48.333 Z-2.812 I0. J1.5
N2060 G1 Y58.333 Z-3.161
N2065 G3 X280. Y59.833 Z-3.244 I-1.5 J0.
N2070 G1 X270. Z-3.593
N2075 G3 X268.5 Y58.333 Z-3.675 I0. J-1.5
N2080 G1 Y48.333 Z-4.024
N2085 G3 X270. Y46.833 Z-4.107 I1.5 J0.
N2090 G1 X280. Z-4.456
N2095 G3 X281.5 Y48.333 Z-4.538 I0. J1.5
N2100 G1 Y58.333 Z-4.887
N2105 G3 X280. Y59.833 Z-4.97 I-1.5 J0.
N2110 G1 X270. Z-5.319
N2115 G3 X268.5 Y58.333 Z-5.401 I0. J-1.5
N2120 G1 Y48.333 Z-5.75
N2125 G3 X270. Y46.833 Z-5.833 I1.5 J0.
N2130 G1 X280. Z-6.182
N2135 G3 X281.5 Y48.333 Z-6.264 I0. J1.5
N2140 G1 Y58.333 Z-6.613
N2145 G3 X280. Y59.833 Z-6.696 I-1.5 J0.
N2150 G1 X270. Z-7.045
N2155 G3 X268.5 Y58.333 Z-7.127 I0. J-1.5
N2160 G1 Y48.333 Z-7.476
N2165 G3 X270. Y46.833 Z-7.559 I1.5 J0.
N2170 G1 X280. Z-7.908
N2175 G3 X281.5 Y48.333 Z-7.99 I0. J1.5
N2180 G1 Y58.333 Z-8.339
N2185 G3 X280. Y59.833 Z-8.422 I-1.5 J0.
N2190 G1 X270. Z-8.771
N2195 G3 X268.5 Y58.333 Z-8.853 I0. J-1.5
N2200 G1 Y48.333 Z-9.202
N2205 G3 X270. Y46.833 Z-9.285 I1.5 J0.
N2210 G1 X280. Z-9.634
N2215 G3 X281.5 Y48.333 Z-9.716 I0. J1.5
N2220 G1 Y58.333 Z-10.065
N2225 G3 X280. Y59.833 Z-10.148 I-1.5 J0.
N2230 G1 X270. Z-10.497
N2235 G3 X268.5 Y58.333 Z-10.579 I0. J-1.5
N2240 G1 Y48.333 Z-10.928
N2245 G3 X270. Y46.833 Z-11.011 I1.5 J0.
N2250 G1 X280. Z-11.36
N2255 G3 X281.5 Y48.333 Z-11.442 I0. J1.5
N2260 G1 Y58.333 Z-11.791
N2265 G3 X280. Y59.833 Z-11.873 I-1.5 J0.
N2270 G1 X270. Z-12.223
N2275 G3 X268.5 Y58.333 Z-12.305 I0. J-1.5
N2280 G1 Y48.333 Z-12.654
N2285 G3 X270. Y46.833 Z-12.736 I1.5 J0.
N2290 G1 X280. Z-13.086
N2295 G3 X281.5 Y48.333 Z-13.168 I0. J1.5
N2300 G1 Y58.333 Z-13.517
N2305 G3 X280. Y59.833 Z-13.599 I-1.5 J0.
N2310 G1 X270. Z-13.949
N2315 G3 X268.5 Y58.333 Z-14.031 I0. J-1.5
N2320 G1 Y48.333 Z-14.38
N2325 G3 X270. Y46.833 Z-14.462 I1.5 J0.
N2330 G1 X280. Z-14.812
N2335 G3 X281.5 Y48.333 Z-14.894 I0. J1.5
N2340 G1 Y58.333 Z-15.243
N2345 G3 X280. Y59.833 Z-15.325 I-1.5 J0.
N2350 G1 X275. Z-15.5
N2355 X270.
N2360 G3 X268.5 Y58.333 I0. J-1.5
N2365 G1 Y48.333
N2370 G3 X270. Y46.833 I1.5 J0.
N2375 G1 X280.
N2380 G3 X281.5 Y48.333 I0. J1.5
N2385 G1 Y58.333
N2390 G3 X280. Y59.833 I-1.5 J0.
N2395 G1 X275.
N2400 G3 X271.8 Y56.633 I0. J-3.2 F1000.
N2405 G1 Y53.433
N2410 G19 G2 Y50.233 Z-12.3 J0. K3.2
N2415 G1 Z5. F400.
N2420 X235.504 Y56.433
N2425 Z4.2 F500.
N2430 G2 Y53.233 Z1. J-3.2 K0. F400.
N2435 G1 Y50.033
N2440 G17 G3 X238.704 Y46.833 I3.2 J0.
N2445 G1 X246.667 Z0.722
N2450 G3 X248.167 Y48.333 Z0.64 I0. J1.5
N2455 G1 Y58.333 Z0.29
N2460 G3 X246.667 Y59.833 Z0.208 I-1.5 J0.
N2465 G1 X236.667 Z-0.141
N2470 G3 X235.167 Y58.333 Z-0.223 I0. J-1.5
N2475 G1 Y48.333 Z-0.573
N2480 G3 X236.667 Y46.833 Z-0.655 I1.5 J0.
N2485 G1 X246.667 Z-1.004
N2490 G3 X248.167 Y48.333 Z-1.086 I0. J1.5
N2495 G1 Y58.333 Z-1.436
N2500 G3 X246.667 Y59.833 Z-1.518 I-1.5 J0.
N2505 G1 X236.667 Z-1.867
N2510 G3 X235.167 Y58.333 Z-1.949 I0. J-1.5
N2515 G1 Y48.333 Z-2.298
N2520 G3 X236.667 Y46.833 Z-2.381 I1.5 J0.
N2525 G1 X246.667 Z-2.73
N2530 G3 X248.167 Y48.333 Z-2.812 I0. J1.5
N2535 G1 Y58.333 Z-3.161
N2540 G3 X246.667 Y59.833 Z-3.244 I-1.5 J0.
N2545 G1 X236.667 Z-3.593
N2550 G3 X235.167 Y58.333 Z-3.675 I0. J-1.5
N2555 G1 Y48.333 Z-4.024
N2560 G3 X236.667 Y46.833 Z-4.107 I1.5 J0.
N2565 G1 X246.667 Z-4.456
N2570 G3 X248.167 Y48.333 Z-4.538 I0. J1.5
N2575 G1 Y58.333 Z-4.887
N2580 G3 X246.667 Y59.833 Z-4.97 I-1.5 J0.
N2585 G1 X236.667 Z-5.319
N2590 G3 X235.167 Y58.333 Z-5.401 I0. J-1.5
N2595 G1 Y48.333 Z-5.75
N2600 G3 X236.667 Y46.833 Z-5.833 I1.5 J0.
N2605 G1 X246.667 Z-6.182
N2610 G3 X248.167 Y48.333 Z-6.264 I0. J1.5
N2615 G1 Y58.333 Z-6.613
N2620 G3 X246.667 Y59.833 Z-6.696 I-1.5 J0.
N2625 G1 X236.667 Z-7.045
N2630 G3 X235.167 Y58.333 Z-7.127 I0. J-1.5
N2635 G1 Y48.333 Z-7.476
N2640 G3 X236.667 Y46.833 Z-7.559 I1.5 J0.
N2645 G1 X246.667 Z-7.908
N2650 G3 X248.167 Y48.333 Z-7.99 I0. J1.5
N2655 G1 Y58.333 Z-8.339
N2660 G3 X246.667 Y59.833 Z-8.422 I-1.5 J0.
N2665 G1 X236.667 Z-8.771
N2670 G3 X235.167 Y58.333 Z-8.853 I0. J-1.5
N2675 G1 Y48.333 Z-9.202
N2680 G3 X236.667 Y46.833 Z-9.285 I1.5 J0.
N2685 G1 X246.667 Z-9.634
N2690 G3 X248.167 Y48.333 Z-9.716 I0. J1.5
N2695 G1 Y58.333 Z-10.065
N2700 G3 X246.667 Y59.833 Z-10.148 I-1.5 J0.
N2705 G1 X236.667 Z-10.497
N2710 G3 X235.167 Y58.333 Z-10.579 I0. J-1.5
N2715 G1 Y48.333 Z-10.928
N2720 G3 X236.667 Y46.833 Z-11.011 I1.5 J0.
N2725 G1 X246.667 Z-11.36
N2730 G3 X248.167 Y48.333 Z-11.442 I0. J1.5
N2735 G1 Y58.333 Z-11.791
N2740 G3 X246.667 Y59.833 Z-11.873 I-1.5 J0.
N2745 G1 X236.667 Z-12.223
N2750 G3 X235.167 Y58.333 Z-12.305 I0. J-1.5
N2755 G1 Y48.333 Z-12.654
N2760 G3 X236.667 Y46.833 Z-12.736 I1.5 J0.
N2765 G1 X246.667 Z-13.086
N2770 G3 X248.167 Y48.333 Z-13.168 I0. J1.5
N2775 G1 Y58.333 Z-13.517
N2780 G3 X246.667 Y59.833 Z-13.599 I-1.5 J0.
N2785 G1 X236.667 Z-13.949
N2790 G3 X235.167 Y58.333 Z-14.031 I0. J-1.5
N2795 G1 Y48.333 Z-14.38
N2800 G3 X236.667 Y46.833 Z-14.462 I1.5 J0.
N2805 G1 X246.667 Z-14.812
N2810 G3 X248.167 Y48.333 Z-14.894 I0. J1.5
N2815 G1 Y58.333 Z-15.243
N2820 G3 X246.667 Y59.833 Z-15.325 I-1.5 J0.
N2825 G1 X241.667 Z-15.5
N2830 X236.667
N2835 G3 X235.167 Y58.333 I0. J-1.5
N2840 G1 Y48.333
N2845 G3 X236.667 Y46.833 I1.5 J0.
N2850 G1 X246.667
N2855 G3 X248.167 Y48.333 I0. J1.5
N2860 G1 Y58.333
N2865 G3 X246.667 Y59.833 I-1.5 J0.
N2870 G1 X241.667
N2875 G3 X238.467 Y56.633 I0. J-3.2 F1000.
N2880 G1 Y53.433
N2885 G19 G2 Y50.233 Z-12.3 J0. K3.2
N2890 G1 Z5. F400.
N2895 X202.17 Y56.433
N2900 Z4.2 F500.
N2905 G2 Y53.233 Z1. J-3.2 K0. F400.
N2910 G1 Y50.033
N2915 G17 G3 X205.37 Y46.833 I3.2 J0.
N2920 G1 X213.333 Z0.722
N2925 G3 X214.833 Y48.333 Z0.64 I0. J1.5
N2930 G1 Y58.333 Z0.29
N2935 G3 X213.333 Y59.833 Z0.208 I-1.5 J0.
N2940 G1 X203.333 Z-0.141
N2945 G3 X201.833 Y58.333 Z-0.223 I0. J-1.5
N2950 G1 Y48.333 Z-0.573
N2955 G3 X203.333 Y46.833 Z-0.655 I1.5 J0.
N2960 G1 X213.333 Z-1.004
N2965 G3 X214.833 Y48.333 Z-1.086 I0. J1.5
N2970 G1 Y58.333 Z-1.436
N2975 G3 X213.333 Y59.833 Z-1.518 I-1.5 J0.
N2980 G1 X203.333 Z-1.867
N2985 G3 X201.833 Y58.333 Z-1.949 I0. J-1.5
N2990 G1 Y48.333 Z-2.298
N2995 G3 X203.333 Y46.833 Z-2.381 I1.5 J0.
N3000 G1 X213.333 Z-2.73
N3005 G3 X214.833 Y48.333 Z-2.812 I0. J1.5
N3010 G1 Y58.333 Z-3.161
N3015 G3 X213.333 Y59.833 Z-3.244 I-1.5 J0.
N3020 G1 X203.333 Z-3.593
N3025 G3 X201.833 Y58.333 Z-3.675 I0. J-1.5
N3030 G1 Y48.333 Z-4.024
N3035 G3 X203.333 Y46.833 Z-4.107 I1.5 J0.
N3040 G1 X213.333 Z-4.456
N3045 G3 X214.833 Y48.333 Z-4.538 I0. J1.5
N3050 G1 Y58.333 Z-4.887
N3055 G3 X213.333 Y59.833 Z-4.97 I-1.5 J0.
N3060 G1 X203.333 Z-5.319
N3065 G3 X201.833 Y58.333 Z-5.401 I0. J-1.5
N3070 G1 Y48.333 Z-5.75
N3075 G3 X203.333 Y46.833 Z-5.833 I1.5 J0.
N3080 G1 X213.333 Z-6.182
N3085 G3 X214.833 Y48.333 Z-6.264 I0. J1.5
N3090 G1 Y58.333 Z-6.613
N3095 G3 X213.333 Y59.833 Z-6.696 I-1.5 J0.
N3100 G1 X203.333 Z-7.045
N3105 G3 X201.833 Y58.333 Z-7.127 I0. J-1.5
N3110 G1 Y48.333 Z-7.476
N3115 G3 X203.333 Y46.833 Z-7.559 I1.5 J0.
N3120 G1 X213.333 Z-7.908
N3125 G3 X214.833 Y48.333 Z-7.99 I0. J1.5
N3130 G1 Y58.333 Z-8.339
N3135 G3 X213.333 Y59.833 Z-8.422 I-1.5 J0.
N3140 G1 X203.333 Z-8.771
N3145 G3 X201.833 Y58.333 Z-8.853 I0. J-1.5
N3150 G1 Y48.333 Z-9.202
N3155 G3 X203.333 Y46.833 Z-9.285 I1.5 J0.
N3160 G1 X213.333 Z-9.634
N3165 G3 X214.833 Y48.333 Z-9.716 I0. J1.5
N3170 G1 Y58.333 Z-10.065
N3175 G3 X213.333 Y59.833 Z-10.148 I-1.5 J0.
N3180 G1 X203.333 Z-10.497
N3185 G3 X201.833 Y58.333 Z-10.579 I0. J-1.5
N3190 G1 Y48.333 Z-10.928
N3195 G3 X203.333 Y46.833 Z-11.011 I1.5 J0.
N3200 G1 X213.333 Z-11.36
N3205 G3 X214.833 Y48.333 Z-11.442 I0. J1.5
N3210 G1 Y58.333 Z-11.791
N3215 G3 X213.333 Y59.833 Z-11.873 I-1.5 J0.
N3220 G1 X203.333 Z-12.223
N3225 G3 X201.833 Y58.333 Z-12.305 I0. J-1.5
N3230 G1 Y48.333 Z-12.654
N3235 G3 X203.333 Y46.833 Z-12.736 I1.5 J0.
N3240 G1 X213.333 Z-13.086
N3245 G3 X214.833 Y48.333 Z-13.168 I0. J1.5
N3250 G1 Y58.333 Z-13.517
N3255 G3 X213.333 Y59.833 Z-13.599 I-1.5 J0.
N3260 G1 X203.333 Z-13.949
N3265 G3 X201.833 Y58.333 Z-14.031 I0. J-1.5
N3270 G1 Y48.333 Z-14.38
N3275 G3 X203.333 Y46.833 Z-14.462 I1.5 J0.
N3280 G1 X213.333 Z-14.812
N3285 G3 X214.833 Y48.333 Z-14.894 I0. J1.5
N3290 G1 Y58.333 Z-15.243
N3295 G3 X213.333 Y59.833 Z-15.325 I-1.5 J0.
N3300 G1 X208.333 Z-15.5
N3305 X203.333
N3310 G3 X201.833 Y58.333 I0. J-1.5
N3315 G1 Y48.333
N3320 G3 X203.333 Y46.833 I1.5 J0.
N3325 G1 X213.333
N3330 G3 X214.833 Y48.333 I0. J1.5
N3335 G1 Y58.333
N3340 G3 X213.333 Y59.833 I-1.5 J0.
N3345 G1 X208.333
N3350 G3 X205.133 Y56.633 I0. J-3.2 F1000.
N3355 G1 Y53.433
N3360 G19 G2 Y50.233 Z-12.3 J0. K3.2
N3365 G1 Z5. F400.
N3370 X168.837 Y56.433
N3375 Z4.2 F500.
N3380 G2 Y53.233 Z1. J-3.2 K0. F400.
N3385 G1 Y50.033
N3390 G17 G3 X172.037 Y46.833 I3.2 J0.
N3395 G1 X180. Z0.722
N3400 G3 X181.5 Y48.333 Z0.64 I0. J1.5
N3405 G1 Y58.333 Z0.29
N3410 G3 X180. Y59.833 Z0.208 I-1.5 J0.
N3415 G1 X170. Z-0.141
N3420 G3 X168.5 Y58.333 Z-0.223 I0. J-1.5
N3425 G1 Y48.333 Z-0.573
N3430 G3 X170. Y46.833 Z-0.655 I1.5 J0.
N3435 G1 X180. Z-1.004
N3440 G3 X181.5 Y48.333 Z-1.086 I0. J1.5
N3445 G1 Y58.333 Z-1.436
N3450 G3 X180. Y59.833 Z-1.518 I-1.5 J0.
N3455 G1 X170. Z-1.867
N3460 G3 X168.5 Y58.333 Z-1.949 I0. J-1.5
N3465 G1 Y48.333 Z-2.298
N3470 G3 X170. Y46.833 Z-2.381 I1.5 J0.
N3475 G1 X180. Z-2.73
N3480 G3 X181.5 Y48.333 Z-2.812 I0. J1.5
N3485 G1 Y58.333 Z-3.161
N3490 G3 X180. Y59.833 Z-3.244 I-1.5 J0.
N3495 G1 X170. Z-3.593
N3500 G3 X168.5 Y58.333 Z-3.675 I0. J-1.5
N3505 G1 Y48.333 Z-4.024
N3510 G3 X170. Y46.833 Z-4.107 I1.5 J0.
N3515 G1 X180. Z-4.456
N3520 G3 X181.5 Y48.333 Z-4.538 I0. J1.5
N3525 G1 Y58.333 Z-4.887
N3530 G3 X180. Y59.833 Z-4.97 I-1.5 J0.
N3535 G1 X170. Z-5.319
N3540 G3 X168.5 Y58.333 Z-5.401 I0. J-1.5
N3545 G1 Y48.333 Z-5.75
N3550 G3 X170. Y46.833 Z-5.833 I1.5 J0.
N3555 G1 X180. Z-6.182
N3560 G3 X181.5 Y48.333 Z-6.264 I0. J1.5
N3565 G1 Y58.333 Z-6.613
N3570 G3 X180. Y59.833 Z-6.696 I-1.5 J0.
N3575 G1 X170. Z-7.045
N3580 G3 X168.5 Y58.333 Z-7.127 I0. J-1.5
N3585 G1 Y48.333 Z-7.476
N3590 G3 X170. Y46.833 Z-7.559 I1.5 J0.
N3595 G1 X180. Z-7.908
N3600 G3 X181.5 Y48.333 Z-7.99 I0. J1.5
N3605 G1 Y58.333 Z-8.339
N3610 G3 X180. Y59.833 Z-8.422 I-1.5 J0.
N3615 G1 X170. Z-8.771
N3620 G3 X168.5 Y58.333 Z-8.853 I0. J-1.5
N3625 G1 Y48.333 Z-9.202
N3630 G3 X170. Y46.833 Z-9.285 I1.5 J0.
N3635 G1 X180. Z-9.634
N3640 G3 X181.5 Y48.333 Z-9.716 I0. J1.5
N3645 G1 Y58.333 Z-10.065
N3650 G3 X180. Y59.833 Z-10.148 I-1.5 J0.
N3655 G1 X170. Z-10.497
N3660 G3 X168.5 Y58.333 Z-10.579 I0. J-1.5
N3665 G1 Y48.333 Z-10.928
N3670 G3 X170. Y46.833 Z-11.011 I1.5 J0.
N3675 G1 X180. Z-11.36
N3680 G3 X181.5 Y48.333 Z-11.442 I0. J1.5
N3685 G1 Y58.333 Z-11.791
N3690 G3 X180. Y59.833 Z-11.873 I-1.5 J0.
N3695 G1 X170. Z-12.223
N3700 G3 X168.5 Y58.333 Z-12.305 I0. J-1.5
N3705 G1 Y48.333 Z-12.654
N3710 G3 X170. Y46.833 Z-12.736 I1.5 J0.
N3715 G1 X180. Z-13.086
N3720 G3 X181.5 Y48.333 Z-13.168 I0. J1.5
N3725 G1 Y58.333 Z-13.517
N3730 G3 X180. Y59.833 Z-13.599 I-1.5 J0.
N3735 G1 X170. Z-13.949
N3740 G3 X168.5 Y58.333 Z-14.031 I0. J-1.5
N3745 G1 Y48.333 Z-14.38
N3750 G3 X170. Y46.833 Z-14.462 I1.5 J0.
N3755 G1 X180. Z-14.812
N3760 G3 X181.5 Y48.333 Z-14.894 I0. J1.5
N3765 G1 Y58.333 Z-15.243
N3770 G3 X180. Y59.833 Z-15.325 I-1.5 J0.
N3775 G1 X175. Z-15.5
N3780 X170.
N3785 G3 X168.5 Y58.333 I0. J-1.5
N3790 G1 Y48.333
N3795 G3 X170. Y46.833 I1.5 J0.
N3800 G1 X180.
N3805 G3 X181.5 Y48.333 I0. J1.5
N3810 G1 Y58.333
N3815 G3 X180. Y59.833 I-1.5 J0.
N3820 G1 X175.
N3825 G3 X171.8 Y56.633 I0. J-3.2 F1000.
N3830 G1 Y53.433
N3835 G19 G2 Y50.233 Z-12.3 J0. K3.2
N3840 G1 Z5. F400.
N3845 X135.504 Y56.433
N3850 Z4.2 F500.
N3855 G2 Y53.233 Z1. J-3.2 K0. F400.
N3860 G1 Y50.033
N3865 G17 G3 X138.704 Y46.833 I3.2 J0.
N3870 G1 X146.667 Z0.722
N3875 G3 X148.167 Y48.333 Z0.64 I0. J1.5
N3880 G1 Y58.333 Z0.29
N3885 G3 X146.667 Y59.833 Z0.208 I-1.5 J0.
N3890 G1 X136.667 Z-0.141
N3895 G3 X135.167 Y58.333 Z-0.223 I0. J-1.5
N3900 G1 Y48.333 Z-0.573
N3905 G3 X136.667 Y46.833 Z-0.655 I1.5 J0.
N3910 G1 X146.667 Z-1.004
N3915 G3 X148.167 Y48.333 Z-1.086 I0. J1.5
N3920 G1 Y58.333 Z-1.436
N3925 G3 X146.667 Y59.833 Z-1.518 I-1.5 J0.
N3930 G1 X136.667 Z-1.867
N3935 G3 X135.167 Y58.333 Z-1.949 I0. J-1.5
N3940 G1 Y48.333 Z-2.298
N3945 G3 X136.667 Y46.833 Z-2.381 I1.5 J0.
N3950 G1 X146.667 Z-2.73
N3955 G3 X148.167 Y48.333 Z-2.812 I0. J1.5
N3960 G1 Y58.333 Z-3.161
N3965 G3 X146.667 Y59.833 Z-3.244 I-1.5 J0.
N3970 G1 X136.667 Z-3.593
N3975 G3 X135.167 Y58.333 Z-3.675 I0. J-1.5
N3980 G1 Y48.333 Z-4.024
N3985 G3 X136.667 Y46.833 Z-4.107 I1.5 J0.
N3990 G1 X146.667 Z-4.456
N3995 G3 X148.167 Y48.333 Z-4.538 I0. J1.5
N4000 G1 Y58.333 Z-4.887
N4005 G3 X146.667 Y59.833 Z-4.97 I-1.5 J0.
N4010 G1 X136.667 Z-5.319
N4015 G3 X135.167 Y58.333 Z-5.401 I0. J-1.5
N4020 G1 Y48.333 Z-5.75
N4025 G3 X136.667 Y46.833 Z-5.833 I1.5 J0.
N4030 G1 X146.667 Z-6.182
N4035 G3 X148.167 Y48.333 Z-6.264 I0. J1.5
N4040 G1 Y58.333 Z-6.613
N4045 G3 X146.667 Y59.833 Z-6.696 I-1.5 J0.
N4050 G1 X136.667 Z-7.045
N4055 G3 X135.167 Y58.333 Z-7.127 I0. J-1.5
N4060 G1 Y48.333 Z-7.476
N4065 G3 X136.667 Y46.833 Z-7.559 I1.5 J0.
N4070 G1 X146.667 Z-7.908
N4075 G3 X148.167 Y48.333 Z-7.99 I0. J1.5
N4080 G1 Y58.333 Z-8.339
N4085 G3 X146.667 Y59.833 Z-8.422 I-1.5 J0.
N4090 G1 X136.667 Z-8.771
N4095 G3 X135.167 Y58.333 Z-8.853 I0. J-1.5
N4100 G1 Y48.333 Z-9.202
N4105 G3 X136.667 Y46.833 Z-9.285 I1.5 J0.
N4110 G1 X146.667 Z-9.634
N4115 G3 X148.167 Y48.333 Z-9.716 I0. J1.5
N4120 G1 Y58.333 Z-10.065
N4125 G3 X146.667 Y59.833 Z-10.148 I-1.5 J0.
N4130 G1 X136.667 Z-10.497
N4135 G3 X135.167 Y58.333 Z-10.579 I0. J-1.5
N4140 G1 Y48.333 Z-10.928
N4145 G3 X136.667 Y46.833 Z-11.011 I1.5 J0.
N4150 G1 X146.667 Z-11.36
N4155 G3 X148.167 Y48.333 Z-11.442 I0. J1.5
N4160 G1 Y58.333 Z-11.791
N4165 G3 X146.667 Y59.833 Z-11.873 I-1.5 J0.
N4170 G1 X136.667 Z-12.223
N4175 G3 X135.167 Y58.333 Z-12.305 I0. J-1.5
N4180 G1 Y48.333 Z-12.654
N4185 G3 X136.667 Y46.833 Z-12.736 I1.5 J0.
N4190 G1 X146.667 Z-13.086
N4195 G3 X148.167 Y48.333 Z-13.168 I0. J1.5
N4200 G1 Y58.333 Z-13.517
N4205 G3 X146.667 Y59.833 Z-13.599 I-1.5 J0.
N4210 G1 X136.667 Z-13.949
N4215 G3 X135.167 Y58.333 Z-14.031 I0. J-1.5
N4220 G1 Y48.333 Z-14.38
N4225 G3 X136.667 Y46.833 Z-14.462 I1.5 J0.
N4230 G1 X146.667 Z-14.812
N4235 G3 X148.167 Y48.333 Z-14.894 I0. J1.5
N4240 G1 Y58.333 Z-15.243
N4245 G3 X146.667 Y59.833 Z-15.325 I-1.5 J0.
N4250 G1 X141.667 Z-15.5
N4255 X136.667
N4260 G3 X135.167 Y58.333 I0. J-1.5
N4265 G1 Y48.333
N4270 G3 X136.667 Y46.833 I1.5 J0.
N4275 G1 X146.667
N4280 G3 X148.167 Y48.333 I0. J1.5
N4285 G1 Y58.333
N4290 G3 X146.667 Y59.833 I-1.5 J0.
N4295 G1 X141.667
N4300 G3 X138.467 Y56.633 I0. J-3.2 F1000.
N4305 G1 Y53.433
N4310 G19 G2 Y50.233 Z-12.3 J0. K3.2
N4315 G1 Z5. F400.
N4320 X102.17 Y56.433
N4325 Z4.2 F500.
N4330 G2 Y53.233 Z1. J-3.2 K0. F400.
N4335 G1 Y50.033
N4340 G17 G3 X105.37 Y46.833 I3.2 J0.
N4345 G1 X113.333 Z0.722
N4350 G3 X114.833 Y48.333 Z0.64 I0. J1.5
N4355 G1 Y58.333 Z0.29
N4360 G3 X113.333 Y59.833 Z0.208 I-1.5 J0.
N4365 G1 X103.333 Z-0.141
N4370 G3 X101.833 Y58.333 Z-0.223 I0. J-1.5
N4375 G1 Y48.333 Z-0.573
N4380 G3 X103.333 Y46.833 Z-0.655 I1.5 J0.
N4385 G1 X113.333 Z-1.004
N4390 G3 X114.833 Y48.333 Z-1.086 I0. J1.5
N4395 G1 Y58.333 Z-1.436
N4400 G3 X113.333 Y59.833 Z-1.518 I-1.5 J0.
N4405 G1 X103.333 Z-1.867
N4410 G3 X101.833 Y58.333 Z-1.949 I0. J-1.5
N4415 G1 Y48.333 Z-2.298
N4420 G3 X103.333 Y46.833 Z-2.381 I1.5 J0.
N4425 G1 X113.333 Z-2.73
N4430 G3 X114.833 Y48.333 Z-2.812 I0. J1.5
N4435 G1 Y58.333 Z-3.161
N4440 G3 X113.333 Y59.833 Z-3.244 I-1.5 J0.
N4445 G1 X103.333 Z-3.593
N4450 G3 X101.833 Y58.333 Z-3.675 I0. J-1.5
N4455 G1 Y48.333 Z-4.024
N4460 G3 X103.333 Y46.833 Z-4.107 I1.5 J0.
N4465 G1 X113.333 Z-4.456
N4470 G3 X114.833 Y48.333 Z-4.538 I0. J1.5
N4475 G1 Y58.333 Z-4.887
N4480 G3 X113.333 Y59.833 Z-4.97 I-1.5 J0.
N4485 G1 X103.333 Z-5.319
N4490 G3 X101.833 Y58.333 Z-5.401 I0. J-1.5
N4495 G1 Y48.333 Z-5.75
N4500 G3 X103.333 Y46.833 Z-5.833 I1.5 J0.
N4505 G1 X113.333 Z-6.182
N4510 G3 X114.833 Y48.333 Z-6.264 I0. J1.5
N4515 G1 Y58.333 Z-6.613
N4520 G3 X113.333 Y59.833 Z-6.696 I-1.5 J0.
N4525 G1 X103.333 Z-7.045
N4530 G3 X101.833 Y58.333 Z-7.127 I0. J-1.5
N4535 G1 Y48.333 Z-7.476
N4540 G3 X103.333 Y46.833 Z-7.559 I1.5 J0.
N4545 G1 X113.333 Z-7.908
N4550 G3 X114.833 Y48.333 Z-7.99 I0. J1.5
N4555 G1 Y58.333 Z-8.339
N4560 G3 X113.333 Y59.833 Z-8.422 I-1.5 J0.
N4565 G1 X103.333 Z-8.771
N4570 G3 X101.833 Y58.333 Z-8.853 I0. J-1.5
N4575 G1 Y48.333 Z-9.202
N4580 G3 X103.333 Y46.833 Z-9.285 I1.5 J0.
N4585 G1 X113.333 Z-9.634
N4590 G3 X114.833 Y48.333 Z-9.716 I0. J1.5
N4595 G1 Y58.333 Z-10.065
N4600 G3 X113.333 Y59.833 Z-10.148 I-1.5 J0.
N4605 G1 X103.333 Z-10.497
N4610 G3 X101.833 Y58.333 Z-10.579 I0. J-1.5
N4615 G1 Y48.333 Z-10.928
N4620 G3 X103.333 Y46.833 Z-11.011 I1.5 J0.
N4625 G1 X113.333 Z-11.36
N4630 G3 X114.833 Y48.333 Z-11.442 I0. J1.5
N4635 G1 Y58.333 Z-11.791
N4640 G3 X113.333 Y59.833 Z-11.873 I-1.5 J0.
N4645 G1 X103.333 Z-12.223
N4650 G3 X101.833 Y58.333 Z-12.305 I0. J-1.5
N4655 G1 Y48.333 Z-12.654
N4660 G3 X103.333 Y46.833 Z-12.736 I1.5 J0.
N4665 G1 X113.333 Z-13.086
N4670 G3 X114.833 Y48.333 Z-13.168 I0. J1.5
N4675 G1 Y58.333 Z-13.517
N4680 G3 X113.333 Y59.833 Z-13.599 I-1.5 J0.
N4685 G1 X103.333 Z-13.949
N4690 G3 X101.833 Y58.333 Z-14.031 I0. J-1.5
N4695 G1 Y48.333 Z-14.38
N4700 G3 X103.333 Y46.833 Z-14.462 I1.5 J0.
N4705 G1 X113.333 Z-14.812
N4710 G3 X114.833 Y48.333 Z-14.894 I0. J1.5
N4715 G1 Y58.333 Z-15.243
N4720 G3 X113.333 Y59.833 Z-15.325 I-1.5 J0.
N4725 G1 X108.333 Z-15.5
N4730 X103.333
N4735 G3 X101.833 Y58.333 I0. J-1.5
N4740 G1 Y48.333
N4745 G3 X103.333 Y46.833 I1.5 J0.
N4750 G1 X113.333
N4755 G3 X114.833 Y48.333 I0. J1.5
N4760 G1 Y58.333
N4765 G3 X113.333 Y59.833 I-1.5 J0.
N4770 G1 X108.333
N4775 G3 X105.133 Y56.633 I0. J-3.2 F1000.
N4780 G1 Y53.433
N4785 G19 G2 Y50.233 Z-12.3 J0. K3.2
N4790 G1 Z5. F400.
N4795 X68.837 Y56.433
N4800 Z4.2 F500.
N4805 G2 Y53.233 Z1. J-3.2 K0. F400.
N4810 G1 Y50.033
N4815 G17 G3 X72.037 Y46.833 I3.2 J0.
N4820 G1 X80. Z0.722
N4825 G3 X81.5 Y48.333 Z0.64 I0. J1.5
N4830 G1 Y58.333 Z0.29
N4835 G3 X80. Y59.833 Z0.208 I-1.5 J0.
N4840 G1 X70. Z-0.141
N4845 G3 X68.5 Y58.333 Z-0.223 I0. J-1.5
N4850 G1 Y48.333 Z-0.573
N4855 G3 X70. Y46.833 Z-0.655 I1.5 J0.
N4860 G1 X80. Z-1.004
N4865 G3 X81.5 Y48.333 Z-1.086 I0. J1.5
N4870 G1 Y58.333 Z-1.436
N4875 G3 X80. Y59.833 Z-1.518 I-1.5 J0.
N4880 G1 X70. Z-1.867
N4885 G3 X68.5 Y58.333 Z-1.949 I0. J-1.5
N4890 G1 Y48.333 Z-2.298
N4895 G3 X70. Y46.833 Z-2.381 I1.5 J0.
N4900 G1 X80. Z-2.73
N4905 G3 X81.5 Y48.333 Z-2.812 I0. J1.5
N4910 G1 Y58.333 Z-3.161
N4915 G3 X80. Y59.833 Z-3.244 I-1.5 J0.
N4920 G1 X70. Z-3.593
N4925 G3 X68.5 Y58.333 Z-3.675 I0. J-1.5
N4930 G1 Y48.333 Z-4.024
N4935 G3 X70. Y46.833 Z-4.107 I1.5 J0.
N4940 G1 X80. Z-4.456
N4945 G3 X81.5 Y48.333 Z-4.538 I0. J1.5
N4950 G1 Y58.333 Z-4.887
N4955 G3 X80. Y59.833 Z-4.97 I-1.5 J0.
N4960 G1 X70. Z-5.319
N4965 G3 X68.5 Y58.333 Z-5.401 I0. J-1.5
N4970 G1 Y48.333 Z-5.75
N4975 G3 X70. Y46.833 Z-5.833 I1.5 J0.
N4980 G1 X80. Z-6.182
N4985 G3 X81.5 Y48.333 Z-6.264 I0. J1.5
N4990 G1 Y58.333 Z-6.613
N4995 G3 X80. Y59.833 Z-6.696 I-1.5 J0.
N5000 G1 X70. Z-7.045
N5005 G3 X68.5 Y58.333 Z-7.127 I0. J-1.5
N5010 G1 Y48.333 Z-7.476
N5015 G3 X70. Y46.833 Z-7.559 I1.5 J0.
N5020 G1 X80. Z-7.908
N5025 G3 X81.5 Y48.333 Z-7.99 I0. J1.5
N5030 G1 Y58.333 Z-8.339
N5035 G3 X80. Y59.833 Z-8.422 I-1.5 J0.
N5040 G1 X70. Z-8.771
N5045 G3 X68.5 Y58.333 Z-8.853 I0. J-1.5
N5050 G1 Y48.333 Z-9.202
N5055 G3 X70. Y46.833 Z-9.285 I1.5 J0.
N5060 G1 X80. Z-9.634
N5065 G3 X81.5 Y48.333 Z-9.716 I0. J1.5
N5070 G1 Y58.333 Z-10.065
N5075 G3 X80. Y59.833 Z-10.148 I-1.5 J0.
N5080 G1 X70. Z-10.497
N5085 G3 X68.5 Y58.333 Z-10.579 I0. J-1.5
N5090 G1 Y48.333 Z-10.928
N5095 G3 X70. Y46.833 Z-11.011 I1.5 J0.
N5100 G1 X80. Z-11.36
N5105 G3 X81.5 Y48.333 Z-11.442 I0. J1.5
N5110 G1 Y58.333 Z-11.791
N5115 G3 X80. Y59.833 Z-11.873 I-1.5 J0.
N5120 G1 X70. Z-12.223
N5125 G3 X68.5 Y58.333 Z-12.305 I0. J-1.5
N5130 G1 Y48.333 Z-12.654
N5135 G3 X70. Y46.833 Z-12.736 I1.5 J0.
N5140 G1 X80. Z-13.086
N5145 G3 X81.5 Y48.333 Z-13.168 I0. J1.5
N5150 G1 Y58.333 Z-13.517
N5155 G3 X80. Y59.833 Z-13.599 I-1.5 J0.
N5160 G1 X70. Z-13.949
N5165 G3 X68.5 Y58.333 Z-14.031 I0. J-1.5
N5170 G1 Y48.333 Z-14.38
N5175 G3 X70. Y46.833 Z-14.462 I1.5 J0.
N5180 G1 X80. Z-14.812
N5185 G3 X81.5 Y48.333 Z-14.894 I0. J1.5
N5190 G1 Y58.333 Z-15.243
N5195 G3 X80. Y59.833 Z-15.325 I-1.5 J0.
N5200 G1 X75. Z-15.5
N5205 X70.
N5210 G3 X68.5 Y58.333 I0. J-1.5
N5215 G1 Y48.333
N5220 G3 X70. Y46.833 I1.5 J0.
N5225 G1 X80.
N5230 G3 X81.5 Y48.333 I0. J1.5
N5235 G1 Y58.333
N5240 G3 X80. Y59.833 I-1.5 J0.
N5245 G1 X75.
N5250 G3 X71.8 Y56.633 I0. J-3.2 F1000.
N5255 G1 Y53.433
N5260 G19 G2 Y50.233 Z-12.3 J0. K3.2
N5265 G1 Z5. F400.
N5270 X68.837 Y23.1
N5275 Z4.2 F500.
N5280 G2 Y19.9 Z1. J-3.2 K0. F400.
N5285 G1 Y16.7
N5290 G17 G3 X72.037 Y13.5 I3.2 J0.
N5295 G1 X80. Z0.722
N5300 G3 X81.5 Y15. Z0.64 I0. J1.5
N5305 G1 Y25. Z0.29
N5310 G3 X80. Y26.5 Z0.208 I-1.5 J0.
N5315 G1 X70. Z-0.141
N5320 G3 X68.5 Y25. Z-0.223 I0. J-1.5
N5325 G1 Y15. Z-0.573
N5330 G3 X70. Y13.5 Z-0.655 I1.5 J0.
N5335 G1 X80. Z-1.004
N5340 G3 X81.5 Y15. Z-1.086 I0. J1.5
N5345 G1 Y25. Z-1.436
N5350 G3 X80. Y26.5 Z-1.518 I-1.5 J0.
N5355 G1 X70. Z-1.867
N5360 G3 X68.5 Y25. Z-1.949 I0. J-1.5
N5365 G1 Y15. Z-2.298
N5370 G3 X70. Y13.5 Z-2.381 I1.5 J0.
N5375 G1 X80. Z-2.73
N5380 G3 X81.5 Y15. Z-2.812 I0. J1.5
N5385 G1 Y25. Z-3.161
N5390 G3 X80. Y26.5 Z-3.244 I-1.5 J0.
N5395 G1 X70. Z-3.593
N5400 G3 X68.5 Y25. Z-3.675 I0. J-1.5
N5405 G1 Y15. Z-4.024
N5410 G3 X70. Y13.5 Z-4.107 I1.5 J0.
N5415 G1 X80. Z-4.456
N5420 G3 X81.5 Y15. Z-4.538 I0. J1.5
N5425 G1 Y25. Z-4.887
N5430 G3 X80. Y26.5 Z-4.97 I-1.5 J0.
N5435 G1 X70. Z-5.319
N5440 G3 X68.5 Y25. Z-5.401 I0. J-1.5
N5445 G1 Y15. Z-5.75
N5450 G3 X70. Y13.5 Z-5.833 I1.5 J0.
N5455 G1 X80. Z-6.182
N5460 G3 X81.5 Y15. Z-6.264 I0. J1.5
N5465 G1 Y25. Z-6.613
N5470 G3 X80. Y26.5 Z-6.696 I-1.5 J0.
N5475 G1 X70. Z-7.045
N5480 G3 X68.5 Y25. Z-7.127 I0. J-1.5
N5485 G1 Y15. Z-7.476
N5490 G3 X70. Y13.5 Z-7.559 I1.5 J0.
N5495 G1 X80. Z-7.908
N5500 G3 X81.5 Y15. Z-7.99 I0. J1.5
N5505 G1 Y25. Z-8.339
N5510 G3 X80. Y26.5 Z-8.422 I-1.5 J0.
N5515 G1 X70. Z-8.771
N5520 G3 X68.5 Y25. Z-8.853 I0. J-1.5
N5525 G1 Y15. Z-9.202
N5530 G3 X70. Y13.5 Z-9.285 I1.5 J0.
N5535 G1 X80. Z-9.634
N5540 G3 X81.5 Y15. Z-9.716 I0. J1.5
N5545 G1 Y25. Z-10.065
N5550 G3 X80. Y26.5 Z-10.148 I-1.5 J0.
N5555 G1 X70. Z-10.497
N5560 G3 X68.5 Y25. Z-10.579 I0. J-1.5
N5565 G1 Y15. Z-10.928
N5570 G3 X70. Y13.5 Z-11.011 I1.5 J0.
N5575 G1 X80. Z-11.36
N5580 G3 X81.5 Y15. Z-11.442 I0. J1.5
N5585 G1 Y25. Z-11.791
N5590 G3 X80. Y26.5 Z-11.873 I-1.5 J0.
N5595 G1 X70. Z-12.223
N5600 G3 X68.5 Y25. Z-12.305 I0. J-1.5
N5605 G1 Y15. Z-12.654
N5610 G3 X70. Y13.5 Z-12.736 I1.5 J0.
N5615 G1 X80. Z-13.086
N5620 G3 X81.5 Y15. Z-13.168 I0. J1.5
N5625 G1 Y25. Z-13.517
N5630 G3 X80. Y26.5 Z-13.599 I-1.5 J0.
N5635 G1 X70. Z-13.949
N5640 G3 X68.5 Y25. Z-14.031 I0. J-1.5
N5645 G1 Y15. Z-14.38
N5650 G3 X70. Y13.5 Z-14.462 I1.5 J0.
N5655 G1 X80. Z-14.812
N5660 G3 X81.5 Y15. Z-14.894 I0. J1.5
N5665 G1 Y25. Z-15.243
N5670 G3 X80. Y26.5 Z-15.325 I-1.5 J0.
N5675 G1 X75. Z-15.5
N5680 X70.
N5685 G3 X68.5 Y25. I0. J-1.5
N5690 G1 Y15.
N5695 G3 X70. Y13.5 I1.5 J0.
N5700 G1 X80.
N5705 G3 X81.5 Y15. I0. J1.5
N5710 G1 Y25.
N5715 G3 X80. Y26.5 I-1.5 J0.
N5720 G1 X75.
N5725 G3 X71.8 Y23.3 I0. J-3.2 F1000.
N5730 G1 Y20.1
N5735 G19 G2 Y16.9 Z-12.3 J0. K3.2
N5740 G1 Z5. F400.
N5745 X102.17 Y23.1
N5750 Z4.2 F500.
N5755 G2 Y19.9 Z1. J-3.2 K0. F400.
N5760 G1 Y16.7
N5765 G17 G3 X105.37 Y13.5 I3.2 J0.
N5770 G1 X113.333 Z0.722
N5775 G3 X114.833 Y15. Z0.64 I0. J1.5
N5780 G1 Y25. Z0.29
N5785 G3 X113.333 Y26.5 Z0.208 I-1.5 J0.
N5790 G1 X103.333 Z-0.141
N5795 G3 X101.833 Y25. Z-0.223 I0. J-1.5
N5800 G1 Y15. Z-0.573
N5805 G3 X103.333 Y13.5 Z-0.655 I1.5 J0.
N5810 G1 X113.333 Z-1.004
N5815 G3 X114.833 Y15. Z-1.086 I0. J1.5
N5820 G1 Y25. Z-1.436
N5825 G3 X113.333 Y26.5 Z-1.518 I-1.5 J0.
N5830 G1 X103.333 Z-1.867
N5835 G3 X101.833 Y25. Z-1.949 I0. J-1.5
N5840 G1 Y15. Z-2.298
N5845 G3 X103.333 Y13.5 Z-2.381 I1.5 J0.
N5850 G1 X113.333 Z-2.73
N5855 G3 X114.833 Y15. Z-2.812 I0. J1.5
N5860 G1 Y25. Z-3.161
N5865 G3 X113.333 Y26.5 Z-3.244 I-1.5 J0.
N5870 G1 X103.333 Z-3.593
N5875 G3 X101.833 Y25. Z-3.675 I0. J-1.5
N5880 G1 Y15. Z-4.024
N5885 G3 X103.333 Y13.5 Z-4.107 I1.5 J0.
N5890 G1 X113.333 Z-4.456
N5895 G3 X114.833 Y15. Z-4.538 I0. J1.5
N5900 G1 Y25. Z-4.887
N5905 G3 X113.333 Y26.5 Z-4.97 I-1.5 J0.
N5910 G1 X103.333 Z-5.319
N5915 G3 X101.833 Y25. Z-5.401 I0. J-1.5
N5920 G1 Y15. Z-5.75
N5925 G3 X103.333 Y13.5 Z-5.833 I1.5 J0.
N5930 G1 X113.333 Z-6.182
N5935 G3 X114.833 Y15. Z-6.264 I0. J1.5
N5940 G1 Y25. Z-6.613
N5945 G3 X113.333 Y26.5 Z-6.696 I-1.5 J0.
N5950 G1 X103.333 Z-7.045
N5955 G3 X101.833 Y25. Z-7.127 I0. J-1.5
N5960 G1 Y15. Z-7.476
N5965 G3 X103.333 Y13.5 Z-7.559 I1.5 J0.
N5970 G1 X113.333 Z-7.908
N5975 G3 X114.833 Y15. Z-7.99 I0. J1.5
N5980 G1 Y25. Z-8.339
N5985 G3 X113.333 Y26.5 Z-8.422 I-1.5 J0.
N5990 G1 X103.333 Z-8.771
N5995 G3 X101.833 Y25. Z-8.853 I0. J-1.5
N6000 G1 Y15. Z-9.202
N6005 G3 X103.333 Y13.5 Z-9.285 I1.5 J0.
N6010 G1 X113.333 Z-9.634
N6015 G3 X114.833 Y15. Z-9.716 I0. J1.5
N6020 G1 Y25. Z-10.065
N6025 G3 X113.333 Y26.5 Z-10.148 I-1.5 J0.
N6030 G1 X103.333 Z-10.497
N6035 G3 X101.833 Y25. Z-10.579 I0. J-1.5
N6040 G1 Y15. Z-10.928
N6045 G3 X103.333 Y13.5 Z-11.011 I1.5 J0.
N6050 G1 X113.333 Z-11.36
N6055 G3 X114.833 Y15. Z-11.442 I0. J1.5
N6060 G1 Y25. Z-11.791
N6065 G3 X113.333 Y26.5 Z-11.873 I-1.5 J0.
N6070 G1 X103.333 Z-12.223
N6075 G3 X101.833 Y25. Z-12.305 I0. J-1.5
N6080 G1 Y15. Z-12.654
N6085 G3 X103.333 Y13.5 Z-12.736 I1.5 J0.
N6090 G1 X113.333 Z-13.086
N6095 G3 X114.833 Y15. Z-13.168 I0. J1.5
N6100 G1 Y25. Z-13.517
N6105 G3 X113.333 Y26.5 Z-13.599 I-1.5 J0.
N6110 G1 X103.333 Z-13.949
N6115 G3 X101.833 Y25. Z-14.031 I0. J-1.5
N6120 G1 Y15. Z-14.38
N6125 G3 X103.333 Y13.5 Z-14.462 I1.5 J0.
N6130 G1 X113.333 Z-14.812
N6135 G3 X114.833 Y15. Z-14.894 I0. J1.5
N6140 G1 Y25. Z-15.243
N6145 G3 X113.333 Y26.5 Z-15.325 I-1.5 J0.
N6150 G1 X108.333 Z-15.5
N6155 X103.333
N6160 G3 X101.833 Y25. I0. J-1.5
N6165 G1 Y15.
N6170 G3 X103.333 Y13.5 I1.5 J0.
N6175 G1 X113.333
N6180 G3 X114.833 Y15. I0. J1.5
N6185 G1 Y25.
N6190 G3 X113.333 Y26.5 I-1.5 J0.
N6195 G1 X108.333
N6200 G3 X105.133 Y23.3 I0. J-3.2 F1000.
N6205 G1 Y20.1
N6210 G19 G2 Y16.9 Z-12.3 J0. K3.2
N6215 G1 Z5. F400.
N6220 X135.504 Y23.1
N6225 Z4.2 F500.
N6230 G2 Y19.9 Z1. J-3.2 K0. F400.
N6235 G1 Y16.7
N6240 G17 G3 X138.704 Y13.5 I3.2 J0.
N6245 G1 X146.667 Z0.722
N6250 G3 X148.167 Y15. Z0.64 I0. J1.5
N6255 G1 Y25. Z0.29
N6260 G3 X146.667 Y26.5 Z0.208 I-1.5 J0.
N6265 G1 X136.667 Z-0.141
N6270 G3 X135.167 Y25. Z-0.223 I0. J-1.5
N6275 G1 Y15. Z-0.573
N6280 G3 X136.667 Y13.5 Z-0.655 I1.5 J0.
N6285 G1 X146.667 Z-1.004
N6290 G3 X148.167 Y15. Z-1.086 I0. J1.5
N6295 G1 Y25. Z-1.436
N6300 G3 X146.667 Y26.5 Z-1.518 I-1.5 J0.
N6305 G1 X136.667 Z-1.867
N6310 G3 X135.167 Y25. Z-1.949 I0. J-1.5
N6315 G1 Y15. Z-2.298
N6320 G3 X136.667 Y13.5 Z-2.381 I1.5 J0.
N6325 G1 X146.667 Z-2.73
N6330 G3 X148.167 Y15. Z-2.812 I0. J1.5
N6335 G1 Y25. Z-3.161
N6340 G3 X146.667 Y26.5 Z-3.244 I-1.5 J0.
N6345 G1 X136.667 Z-3.593
N6350 G3 X135.167 Y25. Z-3.675 I0. J-1.5
N6355 G1 Y15. Z-4.024
N6360 G3 X136.667 Y13.5 Z-4.107 I1.5 J0.
N6365 G1 X146.667 Z-4.456
N6370 G3 X148.167 Y15. Z-4.538 I0. J1.5
N6375 G1 Y25. Z-4.887
N6380 G3 X146.667 Y26.5 Z-4.97 I-1.5 J0.
N6385 G1 X136.667 Z-5.319
N6390 G3 X135.167 Y25. Z-5.401 I0. J-1.5
N6395 G1 Y15. Z-5.75
N6400 G3 X136.667 Y13.5 Z-5.833 I1.5 J0.
N6405 G1 X146.667 Z-6.182
N6410 G3 X148.167 Y15. Z-6.264 I0. J1.5
N6415 G1 Y25. Z-6.613
N6420 G3 X146.667 Y26.5 Z-6.696 I-1.5 J0.
N6425 G1 X136.667 Z-7.045
N6430 G3 X135.167 Y25. Z-7.127 I0. J-1.5
N6435 G1 Y15. Z-7.476
N6440 G3 X136.667 Y13.5 Z-7.559 I1.5 J0.
N6445 G1 X146.667 Z-7.908
N6450 G3 X148.167 Y15. Z-7.99 I0. J1.5
N6455 G1 Y25. Z-8.339
N6460 G3 X146.667 Y26.5 Z-8.422 I-1.5 J0.
N6465 G1 X136.667 Z-8.771
N6470 G3 X135.167 Y25. Z-8.853 I0. J-1.5
N6475 G1 Y15. Z-9.202
N6480 G3 X136.667 Y13.5 Z-9.285 I1.5 J0.
N6485 G1 X146.667 Z-9.634
N6490 G3 X148.167 Y15. Z-9.716 I0. J1.5
N6495 G1 Y25. Z-10.065
N6500 G3 X146.667 Y26.5 Z-10.148 I-1.5 J0.
N6505 G1 X136.667 Z-10.497
N6510 G3 X135.167 Y25. Z-10.579 I0. J-1.5
N6515 G1 Y15. Z-10.928
N6520 G3 X136.667 Y13.5 Z-11.011 I1.5 J0.
N6525 G1 X146.667 Z-11.36
N6530 G3 X148.167 Y15. Z-11.442 I0. J1.5
N6535 G1 Y25. Z-11.791
N6540 G3 X146.667 Y26.5 Z-11.873 I-1.5 J0.
N6545 G1 X136.667 Z-12.223
N6550 G3 X135.167 Y25. Z-12.305 I0. J-1.5
N6555 G1 Y15. Z-12.654
N6560 G3 X136.667 Y13.5 Z-12.736 I1.5 J0.
N6565 G1 X146.667 Z-13.086
N6570 G3 X148.167 Y15. Z-13.168 I0. J1.5
N6575 G1 Y25. Z-13.517
N6580 G3 X146.667 Y26.5 Z-13.599 I-1.5 J0.
N6585 G1 X136.667 Z-13.949
N6590 G3 X135.167 Y25. Z-14.031 I0. J-1.5
N6595 G1 Y15. Z-14.38
N6600 G3 X136.667 Y13.5 Z-14.462 I1.5 J0.
N6605 G1 X146.667 Z-14.812
N6610 G3 X148.167 Y15. Z-14.894 I0. J1.5
N6615 G1 Y25. Z-15.243
N6620 G3 X146.667 Y26.5 Z-15.325 I-1.5 J0.
N6625 G1 X141.667 Z-15.5
N6630 X136.667
N6635 G3 X135.167 Y25. I0. J-1.5
N6640 G1 Y15.
N6645 G3 X136.667 Y13.5 I1.5 J0.
N6650 G1 X146.667
N6655 G3 X148.167 Y15. I0. J1.5
N6660 G1 Y25.
N6665 G3 X146.667 Y26.5 I-1.5 J0.
N6670 G1 X141.667
N6675 G3 X138.467 Y23.3 I0. J-3.2 F1000.
N6680 G1 Y20.1
N6685 G19 G2 Y16.9 Z-12.3 J0. K3.2
N6690 G1 Z5. F400.
N6695 X168.837 Y23.1
N6700 Z4.2 F500.
N6705 G2 Y19.9 Z1. J-3.2 K0. F400.
N6710 G1 Y16.7
N6715 G17 G3 X172.037 Y13.5 I3.2 J0.
N6720 G1 X180. Z0.722
N6725 G3 X181.5 Y15. Z0.64 I0. J1.5
N6730 G1 Y25. Z0.29
N6735 G3 X180. Y26.5 Z0.208 I-1.5 J0.
N6740 G1 X170. Z-0.141
N6745 G3 X168.5 Y25. Z-0.223 I0. J-1.5
N6750 G1 Y15. Z-0.573
N6755 G3 X170. Y13.5 Z-0.655 I1.5 J0.
N6760 G1 X180. Z-1.004
N6765 G3 X181.5 Y15. Z-1.086 I0. J1.5
N6770 G1 Y25. Z-1.436
N6775 G3 X180. Y26.5 Z-1.518 I-1.5 J0.
N6780 G1 X170. Z-1.867
N6785 G3 X168.5 Y25. Z-1.949 I0. J-1.5
N6790 G1 Y15. Z-2.298
N6795 G3 X170. Y13.5 Z-2.381 I1.5 J0.
N6800 G1 X180. Z-2.73
N6805 G3 X181.5 Y15. Z-2.812 I0. J1.5
N6810 G1 Y25. Z-3.161
N6815 G3 X180. Y26.5 Z-3.244 I-1.5 J0.
N6820 G1 X170. Z-3.593
N6825 G3 X168.5 Y25. Z-3.675 I0. J-1.5
N6830 G1 Y15. Z-4.024
N6835 G3 X170. Y13.5 Z-4.107 I1.5 J0.
N6840 G1 X180. Z-4.456
N6845 G3 X181.5 Y15. Z-4.538 I0. J1.5
N6850 G1 Y25. Z-4.887
N6855 G3 X180. Y26.5 Z-4.97 I-1.5 J0.
N6860 G1 X170. Z-5.319
N6865 G3 X168.5 Y25. Z-5.401 I0. J-1.5
N6870 G1 Y15. Z-5.75
N6875 G3 X170. Y13.5 Z-5.833 I1.5 J0.
N6880 G1 X180. Z-6.182
N6885 G3 X181.5 Y15. Z-6.264 I0. J1.5
N6890 G1 Y25. Z-6.613
N6895 G3 X180. Y26.5 Z-6.696 I-1.5 J0.
N6900 G1 X170. Z-7.045
N6905 G3 X168.5 Y25. Z-7.127 I0. J-1.5
N6910 G1 Y15. Z-7.476
N6915 G3 X170. Y13.5 Z-7.559 I1.5 J0.
N6920 G1 X180. Z-7.908
N6925 G3 X181.5 Y15. Z-7.99 I0. J1.5
N6930 G1 Y25. Z-8.339
N6935 G3 X180. Y26.5 Z-8.422 I-1.5 J0.
N6940 G1 X170. Z-8.771
N6945 G3 X168.5 Y25. Z-8.853 I0. J-1.5
N6950 G1 Y15. Z-9.202
N6955 G3 X170. Y13.5 Z-9.285 I1.5 J0.
N6960 G1 X180. Z-9.634
N6965 G3 X181.5 Y15. Z-9.716 I0. J1.5
N6970 G1 Y25. Z-10.065
N6975 G3 X180. Y26.5 Z-10.148 I-1.5 J0.
N6980 G1 X170. Z-10.497
N6985 G3 X168.5 Y25. Z-10.579 I0. J-1.5
N6990 G1 Y15. Z-10.928
N6995 G3 X170. Y13.5 Z-11.011 I1.5 J0.
N7000 G1 X180. Z-11.36
N7005 G3 X181.5 Y15. Z-11.442 I0. J1.5
N7010 G1 Y25. Z-11.791
N7015 G3 X180. Y26.5 Z-11.873 I-1.5 J0.
N7020 G1 X170. Z-12.223
N7025 G3 X168.5 Y25. Z-12.305 I0. J-1.5
N7030 G1 Y15. Z-12.654
N7035 G3 X170. Y13.5 Z-12.736 I1.5 J0.
N7040 G1 X180. Z-13.086
N7045 G3 X181.5 Y15. Z-13.168 I0. J1.5
N7050 G1 Y25. Z-13.517
N7055 G3 X180. Y26.5 Z-13.599 I-1.5 J0.
N7060 G1 X170. Z-13.949
N7065 G3 X168.5 Y25. Z-14.031 I0. J-1.5
N7070 G1 Y15. Z-14.38
N7075 G3 X170. Y13.5 Z-14.462 I1.5 J0.
N7080 G1 X180. Z-14.812
N7085 G3 X181.5 Y15. Z-14.894 I0. J1.5
N7090 G1 Y25. Z-15.243
N7095 G3 X180. Y26.5 Z-15.325 I-1.5 J0.
N7100 G1 X175. Z-15.5
N7105 X170.
N7110 G3 X168.5 Y25. I0. J-1.5
N7115 G1 Y15.
N7120 G3 X170. Y13.5 I1.5 J0.
N7125 G1 X180.
N7130 G3 X181.5 Y15. I0. J1.5
N7135 G1 Y25.
N7140 G3 X180. Y26.5 I-1.5 J0.
N7145 G1 X175.
N7150 G3 X171.8 Y23.3 I0. J-3.2 F1000.
N7155 G1 Y20.1
N7160 G19 G2 Y16.9 Z-12.3 J0. K3.2
N7165 G1 Z5. F400.
N7170 X202.17 Y23.1
N7175 Z4.2 F500.
N7180 G2 Y19.9 Z1. J-3.2 K0. F400.
N7185 G1 Y16.7
N7190 G17 G3 X205.37 Y13.5 I3.2 J0.
N7195 G1 X213.333 Z0.722
N7200 G3 X214.833 Y15. Z0.64 I0. J1.5
N7205 G1 Y25. Z0.29
N7210 G3 X213.333 Y26.5 Z0.208 I-1.5 J0.
N7215 G1 X203.333 Z-0.141
N7220 G3 X201.833 Y25. Z-0.223 I0. J-1.5
N7225 G1 Y15. Z-0.573
N7230 G3 X203.333 Y13.5 Z-0.655 I1.5 J0.
N7235 G1 X213.333 Z-1.004
N7240 G3 X214.833 Y15. Z-1.086 I0. J1.5
N7245 G1 Y25. Z-1.436
N7250 G3 X213.333 Y26.5 Z-1.518 I-1.5 J0.
N7255 G1 X203.333 Z-1.867
N7260 G3 X201.833 Y25. Z-1.949 I0. J-1.5
N7265 G1 Y15. Z-2.298
N7270 G3 X203.333 Y13.5 Z-2.381 I1.5 J0.
N7275 G1 X213.333 Z-2.73
N7280 G3 X214.833 Y15. Z-2.812 I0. J1.5
N7285 G1 Y25. Z-3.161
N7290 G3 X213.333 Y26.5 Z-3.244 I-1.5 J0.
N7295 G1 X203.333 Z-3.593
N7300 G3 X201.833 Y25. Z-3.675 I0. J-1.5
N7305 G1 Y15. Z-4.024
N7310 G3 X203.333 Y13.5 Z-4.107 I1.5 J0.
N7315 G1 X213.333 Z-4.456
N7320 G3 X214.833 Y15. Z-4.538 I0. J1.5
N7325 G1 Y25. Z-4.887
N7330 G3 X213.333 Y26.5 Z-4.97 I-1.5 J0.
N7335 G1 X203.333 Z-5.319
N7340 G3 X201.833 Y25. Z-5.401 I0. J-1.5
N7345 G1 Y15. Z-5.75
N7350 G3 X203.333 Y13.5 Z-5.833 I1.5 J0.
N7355 G1 X213.333 Z-6.182
N7360 G3 X214.833 Y15. Z-6.264 I0. J1.5
N7365 G1 Y25. Z-6.613
N7370 G3 X213.333 Y26.5 Z-6.696 I-1.5 J0.
N7375 G1 X203.333 Z-7.045
N7380 G3 X201.833 Y25. Z-7.127 I0. J-1.5
N7385 G1 Y15. Z-7.476
N7390 G3 X203.333 Y13.5 Z-7.559 I1.5 J0.
N7395 G1 X213.333 Z-7.908
N7400 G3 X214.833 Y15. Z-7.99 I0. J1.5
N7405 G1 Y25. Z-8.339
N7410 G3 X213.333 Y26.5 Z-8.422 I-1.5 J0.
N7415 G1 X203.333 Z-8.771
N7420 G3 X201.833 Y25. Z-8.853 I0. J-1.5
N7425 G1 Y15. Z-9.202
N7430 G3 X203.333 Y13.5 Z-9.285 I1.5 J0.
N7435 G1 X213.333 Z-9.634
N7440 G3 X214.833 Y15. Z-9.716 I0. J1.5
N7445 G1 Y25. Z-10.065
N7450 G3 X213.333 Y26.5 Z-10.148 I-1.5 J0.
N7455 G1 X203.333 Z-10.497
N7460 G3 X201.833 Y25. Z-10.579 I0. J-1.5
N7465 G1 Y15. Z-10.928
N7470 G3 X203.333 Y13.5 Z-11.011 I1.5 J0.
N7475 G1 X213.333 Z-11.36
N7480 G3 X214.833 Y15. Z-11.442 I0. J1.5
N7485 G1 Y25. Z-11.791
N7490 G3 X213.333 Y26.5 Z-11.873 I-1.5 J0.
N7495 G1 X203.333 Z-12.223
N7500 G3 X201.833 Y25. Z-12.305 I0. J-1.5
N7505 G1 Y15. Z-12.654
N7510 G3 X203.333 Y13.5 Z-12.736 I1.5 J0.
N7515 G1 X213.333 Z-13.086
N7520 G3 X214.833 Y15. Z-13.168 I0. J1.5
N7525 G1 Y25. Z-13.517
N7530 G3 X213.333 Y26.5 Z-13.599 I-1.5 J0.
N7535 G1 X203.333 Z-13.949
N7540 G3 X201.833 Y25. Z-14.031 I0. J-1.5
N7545 G1 Y15. Z-14.38
N7550 G3 X203.333 Y13.5 Z-14.462 I1.5 J0.
N7555 G1 X213.333 Z-14.812
N7560 G3 X214.833 Y15. Z-14.894 I0. J1.5
N7565 G1 Y25. Z-15.243
N7570 G3 X213.333 Y26.5 Z-15.325 I-1.5 J0.
N7575 G1 X208.333 Z-15.5
N7580 X203.333
N7585 G3 X201.833 Y25. I0. J-1.5
N7590 G1 Y15.
N7595 G3 X203.333 Y13.5 I1.5 J0.
N7600 G1 X213.333
N7605 G3 X214.833 Y15. I0. J1.5
N7610 G1 Y25.
N7615 G3 X213.333 Y26.5 I-1.5 J0.
N7620 G1 X208.333
N7625 G3 X205.133 Y23.3 I0. J-3.2 F1000.
N7630 G1 Y20.1
N7635 G19 G2 Y16.9 Z-12.3 J0. K3.2
N7640 G1 Z5. F400.
N7645 X235.504 Y23.1
N7650 Z4.2 F500.
N7655 G2 Y19.9 Z1. J-3.2 K0. F400.
N7660 G1 Y16.7
N7665 G17 G3 X238.704 Y13.5 I3.2 J0.
N7670 G1 X246.667 Z0.722
N7675 G3 X248.167 Y15. Z0.64 I0. J1.5
N7680 G1 Y25. Z0.29
N7685 G3 X246.667 Y26.5 Z0.208 I-1.5 J0.
N7690 G1 X236.667 Z-0.141
N7695 G3 X235.167 Y25. Z-0.223 I0. J-1.5
N7700 G1 Y15. Z-0.573
N7705 G3 X236.667 Y13.5 Z-0.655 I1.5 J0.
N7710 G1 X246.667 Z-1.004
N7715 G3 X248.167 Y15. Z-1.086 I0. J1.5
N7720 G1 Y25. Z-1.436
N7725 G3 X246.667 Y26.5 Z-1.518 I-1.5 J0.
N7730 G1 X236.667 Z-1.867
N7735 G3 X235.167 Y25. Z-1.949 I0. J-1.5
N7740 G1 Y15. Z-2.298
N7745 G3 X236.667 Y13.5 Z-2.381 I1.5 J0.
N7750 G1 X246.667 Z-2.73
N7755 G3 X248.167 Y15. Z-2.812 I0. J1.5
N7760 G1 Y25. Z-3.161
N7765 G3 X246.667 Y26.5 Z-3.244 I-1.5 J0.
N7770 G1 X236.667 Z-3.593
N7775 G3 X235.167 Y25. Z-3.675 I0. J-1.5
N7780 G1 Y15. Z-4.024
N7785 G3 X236.667 Y13.5 Z-4.107 I1.5 J0.
N7790 G1 X246.667 Z-4.456
N7795 G3 X248.167 Y15. Z-4.538 I0. J1.5
N7800 G1 Y25. Z-4.887
N7805 G3 X246.667 Y26.5 Z-4.97 I-1.5 J0.
N7810 G1 X236.667 Z-5.319
N7815 G3 X235.167 Y25. Z-5.401 I0. J-1.5
N7820 G1 Y15. Z-5.75
N7825 G3 X236.667 Y13.5 Z-5.833 I1.5 J0.
N7830 G1 X246.667 Z-6.182
N7835 G3 X248.167 Y15. Z-6.264 I0. J1.5
N7840 G1 Y25. Z-6.613
N7845 G3 X246.667 Y26.5 Z-6.696 I-1.5 J0.
N7850 G1 X236.667 Z-7.045
N7855 G3 X235.167 Y25. Z-7.127 I0. J-1.5
N7860 G1 Y15. Z-7.476
N7865 G3 X236.667 Y13.5 Z-7.559 I1.5 J0.
N7870 G1 X246.667 Z-7.908
N7875 G3 X248.167 Y15. Z-7.99 I0. J1.5
N7880 G1 Y25. Z-8.339
N7885 G3 X246.667 Y26.5 Z-8.422 I-1.5 J0.
N7890 G1 X236.667 Z-8.771
N7895 G3 X235.167 Y25. Z-8.853 I0. J-1.5
N7900 G1 Y15. Z-9.202
N7905 G3 X236.667 Y13.5 Z-9.285 I1.5 J0.
N7910 G1 X246.667 Z-9.634
N7915 G3 X248.167 Y15. Z-9.716 I0. J1.5
N7920 G1 Y25. Z-10.065
N7925 G3 X246.667 Y26.5 Z-10.148 I-1.5 J0.
N7930 G1 X236.667 Z-10.497
N7935 G3 X235.167 Y25. Z-10.579 I0. J-1.5
N7940 G1 Y15. Z-10.928
N7945 G3 X236.667 Y13.5 Z-11.011 I1.5 J0.
N7950 G1 X246.667 Z-11.36
N7955 G3 X248.167 Y15. Z-11.442 I0. J1.5
N7960 G1 Y25. Z-11.791
N7965 G3 X246.667 Y26.5 Z-11.873 I-1.5 J0.
N7970 G1 X236.667 Z-12.223
N7975 G3 X235.167 Y25. Z-12.305 I0. J-1.5
N7980 G1 Y15. Z-12.654
N7985 G3 X236.667 Y13.5 Z-12.736 I1.5 J0.
N7990 G1 X246.667 Z-13.086
N7995 G3 X248.167 Y15. Z-13.168 I0. J1.5
N8000 G1 Y25. Z-13.517
N8005 G3 X246.667 Y26.5 Z-13.599 I-1.5 J0.
N8010 G1 X236.667 Z-13.949
N8015 G3 X235.167 Y25. Z-14.031 I0. J-1.5
N8020 G1 Y15. Z-14.38
N8025 G3 X236.667 Y13.5 Z-14.462 I1.5 J0.
N8030 G1 X246.667 Z-14.812
N8035 G3 X248.167 Y15. Z-14.894 I0. J1.5
N8040 G1 Y25. Z-15.243
N8045 G3 X246.667 Y26.5 Z-15.325 I-1.5 J0.
N8050 G1 X241.667 Z-15.5
N8055 X236.667
N8060 G3 X235.167 Y25. I0. J-1.5
N8065 G1 Y15.
N8070 G3 X236.667 Y13.5 I1.5 J0.
N8075 G1 X246.667
N8080 G3 X248.167 Y15. I0. J1.5
N8085 G1 Y25.
N8090 G3 X246.667 Y26.5 I-1.5 J0.
N8095 G1 X241.667
N8100 G3 X238.467 Y23.3 I0. J-3.2 F1000.
N8105 G1 Y20.1
N8110 G19 G2 Y16.9 Z-12.3 J0. K3.2
N8115 G1 Z5. F400.
N8120 X268.837 Y23.1
N8125 Z4.2 F500.
N8130 G2 Y19.9 Z1. J-3.2 K0. F400.
N8135 G1 Y16.7
N8140 G17 G3 X272.037 Y13.5 I3.2 J0.
N8145 G1 X280. Z0.722
N8150 G3 X281.5 Y15. Z0.64 I0. J1.5
N8155 G1 Y25. Z0.29
N8160 G3 X280. Y26.5 Z0.208 I-1.5 J0.
N8165 G1 X270. Z-0.141
N8170 G3 X268.5 Y25. Z-0.223 I0. J-1.5
N8175 G1 Y15. Z-0.573
N8180 G3 X270. Y13.5 Z-0.655 I1.5 J0.
N8185 G1 X280. Z-1.004
N8190 G3 X281.5 Y15. Z-1.086 I0. J1.5
N8195 G1 Y25. Z-1.436
N8200 G3 X280. Y26.5 Z-1.518 I-1.5 J0.
N8205 G1 X270. Z-1.867
N8210 G3 X268.5 Y25. Z-1.949 I0. J-1.5
N8215 G1 Y15. Z-2.298
N8220 G3 X270. Y13.5 Z-2.381 I1.5 J0.
N8225 G1 X280. Z-2.73
N8230 G3 X281.5 Y15. Z-2.812 I0. J1.5
N8235 G1 Y25. Z-3.161
N8240 G3 X280. Y26.5 Z-3.244 I-1.5 J0.
N8245 G1 X270. Z-3.593
N8250 G3 X268.5 Y25. Z-3.675 I0. J-1.5
N8255 G1 Y15. Z-4.024
N8260 G3 X270. Y13.5 Z-4.107 I1.5 J0.
N8265 G1 X280. Z-4.456
N8270 G3 X281.5 Y15. Z-4.538 I0. J1.5
N8275 G1 Y25. Z-4.887
N8280 G3 X280. Y26.5 Z-4.97 I-1.5 J0.
N8285 G1 X270. Z-5.319
N8290 G3 X268.5 Y25. Z-5.401 I0. J-1.5
N8295 G1 Y15. Z-5.75
N8300 G3 X270. Y13.5 Z-5.833 I1.5 J0.
N8305 G1 X280. Z-6.182
N8310 G3 X281.5 Y15. Z-6.264 I0. J1.5
N8315 G1 Y25. Z-6.613
N8320 G3 X280. Y26.5 Z-6.696 I-1.5 J0.
N8325 G1 X270. Z-7.045
N8330 G3 X268.5 Y25. Z-7.127 I0. J-1.5
N8335 G1 Y15. Z-7.476
N8340 G3 X270. Y13.5 Z-7.559 I1.5 J0.
N8345 G1 X280. Z-7.908
N8350 G3 X281.5 Y15. Z-7.99 I0. J1.5
N8355 G1 Y25. Z-8.339
N8360 G3 X280. Y26.5 Z-8.422 I-1.5 J0.
N8365 G1 X270. Z-8.771
N8370 G3 X268.5 Y25. Z-8.853 I0. J-1.5
N8375 G1 Y15. Z-9.202
N8380 G3 X270. Y13.5 Z-9.285 I1.5 J0.
N8385 G1 X280. Z-9.634
N8390 G3 X281.5 Y15. Z-9.716 I0. J1.5
N8395 G1 Y25. Z-10.065
N8400 G3 X280. Y26.5 Z-10.148 I-1.5 J0.
N8405 G1 X270. Z-10.497
N8410 G3 X268.5 Y25. Z-10.579 I0. J-1.5
N8415 G1 Y15. Z-10.928
N8420 G3 X270. Y13.5 Z-11.011 I1.5 J0.
N8425 G1 X280. Z-11.36
N8430 G3 X281.5 Y15. Z-11.442 I0. J1.5
N8435 G1 Y25. Z-11.791
N8440 G3 X280. Y26.5 Z-11.873 I-1.5 J0.
N8445 G1 X270. Z-12.223
N8450 G3 X268.5 Y25. Z-12.305 I0. J-1.5
N8455 G1 Y15. Z-12.654
N8460 G3 X270. Y13.5 Z-12.736 I1.5 J0.
N8465 G1 X280. Z-13.086
N8470 G3 X281.5 Y15. Z-13.168 I0. J1.5
N8475 G1 Y25. Z-13.517
N8480 G3 X280. Y26.5 Z-13.599 I-1.5 J0.
N8485 G1 X270. Z-13.949
N8490 G3 X268.5 Y25. Z-14.031 I0. J-1.5
N8495 G1 Y15. Z-14.38
N8500 G3 X270. Y13.5 Z-14.462 I1.5 J0.
N8505 G1 X280. Z-14.812
N8510 G3 X281.5 Y15. Z-14.894 I0. J1.5
N8515 G1 Y25. Z-15.243
N8520 G3 X280. Y26.5 Z-15.325 I-1.5 J0.
N8525 G1 X275. Z-15.5
N8530 X270.
N8535 G3 X268.5 Y25. I0. J-1.5
N8540 G1 Y15.
N8545 G3 X270. Y13.5 I1.5 J0.
N8550 G1 X280.
N8555 G3 X281.5 Y15. I0. J1.5
N8560 G1 Y25.
N8565 G3 X280. Y26.5 I-1.5 J0.
N8570 G1 X275.
N8575 G3 X271.8 Y23.3 I0. J-3.2 F1000.
N8580 G1 Y20.1
N8585 G19 G2 Y16.9 Z-12.3 J0. K3.2
N8590 G1 Z5. F400.
N8595 X302.17 Y23.1
N8600 Z4.2 F500.
N8605 G2 Y19.9 Z1. J-3.2 K0. F400.
N8610 G1 Y16.7
N8615 G17 G3 X305.37 Y13.5 I3.2 J0.
N8620 G1 X313.333 Z0.722
N8625 G3 X314.833 Y15. Z0.64 I0. J1.5
N8630 G1 Y25. Z0.29
N8635 G3 X313.333 Y26.5 Z0.208 I-1.5 J0.
N8640 G1 X303.333 Z-0.141
N8645 G3 X301.833 Y25. Z-0.223 I0. J-1.5
N8650 G1 Y15. Z-0.573
N8655 G3 X303.333 Y13.5 Z-0.655 I1.5 J0.
N8660 G1 X313.333 Z-1.004
N8665 G3 X314.833 Y15. Z-1.086 I0. J1.5
N8670 G1 Y25. Z-1.436
N8675 G3 X313.333 Y26.5 Z-1.518 I-1.5 J0.
N8680 G1 X303.333 Z-1.867
N8685 G3 X301.833 Y25. Z-1.949 I0. J-1.5
N8690 G1 Y15. Z-2.298
N8695 G3 X303.333 Y13.5 Z-2.381 I1.5 J0.
N8700 G1 X313.333 Z-2.73
N8705 G3 X314.833 Y15. Z-2.812 I0. J1.5
N8710 G1 Y25. Z-3.161
N8715 G3 X313.333 Y26.5 Z-3.244 I-1.5 J0.
N8720 G1 X303.333 Z-3.593
N8725 G3 X301.833 Y25. Z-3.675 I0. J-1.5
N8730 G1 Y15. Z-4.024
N8735 G3 X303.333 Y13.5 Z-4.107 I1.5 J0.
N8740 G1 X313.333 Z-4.456
N8745 G3 X314.833 Y15. Z-4.538 I0. J1.5
N8750 G1 Y25. Z-4.887
N8755 G3 X313.333 Y26.5 Z-4.97 I-1.5 J0.
N8760 G1 X303.333 Z-5.319
N8765 G3 X301.833 Y25. Z-5.401 I0. J-1.5
N8770 G1 Y15. Z-5.75
N8775 G3 X303.333 Y13.5 Z-5.833 I1.5 J0.
N8780 G1 X313.333 Z-6.182
N8785 G3 X314.833 Y15. Z-6.264 I0. J1.5
N8790 G1 Y25. Z-6.613
N8795 G3 X313.333 Y26.5 Z-6.696 I-1.5 J0.
N8800 G1 X303.333 Z-7.045
N8805 G3 X301.833 Y25. Z-7.127 I0. J-1.5
N8810 G1 Y15. Z-7.476
N8815 G3 X303.333 Y13.5 Z-7.559 I1.5 J0.
N8820 G1 X313.333 Z-7.908
N8825 G3 X314.833 Y15. Z-7.99 I0. J1.5
N8830 G1 Y25. Z-8.339
N8835 G3 X313.333 Y26.5 Z-8.422 I-1.5 J0.
N8840 G1 X303.333 Z-8.771
N8845 G3 X301.833 Y25. Z-8.853 I0. J-1.5
N8850 G1 Y15. Z-9.202
N8855 G3 X303.333 Y13.5 Z-9.285 I1.5 J0.
N8860 G1 X313.333 Z-9.634
N8865 G3 X314.833 Y15. Z-9.716 I0. J1.5
N8870 G1 Y25. Z-10.065
N8875 G3 X313.333 Y26.5 Z-10.148 I-1.5 J0.
N8880 G1 X303.333 Z-10.497
N8885 G3 X301.833 Y25. Z-10.579 I0. J-1.5
N8890 G1 Y15. Z-10.928
N8895 G3 X303.333 Y13.5 Z-11.011 I1.5 J0.
N8900 G1 X313.333 Z-11.36
N8905 G3 X314.833 Y15. Z-11.442 I0. J1.5
N8910 G1 Y25. Z-11.791
N8915 G3 X313.333 Y26.5 Z-11.873 I-1.5 J0.
N8920 G1 X303.333 Z-12.223
N8925 G3 X301.833 Y25. Z-12.305 I0. J-1.5
N8930 G1 Y15. Z-12.654
N8935 G3 X303.333 Y13.5 Z-12.736 I1.5 J0.
N8940 G1 X313.333 Z-13.086
N8945 G3 X314.833 Y15. Z-13.168 I0. J1.5
N8950 G1 Y25. Z-13.517
N8955 G3 X313.333 Y26.5 Z-13.599 I-1.5 J0.
N8960 G1 X303.333 Z-13.949
N8965 G3 X301.833 Y25. Z-14.031 I0. J-1.5
N8970 G1 Y15. Z-14.38
N8975 G3 X303.333 Y13.5 Z-14.462 I1.5 J0.
N8980 G1 X313.333 Z-14.812
N8985 G3 X314.833 Y15. Z-14.894 I0. J1.5
N8990 G1 Y25. Z-15.243
N8995 G3 X313.333 Y26.5 Z-15.325 I-1.5 J0.
N9000 G1 X308.333 Z-15.5
N9005 X303.333
N9010 G3 X301.833 Y25. I0. J-1.5
N9015 G1 Y15.
N9020 G3 X303.333 Y13.5 I1.5 J0.
N9025 G1 X313.333
N9030 G3 X314.833 Y15. I0. J1.5
N9035 G1 Y25.
N9040 G3 X313.333 Y26.5 I-1.5 J0.
N9045 G1 X308.333
N9050 G3 X305.133 Y23.3 I0. J-3.2 F1000.
N9055 G1 Y20.1
N9060 G19 G2 Y16.9 Z-12.3 J0. K3.2
N9065 G1 Z5. F400.
N9070 X302.17 Y56.433
N9075 Z4.2 F500.
N9080 G2 Y53.233 Z1. J-3.2 K0. F400.
N9085 G1 Y50.033
N9090 G17 G3 X305.37 Y46.833 I3.2 J0.
N9095 G1 X313.333 Z0.722
N9100 G3 X314.833 Y48.333 Z0.64 I0. J1.5
N9105 G1 Y58.333 Z0.29
N9110 G3 X313.333 Y59.833 Z0.208 I-1.5 J0.
N9115 G1 X303.333 Z-0.141
N9120 G3 X301.833 Y58.333 Z-0.223 I0. J-1.5
N9125 G1 Y48.333 Z-0.573
N9130 G3 X303.333 Y46.833 Z-0.655 I1.5 J0.
N9135 G1 X313.333 Z-1.004
N9140 G3 X314.833 Y48.333 Z-1.086 I0. J1.5
N9145 G1 Y58.333 Z-1.436
N9150 G3 X313.333 Y59.833 Z-1.518 I-1.5 J0.
N9155 G1 X303.333 Z-1.867
N9160 G3 X301.833 Y58.333 Z-1.949 I0. J-1.5
N9165 G1 Y48.333 Z-2.298
N9170 G3 X303.333 Y46.833 Z-2.381 I1.5 J0.
N9175 G1 X313.333 Z-2.73
N9180 G3 X314.833 Y48.333 Z-2.812 I0. J1.5
N9185 G1 Y58.333 Z-3.161
N9190 G3 X313.333 Y59.833 Z-3.244 I-1.5 J0.
N9195 G1 X303.333 Z-3.593
N9200 G3 X301.833 Y58.333 Z-3.675 I0. J-1.5
N9205 G1 Y48.333 Z-4.024
N9210 G3 X303.333 Y46.833 Z-4.107 I1.5 J0.
N9215 G1 X313.333 Z-4.456
N9220 G3 X314.833 Y48.333 Z-4.538 I0. J1.5
N9225 G1 Y58.333 Z-4.887
N9230 G3 X313.333 Y59.833 Z-4.97 I-1.5 J0.
N9235 G1 X303.333 Z-5.319
N9240 G3 X301.833 Y58.333 Z-5.401 I0. J-1.5
N9245 G1 Y48.333 Z-5.75
N9250 G3 X303.333 Y46.833 Z-5.833 I1.5 J0.
N9255 G1 X313.333 Z-6.182
N9260 G3 X314.833 Y48.333 Z-6.264 I0. J1.5
N9265 G1 Y58.333 Z-6.613
N9270 G3 X313.333 Y59.833 Z-6.696 I-1.5 J0.
N9275 G1 X303.333 Z-7.045
N9280 G3 X301.833 Y58.333 Z-7.127 I0. J-1.5
N9285 G1 Y48.333 Z-7.476
N9290 G3 X303.333 Y46.833 Z-7.559 I1.5 J0.
N9295 G1 X313.333 Z-7.908
N9300 G3 X314.833 Y48.333 Z-7.99 I0. J1.5
N9305 G1 Y58.333 Z-8.339
N9310 G3 X313.333 Y59.833 Z-8.422 I-1.5 J0.
N9315 G1 X303.333 Z-8.771
N9320 G3 X301.833 Y58.333 Z-8.853 I0. J-1.5
N9325 G1 Y48.333 Z-9.202
N9330 G3 X303.333 Y46.833 Z-9.285 I1.5 J0.
N9335 G1 X313.333 Z-9.634
N9340 G3 X314.833 Y48.333 Z-9.716 I0. J1.5
N9345 G1 Y58.333 Z-10.065
N9350 G3 X313.333 Y59.833 Z-10.148 I-1.5 J0.
N9355 G1 X303.333 Z-10.497
N9360 G3 X301.833 Y58.333 Z-10.579 I0. J-1.5
N9365 G1 Y48.333 Z-10.928
N9370 G3 X303.333 Y46.833 Z-11.011 I1.5 J0.
N9375 G1 X313.333 Z-11.36
N9380 G3 X314.833 Y48.333 Z-11.442 I0. J1.5
N9385 G1 Y58.333 Z-11.791
N9390 G3 X313.333 Y59.833 Z-11.873 I-1.5 J0.
N9395 G1 X303.333 Z-12.223
N9400 G3 X301.833 Y58.333 Z-12.305 I0. J-1.5
N9405 G1 Y48.333 Z-12.654
N9410 G3 X303.333 Y46.833 Z-12.736 I1.5 J0.
N9415 G1 X313.333 Z-13.086
N9420 G3 X314.833 Y48.333 Z-13.168 I0. J1.5
N9425 G1 Y58.333 Z-13.517
N9430 G3 X313.333 Y59.833 Z-13.599 I-1.5 J0.
N9435 G1 X303.333 Z-13.949
N9440 G3 X301.833 Y58.333 Z-14.031 I0. J-1.5
N9445 G1 Y48.333 Z-14.38
N9450 G3 X303.333 Y46.833 Z-14.462 I1.5 J0.
N9455 G1 X313.333 Z-14.812
N9460 G3 X314.833 Y48.333 Z-14.894 I0. J1.5
N9465 G1 Y58.333 Z-15.243
N9470 G3 X313.333 Y59.833 Z-15.325 I-1.5 J0.
N9475 G1 X308.333 Z-15.5
N9480 X303.333
N9485 G3 X301.833 Y58.333 I0. J-1.5
N9490 G1 Y48.333
N9495 G3 X303.333 Y46.833 I1.5 J0.
N9500 G1 X313.333
N9505 G3 X314.833 Y48.333 I0. J1.5
N9510 G1 Y58.333
N9515 G3 X313.333 Y59.833 I-1.5 J0.
N9520 G1 X308.333
N9525 G3 X305.133 Y56.633 I0. J-3.2 F1000.
N9530 G1 Y53.433
N9535 G19 G2 Y50.233 Z-12.3 J0. K3.2
N9540 G1 Z5. F400.
N9545 X335.504 Y56.433
N9550 Z4.2 F500.
N9555 G2 Y53.233 Z1. J-3.2 K0. F400.
N9560 G1 Y50.033
N9565 G17 G3 X338.704 Y46.833 I3.2 J0.
N9570 G1 X346.667 Z0.722
N9575 G3 X348.167 Y48.333 Z0.64 I0. J1.5
N9580 G1 Y58.333 Z0.29
N9585 G3 X346.667 Y59.833 Z0.208 I-1.5 J0.
N9590 G1 X336.667 Z-0.141
N9595 G3 X335.167 Y58.333 Z-0.223 I0. J-1.5
N9600 G1 Y48.333 Z-0.573
N9605 G3 X336.667 Y46.833 Z-0.655 I1.5 J0.
N9610 G1 X346.667 Z-1.004
N9615 G3 X348.167 Y48.333 Z-1.086 I0. J1.5
N9620 G1 Y58.333 Z-1.436
N9625 G3 X346.667 Y59.833 Z-1.518 I-1.5 J0.
N9630 G1 X336.667 Z-1.867
N9635 G3 X335.167 Y58.333 Z-1.949 I0. J-1.5
N9640 G1 Y48.333 Z-2.298
N9645 G3 X336.667 Y46.833 Z-2.381 I1.5 J0.
N9650 G1 X346.667 Z-2.73
N9655 G3 X348.167 Y48.333 Z-2.812 I0. J1.5
N9660 G1 Y58.333 Z-3.161
N9665 G3 X346.667 Y59.833 Z-3.244 I-1.5 J0.
N9670 G1 X336.667 Z-3.593
N9675 G3 X335.167 Y58.333 Z-3.675 I0. J-1.5
N9680 G1 Y48.333 Z-4.024
N9685 G3 X336.667 Y46.833 Z-4.107 I1.5 J0.
N9690 G1 X346.667 Z-4.456
N9695 G3 X348.167 Y48.333 Z-4.538 I0. J1.5
N9700 G1 Y58.333 Z-4.887
N9705 G3 X346.667 Y59.833 Z-4.97 I-1.5 J0.
N9710 G1 X336.667 Z-5.319
N9715 G3 X335.167 Y58.333 Z-5.401 I0. J-1.5
N9720 G1 Y48.333 Z-5.75
N9725 G3 X336.667 Y46.833 Z-5.833 I1.5 J0.
N9730 G1 X346.667 Z-6.182
N9735 G3 X348.167 Y48.333 Z-6.264 I0. J1.5
N9740 G1 Y58.333 Z-6.613
N9745 G3 X346.667 Y59.833 Z-6.696 I-1.5 J0.
N9750 G1 X336.667 Z-7.045
N9755 G3 X335.167 Y58.333 Z-7.127 I0. J-1.5
N9760 G1 Y48.333 Z-7.476
N9765 G3 X336.667 Y46.833 Z-7.559 I1.5 J0.
N9770 G1 X346.667 Z-7.908
N9775 G3 X348.167 Y48.333 Z-7.99 I0. J1.5
N9780 G1 Y58.333 Z-8.339
N9785 G3 X346.667 Y59.833 Z-8.422 I-1.5 J0.
N9790 G1 X336.667 Z-8.771
N9795 G3 X335.167 Y58.333 Z-8.853 I0. J-1.5
N9800 G1 Y48.333 Z-9.202
N9805 G3 X336.667 Y46.833 Z-9.285 I1.5 J0.
N9810 G1 X346.667 Z-9.634
N9815 G3 X348.167 Y48.333 Z-9.716 I0. J1.5
N9820 G1 Y58.333 Z-10.065
N9825 G3 X346.667 Y59.833 Z-10.148 I-1.5 J0.
N9830 G1 X336.667 Z-10.497
N9835 G3 X335.167 Y58.333 Z-10.579 I0. J-1.5
N9840 G1 Y48.333 Z-10.928
N9845 G3 X336.667 Y46.833 Z-11.011 I1.5 J0.
N9850 G1 X346.667 Z-11.36
N9855 G3 X348.167 Y48.333 Z-11.442 I0. J1.5
N9860 G1 Y58.333 Z-11.791
N9865 G3 X346.667 Y59.833 Z-11.873 I-1.5 J0.
N9870 G1 X336.667 Z-12.223
N9875 G3 X335.167 Y58.333 Z-12.305 I0. J-1.5
N9880 G1 Y48.333 Z-12.654
N9885 G3 X336.667 Y46.833 Z-12.736 I1.5 J0.
N9890 G1 X346.667 Z-13.086
N9895 G3 X348.167 Y48.333 Z-13.168 I0. J1.5
N9900 G1 Y58.333 Z-13.517
N9905 G3 X346.667 Y59.833 Z-13.599 I-1.5 J0.
N9910 G1 X336.667 Z-13.949
N9915 G3 X335.167 Y58.333 Z-14.031 I0. J-1.5
N9920 G1 Y48.333 Z-14.38
N9925 G3 X336.667 Y46.833 Z-14.462 I1.5 J0.
N9930 G1 X346.667 Z-14.812
N9935 G3 X348.167 Y48.333 Z-14.894 I0. J1.5
N9940 G1 Y58.333 Z-15.243
N9945 G3 X346.667 Y59.833 Z-15.325 I-1.5 J0.
N9950 G1 X341.667 Z-15.5
N9955 X336.667
N9960 G3 X335.167 Y58.333 I0. J-1.5
N9965 G1 Y48.333
N9970 G3 X336.667 Y46.833 I1.5 J0.
N9975 G1 X346.667
N9980 G3 X348.167 Y48.333 I0. J1.5
N9985 G1 Y58.333
N9990 G3 X346.667 Y59.833 I-1.5 J0.
N9995 G1 X341.667
N10000 G3 X338.467 Y56.633 I0. J-3.2 F1000.
N10005 G1 Y53.433
N10010 G19 G2 Y50.233 Z-12.3 J0. K3.2
N10015 G1 Z5. F400.
N10020 X335.504 Y23.1
N10025 Z4.2 F500.
N10030 G2 Y19.9 Z1. J-3.2 K0. F400.
N10035 G1 Y16.7
N10040 G17 G3 X338.704 Y13.5 I3.2 J0.
N10045 G1 X346.667 Z0.722
N10050 G3 X348.167 Y15. Z0.64 I0. J1.5
N10055 G1 Y25. Z0.29
N10060 G3 X346.667 Y26.5 Z0.208 I-1.5 J0.
N10065 G1 X336.667 Z-0.141
N10070 G3 X335.167 Y25. Z-0.223 I0. J-1.5
N10075 G1 Y15. Z-0.573
N10080 G3 X336.667 Y13.5 Z-0.655 I1.5 J0.
N10085 G1 X346.667 Z-1.004
N10090 G3 X348.167 Y15. Z-1.086 I0. J1.5
N10095 G1 Y25. Z-1.436
N10100 G3 X346.667 Y26.5 Z-1.518 I-1.5 J0.
N10105 G1 X336.667 Z-1.867
N10110 G3 X335.167 Y25. Z-1.949 I0. J-1.5
N10115 G1 Y15. Z-2.298
N10120 G3 X336.667 Y13.5 Z-2.381 I1.5 J0.
N10125 G1 X346.667 Z-2.73
N10130 G3 X348.167 Y15. Z-2.812 I0. J1.5
N10135 G1 Y25. Z-3.161
N10140 G3 X346.667 Y26.5 Z-3.244 I-1.5 J0.
N10145 G1 X336.667 Z-3.593
N10150 G3 X335.167 Y25. Z-3.675 I0. J-1.5
N10155 G1 Y15. Z-4.024
N10160 G3 X336.667 Y13.5 Z-4.107 I1.5 J0.
N10165 G1 X346.667 Z-4.456
N10170 G3 X348.167 Y15. Z-4.538 I0. J1.5
N10175 G1 Y25. Z-4.887
N10180 G3 X346.667 Y26.5 Z-4.97 I-1.5 J0.
N10185 G1 X336.667 Z-5.319
N10190 G3 X335.167 Y25. Z-5.401 I0. J-1.5
N10195 G1 Y15. Z-5.75
N10200 G3 X336.667 Y13.5 Z-5.833 I1.5 J0.
N10205 G1 X346.667 Z-6.182
N10210 G3 X348.167 Y15. Z-6.264 I0. J1.5
N10215 G1 Y25. Z-6.613
N10220 G3 X346.667 Y26.5 Z-6.696 I-1.5 J0.
N10225 G1 X336.667 Z-7.045
N10230 G3 X335.167 Y25. Z-7.127 I0. J-1.5
N10235 G1 Y15. Z-7.476
N10240 G3 X336.667 Y13.5 Z-7.559 I1.5 J0.
N10245 G1 X346.667 Z-7.908
N10250 G3 X348.167 Y15. Z-7.99 I0. J1.5
N10255 G1 Y25. Z-8.339
N10260 G3 X346.667 Y26.5 Z-8.422 I-1.5 J0.
N10265 G1 X336.667 Z-8.771
N10270 G3 X335.167 Y25. Z-8.853 I0. J-1.5
N10275 G1 Y15. Z-9.202
N10280 G3 X336.667 Y13.5 Z-9.285 I1.5 J0.
N10285 G1 X346.667 Z-9.634
N10290 G3 X348.167 Y15. Z-9.716 I0. J1.5
N10295 G1 Y25. Z-10.065
N10300 G3 X346.667 Y26.5 Z-10.148 I-1.5 J0.
N10305 G1 X336.667 Z-10.497
N10310 G3 X335.167 Y25. Z-10.579 I0. J-1.5
N10315 G1 Y15. Z-10.928
N10320 G3 X336.667 Y13.5 Z-11.011 I1.5 J0.
N10325 G1 X346.667 Z-11.36
N10330 G3 X348.167 Y15. Z-11.442 I0. J1.5
N10335 G1 Y25. Z-11.791
N10340 G3 X346.667 Y26.5 Z-11.873 I-1.5 J0.
N10345 G1 X336.667 Z-12.223
N10350 G3 X335.167 Y25. Z-12.305 I0. J-1.5
N10355 G1 Y15. Z-12.654
N10360 G3 X336.667 Y13.5 Z-12.736 I1.5 J0.
N10365 G1 X346.667 Z-13.086
N10370 G3 X348.167 Y15. Z-13.168 I0. J1.5
N10375 G1 Y25. Z-13.517
N10380 G3 X346.667 Y26.5 Z-13.599 I-1.5 J0.
N10385 G1 X336.667 Z-13.949
N10390 G3 X335.167 Y25. Z-14.031 I0. J-1.5
N10395 G1 Y15. Z-14.38
N10400 G3 X336.667 Y13.5 Z-14.462 I1.5 J0.
N10405 G1 X346.667 Z-14.812
N10410 G3 X348.167 Y15. Z-14.894 I0. J1.5
N10415 G1 Y25. Z-15.243
N10420 G3 X346.667 Y26.5 Z-15.325 I-1.5 J0.
N10425 G1 X341.667 Z-15.5
N10430 X336.667
N10435 G3 X335.167 Y25. I0. J-1.5
N10440 G1 Y15.
N10445 G3 X336.667 Y13.5 I1.5 J0.
N10450 G1 X346.667
N10455 G3 X348.167 Y15. I0. J1.5
N10460 G1 Y25.
N10465 G3 X346.667 Y26.5 I-1.5 J0.
N10470 G1 X341.667
N10475 G3 X338.467 Y23.3 I0. J-3.2 F1000.
N10480 G1 Y20.1
N10485 G19 G2 Y16.9 Z-12.3 J0. K3.2
N10490 G1 Z5. F400.
N10495 X368.837 Y23.1
N10500 Z4.2 F500.
N10505 G2 Y19.9 Z1. J-3.2 K0. F400.
N10510 G1 Y16.7
N10515 G17 G3 X372.037 Y13.5 I3.2 J0.
N10520 G1 X380. Z0.722
N10525 G3 X381.5 Y15. Z0.64 I0. J1.5
N10530 G1 Y25. Z0.29
N10535 G3 X380. Y26.5 Z0.208 I-1.5 J0.
N10540 G1 X370. Z-0.141
N10545 G3 X368.5 Y25. Z-0.223 I0. J-1.5
N10550 G1 Y15. Z-0.573
N10555 G3 X370. Y13.5 Z-0.655 I1.5 J0.
N10560 G1 X380. Z-1.004
N10565 G3 X381.5 Y15. Z-1.086 I0. J1.5
N10570 G1 Y25. Z-1.436
N10575 G3 X380. Y26.5 Z-1.518 I-1.5 J0.
N10580 G1 X370. Z-1.867
N10585 G3 X368.5 Y25. Z-1.949 I0. J-1.5
N10590 G1 Y15. Z-2.298
N10595 G3 X370. Y13.5 Z-2.381 I1.5 J0.
N10600 G1 X380. Z-2.73
N10605 G3 X381.5 Y15. Z-2.812 I0. J1.5
N10610 G1 Y25. Z-3.161
N10615 G3 X380. Y26.5 Z-3.244 I-1.5 J0.
N10620 G1 X370. Z-3.593
N10625 G3 X368.5 Y25. Z-3.675 I0. J-1.5
N10630 G1 Y15. Z-4.024
N10635 G3 X370. Y13.5 Z-4.107 I1.5 J0.
N10640 G1 X380. Z-4.456
N10645 G3 X381.5 Y15. Z-4.538 I0. J1.5
N10650 G1 Y25. Z-4.887
N10655 G3 X380. Y26.5 Z-4.97 I-1.5 J0.
N10660 G1 X370. Z-5.319
N10665 G3 X368.5 Y25. Z-5.401 I0. J-1.5
N10670 G1 Y15. Z-5.75
N10675 G3 X370. Y13.5 Z-5.833 I1.5 J0.
N10680 G1 X380. Z-6.182
N10685 G3 X381.5 Y15. Z-6.264 I0. J1.5
N10690 G1 Y25. Z-6.613
N10695 G3 X380. Y26.5 Z-6.696 I-1.5 J0.
N10700 G1 X370. Z-7.045
N10705 G3 X368.5 Y25. Z-7.127 I0. J-1.5
N10710 G1 Y15. Z-7.476
N10715 G3 X370. Y13.5 Z-7.559 I1.5 J0.
N10720 G1 X380. Z-7.908
N10725 G3 X381.5 Y15. Z-7.99 I0. J1.5
N10730 G1 Y25. Z-8.339
N10735 G3 X380. Y26.5 Z-8.422 I-1.5 J0.
N10740 G1 X370. Z-8.771
N10745 G3 X368.5 Y25. Z-8.853 I0. J-1.5
N10750 G1 Y15. Z-9.202
N10755 G3 X370. Y13.5 Z-9.285 I1.5 J0.
N10760 G1 X380. Z-9.634
N10765 G3 X381.5 Y15. Z-9.716 I0. J1.5
N10770 G1 Y25. Z-10.065
N10775 G3 X380. Y26.5 Z-10.148 I-1.5 J0.
N10780 G1 X370. Z-10.497
N10785 G3 X368.5 Y25. Z-10.579 I0. J-1.5
N10790 G1 Y15. Z-10.928
N10795 G3 X370. Y13.5 Z-11.011 I1.5 J0.
N10800 G1 X380. Z-11.36
N10805 G3 X381.5 Y15. Z-11.442 I0. J1.5
N10810 G1 Y25. Z-11.791
N10815 G3 X380. Y26.5 Z-11.873 I-1.5 J0.
N10820 G1 X370. Z-12.223
N10825 G3 X368.5 Y25. Z-12.305 I0. J-1.5
N10830 G1 Y15. Z-12.654
N10835 G3 X370. Y13.5 Z-12.736 I1.5 J0.
N10840 G1 X380. Z-13.086
N10845 G3 X381.5 Y15. Z-13.168 I0. J1.5
N10850 G1 Y25. Z-13.517
N10855 G3 X380. Y26.5 Z-13.599 I-1.5 J0.
N10860 G1 X370. Z-13.949
N10865 G3 X368.5 Y25. Z-14.031 I0. J-1.5
N10870 G1 Y15. Z-14.38
N10875 G3 X370. Y13.5 Z-14.462 I1.5 J0.
N10880 G1 X380. Z-14.812
N10885 G3 X381.5 Y15. Z-14.894 I0. J1.5
N10890 G1 Y25. Z-15.243
N10895 G3 X380. Y26.5 Z-15.325 I-1.5 J0.
N10900 G1 X375. Z-15.5
N10905 X370.
N10910 G3 X368.5 Y25. I0. J-1.5
N10915 G1 Y15.
N10920 G3 X370. Y13.5 I1.5 J0.
N10925 G1 X380.
N10930 G3 X381.5 Y15. I0. J1.5
N10935 G1 Y25.
N10940 G3 X380. Y26.5 I-1.5 J0.
N10945 G1 X375.
N10950 G3 X371.8 Y23.3 I0. J-3.2 F1000.
N10955 G1 Y20.1
N10960 G19 G2 Y16.9 Z-12.3 J0. K3.2
N10965 G1 Z5. F400.
N10970 X368.837 Y56.433
N10975 Z4.2 F500.
N10980 G2 Y53.233 Z1. J-3.2 K0. F400.
N10985 G1 Y50.033
N10990 G17 G3 X372.037 Y46.833 I3.2 J0.
N10995 G1 X380. Z0.722
N11000 G3 X381.5 Y48.333 Z0.64 I0. J1.5
N11005 G1 Y58.333 Z0.29
N11010 G3 X380. Y59.833 Z0.208 I-1.5 J0.
N11015 G1 X370. Z-0.141
N11020 G3 X368.5 Y58.333 Z-0.223 I0. J-1.5
N11025 G1 Y48.333 Z-0.573
N11030 G3 X370. Y46.833 Z-0.655 I1.5 J0.
N11035 G1 X380. Z-1.004
N11040 G3 X381.5 Y48.333 Z-1.086 I0. J1.5
N11045 G1 Y58.333 Z-1.436
N11050 G3 X380. Y59.833 Z-1.518 I-1.5 J0.
N11055 G1 X370. Z-1.867
N11060 G3 X368.5 Y58.333 Z-1.949 I0. J-1.5
N11065 G1 Y48.333 Z-2.298
N11070 G3 X370. Y46.833 Z-2.381 I1.5 J0.
N11075 G1 X380. Z-2.73
N11080 G3 X381.5 Y48.333 Z-2.812 I0. J1.5
N11085 G1 Y58.333 Z-3.161
N11090 G3 X380. Y59.833 Z-3.244 I-1.5 J0.
N11095 G1 X370. Z-3.593
N11100 G3 X368.5 Y58.333 Z-3.675 I0. J-1.5
N11105 G1 Y48.333 Z-4.024
N11110 G3 X370. Y46.833 Z-4.107 I1.5 J0.
N11115 G1 X380. Z-4.456
N11120 G3 X381.5 Y48.333 Z-4.538 I0. J1.5
N11125 G1 Y58.333 Z-4.887
N11130 G3 X380. Y59.833 Z-4.97 I-1.5 J0.
N11135 G1 X370. Z-5.319
N11140 G3 X368.5 Y58.333 Z-5.401 I0. J-1.5
N11145 G1 Y48.333 Z-5.75
N11150 G3 X370. Y46.833 Z-5.833 I1.5 J0.
N11155 G1 X380. Z-6.182
N11160 G3 X381.5 Y48.333 Z-6.264 I0. J1.5
N11165 G1 Y58.333 Z-6.613
N11170 G3 X380. Y59.833 Z-6.696 I-1.5 J0.
N11175 G1 X370. Z-7.045
N11180 G3 X368.5 Y58.333 Z-7.127 I0. J-1.5
N11185 G1 Y48.333 Z-7.476
N11190 G3 X370. Y46.833 Z-7.559 I1.5 J0.
N11195 G1 X380. Z-7.908
N11200 G3 X381.5 Y48.333 Z-7.99 I0. J1.5
N11205 G1 Y58.333 Z-8.339
N11210 G3 X380. Y59.833 Z-8.422 I-1.5 J0.
N11215 G1 X370. Z-8.771
N11220 G3 X368.5 Y58.333 Z-8.853 I0. J-1.5
N11225 G1 Y48.333 Z-9.202
N11230 G3 X370. Y46.833 Z-9.285 I1.5 J0.
N11235 G1 X380. Z-9.634
N11240 G3 X381.5 Y48.333 Z-9.716 I0. J1.5
N11245 G1 Y58.333 Z-10.065
N11250 G3 X380. Y59.833 Z-10.148 I-1.5 J0.
N11255 G1 X370. Z-10.497
N11260 G3 X368.5 Y58.333 Z-10.579 I0. J-1.5
N11265 G1 Y48.333 Z-10.928
N11270 G3 X370. Y46.833 Z-11.011 I1.5 J0.
N11275 G1 X380. Z-11.36
N11280 G3 X381.5 Y48.333 Z-11.442 I0. J1.5
N11285 G1 Y58.333 Z-11.791
N11290 G3 X380. Y59.833 Z-11.873 I-1.5 J0.
N11295 G1 X370. Z-12.223
N11300 G3 X368.5 Y58.333 Z-12.305 I0. J-1.5
N11305 G1 Y48.333 Z-12.654
N11310 G3 X370. Y46.833 Z-12.736 I1.5 J0.
N11315 G1 X380. Z-13.086
N11320 G3 X381.5 Y48.333 Z-13.168 I0. J1.5
N11325 G1 Y58.333 Z-13.517
N11330 G3 X380. Y59.833 Z-13.599 I-1.5 J0.
N11335 G1 X370. Z-13.949
N11340 G3 X368.5 Y58.333 Z-14.031 I0. J-1.5
N11345 G1 Y48.333 Z-14.38
N11350 G3 X370. Y46.833 Z-14.462 I1.5 J0.
N11355 G1 X380. Z-14.812
N11360 G3 X381.5 Y48.333 Z-14.894 I0. J1.5
N11365 G1 Y58.333 Z-15.243
N11370 G3 X380. Y59.833 Z-15.325 I-1.5 J0.
N11375 G1 X375. Z-15.5
N11380 X370.
N11385 G3 X368.5 Y58.333 I0. J-1.5
N11390 G1 Y48.333
N11395 G3 X370. Y46.833 I1.5 J0.
N11400 G1 X380.
N11405 G3 X381.5 Y48.333 I0. J1.5
N11410 G1 Y58.333
N11415 G3 X380. Y59.833 I-1.5 J0.
N11420 G1 X375.
N11425 G3 X371.8 Y56.633 I0. J-3.2 F1000.
N11430 G1 Y53.433
N11435 G19 G2 Y50.233 Z-12.3 J0. K3.2
N11440 G1 Z5. F400.
N11445 X378.1 Y92.83
N11450 Z4.2 F500.
N11455 G18 G3 X374.9 Z1. I-3.2 K0. F400.
N11460 G1 X371.7
N11465 G17 G3 X368.5 Y89.63 I0. J-3.2
N11470 G1 Y81.667 Z0.722
N11475 G3 X370. Y80.167 Z0.64 I1.5 J0.
N11480 G1 X380. Z0.29
N11485 G3 X381.5 Y81.667 Z0.208 I0. J1.5
N11490 G1 Y91.667 Z-0.141
N11495 G3 X380. Y93.167 Z-0.223 I-1.5 J0.
N11500 G1 X370. Z-0.573
N11505 G3 X368.5 Y91.667 Z-0.655 I0. J-1.5
N11510 G1 Y81.667 Z-1.004
N11515 G3 X370. Y80.167 Z-1.086 I1.5 J0.
N11520 G1 X380. Z-1.436
N11525 G3 X381.5 Y81.667 Z-1.518 I0. J1.5
N11530 G1 Y91.667 Z-1.867
N11535 G3 X380. Y93.167 Z-1.949 I-1.5 J0.
N11540 G1 X370. Z-2.298
N11545 G3 X368.5 Y91.667 Z-2.381 I0. J-1.5
N11550 G1 Y81.667 Z-2.73
N11555 G3 X370. Y80.167 Z-2.812 I1.5 J0.
N11560 G1 X380. Z-3.161
N11565 G3 X381.5 Y81.667 Z-3.244 I0. J1.5
N11570 G1 Y91.667 Z-3.593
N11575 G3 X380. Y93.167 Z-3.675 I-1.5 J0.
N11580 G1 X370. Z-4.024
N11585 G3 X368.5 Y91.667 Z-4.107 I0. J-1.5
N11590 G1 Y81.667 Z-4.456
N11595 G3 X370. Y80.167 Z-4.538 I1.5 J0.
N11600 G1 X380. Z-4.887
N11605 G3 X381.5 Y81.667 Z-4.97 I0. J1.5
N11610 G1 Y91.667 Z-5.319
N11615 G3 X380. Y93.167 Z-5.401 I-1.5 J0.
N11620 G1 X370. Z-5.75
N11625 G3 X368.5 Y91.667 Z-5.833 I0. J-1.5
N11630 G1 Y81.667 Z-6.182
N11635 G3 X370. Y80.167 Z-6.264 I1.5 J0.
N11640 G1 X380. Z-6.613
N11645 G3 X381.5 Y81.667 Z-6.696 I0. J1.5
N11650 G1 Y91.667 Z-7.045
N11655 G3 X380. Y93.167 Z-7.127 I-1.5 J0.
N11660 G1 X370. Z-7.476
N11665 G3 X368.5 Y91.667 Z-7.559 I0. J-1.5
N11670 G1 Y81.667 Z-7.908
N11675 G3 X370. Y80.167 Z-7.99 I1.5 J0.
N11680 G1 X380. Z-8.339
N11685 G3 X381.5 Y81.667 Z-8.422 I0. J1.5
N11690 G1 Y91.667 Z-8.771
N11695 G3 X380. Y93.167 Z-8.853 I-1.5 J0.
N11700 G1 X370. Z-9.202
N11705 G3 X368.5 Y91.667 Z-9.285 I0. J-1.5
N11710 G1 Y81.667 Z-9.634
N11715 G3 X370. Y80.167 Z-9.716 I1.5 J0.
N11720 G1 X380. Z-10.065
N11725 G3 X381.5 Y81.667 Z-10.148 I0. J1.5
N11730 G1 Y91.667 Z-10.497
N11735 G3 X380. Y93.167 Z-10.579 I-1.5 J0.
N11740 G1 X370. Z-10.928
N11745 G3 X368.5 Y91.667 Z-11.011 I0. J-1.5
N11750 G1 Y81.667 Z-11.36
N11755 G3 X370. Y80.167 Z-11.442 I1.5 J0.
N11760 G1 X380. Z-11.791
N11765 G3 X381.5 Y81.667 Z-11.873 I0. J1.5
N11770 G1 Y91.667 Z-12.223
N11775 G3 X380. Y93.167 Z-12.305 I-1.5 J0.
N11780 G1 X370. Z-12.654
N11785 G3 X368.5 Y91.667 Z-12.736 I0. J-1.5
N11790 G1 Y81.667 Z-13.086
N11795 G3 X370. Y80.167 Z-13.168 I1.5 J0.
N11800 G1 X380. Z-13.517
N11805 G3 X381.5 Y81.667 Z-13.599 I0. J1.5
N11810 G1 Y91.667 Z-13.949
N11815 G3 X380. Y93.167 Z-14.031 I-1.5 J0.
N11820 G1 X370. Z-14.38
N11825 G3 X368.5 Y91.667 Z-14.462 I0. J-1.5
N11830 G1 Y81.667 Z-14.812
N11835 G3 X370. Y80.167 Z-14.894 I1.5 J0.
N11840 G1 X380. Z-15.243
N11845 G3 X381.5 Y81.667 Z-15.325 I0. J1.5
N11850 G1 Y86.667 Z-15.5
N11855 Y91.667
N11860 G3 X380. Y93.167 I-1.5 J0.
N11865 G1 X370.
N11870 G3 X368.5 Y91.667 I0. J-1.5
N11875 G1 Y81.667
N11880 G3 X370. Y80.167 I1.5 J0.
N11885 G1 X380.
N11890 G3 X381.5 Y81.667 I0. J1.5
N11895 G1 Y86.667
N11900 G3 X378.3 Y89.867 I-3.2 J0. F1000.
N11905 G1 X375.1
N11910 G18 G3 X371.9 Z-12.3 I0. K3.2
N11915 G1 Z5. F400.
N11920 X368.837 Y123.1
N11925 Z4.2 F500.
N11930 G19 G2 Y119.9 Z1. J-3.2 K0. F400.
N11935 G1 Y116.7
N11940 G17 G3 X372.037 Y113.5 I3.2 J0.
N11945 G1 X380. Z0.722
N11950 G3 X381.5 Y115. Z0.64 I0. J1.5
N11955 G1 Y125. Z0.29
N11960 G3 X380. Y126.5 Z0.208 I-1.5 J0.
N11965 G1 X370. Z-0.141
N11970 G3 X368.5 Y125. Z-0.223 I0. J-1.5
N11975 G1 Y115. Z-0.573
N11980 G3 X370. Y113.5 Z-0.655 I1.5 J0.
N11985 G1 X380. Z-1.004
N11990 G3 X381.5 Y115. Z-1.086 I0. J1.5
N11995 G1 Y125. Z-1.436
N12000 G3 X380. Y126.5 Z-1.518 I-1.5 J0.
N12005 G1 X370. Z-1.867
N12010 G3 X368.5 Y125. Z-1.949 I0. J-1.5
N12015 G1 Y115. Z-2.298
N12020 G3 X370. Y113.5 Z-2.381 I1.5 J0.
N12025 G1 X380. Z-2.73
N12030 G3 X381.5 Y115. Z-2.812 I0. J1.5
N12035 G1 Y125. Z-3.161
N12040 G3 X380. Y126.5 Z-3.244 I-1.5 J0.
N12045 G1 X370. Z-3.593
N12050 G3 X368.5 Y125. Z-3.675 I0. J-1.5
N12055 G1 Y115. Z-4.024
N12060 G3 X370. Y113.5 Z-4.107 I1.5 J0.
N12065 G1 X380. Z-4.456
N12070 G3 X381.5 Y115. Z-4.538 I0. J1.5
N12075 G1 Y125. Z-4.887
N12080 G3 X380. Y126.5 Z-4.97 I-1.5 J0.
N12085 G1 X370. Z-5.319
N12090 G3 X368.5 Y125. Z-5.401 I0. J-1.5
N12095 G1 Y115. Z-5.75
N12100 G3 X370. Y113.5 Z-5.833 I1.5 J0.
N12105 G1 X380. Z-6.182
N12110 G3 X381.5 Y115. Z-6.264 I0. J1.5
N12115 G1 Y125. Z-6.613
N12120 G3 X380. Y126.5 Z-6.696 I-1.5 J0.
N12125 G1 X370. Z-7.045
N12130 G3 X368.5 Y125. Z-7.127 I0. J-1.5
N12135 G1 Y115. Z-7.476
N12140 G3 X370. Y113.5 Z-7.559 I1.5 J0.
N12145 G1 X380. Z-7.908
N12150 G3 X381.5 Y115. Z-7.99 I0. J1.5
N12155 G1 Y125. Z-8.339
N12160 G3 X380. Y126.5 Z-8.422 I-1.5 J0.
N12165 G1 X370. Z-8.771
N12170 G3 X368.5 Y125. Z-8.853 I0. J-1.5
N12175 G1 Y115. Z-9.202
N12180 G3 X370. Y113.5 Z-9.285 I1.5 J0.
N12185 G1 X380. Z-9.634
N12190 G3 X381.5 Y115. Z-9.716 I0. J1.5
N12195 G1 Y125. Z-10.065
N12200 G3 X380. Y126.5 Z-10.148 I-1.5 J0.
N12205 G1 X370. Z-10.497
N12210 G3 X368.5 Y125. Z-10.579 I0. J-1.5
N12215 G1 Y115. Z-10.928
N12220 G3 X370. Y113.5 Z-11.011 I1.5 J0.
N12225 G1 X380. Z-11.36
N12230 G3 X381.5 Y115. Z-11.442 I0. J1.5
N12235 G1 Y125. Z-11.791
N12240 G3 X380. Y126.5 Z-11.873 I-1.5 J0.
N12245 G1 X370. Z-12.223
N12250 G3 X368.5 Y125. Z-12.305 I0. J-1.5
N12255 G1 Y115. Z-12.654
N12260 G3 X370. Y113.5 Z-12.736 I1.5 J0.
N12265 G1 X380. Z-13.086
N12270 G3 X381.5 Y115. Z-13.168 I0. J1.5
N12275 G1 Y125. Z-13.517
N12280 G3 X380. Y126.5 Z-13.599 I-1.5 J0.
N12285 G1 X370. Z-13.949
N12290 G3 X368.5 Y125. Z-14.031 I0. J-1.5
N12295 G1 Y115. Z-14.38
N12300 G3 X370. Y113.5 Z-14.462 I1.5 J0.
N12305 G1 X380. Z-14.812
N12310 G3 X381.5 Y115. Z-14.894 I0. J1.5
N12315 G1 Y125. Z-15.243
N12320 G3 X380. Y126.5 Z-15.325 I-1.5 J0.
N12325 G1 X375. Z-15.5
N12330 X370.
N12335 G3 X368.5 Y125. I0. J-1.5
N12340 G1 Y115.
N12345 G3 X370. Y113.5 I1.5 J0.
N12350 G1 X380.
N12355 G3 X381.5 Y115. I0. J1.5
N12360 G1 Y125.
N12365 G3 X380. Y126.5 I-1.5 J0.
N12370 G1 X375.
N12375 G3 X371.8 Y123.3 I0. J-3.2 F1000.
N12380 G1 Y120.1
N12385 G19 G2 Y116.9 Z-12.3 J0. K3.2
N12390 G1 Z5. F400.
N12395 X338.567 Y113.837
N12400 Z4.2 F500.
N12405 G18 G2 X341.767 Z1. I3.2 K0. F400.
N12410 G1 X344.967
N12415 G17 G3 X348.167 Y117.037 I0. J3.2
N12420 G1 Y125. Z0.722
N12425 G3 X346.667 Y126.5 Z0.64 I-1.5 J0.
N12430 G1 X336.667 Z0.29
N12435 G3 X335.167 Y125. Z0.208 I0. J-1.5
N12440 G1 Y115. Z-0.141
N12445 G3 X336.667 Y113.5 Z-0.223 I1.5 J0.
N12450 G1 X346.667 Z-0.573
N12455 G3 X348.167 Y115. Z-0.655 I0. J1.5
N12460 G1 Y125. Z-1.004
N12465 G3 X346.667 Y126.5 Z-1.086 I-1.5 J0.
N12470 G1 X336.667 Z-1.436
N12475 G3 X335.167 Y125. Z-1.518 I0. J-1.5
N12480 G1 Y115. Z-1.867
N12485 G3 X336.667 Y113.5 Z-1.949 I1.5 J0.
N12490 G1 X346.667 Z-2.298
N12495 G3 X348.167 Y115. Z-2.381 I0. J1.5
N12500 G1 Y125. Z-2.73
N12505 G3 X346.667 Y126.5 Z-2.812 I-1.5 J0.
N12510 G1 X336.667 Z-3.161
N12515 G3 X335.167 Y125. Z-3.244 I0. J-1.5
N12520 G1 Y115. Z-3.593
N12525 G3 X336.667 Y113.5 Z-3.675 I1.5 J0.
N12530 G1 X346.667 Z-4.024
N12535 G3 X348.167 Y115. Z-4.107 I0. J1.5
N12540 G1 Y125. Z-4.456
N12545 G3 X346.667 Y126.5 Z-4.538 I-1.5 J0.
N12550 G1 X336.667 Z-4.887
N12555 G3 X335.167 Y125. Z-4.97 I0. J-1.5
N12560 G1 Y115. Z-5.319
N12565 G3 X336.667 Y113.5 Z-5.401 I1.5 J0.
N12570 G1 X346.667 Z-5.75
N12575 G3 X348.167 Y115. Z-5.833 I0. J1.5
N12580 G1 Y125. Z-6.182
N12585 G3 X346.667 Y126.5 Z-6.264 I-1.5 J0.
N12590 G1 X336.667 Z-6.613
N12595 G3 X335.167 Y125. Z-6.696 I0. J-1.5
N12600 G1 Y115. Z-7.045
N12605 G3 X336.667 Y113.5 Z-7.127 I1.5 J0.
N12610 G1 X346.667 Z-7.476
N12615 G3 X348.167 Y115. Z-7.559 I0. J1.5
N12620 G1 Y125. Z-7.908
N12625 G3 X346.667 Y126.5 Z-7.99 I-1.5 J0.
N12630 G1 X336.667 Z-8.339
N12635 G3 X335.167 Y125. Z-8.422 I0. J-1.5
N12640 G1 Y115. Z-8.771
N12645 G3 X336.667 Y113.5 Z-8.853 I1.5 J0.
N12650 G1 X346.667 Z-9.202
N12655 G3 X348.167 Y115. Z-9.285 I0. J1.5
N12660 G1 Y125. Z-9.634
N12665 G3 X346.667 Y126.5 Z-9.716 I-1.5 J0.
N12670 G1 X336.667 Z-10.065
N12675 G3 X335.167 Y125. Z-10.148 I0. J-1.5
N12680 G1 Y115. Z-10.497
N12685 G3 X336.667 Y113.5 Z-10.579 I1.5 J0.
N12690 G1 X346.667 Z-10.928
N12695 G3 X348.167 Y115. Z-11.011 I0. J1.5
N12700 G1 Y125. Z-11.36
N12705 G3 X346.667 Y126.5 Z-11.442 I-1.5 J0.
N12710 G1 X336.667 Z-11.791
N12715 G3 X335.167 Y125. Z-11.873 I0. J-1.5
N12720 G1 Y115. Z-12.223
N12725 G3 X336.667 Y113.5 Z-12.305 I1.5 J0.
N12730 G1 X346.667 Z-12.654
N12735 G3 X348.167 Y115. Z-12.736 I0. J1.5
N12740 G1 Y125. Z-13.086
N12745 G3 X346.667 Y126.5 Z-13.168 I-1.5 J0.
N12750 G1 X336.667 Z-13.517
N12755 G3 X335.167 Y125. Z-13.599 I0. J-1.5
N12760 G1 Y115. Z-13.949
N12765 G3 X336.667 Y113.5 Z-14.031 I1.5 J0.
N12770 G1 X346.667 Z-14.38
N12775 G3 X348.167 Y115. Z-14.462 I0. J1.5
N12780 G1 Y125. Z-14.812
N12785 G3 X346.667 Y126.5 Z-14.894 I-1.5 J0.
N12790 G1 X336.667 Z-15.243
N12795 G3 X335.167 Y125. Z-15.325 I0. J-1.5
N12800 G1 Y120. Z-15.5
N12805 Y115.
N12810 G3 X336.667 Y113.5 I1.5 J0.
N12815 G1 X346.667
N12820 G3 X348.167 Y115. I0. J1.5
N12825 G1 Y125.
N12830 G3 X346.667 Y126.5 I-1.5 J0.
N12835 G1 X336.667
N12840 G3 X335.167 Y125. I0. J-1.5
N12845 G1 Y120.
N12850 G3 X338.367 Y116.8 I3.2 J0. F1000.
N12855 G1 X341.567
N12860 G18 G2 X344.767 Z-12.3 I0. K3.2
N12865 G1 Z5. F400.
N12870 Y92.83
N12875 Z4.2 F500.
N12880 G3 X341.567 Z1. I-3.2 K0. F400.
N12885 G1 X338.367
N12890 G17 G3 X335.167 Y89.63 I0. J-3.2
N12895 G1 Y81.667 Z0.722
N12900 G3 X336.667 Y80.167 Z0.64 I1.5 J0.
N12905 G1 X346.667 Z0.29
N12910 G3 X348.167 Y81.667 Z0.208 I0. J1.5
N12915 G1 Y91.667 Z-0.141
N12920 G3 X346.667 Y93.167 Z-0.223 I-1.5 J0.
N12925 G1 X336.667 Z-0.573
N12930 G3 X335.167 Y91.667 Z-0.655 I0. J-1.5
N12935 G1 Y81.667 Z-1.004
N12940 G3 X336.667 Y80.167 Z-1.086 I1.5 J0.
N12945 G1 X346.667 Z-1.436
N12950 G3 X348.167 Y81.667 Z-1.518 I0. J1.5
N12955 G1 Y91.667 Z-1.867
N12960 G3 X346.667 Y93.167 Z-1.949 I-1.5 J0.
N12965 G1 X336.667 Z-2.298
N12970 G3 X335.167 Y91.667 Z-2.381 I0. J-1.5
N12975 G1 Y81.667 Z-2.73
N12980 G3 X336.667 Y80.167 Z-2.812 I1.5 J0.
N12985 G1 X346.667 Z-3.161
N12990 G3 X348.167 Y81.667 Z-3.244 I0. J1.5
N12995 G1 Y91.667 Z-3.593
N13000 G3 X346.667 Y93.167 Z-3.675 I-1.5 J0.
N13005 G1 X336.667 Z-4.024
N13010 G3 X335.167 Y91.667 Z-4.107 I0. J-1.5
N13015 G1 Y81.667 Z-4.456
N13020 G3 X336.667 Y80.167 Z-4.538 I1.5 J0.
N13025 G1 X346.667 Z-4.887
N13030 G3 X348.167 Y81.667 Z-4.97 I0. J1.5
N13035 G1 Y91.667 Z-5.319
N13040 G3 X346.667 Y93.167 Z-5.401 I-1.5 J0.
N13045 G1 X336.667 Z-5.75
N13050 G3 X335.167 Y91.667 Z-5.833 I0. J-1.5
N13055 G1 Y81.667 Z-6.182
N13060 G3 X336.667 Y80.167 Z-6.264 I1.5 J0.
N13065 G1 X346.667 Z-6.613
N13070 G3 X348.167 Y81.667 Z-6.696 I0. J1.5
N13075 G1 Y91.667 Z-7.045
N13080 G3 X346.667 Y93.167 Z-7.127 I-1.5 J0.
N13085 G1 X336.667 Z-7.476
N13090 G3 X335.167 Y91.667 Z-7.559 I0. J-1.5
N13095 G1 Y81.667 Z-7.908
N13100 G3 X336.667 Y80.167 Z-7.99 I1.5 J0.
N13105 G1 X346.667 Z-8.339
N13110 G3 X348.167 Y81.667 Z-8.422 I0. J1.5
N13115 G1 Y91.667 Z-8.771
N13120 G3 X346.667 Y93.167 Z-8.853 I-1.5 J0.
N13125 G1 X336.667 Z-9.202
N13130 G3 X335.167 Y91.667 Z-9.285 I0. J-1.5
N13135 G1 Y81.667 Z-9.634
N13140 G3 X336.667 Y80.167 Z-9.716 I1.5 J0.
N13145 G1 X346.667 Z-10.065
N13150 G3 X348.167 Y81.667 Z-10.148 I0. J1.5
N13155 G1 Y91.667 Z-10.497
N13160 G3 X346.667 Y93.167 Z-10.579 I-1.5 J0.
N13165 G1 X336.667 Z-10.928
N13170 G3 X335.167 Y91.667 Z-11.011 I0. J-1.5
N13175 G1 Y81.667 Z-11.36
N13180 G3 X336.667 Y80.167 Z-11.442 I1.5 J0.
N13185 G1 X346.667 Z-11.791
N13190 G3 X348.167 Y81.667 Z-11.873 I0. J1.5
N13195 G1 Y91.667 Z-12.223
N13200 G3 X346.667 Y93.167 Z-12.305 I-1.5 J0.
N13205 G1 X336.667 Z-12.654
N13210 G3 X335.167 Y91.667 Z-12.736 I0. J-1.5
N13215 G1 Y81.667 Z-13.086
N13220 G3 X336.667 Y80.167 Z-13.168 I1.5 J0.
N13225 G1 X346.667 Z-13.517
N13230 G3 X348.167 Y81.667 Z-13.599 I0. J1.5
N13235 G1 Y91.667 Z-13.949
N13240 G3 X346.667 Y93.167 Z-14.031 I-1.5 J0.
N13245 G1 X336.667 Z-14.38
N13250 G3 X335.167 Y91.667 Z-14.462 I0. J-1.5
N13255 G1 Y81.667 Z-14.812
N13260 G3 X336.667 Y80.167 Z-14.894 I1.5 J0.
N13265 G1 X346.667 Z-15.243
N13270 G3 X348.167 Y81.667 Z-15.325 I0. J1.5
N13275 G1 Y86.667 Z-15.5
N13280 Y91.667
N13285 G3 X346.667 Y93.167 I-1.5 J0.
N13290 G1 X336.667
N13295 G3 X335.167 Y91.667 I0. J-1.5
N13300 G1 Y81.667
N13305 G3 X336.667 Y80.167 I1.5 J0.
N13310 G1 X346.667
N13315 G3 X348.167 Y81.667 I0. J1.5
N13320 G1 Y86.667
N13325 G3 X344.967 Y89.867 I-3.2 J0. F1000.
N13330 G1 X341.767
N13335 G18 G3 X338.567 Z-12.3 I0. K3.2
N13340 G1 Z5. F400.
N13345 X344.767 Y159.496
N13350 Z4.2 F500.
N13355 G3 X341.567 Z1. I-3.2 K0. F400.
N13360 G1 X338.367
N13365 G17 G3 X335.167 Y156.296 I0. J-3.2
N13370 G1 Y148.333 Z0.722
N13375 G3 X336.667 Y146.833 Z0.64 I1.5 J0.
N13380 G1 X346.667 Z0.29
N13385 G3 X348.167 Y148.333 Z0.208 I0. J1.5
N13390 G1 Y158.333 Z-0.141
N13395 G3 X346.667 Y159.833 Z-0.223 I-1.5 J0.
N13400 G1 X336.667 Z-0.573
N13405 G3 X335.167 Y158.333 Z-0.655 I0. J-1.5
N13410 G1 Y148.333 Z-1.004
N13415 G3 X336.667 Y146.833 Z-1.086 I1.5 J0.
N13420 G1 X346.667 Z-1.436
N13425 G3 X348.167 Y148.333 Z-1.518 I0. J1.5
N13430 G1 Y158.333 Z-1.867
N13435 G3 X346.667 Y159.833 Z-1.949 I-1.5 J0.
N13440 G1 X336.667 Z-2.298
N13445 G3 X335.167 Y158.333 Z-2.381 I0. J-1.5
N13450 G1 Y148.333 Z-2.73
N13455 G3 X336.667 Y146.833 Z-2.812 I1.5 J0.
N13460 G1 X346.667 Z-3.161
N13465 G3 X348.167 Y148.333 Z-3.244 I0. J1.5
N13470 G1 Y158.333 Z-3.593
N13475 G3 X346.667 Y159.833 Z-3.675 I-1.5 J0.
N13480 G1 X336.667 Z-4.024
N13485 G3 X335.167 Y158.333 Z-4.107 I0. J-1.5
N13490 G1 Y148.333 Z-4.456
N13495 G3 X336.667 Y146.833 Z-4.538 I1.5 J0.
N13500 G1 X346.667 Z-4.887
N13505 G3 X348.167 Y148.333 Z-4.97 I0. J1.5
N13510 G1 Y158.333 Z-5.319
N13515 G3 X346.667 Y159.833 Z-5.401 I-1.5 J0.
N13520 G1 X336.667 Z-5.75
N13525 G3 X335.167 Y158.333 Z-5.833 I0. J-1.5
N13530 G1 Y148.333 Z-6.182
N13535 G3 X336.667 Y146.833 Z-6.264 I1.5 J0.
N13540 G1 X346.667 Z-6.613
N13545 G3 X348.167 Y148.333 Z-6.696 I0. J1.5
N13550 G1 Y158.333 Z-7.045
N13555 G3 X346.667 Y159.833 Z-7.127 I-1.5 J0.
N13560 G1 X336.667 Z-7.476
N13565 G3 X335.167 Y158.333 Z-7.559 I0. J-1.5
N13570 G1 Y148.333 Z-7.908
N13575 G3 X336.667 Y146.833 Z-7.99 I1.5 J0.
N13580 G1 X346.667 Z-8.339
N13585 G3 X348.167 Y148.333 Z-8.422 I0. J1.5
N13590 G1 Y158.333 Z-8.771
N13595 G3 X346.667 Y159.833 Z-8.853 I-1.5 J0.
N13600 G1 X336.667 Z-9.202
N13605 G3 X335.167 Y158.333 Z-9.285 I0. J-1.5
N13610 G1 Y148.333 Z-9.634
N13615 G3 X336.667 Y146.833 Z-9.716 I1.5 J0.
N13620 G1 X346.667 Z-10.065
N13625 G3 X348.167 Y148.333 Z-10.148 I0. J1.5
N13630 G1 Y158.333 Z-10.497
N13635 G3 X346.667 Y159.833 Z-10.579 I-1.5 J0.
N13640 G1 X336.667 Z-10.928
N13645 G3 X335.167 Y158.333 Z-11.011 I0. J-1.5
N13650 G1 Y148.333 Z-11.36
N13655 G3 X336.667 Y146.833 Z-11.442 I1.5 J0.
N13660 G1 X346.667 Z-11.791
N13665 G3 X348.167 Y148.333 Z-11.873 I0. J1.5
N13670 G1 Y158.333 Z-12.223
N13675 G3 X346.667 Y159.833 Z-12.305 I-1.5 J0.
N13680 G1 X336.667 Z-12.654
N13685 G3 X335.167 Y158.333 Z-12.736 I0. J-1.5
N13690 G1 Y148.333 Z-13.086
N13695 G3 X336.667 Y146.833 Z-13.168 I1.5 J0.
N13700 G1 X346.667 Z-13.517
N13705 G3 X348.167 Y148.333 Z-13.599 I0. J1.5
N13710 G1 Y158.333 Z-13.949
N13715 G3 X346.667 Y159.833 Z-14.031 I-1.5 J0.
N13720 G1 X336.667 Z-14.38
N13725 G3 X335.167 Y158.333 Z-14.462 I0. J-1.5
N13730 G1 Y148.333 Z-14.812
N13735 G3 X336.667 Y146.833 Z-14.894 I1.5 J0.
N13740 G1 X346.667 Z-15.243
N13745 G3 X348.167 Y148.333 Z-15.325 I0. J1.5
N13750 G1 Y153.333 Z-15.5
N13755 Y158.333
N13760 G3 X346.667 Y159.833 I-1.5 J0.
N13765 G1 X336.667
N13770 G3 X335.167 Y158.333 I0. J-1.5
N13775 G1 Y148.333
N13780 G3 X336.667 Y146.833 I1.5 J0.
N13785 G1 X346.667
N13790 G3 X348.167 Y148.333 I0. J1.5
N13795 G1 Y153.333
N13800 G3 X344.967 Y156.533 I-3.2 J0. F1000.
N13805 G1 X341.767
N13810 G18 G3 X338.567 Z-12.3 I0. K3.2
N13815 G1 Z5. F400.
N13820 X347.83 Y183.567
N13825 Z4.2 F500.
N13830 G19 G3 Y186.767 Z1. J3.2 K0. F400.
N13835 G1 Y189.967
N13840 G17 G3 X344.63 Y193.167 I-3.2 J0.
N13845 G1 X336.667 Z0.722
N13850 G3 X335.167 Y191.667 Z0.64 I0. J-1.5
N13855 G1 Y181.667 Z0.29
N13860 G3 X336.667 Y180.167 Z0.208 I1.5 J0.
N13865 G1 X346.667 Z-0.141
N13870 G3 X348.167 Y181.667 Z-0.223 I0. J1.5
N13875 G1 Y191.667 Z-0.573
N13880 G3 X346.667 Y193.167 Z-0.655 I-1.5 J0.
N13885 G1 X336.667 Z-1.004
N13890 G3 X335.167 Y191.667 Z-1.086 I0. J-1.5
N13895 G1 Y181.667 Z-1.436
N13900 G3 X336.667 Y180.167 Z-1.518 I1.5 J0.
N13905 G1 X346.667 Z-1.867
N13910 G3 X348.167 Y181.667 Z-1.949 I0. J1.5
N13915 G1 Y191.667 Z-2.298
N13920 G3 X346.667 Y193.167 Z-2.381 I-1.5 J0.
N13925 G1 X336.667 Z-2.73
N13930 G3 X335.167 Y191.667 Z-2.812 I0. J-1.5
N13935 G1 Y181.667 Z-3.161
N13940 G3 X336.667 Y180.167 Z-3.244 I1.5 J0.
N13945 G1 X346.667 Z-3.593
N13950 G3 X348.167 Y181.667 Z-3.675 I0. J1.5
N13955 G1 Y191.667 Z-4.024
N13960 G3 X346.667 Y193.167 Z-4.107 I-1.5 J0.
N13965 G1 X336.667 Z-4.456
N13970 G3 X335.167 Y191.667 Z-4.538 I0. J-1.5
N13975 G1 Y181.667 Z-4.887
N13980 G3 X336.667 Y180.167 Z-4.97 I1.5 J0.
N13985 G1 X346.667 Z-5.319
N13990 G3 X348.167 Y181.667 Z-5.401 I0. J1.5
N13995 G1 Y191.667 Z-5.75
N14000 G3 X346.667 Y193.167 Z-5.833 I-1.5 J0.
N14005 G1 X336.667 Z-6.182
N14010 G3 X335.167 Y191.667 Z-6.264 I0. J-1.5
N14015 G1 Y181.667 Z-6.613
N14020 G3 X336.667 Y180.167 Z-6.696 I1.5 J0.
N14025 G1 X346.667 Z-7.045
N14030 G3 X348.167 Y181.667 Z-7.127 I0. J1.5
N14035 G1 Y191.667 Z-7.476
N14040 G3 X346.667 Y193.167 Z-7.559 I-1.5 J0.
N14045 G1 X336.667 Z-7.908
N14050 G3 X335.167 Y191.667 Z-7.99 I0. J-1.5
N14055 G1 Y181.667 Z-8.339
N14060 G3 X336.667 Y180.167 Z-8.422 I1.5 J0.
N14065 G1 X346.667 Z-8.771
N14070 G3 X348.167 Y181.667 Z-8.853 I0. J1.5
N14075 G1 Y191.667 Z-9.202
N14080 G3 X346.667 Y193.167 Z-9.285 I-1.5 J0.
N14085 G1 X336.667 Z-9.634
N14090 G3 X335.167 Y191.667 Z-9.716 I0. J-1.5
N14095 G1 Y181.667 Z-10.065
N14100 G3 X336.667 Y180.167 Z-10.148 I1.5 J0.
N14105 G1 X346.667 Z-10.497
N14110 G3 X348.167 Y181.667 Z-10.579 I0. J1.5
N14115 G1 Y191.667 Z-10.928
N14120 G3 X346.667 Y193.167 Z-11.011 I-1.5 J0.
N14125 G1 X336.667 Z-11.36
N14130 G3 X335.167 Y191.667 Z-11.442 I0. J-1.5
N14135 G1 Y181.667 Z-11.791
N14140 G3 X336.667 Y180.167 Z-11.873 I1.5 J0.
N14145 G1 X346.667 Z-12.223
N14150 G3 X348.167 Y181.667 Z-12.305 I0. J1.5
N14155 G1 Y191.667 Z-12.654
N14160 G3 X346.667 Y193.167 Z-12.736 I-1.5 J0.
N14165 G1 X336.667 Z-13.086
N14170 G3 X335.167 Y191.667 Z-13.168 I0. J-1.5
N14175 G1 Y181.667 Z-13.517
N14180 G3 X336.667 Y180.167 Z-13.599 I1.5 J0.
N14185 G1 X346.667 Z-13.949
N14190 G3 X348.167 Y181.667 Z-14.031 I0. J1.5
N14195 G1 Y191.667 Z-14.38
N14200 G3 X346.667 Y193.167 Z-14.462 I-1.5 J0.
N14205 G1 X336.667 Z-14.812
N14210 G3 X335.167 Y191.667 Z-14.894 I0. J-1.5
N14215 G1 Y181.667 Z-15.243
N14220 G3 X336.667 Y180.167 Z-15.325 I1.5 J0.
N14225 G1 X341.667 Z-15.5
N14230 X346.667
N14235 G3 X348.167 Y181.667 I0. J1.5
N14240 G1 Y191.667
N14245 G3 X346.667 Y193.167 I-1.5 J0.
N14250 G1 X336.667
N14255 G3 X335.167 Y191.667 I0. J-1.5
N14260 G1 Y181.667
N14265 G3 X336.667 Y180.167 I1.5 J0.
N14270 G1 X341.667
N14275 G3 X344.867 Y183.367 I0. J3.2 F1000.
N14280 G1 Y186.567
N14285 G19 G3 Y189.767 Z-12.3 J0. K3.2
N14290 G1 Z5. F400.
N14295 X368.837
N14300 Z4.2 F500.
N14305 G2 Y186.567 Z1. J-3.2 K0. F400.
N14310 G1 Y183.367
N14315 G17 G3 X372.037 Y180.167 I3.2 J0.
N14320 G1 X380. Z0.722
N14325 G3 X381.5 Y181.667 Z0.64 I0. J1.5
N14330 G1 Y191.667 Z0.29
N14335 G3 X380. Y193.167 Z0.208 I-1.5 J0.
N14340 G1 X370. Z-0.141
N14345 G3 X368.5 Y191.667 Z-0.223 I0. J-1.5
N14350 G1 Y181.667 Z-0.573
N14355 G3 X370. Y180.167 Z-0.655 I1.5 J0.
N14360 G1 X380. Z-1.004
N14365 G3 X381.5 Y181.667 Z-1.086 I0. J1.5
N14370 G1 Y191.667 Z-1.436
N14375 G3 X380. Y193.167 Z-1.518 I-1.5 J0.
N14380 G1 X370. Z-1.867
N14385 G3 X368.5 Y191.667 Z-1.949 I0. J-1.5
N14390 G1 Y181.667 Z-2.298
N14395 G3 X370. Y180.167 Z-2.381 I1.5 J0.
N14400 G1 X380. Z-2.73
N14405 G3 X381.5 Y181.667 Z-2.812 I0. J1.5
N14410 G1 Y191.667 Z-3.161
N14415 G3 X380. Y193.167 Z-3.244 I-1.5 J0.
N14420 G1 X370. Z-3.593
N14425 G3 X368.5 Y191.667 Z-3.675 I0. J-1.5
N14430 G1 Y181.667 Z-4.024
N14435 G3 X370. Y180.167 Z-4.107 I1.5 J0.
N14440 G1 X380. Z-4.456
N14445 G3 X381.5 Y181.667 Z-4.538 I0. J1.5
N14450 G1 Y191.667 Z-4.887
N14455 G3 X380. Y193.167 Z-4.97 I-1.5 J0.
N14460 G1 X370. Z-5.319
N14465 G3 X368.5 Y191.667 Z-5.401 I0. J-1.5
N14470 G1 Y181.667 Z-5.75
N14475 G3 X370. Y180.167 Z-5.833 I1.5 J0.
N14480 G1 X380. Z-6.182
N14485 G3 X381.5 Y181.667 Z-6.264 I0. J1.5
N14490 G1 Y191.667 Z-6.613
N14495 G3 X380. Y193.167 Z-6.696 I-1.5 J0.
N14500 G1 X370. Z-7.045
N14505 G3 X368.5 Y191.667 Z-7.127 I0. J-1.5
N14510 G1 Y181.667 Z-7.476
N14515 G3 X370. Y180.167 Z-7.559 I1.5 J0.
N14520 G1 X380. Z-7.908
N14525 G3 X381.5 Y181.667 Z-7.99 I0. J1.5
N14530 G1 Y191.667 Z-8.339
N14535 G3 X380. Y193.167 Z-8.422 I-1.5 J0.
N14540 G1 X370. Z-8.771
N14545 G3 X368.5 Y191.667 Z-8.853 I0. J-1.5
N14550 G1 Y181.667 Z-9.202
N14555 G3 X370. Y180.167 Z-9.285 I1.5 J0.
N14560 G1 X380. Z-9.634
N14565 G3 X381.5 Y181.667 Z-9.716 I0. J1.5
N14570 G1 Y191.667 Z-10.065
N14575 G3 X380. Y193.167 Z-10.148 I-1.5 J0.
N14580 G1 X370. Z-10.497
N14585 G3 X368.5 Y191.667 Z-10.579 I0. J-1.5
N14590 G1 Y181.667 Z-10.928
N14595 G3 X370. Y180.167 Z-11.011 I1.5 J0.
N14600 G1 X380. Z-11.36
N14605 G3 X381.5 Y181.667 Z-11.442 I0. J1.5
N14610 G1 Y191.667 Z-11.791
N14615 G3 X380. Y193.167 Z-11.873 I-1.5 J0.
N14620 G1 X370. Z-12.223
N14625 G3 X368.5 Y191.667 Z-12.305 I0. J-1.5
N14630 G1 Y181.667 Z-12.654
N14635 G3 X370. Y180.167 Z-12.736 I1.5 J0.
N14640 G1 X380. Z-13.086
N14645 G3 X381.5 Y181.667 Z-13.168 I0. J1.5
N14650 G1 Y191.667 Z-13.517
N14655 G3 X380. Y193.167 Z-13.599 I-1.5 J0.
N14660 G1 X370. Z-13.949
N14665 G3 X368.5 Y191.667 Z-14.031 I0. J-1.5
N14670 G1 Y181.667 Z-14.38
N14675 G3 X370. Y180.167 Z-14.462 I1.5 J0.
N14680 G1 X380. Z-14.812
N14685 G3 X381.5 Y181.667 Z-14.894 I0. J1.5
N14690 G1 Y191.667 Z-15.243
N14695 G3 X380. Y193.167 Z-15.325 I-1.5 J0.
N14700 G1 X375. Z-15.5
N14705 X370.
N14710 G3 X368.5 Y191.667 I0. J-1.5
N14715 G1 Y181.667
N14720 G3 X370. Y180.167 I1.5 J0.
N14725 G1 X380.
N14730 G3 X381.5 Y181.667 I0. J1.5
N14735 G1 Y191.667
N14740 G3 X380. Y193.167 I-1.5 J0.
N14745 G1 X375.
N14750 G3 X371.8 Y189.967 I0. J-3.2 F1000.
N14755 G1 Y186.767
N14760 G19 G2 Y183.567 Z-12.3 J0. K3.2
N14765 G1 Z5. F400.
N14770 X371.9 Y147.17
N14775 Z4.2 F500.
N14780 G18 G2 X375.1 Z1. I3.2 K0. F400.
N14785 G1 X378.3
N14790 G17 G3 X381.5 Y150.37 I0. J3.2
N14795 G1 Y158.333 Z0.722
N14800 G3 X380. Y159.833 Z0.64 I-1.5 J0.
N14805 G1 X370. Z0.29
N14810 G3 X368.5 Y158.333 Z0.208 I0. J-1.5
N14815 G1 Y148.333 Z-0.141
N14820 G3 X370. Y146.833 Z-0.223 I1.5 J0.
N14825 G1 X380. Z-0.573
N14830 G3 X381.5 Y148.333 Z-0.655 I0. J1.5
N14835 G1 Y158.333 Z-1.004
N14840 G3 X380. Y159.833 Z-1.086 I-1.5 J0.
N14845 G1 X370. Z-1.436
N14850 G3 X368.5 Y158.333 Z-1.518 I0. J-1.5
N14855 G1 Y148.333 Z-1.867
N14860 G3 X370. Y146.833 Z-1.949 I1.5 J0.
N14865 G1 X380. Z-2.298
N14870 G3 X381.5 Y148.333 Z-2.381 I0. J1.5
N14875 G1 Y158.333 Z-2.73
N14880 G3 X380. Y159.833 Z-2.812 I-1.5 J0.
N14885 G1 X370. Z-3.161
N14890 G3 X368.5 Y158.333 Z-3.244 I0. J-1.5
N14895 G1 Y148.333 Z-3.593
N14900 G3 X370. Y146.833 Z-3.675 I1.5 J0.
N14905 G1 X380. Z-4.024
N14910 G3 X381.5 Y148.333 Z-4.107 I0. J1.5
N14915 G1 Y158.333 Z-4.456
N14920 G3 X380. Y159.833 Z-4.538 I-1.5 J0.
N14925 G1 X370. Z-4.887
N14930 G3 X368.5 Y158.333 Z-4.97 I0. J-1.5
N14935 G1 Y148.333 Z-5.319
N14940 G3 X370. Y146.833 Z-5.401 I1.5 J0.
N14945 G1 X380. Z-5.75
N14950 G3 X381.5 Y148.333 Z-5.833 I0. J1.5
N14955 G1 Y158.333 Z-6.182
N14960 G3 X380. Y159.833 Z-6.264 I-1.5 J0.
N14965 G1 X370. Z-6.613
N14970 G3 X368.5 Y158.333 Z-6.696 I0. J-1.5
N14975 G1 Y148.333 Z-7.045
N14980 G3 X370. Y146.833 Z-7.127 I1.5 J0.
N14985 G1 X380. Z-7.476
N14990 G3 X381.5 Y148.333 Z-7.559 I0. J1.5
N14995 G1 Y158.333 Z-7.908
N15000 G3 X380. Y159.833 Z-7.99 I-1.5 J0.
N15005 G1 X370. Z-8.339
N15010 G3 X368.5 Y158.333 Z-8.422 I0. J-1.5
N15015 G1 Y148.333 Z-8.771
N15020 G3 X370. Y146.833 Z-8.853 I1.5 J0.
N15025 G1 X380. Z-9.202
N15030 G3 X381.5 Y148.333 Z-9.285 I0. J1.5
N15035 G1 Y158.333 Z-9.634
N15040 G3 X380. Y159.833 Z-9.716 I-1.5 J0.
N15045 G1 X370. Z-10.065
N15050 G3 X368.5 Y158.333 Z-10.148 I0. J-1.5
N15055 G1 Y148.333 Z-10.497
N15060 G3 X370. Y146.833 Z-10.579 I1.5 J0.
N15065 G1 X380. Z-10.928
N15070 G3 X381.5 Y148.333 Z-11.011 I0. J1.5
N15075 G1 Y158.333 Z-11.36
N15080 G3 X380. Y159.833 Z-11.442 I-1.5 J0.
N15085 G1 X370. Z-11.791
N15090 G3 X368.5 Y158.333 Z-11.873 I0. J-1.5
N15095 G1 Y148.333 Z-12.223
N15100 G3 X370. Y146.833 Z-12.305 I1.5 J0.
N15105 G1 X380. Z-12.654
N15110 G3 X381.5 Y148.333 Z-12.736 I0. J1.5
N15115 G1 Y158.333 Z-13.086
N15120 G3 X380. Y159.833 Z-13.168 I-1.5 J0.
N15125 G1 X370. Z-13.517
N15130 G3 X368.5 Y158.333 Z-13.599 I0. J-1.5
N15135 G1 Y148.333 Z-13.949
N15140 G3 X370. Y146.833 Z-14.031 I1.5 J0.
N15145 G1 X380. Z-14.38
N15150 G3 X381.5 Y148.333 Z-14.462 I0. J1.5
N15155 G1 Y158.333 Z-14.812
N15160 G3 X380. Y159.833 Z-14.894 I-1.5 J0.
N15165 G1 X370. Z-15.243
N15170 G3 X368.5 Y158.333 Z-15.325 I0. J-1.5
N15175 G1 Y153.333 Z-15.5
N15180 Y148.333
N15185 G3 X370. Y146.833 I1.5 J0.
N15190 G1 X380.
N15195 G3 X381.5 Y148.333 I0. J1.5
N15200 G1 Y158.333
N15205 G3 X380. Y159.833 I-1.5 J0.
N15210 G1 X370.
N15215 G3 X368.5 Y158.333 I0. J-1.5
N15220 G1 Y153.333
N15225 G3 X371.7 Y150.133 I3.2 J0. F1000.
N15230 G1 X374.9
N15235 G18 G2 X378.1 Z-12.3 I0. K3.2
N15240 G1 Z5. F400.
N15245 X405.233 Y147.17
N15250 Z4.2 F500.
N15255 G2 X408.433 Z1. I3.2 K0. F400.
N15260 G1 X411.633
N15265 G17 G3 X414.833 Y150.37 I0. J3.2
N15270 G1 Y158.333 Z0.722
N15275 G3 X413.333 Y159.833 Z0.64 I-1.5 J0.
N15280 G1 X403.333 Z0.29
N15285 G3 X401.833 Y158.333 Z0.208 I0. J-1.5
N15290 G1 Y148.333 Z-0.141
N15295 G3 X403.333 Y146.833 Z-0.223 I1.5 J0.
N15300 G1 X413.333 Z-0.573
N15305 G3 X414.833 Y148.333 Z-0.655 I0. J1.5
N15310 G1 Y158.333 Z-1.004
N15315 G3 X413.333 Y159.833 Z-1.086 I-1.5 J0.
N15320 G1 X403.333 Z-1.436
N15325 G3 X401.833 Y158.333 Z-1.518 I0. J-1.5
N15330 G1 Y148.333 Z-1.867
N15335 G3 X403.333 Y146.833 Z-1.949 I1.5 J0.
N15340 G1 X413.333 Z-2.298
N15345 G3 X414.833 Y148.333 Z-2.381 I0. J1.5
N15350 G1 Y158.333 Z-2.73
N15355 G3 X413.333 Y159.833 Z-2.812 I-1.5 J0.
N15360 G1 X403.333 Z-3.161
N15365 G3 X401.833 Y158.333 Z-3.244 I0. J-1.5
N15370 G1 Y148.333 Z-3.593
N15375 G3 X403.333 Y146.833 Z-3.675 I1.5 J0.
N15380 G1 X413.333 Z-4.024
N15385 G3 X414.833 Y148.333 Z-4.107 I0. J1.5
N15390 G1 Y158.333 Z-4.456
N15395 G3 X413.333 Y159.833 Z-4.538 I-1.5 J0.
N15400 G1 X403.333 Z-4.887
N15405 G3 X401.833 Y158.333 Z-4.97 I0. J-1.5
N15410 G1 Y148.333 Z-5.319
N15415 G3 X403.333 Y146.833 Z-5.401 I1.5 J0.
N15420 G1 X413.333 Z-5.75
N15425 G3 X414.833 Y148.333 Z-5.833 I0. J1.5
N15430 G1 Y158.333 Z-6.182
N15435 G3 X413.333 Y159.833 Z-6.264 I-1.5 J0.
N15440 G1 X403.333 Z-6.613
N15445 G3 X401.833 Y158.333 Z-6.696 I0. J-1.5
N15450 G1 Y148.333 Z-7.045
N15455 G3 X403.333 Y146.833 Z-7.127 I1.5 J0.
N15460 G1 X413.333 Z-7.476
N15465 G3 X414.833 Y148.333 Z-7.559 I0. J1.5
N15470 G1 Y158.333 Z-7.908
N15475 G3 X413.333 Y159.833 Z-7.99 I-1.5 J0.
N15480 G1 X403.333 Z-8.339
N15485 G3 X401.833 Y158.333 Z-8.422 I0. J-1.5
N15490 G1 Y148.333 Z-8.771
N15495 G3 X403.333 Y146.833 Z-8.853 I1.5 J0.
N15500 G1 X413.333 Z-9.202
N15505 G3 X414.833 Y148.333 Z-9.285 I0. J1.5
N15510 G1 Y158.333 Z-9.634
N15515 G3 X413.333 Y159.833 Z-9.716 I-1.5 J0.
N15520 G1 X403.333 Z-10.065
N15525 G3 X401.833 Y158.333 Z-10.148 I0. J-1.5
N15530 G1 Y148.333 Z-10.497
N15535 G3 X403.333 Y146.833 Z-10.579 I1.5 J0.
N15540 G1 X413.333 Z-10.928
N15545 G3 X414.833 Y148.333 Z-11.011 I0. J1.5
N15550 G1 Y158.333 Z-11.36
N15555 G3 X413.333 Y159.833 Z-11.442 I-1.5 J0.
N15560 G1 X403.333 Z-11.791
N15565 G3 X401.833 Y158.333 Z-11.873 I0. J-1.5
N15570 G1 Y148.333 Z-12.223
N15575 G3 X403.333 Y146.833 Z-12.305 I1.5 J0.
N15580 G1 X413.333 Z-12.654
N15585 G3 X414.833 Y148.333 Z-12.736 I0. J1.5
N15590 G1 Y158.333 Z-13.086
N15595 G3 X413.333 Y159.833 Z-13.168 I-1.5 J0.
N15600 G1 X403.333 Z-13.517
N15605 G3 X401.833 Y158.333 Z-13.599 I0. J-1.5
N15610 G1 Y148.333 Z-13.949
N15615 G3 X403.333 Y146.833 Z-14.031 I1.5 J0.
N15620 G1 X413.333 Z-14.38
N15625 G3 X414.833 Y148.333 Z-14.462 I0. J1.5
N15630 G1 Y158.333 Z-14.812
N15635 G3 X413.333 Y159.833 Z-14.894 I-1.5 J0.
N15640 G1 X403.333 Z-15.243
N15645 G3 X401.833 Y158.333 Z-15.325 I0. J-1.5
N15650 G1 Y153.333 Z-15.5
N15655 Y148.333
