%
(CLOCK_FLIP_PINS_18MM_CLOCK_2MM)
(T2  D=6. CR=0. - ZMIN=-18. - FLAT END MILL)
N10 G90 G94 G17 G91.1
N15 G21
(WHEN USING FUSION 360 FOR PERSONAL USE, THE FEEDRATE OF)
(RAPID MOVES IS REDUCED TO MATCH THE FEEDRATE OF CUTTING)
(MOVES, WHICH CAN INCREASE MACHINING TIME. UNRESTRICTED RAPID)
(MOVES ARE AVAILABLE WITH A FUSION 360 SUBSCRIPTION.)
(2D POCKET2 2)
N20 (T2 M6)
(FLAT END MILL D=6. HBM 4 S 6MM)
N25 S16000 M3
N30 M8
N35 G0 X1.35 Y-0.6
N40 Z15.
N45 G1 Z5. F2900.
N50 Z-4.1 F1800.
N55 G19 G3 Y0. Z-4.7 J0.6 K0.
N60 G17 G3 X-1.35 I-1.35 J0. F2900.
N65 X4.95 I3.15 J0.
N70 X-4.95 I-4.95 J0.
N75 X4.95 I4.95 J0.
N80 G1 X4.943 Y0.092 Z-4.685
N85 X4.922 Y0.182 Z-4.671
N90 X4.891 Y0.26 Z-4.628
N95 X4.849 Y0.333 Z-4.585
N100 X4.81 Y0.386 Z-4.519
N105 X4.764 Y0.434 Z-4.453
N110 X4.698 Y0.488 Z-4.285
N115 X4.674 Y0.505 Z-4.1
N120 Z15.
N125 X0.574 Y-0.505
N130 Z5.
N135 Z-5.4 F1800.
N140 X0.598 Y-0.488 Z-5.585
N145 X0.664 Y-0.434 Z-5.753
N150 X0.71 Y-0.386 Z-5.819
N155 X0.749 Y-0.333 Z-5.885
N160 X0.791 Y-0.26 Z-5.928
N165 X0.822 Y-0.182 Z-5.971
N170 X0.843 Y-0.092 Z-5.985
N175 X0.85 Y0. Z-6.
N180 G3 X-0.85 I-0.85 J0. F2900.
N185 X0.85 I0.85 J0.
N190 X0.58 Y0.069 I-0.144 J0.
N195 G1 X0.37 Y-0.315
N200 G3 X0.574 Y-0.505 I0.126 J-0.069
N205 G1 Z-11.4 F1800.
N210 X0.598 Y-0.488 Z-11.585
N215 X0.664 Y-0.434 Z-11.753
N220 X0.71 Y-0.386 Z-11.819
N225 X0.749 Y-0.333 Z-11.885
N230 X0.791 Y-0.26 Z-11.928
N235 X0.822 Y-0.182 Z-11.971
N240 X0.843 Y-0.092 Z-11.985
N245 X0.85 Y0. Z-12.
N250 G3 X-0.85 I-0.85 J0. F2900.
N255 X0.85 I0.85 J0.
N260 X0.58 Y0.069 I-0.144 J0.
N265 G1 X0.37 Y-0.315
N270 G3 X0.574 Y-0.505 I0.126 J-0.069
N275 G1 Z-17.4 F1800.
N280 X0.598 Y-0.488 Z-17.585
N285 X0.664 Y-0.434 Z-17.753
N290 X0.71 Y-0.386 Z-17.819
N295 X0.749 Y-0.333 Z-17.885
N300 X0.791 Y-0.26 Z-17.928
N305 X0.822 Y-0.182 Z-17.971
N310 X0.843 Y-0.092 Z-17.985
N315 X0.85 Y0. Z-18.
N320 G3 X-0.85 I-0.85 J0. F2900.
N325 X0.85 I0.85 J0.
N330 G1 X0.843 Y0.092 Z-17.985
N335 X0.822 Y0.182 Z-17.971
N340 X0.791 Y0.26 Z-17.928
N345 X0.749 Y0.333 Z-17.885
N350 X0.71 Y0.386 Z-17.819
N355 X0.664 Y0.434 Z-17.753
N360 X0.598 Y0.488 Z-17.585
N365 X0.574 Y0.505 Z-17.4
N370 Z15.
N375 X1.35 Y239.4
N380 Z5.
N385 Z-4.1 F1800.
N390 G19 G3 Y240. Z-4.7 J0.6 K0.
N395 G17 G3 X-1.35 I-1.35 J0. F2900.
N400 X4.95 I3.15 J0.
N405 X-4.95 I-4.95 J0.
N410 X4.95 I4.95 J0.
N415 G1 X4.943 Y240.092 Z-4.685
N420 X4.922 Y240.182 Z-4.671
N425 X4.891 Y240.26 Z-4.628
N430 X4.849 Y240.333 Z-4.585
N435 X4.81 Y240.386 Z-4.519
N440 X4.764 Y240.434 Z-4.453
N445 X4.698 Y240.488 Z-4.285
N450 X4.674 Y240.505 Z-4.1
N455 Z15.
N460 X0.574 Y239.495
N465 Z5.
N470 Z-5.4 F1800.
N475 X0.598 Y239.512 Z-5.585
N480 X0.664 Y239.566 Z-5.753
N485 X0.71 Y239.614 Z-5.819
N490 X0.749 Y239.667 Z-5.885
N495 X0.791 Y239.74 Z-5.928
N500 X0.822 Y239.818 Z-5.971
N505 X0.843 Y239.908 Z-5.985
N510 X0.85 Y240. Z-6.
N515 G3 X-0.85 I-0.85 J0. F2900.
N520 X0.85 I0.85 J0.
N525 X0.58 Y240.069 I-0.144 J0.
N530 G1 X0.37 Y239.685
N535 G3 X0.574 Y239.495 I0.126 J-0.069
N540 G1 Z-11.4 F1800.
N545 X0.598 Y239.512 Z-11.585
N550 X0.664 Y239.566 Z-11.753
N555 X0.71 Y239.614 Z-11.819
N560 X0.749 Y239.667 Z-11.885
N565 X0.791 Y239.74 Z-11.928
N570 X0.822 Y239.818 Z-11.971
N575 X0.843 Y239.908 Z-11.985
N580 X0.85 Y240. Z-12.
N585 G3 X-0.85 I-0.85 J0. F2900.
N590 X0.85 I0.85 J0.
N595 X0.58 Y240.069 I-0.144 J0.
N600 G1 X0.37 Y239.685
N605 G3 X0.574 Y239.495 I0.126 J-0.069
N610 G1 Z-17.4 F1800.
N615 X0.598 Y239.512 Z-17.585
N620 X0.664 Y239.566 Z-17.753
N625 X0.71 Y239.614 Z-17.819
N630 X0.749 Y239.667 Z-17.885
N635 X0.791 Y239.74 Z-17.928
N640 X0.822 Y239.818 Z-17.971
N645 X0.843 Y239.908 Z-17.985
N650 X0.85 Y240. Z-18.
N655 G3 X-0.85 I-0.85 J0. F2900.
N660 X0.85 I0.85 J0.
N665 G1 X0.843 Y240.092 Z-17.985
N670 X0.822 Y240.182 Z-17.971
N675 X0.791 Y240.26 Z-17.928
N680 X0.749 Y240.333 Z-17.885
N685 X0.71 Y240.386 Z-17.819
N690 X0.664 Y240.434 Z-17.753
N695 X0.598 Y240.488 Z-17.585
N700 X0.574 Y240.505 Z-17.4
N705 Z15.
N710 X551.35 Y-0.6
N715 Z5.
N720 Z-4.1 F1800.
N725 G19 G3 Y0. Z-4.7 J0.6 K0.
N730 G17 G3 X548.65 I-1.35 J0. F2900.
N735 X554.95 I3.15 J0.
N740 X545.05 I-4.95 J0.
N745 X554.95 I4.95 J0.
N750 G1 X554.943 Y0.092 Z-4.685
N755 X554.922 Y0.182 Z-4.671
N760 X554.891 Y0.26 Z-4.628
N765 X554.849 Y0.333 Z-4.585
N770 X554.81 Y0.386 Z-4.519
N775 X554.764 Y0.434 Z-4.453
N780 X554.698 Y0.488 Z-4.285
N785 X554.674 Y0.505 Z-4.1
N790 Z15.
N795 X550.574 Y-0.505
N800 Z5.
N805 Z-5.4 F1800.
N810 X550.599 Y-0.488 Z-5.585
N815 X550.664 Y-0.434 Z-5.753
N820 X550.71 Y-0.386 Z-5.819
N825 X550.749 Y-0.333 Z-5.885
N830 X550.791 Y-0.26 Z-5.928
N835 X550.822 Y-0.182 Z-5.971
N840 X550.843 Y-0.092 Z-5.985
N845 X550.85 Y0. Z-6.
N850 G3 X549.15 I-0.85 J0. F2900.
N855 X550.85 I0.85 J0.
N860 X550.58 Y0.069 I-0.144 J0.
N865 G1 X550.37 Y-0.315
N870 G3 X550.574 Y-0.505 I0.126 J-0.069
N875 G1 Z-11.4 F1800.
N880 X550.599 Y-0.488 Z-11.585
N885 X550.664 Y-0.434 Z-11.753
N890 X550.71 Y-0.386 Z-11.819
N895 X550.749 Y-0.333 Z-11.885
N900 X550.791 Y-0.26 Z-11.928
N905 X550.822 Y-0.182 Z-11.971
N910 X550.843 Y-0.092 Z-11.985
N915 X550.85 Y0. Z-12.
N920 G3 X549.15 I-0.85 J0. F2900.
N925 X550.85 I0.85 J0.
N930 X550.58 Y0.069 I-0.144 J0.
N935 G1 X550.37 Y-0.315
N940 G3 X550.574 Y-0.505 I0.126 J-0.069
N945 G1 Z-17.4 F1800.
N950 X550.599 Y-0.488 Z-17.585
N955 X550.664 Y-0.434 Z-17.753
N960 X550.71 Y-0.386 Z-17.819
N965 X550.749 Y-0.333 Z-17.885
N970 X550.791 Y-0.26 Z-17.928
N975 X550.822 Y-0.182 Z-17.971
N980 X550.843 Y-0.092 Z-17.985
N985 X550.85 Y0. Z-18.
N990 G3 X549.15 I-0.85 J0. F2900.
N995 X550.85 I0.85 J0.
N1000 G1 X550.843 Y0.092 Z-17.985
N1005 X550.822 Y0.182 Z-17.971
N1010 X550.791 Y0.26 Z-17.928
N1015 X550.749 Y0.333 Z-17.885
N1020 X550.71 Y0.386 Z-17.819
N1025 X550.664 Y0.434 Z-17.753
N1030 X550.599 Y0.488 Z-17.585
N1035 X550.574 Y0.505 Z-17.4
N1040 Z15.
N1045 X551.35 Y239.4
N1050 Z5.
N1055 Z-4.1 F1800.
N1060 G19 G3 Y240. Z-4.7 J0.6 K0.
N1065 G17 G3 X548.65 I-1.35 J0. F2900.
N1070 X554.95 I3.15 J0.
N1075 X545.05 I-4.95 J0.
N1080 X554.95 I4.95 J0.
N1085 G1 X554.943 Y240.092 Z-4.685
N1090 X554.922 Y240.182 Z-4.671
N1095 X554.891 Y240.26 Z-4.628
N1100 X554.849 Y240.333 Z-4.585
N1105 X554.81 Y240.386 Z-4.519
N1110 X554.764 Y240.434 Z-4.453
N1115 X554.698 Y240.488 Z-4.285
N1120 X554.674 Y240.505 Z-4.1
N1125 Z15.
N1130 X550.574 Y239.495
N1135 Z5.
N1140 Z-5.4 F1800.
N1145 X550.599 Y239.512 Z-5.585
N1150 X550.664 Y239.566 Z-5.753
N1155 X550.71 Y239.614 Z-5.819
N1160 X550.749 Y239.667 Z-5.885
N1165 X550.791 Y239.74 Z-5.928
N1170 X550.822 Y239.818 Z-5.971
N1175 X550.843 Y239.908 Z-5.985
N1180 X550.85 Y240. Z-6.
N1185 G3 X549.15 I-0.85 J0. F2900.
N1190 X550.85 I0.85 J0.
N1195 X550.58 Y240.069 I-0.144 J0.
N1200 G1 X550.37 Y239.685
N1205 G3 X550.574 Y239.495 I0.126 J-0.069
N1210 G1 Z-11.4 F1800.
N1215 X550.599 Y239.512 Z-11.585
N1220 X550.664 Y239.566 Z-11.753
N1225 X550.71 Y239.614 Z-11.819
N1230 X550.749 Y239.667 Z-11.885
N1235 X550.791 Y239.74 Z-11.928
N1240 X550.822 Y239.818 Z-11.971
N1245 X550.843 Y239.908 Z-11.985
N1250 X550.85 Y240. Z-12.
N1255 G3 X549.15 I-0.85 J0. F2900.
N1260 X550.85 I0.85 J0.
N1265 X550.58 Y240.069 I-0.144 J0.
N1270 G1 X550.37 Y239.685
N1275 G3 X550.574 Y239.495 I0.126 J-0.069
N1280 G1 Z-17.4 F1800.
N1285 X550.599 Y239.512 Z-17.585
N1290 X550.664 Y239.566 Z-17.753
N1295 X550.71 Y239.614 Z-17.819
N1300 X550.749 Y239.667 Z-17.885
N1305 X550.791 Y239.74 Z-17.928
N1310 X550.822 Y239.818 Z-17.971
N1315 X550.843 Y239.908 Z-17.985
N1320 X550.85 Y240. Z-18.
N1325 G3 X549.15 I-0.85 J0. F2900.
N1330 X550.85 I0.85 J0.
N1335 G1 X550.843 Y240.092 Z-17.985
N1340 X550.822 Y240.182 Z-17.971
N1345 X550.791 Y240.26 Z-17.928
N1350 X550.749 Y240.333 Z-17.885
N1355 X550.71 Y240.386 Z-17.819
N1360 X550.664 Y240.434 Z-17.753
N1365 X550.599 Y240.488 Z-17.585
N1370 X550.574 Y240.505 Z-17.4
N1375 Z15.
N1380 M9
N1385 M30
%
