( Made using CamBam - http://www.cambam.co.uk )
( gatenboard 9/20/2017 12:31:47 PM )
( T2 : 2.0 )
M8
(G21 G90 G64 G40)
G0 Z5.0
( gaten )
G64 G17
M8
M3 S10000
G0 X34.9305 Y37.9016
G0 Z1.0
G1 F400.0 Z0.0
G2 F1000.0 X37.9167 Y34.9016 Z-0.3143 I-0.0139 J-3.0
G1 Y28.4167 Z-0.7481
G2 X34.9167 Y25.4167 Z-1.0633 I-3.0 J0.0
G1 X28.4167 Z-1.4981
G2 X25.4167 Y28.4167 Z-1.8133 I0.0 J3.0
G1 Y34.9317 Z-2.2491
G2 X28.4305 Y37.9316 Z-2.5652 I3.0 J0.0
G1 X34.9305 Y37.9016 Z-3.0
G2 X37.9167 Y34.9016 Z-3.3143 I-0.0139 J-3.0
G1 Y28.4167 Z-3.7481
G2 X34.9167 Y25.4167 Z-4.0633 I-3.0 J0.0
G1 X28.4167 Z-4.4981
G2 X25.4167 Y28.4167 Z-4.8133 I0.0 J3.0
G1 Y34.9317 Z-5.2491
G2 X28.4305 Y37.9316 Z-5.5652 I3.0 J0.0
G1 X34.9305 Y37.9016 Z-6.0
G2 X37.9068 Y35.1442 Z-6.298 I-0.0139 J-3.0
G2 X37.9167 Y34.9016 Z-6.2498 I-2.9902 J-0.2426
G1 Y33.6442 Z-6.0
G1 Y31.6442
G1 Y30.1442 Z-6.6325
G1 Y28.4167 Z-6.7481
G2 X34.9167 Y25.4167 Z-7.0633 I-3.0 J0.0
G1 X30.8916 Z-7.3325
G1 X29.3915 Z-6.0
G1 X28.4167
G2 X27.393 Y25.5968 I0.0 J3.0
G2 X25.9029 Y26.7794 Z-7.6974 I1.0237 J2.8199
G2 X25.4167 Y28.4167 Z-7.8133 I2.5138 J1.6373
G1 Y34.9317 Z-8.2491
G2 X25.4274 Y35.1858 Z-8.2661 I3.0 J0.0
G2 X26.1813 Y36.9324 Z-6.0 I2.9892 J-0.2541
G2 X27.9356 Y37.8929 I2.2354 J-2.0008
G2 X28.4305 Y37.9316 Z-6.8755 I0.4811 J-2.9612
G1 X29.6275 Y37.9261 Z-8.6453
G1 X34.9305 Y37.9016 Z-9.0
G2 X37.9068 Y35.1442 I-0.0139 J-3.0
G2 X37.9167 Y34.9016 Z-8.5144 I-2.9902 J-0.2426
G1 Y33.6442 Z-6.0
G1 Y31.6442
G1 Y30.1442 Z-9.0
G1 Y28.4167
G2 X34.9167 Y25.4167 I-3.0 J0.0
G1 X30.8916
G1 X29.3915 Z-6.0
G1 X28.4167
G2 X27.393 Y25.5968 I0.0 J3.0
G2 X25.9029 Y26.7794 Z-9.0 I1.0237 J2.8199
G2 X25.4167 Y28.4167 I2.5138 J1.6373
G1 Y34.9317
G2 X25.4274 Y35.1858 I3.0 J0.0
G2 X26.1813 Y36.9324 Z-6.0 I2.9892 J-0.2541
G2 X27.9356 Y37.8929 I2.2354 J-2.0008
G2 X28.4305 Y37.9316 Z-6.9929 I0.4811 J-2.9612
G1 X29.6275 Y37.9261 Z-9.0
G1 X34.9305 Y37.9016
G0 Z5.0
G0 X34.9225 Y42.0833
G0 Z1.0
G1 F400.0 Z0.0
G2 F1000.0 X34.9167 Z-0.0004 I-0.0058 J3.0
G1 X28.4167 Z-0.4352
G2 X25.4167 Y45.0833 Z-0.7504 I0.0 J3.0
G1 Y51.5983 Z-1.1862
G2 X28.4305 Y54.5982 Z-1.5023 I3.0 J0.0
G1 X34.9305 Y54.5682 Z-1.9371
G2 X37.9167 Y51.5682 Z-2.2514 I-0.0139 J-3.0
G1 Y45.0833 Z-2.6852
G2 X34.9225 Y42.0833 Z-3.0 I-3.0 J0.0
G2 X34.9167 Z-3.0004 I-0.0058 J3.0
G1 X28.4167 Z-3.4352
G2 X25.4167 Y45.0833 Z-3.7504 I0.0 J3.0
G1 Y51.5983 Z-4.1862
G2 X28.4305 Y54.5982 Z-4.5023 I3.0 J0.0
G1 X34.9305 Y54.5682 Z-4.9371
G2 X37.9167 Y51.5682 Z-5.2514 I-0.0139 J-3.0
G1 Y45.0833 Z-5.6852
G2 X34.9225 Y42.0833 Z-6.0 I-3.0 J0.0
G2 X34.9167 Z-6.0004 I-0.0058 J3.0
G1 X30.8916 Z-6.2696
G1 X29.3915 Z-6.0
G1 X28.4167
G2 X27.393 Y42.2634 I0.0 J3.0
G2 X25.9029 Y43.446 Z-6.6345 I1.0237 J2.8199
G2 X25.4167 Y45.0833 Z-6.7504 I2.5138 J1.6373
G1 Y51.5983 Z-7.1862
G2 X25.4274 Y51.8524 Z-7.2032 I3.0 J0.0
G2 X26.1813 Y53.599 Z-6.0 I2.9892 J-0.2541
G2 X27.9356 Y54.5595 I2.2354 J-2.0008
G2 X28.4305 Y54.5982 Z-6.5237 I0.4811 J-2.9612
G1 X29.6275 Y54.5927 Z-7.5824
G1 X34.9305 Y54.5682 Z-7.9371
G2 X37.9068 Y51.8108 Z-8.2352 I-0.0139 J-3.0
G2 X37.9167 Y51.5682 Z-7.8734 I-2.9902 J-0.2426
G1 Y50.3108 Z-6.0
G1 Y48.3108
G1 Y46.8108 Z-8.5696
G1 Y45.0833 Z-8.6852
G2 X34.9225 Y42.0833 Z-9.0 I-3.0 J0.0
G2 X34.9167 I-0.0058 J3.0
G1 X30.8916
G1 X29.3915 Z-6.0
G1 X28.4167
G2 X27.393 Y42.2634 I0.0 J3.0
G2 X25.9029 Y43.446 Z-9.0 I1.0237 J2.8199
G2 X25.4167 Y45.0833 I2.5138 J1.6373
G1 Y51.5983
G2 X25.4274 Y51.8524 I3.0 J0.0
G2 X26.1813 Y53.599 Z-6.0 I2.9892 J-0.2541
G2 X27.9356 Y54.5595 I2.2354 J-2.0008
G2 X28.4305 Y54.5982 Z-6.9929 I0.4811 J-2.9612
G1 X29.6275 Y54.5927 Z-9.0
G1 X34.9305 Y54.5682
G2 X37.9068 Y51.8108 I-0.0139 J-3.0
G2 X37.9167 Y51.5682 Z-8.5144 I-2.9902 J-0.2426
G1 Y50.3108 Z-6.0
G1 Y48.3108
G1 Y46.8108 Z-9.0
G1 Y45.0833
G2 X34.9225 Y42.0833 I-3.0 J0.0
G0 Z5.0
G0 X42.2061 Y44.2338
G0 Z1.0
G1 F400.0 Z0.0
G2 F1000.0 X42.0833 Y45.0833 Z-0.0576 I2.8772 J0.8495
G1 Y51.5983 Z-0.4934
G2 X45.0971 Y54.5982 Z-0.8095 I3.0 J0.0
G1 X51.5971 Y54.5682 Z-1.2443
G2 X54.5833 Y51.5682 Z-1.5586 I-0.0139 J-3.0
G1 Y45.0833 Z-1.9924
G2 X51.5833 Y42.0833 Z-2.3076 I-3.0 J0.0
G1 X45.0833 Z-2.7424
G2 X42.2061 Y44.2338 Z-3.0 I0.0 J3.0
G2 X42.0833 Y45.0833 Z-3.0576 I2.8772 J0.8495
G1 Y51.5983 Z-3.4934
G2 X45.0971 Y54.5982 Z-3.8095 I3.0 J0.0
G1 X51.5971 Y54.5682 Z-4.2443
G2 X54.5833 Y51.5682 Z-4.5586 I-0.0139 J-3.0
G1 Y45.0833 Z-4.9924
G2 X51.5833 Y42.0833 Z-5.3076 I-3.0 J0.0
G1 X45.0833 Z-5.7424
G2 X42.2061 Y44.2338 Z-6.0 I0.0 J3.0
G2 X42.0833 Y45.0833 Z-6.0576 I2.8772 J0.8495
G1 Y51.5983 Z-6.4934
G2 X42.094 Y51.8524 Z-6.5104 I3.0 J0.0
G2 X42.8479 Y53.599 Z-6.0 I2.9892 J-0.2541
G2 X44.6022 Y54.5595 I2.2354 J-2.0008
G2 X45.0971 Y54.5982 Z-6.2944 I0.4811 J-2.9612
G1 X46.2941 Y54.5927 Z-6.8896
G1 X51.5971 Y54.5682 Z-7.2443
G2 X54.5734 Y51.8108 Z-7.5424 I-0.0139 J-3.0
G2 X54.5833 Y51.5682 Z-7.2927 I-2.9902 J-0.2426
G1 Y50.3108 Z-6.0
G1 Y48.3108
G1 Y46.8108 Z-7.8768
G1 Y45.0833 Z-7.9924
G2 X51.5833 Y42.0833 Z-8.3076 I-3.0 J0.0
G1 X47.5582 Z-8.5768
G1 X46.0581 Z-6.0
G1 X45.0833
G2 X44.0596 Y42.2634 I0.0 J3.0
G2 X42.5695 Y43.446 Z-8.9418 I1.0237 J2.8199
G2 X42.2061 Y44.2338 Z-9.0 I2.5138 J1.6373
G2 X42.0833 Y45.0833 I2.8772 J0.8495
G1 Y51.5983
G2 X42.094 Y51.8524 I3.0 J0.0
G2 X42.8479 Y53.599 Z-6.0 I2.9892 J-0.2541
G2 X44.6022 Y54.5595 I2.2354 J-2.0008
G2 X45.0971 Y54.5982 Z-6.9929 I0.4811 J-2.9612
G1 X46.2941 Y54.5927 Z-9.0
G1 X51.5971 Y54.5682
G2 X54.5734 Y51.8108 I-0.0139 J-3.0
G2 X54.5833 Y51.5682 Z-8.5144 I-2.9902 J-0.2426
G1 Y50.3108 Z-6.0
G1 Y48.3108
G1 Y46.8108 Z-9.0
G1 Y45.0833
G2 X51.5833 Y42.0833 I-3.0 J0.0
G1 X47.5582
G1 X46.0581 Z-6.0
G1 X45.0833
G2 X44.0596 Y42.2634 I0.0 J3.0
G2 X42.5695 Y43.446 Z-9.0 I1.0237 J2.8199
G2 X42.2061 Y44.2338 I2.5138 J1.6373
G0 Z5.0
G0 X44.1968 Y37.7977
G0 Z1.0
G1 F400.0 Z0.0
G2 F1000.0 X45.0971 Y37.9316 Z-0.0611 I0.8865 J-2.866
G1 X51.5971 Y37.9016 Z-0.4959
G2 X54.5833 Y34.9016 Z-0.8102 I-0.0139 J-3.0
G1 Y28.4167 Z-1.244
G2 X51.5833 Y25.4167 Z-1.5592 I-3.0 J0.0
G1 X45.0833 Z-1.994
G2 X42.0833 Y28.4167 Z-2.3092 I0.0 J3.0
G1 Y34.9317 Z-2.745
G2 X44.1968 Y37.7977 Z-3.0 I3.0 J0.0
G2 X45.0971 Y37.9316 Z-3.0611 I0.8865 J-2.866
G1 X51.5971 Y37.9016 Z-3.4959
G2 X54.5833 Y34.9016 Z-3.8102 I-0.0139 J-3.0
G1 Y28.4167 Z-4.244
G2 X51.5833 Y25.4167 Z-4.5592 I-3.0 J0.0
G1 X45.0833 Z-4.994
G2 X42.0833 Y28.4167 Z-5.3092 I0.0 J3.0
G1 Y34.9317 Z-5.745
G2 X44.1968 Y37.7977 Z-6.0 I3.0 J0.0
G2 X44.6022 Y37.8929 I0.8865 J-2.866
G2 X45.0971 Y37.9316 Z-6.0467 I0.4811 J-2.9612
G1 X46.2941 Y37.9261 Z-6.1412
G1 X51.5971 Y37.9016 Z-6.4959
G2 X54.5734 Y35.1442 Z-6.794 I-0.0139 J-3.0
G2 X54.5833 Y34.9016 Z-6.6655 I-2.9902 J-0.2426
G1 Y33.6442 Z-6.0
G1 Y31.6442
G1 Y30.1442 Z-7.1284
G1 Y28.4167 Z-7.244
G2 X51.5833 Y25.4167 Z-7.5592 I-3.0 J0.0
G1 X47.5582 Z-7.8284
G1 X46.0581 Z-6.0
G1 X45.0833
G2 X44.0596 Y25.5968 I0.0 J3.0
G2 X42.5695 Y26.7794 Z-8.1933 I1.0237 J2.8199
G2 X42.0833 Y28.4167 Z-8.3092 I2.5138 J1.6373
G1 Y34.9317 Z-8.745
G2 X42.094 Y35.1858 Z-8.762 I3.0 J0.0
G2 X42.8479 Y36.9324 Z-6.0 I2.9892 J-0.2541
G2 X44.1968 Y37.7977 I2.2354 J-2.0008
G2 X44.6022 Y37.8929 I0.8865 J-2.866
G2 X45.0971 Y37.9316 Z-6.9929 I0.4811 J-2.9612
G1 X46.2941 Y37.9261 Z-9.0
G1 X51.5971 Y37.9016
G2 X54.5734 Y35.1442 I-0.0139 J-3.0
G2 X54.5833 Y34.9016 Z-8.5144 I-2.9902 J-0.2426
G1 Y33.6442 Z-6.0
G1 Y31.6442
G1 Y30.1442 Z-9.0
G1 Y28.4167
G2 X51.5833 Y25.4167 I-3.0 J0.0
G1 X47.5582
G1 X46.0581 Z-6.0
G1 X45.0833
G2 X44.0596 Y25.5968 I0.0 J3.0
G2 X42.5695 Y26.7794 Z-9.0 I1.0237 J2.8199
G2 X42.0833 Y28.4167 I2.5138 J1.6373
G1 Y34.9317
G2 X42.094 Y35.1858 I3.0 J0.0
G2 X42.8479 Y36.9324 Z-6.0 I2.9892 J-0.2541
G2 X44.1968 Y37.7977 I2.2354 J-2.0008
G0 Z5.0
G0 X58.7891 Y35.4151
G0 Z1.0
G1 F400.0 Z0.0
G2 F1000.0 X61.7637 Y37.9316 Z-0.2837 I2.9608 J-0.4834
G1 X68.2637 Y37.9016 Z-0.7185
G2 X71.2499 Y34.9016 Z-1.0327 I-0.0139 J-3.0
G1 Y28.4167 Z-1.4665
G2 X68.2499 Y25.4167 Z-1.7817 I-3.0 J0.0
G1 X61.7499 Z-2.2165
G2 X58.7499 Y28.4167 Z-2.5317 I0.0 J3.0
G1 Y34.9317 Z-2.9675
G2 X58.7891 Y35.4151 Z-3.0 I3.0 J0.0
G2 X61.7637 Y37.9316 Z-3.2837 I2.9608 J-0.4834
G1 X68.2637 Y37.9016 Z-3.7185
G2 X71.2499 Y34.9016 Z-4.0327 I-0.0139 J-3.0
G1 Y28.4167 Z-4.4665
G2 X68.2499 Y25.4167 Z-4.7817 I-3.0 J0.0
G1 X61.7499 Z-5.2165
G2 X58.7499 Y28.4167 Z-5.5317 I0.0 J3.0
G1 Y34.9317 Z-5.9675
G2 X58.7891 Y35.4151 Z-6.0 I3.0 J0.0
G2 X59.5145 Y36.9324 I2.9608 J-0.4834
G2 X61.2688 Y37.8929 I2.2354 J-2.0008
G2 X61.7637 Y37.9316 Z-6.1204 I0.4811 J-2.9612
G1 X62.9607 Y37.9261 Z-6.3637
G1 X68.2637 Y37.9016 Z-6.7185
G2 X71.24 Y35.1442 Z-7.0165 I-0.0139 J-3.0
G2 X71.2499 Y34.9016 Z-6.852 I-2.9902 J-0.2426
G1 Y33.6442 Z-6.0
G1 Y31.6442
G1 Y30.1442 Z-7.351
G1 Y28.4167 Z-7.4665
G2 X68.2499 Y25.4167 Z-7.7817 I-3.0 J0.0
G1 X64.2248 Z-8.051
G1 X62.7247 Z-6.0
G1 X61.7499
G2 X60.7262 Y25.5968 I0.0 J3.0
G2 X59.2361 Y26.7794 Z-8.4159 I1.0237 J2.8199
G2 X58.7499 Y28.4167 Z-8.5317 I2.5138 J1.6373
G1 Y34.9317 Z-8.9675
G2 X58.7606 Y35.1858 Z-8.9845 I3.0 J0.0
G2 X58.7891 Y35.4151 Z-8.5247 I2.9892 J-0.2541
G1 F400.0 Z-8.5378
G2 F1000.0 X59.5145 Y36.9324 Z-6.0 I2.9608 J-0.4834
G2 X61.2688 Y37.8929 I2.2354 J-2.0008
G2 X61.7637 Y37.9316 Z-6.9929 I0.4811 J-2.9612
G1 X62.9607 Y37.9261 Z-9.0
G1 X68.2637 Y37.9016
G2 X71.24 Y35.1442 I-0.0139 J-3.0
G2 X71.2499 Y34.9016 Z-8.5144 I-2.9902 J-0.2426
G1 Y33.6442 Z-6.0
G1 Y31.6442
G1 Y30.1442 Z-9.0
G1 Y28.4167
G2 X68.2499 Y25.4167 I-3.0 J0.0
G1 X64.2248
G1 X62.7247 Z-6.0
G1 X61.7499
G2 X60.7262 Y25.5968 I0.0 J3.0
G2 X59.2361 Y26.7794 Z-9.0 I1.0237 J2.8199
G2 X58.7499 Y28.4167 I2.5138 J1.6373
G1 Y34.9317
G2 X58.7606 Y35.1858 I3.0 J0.0
G2 X58.7891 Y35.4151 Z-8.5378 I2.9892 J-0.2541
G0 Z5.0
G0 X60.8714 Y42.2148
G0 Z1.0
G1 F400.0 Z0.0
G2 F1000.0 X58.7499 Y45.0833 Z-0.2556 I0.8785 J2.8685
G1 Y51.5983 Z-0.6914
G2 X61.7637 Y54.5982 Z-1.0075 I3.0 J0.0
G1 X68.2637 Y54.5682 Z-1.4423
G2 X71.2499 Y51.5682 Z-1.7566 I-0.0139 J-3.0
G1 Y45.0833 Z-2.1904
G2 X68.2499 Y42.0833 Z-2.5056 I-3.0 J0.0
G1 X61.7499 Z-2.9404
G2 X60.8714 Y42.2148 Z-3.0 I0.0 J3.0
G2 X58.7499 Y45.0833 Z-3.2556 I0.8785 J2.8685
G1 Y51.5983 Z-3.6914
G2 X61.7637 Y54.5982 Z-4.0075 I3.0 J0.0
G1 X68.2637 Y54.5682 Z-4.4423
G2 X71.2499 Y51.5682 Z-4.7566 I-0.0139 J-3.0
G1 Y45.0833 Z-5.1904
G2 X68.2499 Y42.0833 Z-5.5056 I-3.0 J0.0
G1 X61.7499 Z-5.9404
G2 X60.8714 Y42.2148 Z-6.0 I0.0 J3.0
G2 X60.7262 Y42.2634 I0.8785 J2.8685
G2 X59.2361 Y43.446 Z-6.1397 I1.0237 J2.8199
G2 X58.7499 Y45.0833 Z-6.2556 I2.5138 J1.6373
G1 Y51.5983 Z-6.6914
G2 X58.7606 Y51.8524 Z-6.7084 I3.0 J0.0
G2 X59.5145 Y53.599 Z-6.0 I2.9892 J-0.2541
G2 X61.2688 Y54.5595 I2.2354 J-2.0008
G2 X61.7637 Y54.5982 Z-6.36 I0.4811 J-2.9612
G1 X62.9607 Y54.5927 Z-7.0876
G1 X68.2637 Y54.5682 Z-7.4423
G2 X71.24 Y51.8108 Z-7.7403 I-0.0139 J-3.0
G2 X71.2499 Y51.5682 Z-7.4587 I-2.9902 J-0.2426
G1 Y50.3108 Z-6.0
G1 Y48.3108
G1 Y46.8108 Z-8.0748
G1 Y45.0833 Z-8.1904
G2 X68.2499 Y42.0833 Z-8.5056 I-3.0 J0.0
G1 X64.2248 Z-8.7748
G1 X62.7247 Z-6.0
G1 X61.7499
G2 X60.8714 Y42.2148 I0.0 J3.0
G2 X60.7262 Y42.2634 I0.8785 J2.8685
G2 X59.2361 Y43.446 Z-9.0 I1.0237 J2.8199
G2 X58.7499 Y45.0833 I2.5138 J1.6373
G1 Y51.5983
G2 X58.7606 Y51.8524 I3.0 J0.0
G2 X59.5145 Y53.599 Z-6.0 I2.9892 J-0.2541
G2 X61.2688 Y54.5595 I2.2354 J-2.0008
G2 X61.7637 Y54.5982 Z-6.9929 I0.4811 J-2.9612
G1 X62.9607 Y54.5927 Z-9.0
G1 X68.2637 Y54.5682
G2 X71.24 Y51.8108 I-0.0139 J-3.0
G2 X71.2499 Y51.5682 Z-8.5144 I-2.9902 J-0.2426
G1 Y50.3108 Z-6.0
G1 Y48.3108
G1 Y46.8108 Z-9.0
G1 Y45.0833
G2 X68.2499 Y42.0833 I-3.0 J0.0
G1 X64.2248
G1 X62.7247 Z-6.0
G1 X61.7499
G2 X60.8714 Y42.2148 I0.0 J3.0
G0 Z5.0
G0 X75.4558 Y44.5992
G0 Z1.0
G1 F400.0 Z0.0
G2 F1000.0 X75.4165 Y45.0833 Z-0.0325 I2.9607 J0.4841
G1 Y51.5983 Z-0.4683
G2 X78.4303 Y54.5982 Z-0.7845 I3.0 J0.0
G1 X84.9303 Y54.5682 Z-1.2192
G2 X87.9165 Y51.5682 Z-1.5335 I-0.0139 J-3.0
G1 Y45.0833 Z-1.9673
G2 X84.9165 Y42.0833 Z-2.2825 I-3.0 J0.0
G1 X78.4165 Z-2.7173
G2 X75.4558 Y44.5992 Z-3.0 I0.0 J3.0
G2 X75.4165 Y45.0833 Z-3.0325 I2.9607 J0.4841
G1 Y51.5983 Z-3.4683
G2 X78.4303 Y54.5982 Z-3.7845 I3.0 J0.0
G1 X84.9303 Y54.5682 Z-4.2192
G2 X87.9165 Y51.5682 Z-4.5335 I-0.0139 J-3.0
G1 Y45.0833 Z-4.9673
G2 X84.9165 Y42.0833 Z-5.2825 I-3.0 J0.0
G1 X78.4165 Z-5.7173
G2 X75.4558 Y44.5992 Z-6.0 I0.0 J3.0
G2 X75.4165 Y45.0833 Z-6.0325 I2.9607 J0.4841
G1 Y51.5983 Z-6.4683
G2 X75.4272 Y51.8524 Z-6.4853 I3.0 J0.0
G2 X76.1811 Y53.599 Z-6.0 I2.9892 J-0.2541
G2 X77.9354 Y54.5595 I2.2354 J-2.0008
G2 X78.4303 Y54.5982 Z-6.2861 I0.4811 J-2.9612
G1 X79.6273 Y54.5927 Z-6.8645
G1 X84.9303 Y54.5682 Z-7.2192
G2 X87.9066 Y51.8108 Z-7.5173 I-0.0139 J-3.0
G2 X87.9165 Y51.5682 Z-7.2717 I-2.9902 J-0.2426
G1 Y50.3108 Z-6.0
G1 Y48.3108
G1 Y46.8108 Z-7.8518
G1 Y45.0833 Z-7.9673
G2 X84.9165 Y42.0833 Z-8.2825 I-3.0 J0.0
G1 X80.8914 Z-8.5518
G1 X79.3913 Z-6.0
G1 X78.4165
G2 X77.3928 Y42.2634 I0.0 J3.0
G2 X75.9027 Y43.446 Z-8.9167 I1.0237 J2.8199
G2 X75.4558 Y44.5992 Z-9.0 I2.5138 J1.6373
G2 X75.4165 Y45.0833 I2.9607 J0.4841
G1 Y51.5983
G2 X75.4272 Y51.8524 I3.0 J0.0
G2 X76.1811 Y53.599 Z-6.0 I2.9892 J-0.2541
G2 X77.9354 Y54.5595 I2.2354 J-2.0008
G2 X78.4303 Y54.5982 Z-6.9929 I0.4811 J-2.9612
G1 X79.6273 Y54.5927 Z-9.0
G1 X84.9303 Y54.5682
G2 X87.9066 Y51.8108 I-0.0139 J-3.0
G2 X87.9165 Y51.5682 Z-8.5144 I-2.9902 J-0.2426
G1 Y50.3108 Z-6.0
G1 Y48.3108
G1 Y46.8108 Z-9.0
G1 Y45.0833
G2 X84.9165 Y42.0833 I-3.0 J0.0
G1 X80.8914
G1 X79.3913 Z-6.0
G1 X78.4165
G2 X77.3928 Y42.2634 I0.0 J3.0
G2 X75.9027 Y43.446 Z-9.0 I1.0237 J2.8199
G2 X75.4558 Y44.5992 I2.5138 J1.6373
G0 Z5.0
G0 X77.538 Y37.8002
G0 Z1.0
G1 F400.0 Z0.0
G2 F1000.0 X78.4303 Y37.9316 Z-0.0606 I0.8785 J-2.8685
G1 X84.9303 Y37.9016 Z-0.4954
G2 X87.9165 Y34.9016 Z-0.8096 I-0.0139 J-3.0
G1 Y28.4167 Z-1.2434
G2 X84.9165 Y25.4167 Z-1.5586 I-3.0 J0.0
G1 X78.4165 Z-1.9934
G2 X75.4165 Y28.4167 Z-2.3086 I0.0 J3.0
G1 Y34.9317 Z-2.7444
G2 X77.538 Y37.8002 Z-3.0 I3.0 J0.0
G2 X78.4303 Y37.9316 Z-3.0606 I0.8785 J-2.8685
G1 X84.9303 Y37.9016 Z-3.4954
G2 X87.9165 Y34.9016 Z-3.8096 I-0.0139 J-3.0
G1 Y28.4167 Z-4.2434
G2 X84.9165 Y25.4167 Z-4.5586 I-3.0 J0.0
G1 X78.4165 Z-4.9934
G2 X75.4165 Y28.4167 Z-5.3086 I0.0 J3.0
G1 Y34.9317 Z-5.7444
G2 X77.538 Y37.8002 Z-6.0 I3.0 J0.0
G2 X77.9354 Y37.8929 I0.8785 J-2.8685
G2 X78.4303 Y37.9316 Z-6.0465 I0.4811 J-2.9612
G1 X79.6273 Y37.9261 Z-6.1406
G1 X84.9303 Y37.9016 Z-6.4954
G2 X87.9066 Y35.1442 Z-6.7934 I-0.0139 J-3.0
G2 X87.9165 Y34.9016 Z-6.665 I-2.9902 J-0.2426
G1 Y33.6442 Z-6.0
G1 Y31.6442
G1 Y30.1442 Z-7.1279
G1 Y28.4167 Z-7.2434
G2 X84.9165 Y25.4167 Z-7.5586 I-3.0 J0.0
G1 X80.8914 Z-7.8279
G1 X79.3913 Z-6.0
G1 X78.4165
G2 X77.3928 Y25.5968 I0.0 J3.0
G2 X75.9027 Y26.7794 Z-8.1928 I1.0237 J2.8199
G2 X75.4165 Y28.4167 Z-8.3086 I2.5138 J1.6373
G1 Y34.9317 Z-8.7444
G2 X75.4272 Y35.1858 Z-8.7614 I3.0 J0.0
G2 X76.1811 Y36.9324 Z-6.0 I2.9892 J-0.2541
G2 X77.538 Y37.8002 I2.2354 J-2.0008
G2 X77.9354 Y37.8929 I0.8785 J-2.8685
G2 X78.4303 Y37.9316 Z-6.9929 I0.4811 J-2.9612
G1 X79.6273 Y37.9261 Z-9.0
G1 X84.9303 Y37.9016
G2 X87.9066 Y35.1442 I-0.0139 J-3.0
G2 X87.9165 Y34.9016 Z-8.5144 I-2.9902 J-0.2426
G1 Y33.6442 Z-6.0
G1 Y31.6442
G1 Y30.1442 Z-9.0
G1 Y28.4167
G2 X84.9165 Y25.4167 I-3.0 J0.0
G1 X80.8914
G1 X79.3913 Z-6.0
G1 X78.4165
G2 X77.3928 Y25.5968 I0.0 J3.0
G2 X75.9027 Y26.7794 Z-9.0 I1.0237 J2.8199
G2 X75.4165 Y28.4167 I2.5138 J1.6373
G1 Y34.9317
G2 X75.4272 Y35.1858 I3.0 J0.0
G2 X76.1811 Y36.9324 Z-6.0 I2.9892 J-0.2541
G2 X77.538 Y37.8002 I2.2354 J-2.0008
G0 Z5.0
G0 X92.1224 Y35.4157
G0 Z1.0
G1 F400.0 Z0.0
G2 F1000.0 X95.0969 Y37.9316 Z-0.2836 I2.9607 J-0.4841
G1 X101.5969 Y37.9016 Z-0.7184
G2 X104.5831 Y34.9016 Z-1.0327 I-0.0139 J-3.0
G1 Y28.4167 Z-1.4665
G2 X101.5831 Y25.4167 Z-1.7817 I-3.0 J0.0
G1 X95.0831 Z-2.2165
G2 X92.0831 Y28.4167 Z-2.5317 I0.0 J3.0
G1 Y34.9317 Z-2.9675
G2 X92.1224 Y35.4157 Z-3.0 I3.0 J0.0
G2 X95.0969 Y37.9316 Z-3.2836 I2.9607 J-0.4841
G1 X101.5969 Y37.9016 Z-3.7184
G2 X104.5831 Y34.9016 Z-4.0327 I-0.0139 J-3.0
G1 Y28.4167 Z-4.4665
G2 X101.5831 Y25.4167 Z-4.7817 I-3.0 J0.0
G1 X95.0831 Z-5.2165
G2 X92.0831 Y28.4167 Z-5.5317 I0.0 J3.0
G1 Y34.9317 Z-5.9675
G2 X92.1224 Y35.4157 Z-6.0 I3.0 J0.0
G2 X92.8477 Y36.9324 I2.9607 J-0.4841
G2 X94.602 Y37.8929 I2.2354 J-2.0008
G2 X95.0969 Y37.9316 Z-6.1204 I0.4811 J-2.9612
G1 X96.2939 Y37.9261 Z-6.3637
G1 X101.5969 Y37.9016 Z-6.7184
G2 X104.5732 Y35.1442 Z-7.0165 I-0.0139 J-3.0
G2 X104.5831 Y34.9016 Z-6.8519 I-2.9902 J-0.2426
G1 Y33.6442 Z-6.0
G1 Y31.6442
G1 Y30.1442 Z-7.3509
G1 Y28.4167 Z-7.4665
G2 X101.5831 Y25.4167 Z-7.7817 I-3.0 J0.0
G1 X97.558 Z-8.0509
G1 X96.0579 Z-6.0
G1 X95.0831
G2 X94.0594 Y25.5968 I0.0 J3.0
G2 X92.5693 Y26.7794 Z-8.4158 I1.0237 J2.8199
G2 X92.0831 Y28.4167 Z-8.5317 I2.5138 J1.6373
G1 Y34.9317 Z-8.9675
G2 X92.0938 Y35.1858 Z-8.9845 I3.0 J0.0
G2 X92.1224 Y35.4157 Z-8.5234 I2.9892 J-0.2541
G1 F400.0 Z-8.5365
G2 F1000.0 X92.8477 Y36.9324 Z-6.0 I2.9607 J-0.4841
G2 X94.602 Y37.8929 I2.2354 J-2.0008
G2 X95.0969 Y37.9316 Z-6.9929 I0.4811 J-2.9612
G1 X96.2939 Y37.9261 Z-9.0
G1 X101.5969 Y37.9016
G2 X104.5732 Y35.1442 I-0.0139 J-3.0
G2 X104.5831 Y34.9016 Z-8.5144 I-2.9902 J-0.2426
G1 Y33.6442 Z-6.0
G1 Y31.6442
G1 Y30.1442 Z-9.0
G1 Y28.4167
G2 X101.5831 Y25.4167 I-3.0 J0.0
G1 X97.558
G1 X96.0579 Z-6.0
G1 X95.0831
G2 X94.0594 Y25.5968 I0.0 J3.0
G2 X92.5693 Y26.7794 Z-9.0 I1.0237 J2.8199
G2 X92.0831 Y28.4167 I2.5138 J1.6373
G1 Y34.9317
G2 X92.0938 Y35.1858 I3.0 J0.0
G2 X92.1224 Y35.4157 Z-8.5365 I2.9892 J-0.2541
G0 Z5.0
G0 X94.2046 Y42.2148
G0 Z1.0
G1 F400.0 Z0.0
G2 F1000.0 X92.0831 Y45.0833 Z-0.2556 I0.8785 J2.8685
G1 Y51.5983 Z-0.6914
G2 X95.0969 Y54.5982 Z-1.0075 I3.0 J0.0
G1 X101.5969 Y54.5682 Z-1.4423
G2 X104.5831 Y51.5682 Z-1.7566 I-0.0139 J-3.0
G1 Y45.0833 Z-2.1904
G2 X101.5831 Y42.0833 Z-2.5056 I-3.0 J0.0
G1 X95.0831 Z-2.9404
G2 X94.2046 Y42.2148 Z-3.0 I0.0 J3.0
G2 X92.0831 Y45.0833 Z-3.2556 I0.8785 J2.8685
G1 Y51.5983 Z-3.6914
G2 X95.0969 Y54.5982 Z-4.0075 I3.0 J0.0
G1 X101.5969 Y54.5682 Z-4.4423
G2 X104.5831 Y51.5682 Z-4.7566 I-0.0139 J-3.0
G1 Y45.0833 Z-5.1904
G2 X101.5831 Y42.0833 Z-5.5056 I-3.0 J0.0
G1 X95.0831 Z-5.9404
G2 X94.2046 Y42.2148 Z-6.0 I0.0 J3.0
G2 X94.0594 Y42.2634 I0.8785 J2.8685
G2 X92.5693 Y43.446 Z-6.1397 I1.0237 J2.8199
G2 X92.0831 Y45.0833 Z-6.2556 I2.5138 J1.6373
G1 Y51.5983 Z-6.6914
G2 X92.0938 Y51.8524 Z-6.7084 I3.0 J0.0
G2 X92.8477 Y53.599 Z-6.0 I2.9892 J-0.2541
G2 X94.602 Y54.5595 I2.2354 J-2.0008
G2 X95.0969 Y54.5982 Z-6.36 I0.4811 J-2.9612
G1 X96.2939 Y54.5927 Z-7.0876
G1 X101.5969 Y54.5682 Z-7.4423
G2 X104.5732 Y51.8108 Z-7.7403 I-0.0139 J-3.0
G2 X104.5831 Y51.5682 Z-7.4587 I-2.9902 J-0.2426
G1 Y50.3108 Z-6.0
G1 Y48.3108
G1 Y46.8108 Z-8.0748
G1 Y45.0833 Z-8.1904
G2 X101.5831 Y42.0833 Z-8.5056 I-3.0 J0.0
G1 X97.558 Z-8.7748
G1 X96.0579 Z-6.0
G1 X95.0831
G2 X94.2046 Y42.2148 I0.0 J3.0
G2 X94.0594 Y42.2634 I0.8785 J2.8685
G2 X92.5693 Y43.446 Z-9.0 I1.0237 J2.8199
G2 X92.0831 Y45.0833 I2.5138 J1.6373
G1 Y51.5983
G2 X92.0938 Y51.8524 I3.0 J0.0
G2 X92.8477 Y53.599 Z-6.0 I2.9892 J-0.2541
G2 X94.602 Y54.5595 I2.2354 J-2.0008
G2 X95.0969 Y54.5982 Z-6.9929 I0.4811 J-2.9612
G1 X96.2939 Y54.5927 Z-9.0
G1 X101.5969 Y54.5682
G2 X104.5732 Y51.8108 I-0.0139 J-3.0
G2 X104.5831 Y51.5682 Z-8.5144 I-2.9902 J-0.2426
G1 Y50.3108 Z-6.0
G1 Y48.3108
G1 Y46.8108 Z-9.0
G1 Y45.0833
G2 X101.5831 Y42.0833 I-3.0 J0.0
G1 X97.558
G1 X96.0579 Z-6.0
G1 X95.0831
G2 X94.2046 Y42.2148 I0.0 J3.0
G0 Z5.0
G0 X108.789 Y44.5992
G0 Z1.0
G1 F400.0 Z0.0
G2 F1000.0 X108.7497 Y45.0833 Z-0.0325 I2.9607 J0.4841
G1 Y51.5983 Z-0.4683
G2 X111.7635 Y54.5982 Z-0.7845 I3.0 J0.0
G1 X118.2635 Y54.5682 Z-1.2192
G2 X121.2497 Y51.5682 Z-1.5335 I-0.0139 J-3.0
G1 Y45.0833 Z-1.9673
G2 X118.2497 Y42.0833 Z-2.2825 I-3.0 J0.0
G1 X111.7497 Z-2.7173
G2 X108.789 Y44.5992 Z-3.0 I0.0 J3.0
G2 X108.7497 Y45.0833 Z-3.0325 I2.9607 J0.4841
G1 Y51.5983 Z-3.4683
G2 X111.7635 Y54.5982 Z-3.7845 I3.0 J0.0
G1 X118.2635 Y54.5682 Z-4.2192
G2 X121.2497 Y51.5682 Z-4.5335 I-0.0139 J-3.0
G1 Y45.0833 Z-4.9673
G2 X118.2497 Y42.0833 Z-5.2825 I-3.0 J0.0
G1 X111.7497 Z-5.7173
G2 X108.789 Y44.5992 Z-6.0 I0.0 J3.0
G2 X108.7497 Y45.0833 Z-6.0325 I2.9607 J0.4841
G1 Y51.5983 Z-6.4683
G2 X108.7604 Y51.8524 Z-6.4853 I3.0 J0.0
G2 X109.5143 Y53.599 Z-6.0 I2.9892 J-0.2541
G2 X111.2686 Y54.5595 I2.2354 J-2.0008
G2 X111.7635 Y54.5982 Z-6.2861 I0.4811 J-2.9612
G1 X112.9605 Y54.5927 Z-6.8645
G1 X118.2635 Y54.5682 Z-7.2192
G2 X121.2398 Y51.8108 Z-7.5173 I-0.0139 J-3.0
G2 X121.2497 Y51.5682 Z-7.2717 I-2.9902 J-0.2426
G1 Y50.3108 Z-6.0
G1 Y48.3108
G1 Y46.8108 Z-7.8518
G1 Y45.0833 Z-7.9673
G2 X118.2497 Y42.0833 Z-8.2825 I-3.0 J0.0
G1 X114.2246 Z-8.5518
G1 X112.7245 Z-6.0
G1 X111.7497
G2 X110.726 Y42.2634 I0.0 J3.0
G2 X109.2359 Y43.446 Z-8.9167 I1.0237 J2.8199
G2 X108.789 Y44.5992 Z-9.0 I2.5138 J1.6373
G2 X108.7497 Y45.0833 I2.9607 J0.4841
G1 Y51.5983
G2 X108.7604 Y51.8524 I3.0 J0.0
G2 X109.5143 Y53.599 Z-6.0 I2.9892 J-0.2541
G2 X111.2686 Y54.5595 I2.2354 J-2.0008
G2 X111.7635 Y54.5982 Z-6.9929 I0.4811 J-2.9612
G1 X112.9605 Y54.5927 Z-9.0
G1 X118.2635 Y54.5682
G2 X121.2398 Y51.8108 I-0.0139 J-3.0
G2 X121.2497 Y51.5682 Z-8.5144 I-2.9902 J-0.2426
G1 Y50.3108 Z-6.0
G1 Y48.3108
G1 Y46.8108 Z-9.0
G1 Y45.0833
G2 X118.2497 Y42.0833 I-3.0 J0.0
G1 X114.2246
G1 X112.7245 Z-6.0
G1 X111.7497
G2 X110.726 Y42.2634 I0.0 J3.0
G2 X109.2359 Y43.446 Z-9.0 I1.0237 J2.8199
G2 X108.789 Y44.5992 I2.5138 J1.6373
G0 Z5.0
G0 X110.8712 Y37.8002
G0 Z1.0
G1 F400.0 Z0.0
G2 F1000.0 X111.7635 Y37.9316 Z-0.0606 I0.8785 J-2.8685
G1 X118.2635 Y37.9016 Z-0.4954
G2 X121.2497 Y34.9016 Z-0.8096 I-0.0139 J-3.0
G1 Y28.4167 Z-1.2434
G2 X118.2497 Y25.4167 Z-1.5586 I-3.0 J0.0
G1 X111.7497 Z-1.9934
G2 X108.7497 Y28.4167 Z-2.3086 I0.0 J3.0
G1 Y34.9317 Z-2.7444
G2 X110.8712 Y37.8002 Z-3.0 I3.0 J0.0
G2 X111.7635 Y37.9316 Z-3.0606 I0.8785 J-2.8685
G1 X118.2635 Y37.9016 Z-3.4954
G2 X121.2497 Y34.9016 Z-3.8096 I-0.0139 J-3.0
G1 Y28.4167 Z-4.2434
G2 X118.2497 Y25.4167 Z-4.5586 I-3.0 J0.0
G1 X111.7497 Z-4.9934
G2 X108.7497 Y28.4167 Z-5.3086 I0.0 J3.0
G1 Y34.9317 Z-5.7444
G2 X110.8712 Y37.8002 Z-6.0 I3.0 J0.0
G2 X111.2686 Y37.8929 I0.8785 J-2.8685
G2 X111.7635 Y37.9316 Z-6.0465 I0.4811 J-2.9612
G1 X112.9605 Y37.9261 Z-6.1406
G1 X118.2635 Y37.9016 Z-6.4954
G2 X121.2398 Y35.1442 Z-6.7934 I-0.0139 J-3.0
G2 X121.2497 Y34.9016 Z-6.665 I-2.9902 J-0.2426
G1 Y33.6442 Z-6.0
G1 Y31.6442
G1 Y30.1442 Z-7.1279
G1 Y28.4167 Z-7.2434
G2 X118.2497 Y25.4167 Z-7.5586 I-3.0 J0.0
G1 X114.2246 Z-7.8279
G1 X112.7245 Z-6.0
G1 X111.7497
G2 X110.726 Y25.5968 I0.0 J3.0
G2 X109.2359 Y26.7794 Z-8.1928 I1.0237 J2.8199
G2 X108.7497 Y28.4167 Z-8.3086 I2.5138 J1.6373
G1 Y34.9317 Z-8.7444
G2 X108.7604 Y35.1858 Z-8.7614 I3.0 J0.0
G2 X109.5143 Y36.9324 Z-6.0 I2.9892 J-0.2541
G2 X110.8712 Y37.8002 I2.2354 J-2.0008
G2 X111.2686 Y37.8929 I0.8785 J-2.8685
G2 X111.7635 Y37.9316 Z-6.9929 I0.4811 J-2.9612
G1 X112.9605 Y37.9261 Z-9.0
G1 X118.2635 Y37.9016
G2 X121.2398 Y35.1442 I-0.0139 J-3.0
G2 X121.2497 Y34.9016 Z-8.5144 I-2.9902 J-0.2426
G1 Y33.6442 Z-6.0
G1 Y31.6442
G1 Y30.1442 Z-9.0
G1 Y28.4167
G2 X118.2497 Y25.4167 I-3.0 J0.0
G1 X114.2246
G1 X112.7245 Z-6.0
G1 X111.7497
G2 X110.726 Y25.5968 I0.0 J3.0
G2 X109.2359 Y26.7794 Z-9.0 I1.0237 J2.8199
G2 X108.7497 Y28.4167 I2.5138 J1.6373
G1 Y34.9317
G2 X108.7604 Y35.1858 I3.0 J0.0
G2 X109.5143 Y36.9324 Z-6.0 I2.9892 J-0.2541
G2 X110.8712 Y37.8002 I2.2354 J-2.0008
G0 Z5.0
G0 X125.4556 Y35.4157
G0 Z1.0
G1 F400.0 Z0.0
G2 F1000.0 X128.4301 Y37.9316 Z-0.2836 I2.9607 J-0.4841
G1 X134.9301 Y37.9016 Z-0.7184
G2 X137.9163 Y34.9016 Z-1.0327 I-0.0139 J-3.0
G1 Y28.4167 Z-1.4665
G2 X134.9163 Y25.4167 Z-1.7817 I-3.0 J0.0
G1 X128.4163 Z-2.2165
G2 X125.4163 Y28.4167 Z-2.5317 I0.0 J3.0
G1 Y34.9317 Z-2.9675
G2 X125.4556 Y35.4157 Z-3.0 I3.0 J0.0
G2 X128.4301 Y37.9316 Z-3.2836 I2.9607 J-0.4841
G1 X134.9301 Y37.9016 Z-3.7184
G2 X137.9163 Y34.9016 Z-4.0327 I-0.0139 J-3.0
G1 Y28.4167 Z-4.4665
G2 X134.9163 Y25.4167 Z-4.7817 I-3.0 J0.0
G1 X128.4163 Z-5.2165
G2 X125.4163 Y28.4167 Z-5.5317 I0.0 J3.0
G1 Y34.9317 Z-5.9675
G2 X125.4556 Y35.4157 Z-6.0 I3.0 J0.0
G2 X126.1809 Y36.9324 I2.9607 J-0.4841
G2 X127.9352 Y37.8929 I2.2354 J-2.0008
G2 X128.4301 Y37.9316 Z-6.1204 I0.4811 J-2.9612
G1 X129.6271 Y37.9261 Z-6.3637
G1 X134.9301 Y37.9016 Z-6.7184
G2 X137.9064 Y35.1442 Z-7.0165 I-0.0139 J-3.0
G2 X137.9163 Y34.9016 Z-6.8519 I-2.9902 J-0.2426
G1 Y33.6442 Z-6.0
G1 Y31.6442
G1 Y30.1442 Z-7.3509
G1 Y28.4167 Z-7.4665
G2 X134.9163 Y25.4167 Z-7.7817 I-3.0 J0.0
G1 X130.8912 Z-8.0509
G1 X129.3911 Z-6.0
G1 X128.4163
G2 X127.3926 Y25.5968 I0.0 J3.0
G2 X125.9025 Y26.7794 Z-8.4158 I1.0237 J2.8199
G2 X125.4163 Y28.4167 Z-8.5317 I2.5138 J1.6373
G1 Y34.9317 Z-8.9675
G2 X125.427 Y35.1858 Z-8.9845 I3.0 J0.0
G2 X125.4556 Y35.4157 Z-8.5234 I2.9892 J-0.2541
G1 F400.0 Z-8.5365
G2 F1000.0 X126.1809 Y36.9324 Z-6.0 I2.9607 J-0.4841
G2 X127.9352 Y37.8929 I2.2354 J-2.0008
G2 X128.4301 Y37.9316 Z-6.9929 I0.4811 J-2.9612
G1 X129.6271 Y37.9261 Z-9.0
G1 X134.9301 Y37.9016
G2 X137.9064 Y35.1442 I-0.0139 J-3.0
G2 X137.9163 Y34.9016 Z-8.5144 I-2.9902 J-0.2426
G1 Y33.6442 Z-6.0
G1 Y31.6442
G1 Y30.1442 Z-9.0
G1 Y28.4167
G2 X134.9163 Y25.4167 I-3.0 J0.0
G1 X130.8912
G1 X129.3911 Z-6.0
G1 X128.4163
G2 X127.3926 Y25.5968 I0.0 J3.0
G2 X125.9025 Y26.7794 Z-9.0 I1.0237 J2.8199
G2 X125.4163 Y28.4167 I2.5138 J1.6373
G1 Y34.9317
G2 X125.427 Y35.1858 I3.0 J0.0
G2 X125.4556 Y35.4157 Z-8.5365 I2.9892 J-0.2541
G0 Z5.0
G0 X127.5378 Y42.2148
G0 Z1.0
G1 F400.0 Z0.0
G2 F1000.0 X125.4163 Y45.0833 Z-0.2556 I0.8785 J2.8685
G1 Y51.5983 Z-0.6914
G2 X128.4301 Y54.5982 Z-1.0075 I3.0 J0.0
G1 X134.9301 Y54.5682 Z-1.4423
G2 X137.9163 Y51.5682 Z-1.7566 I-0.0139 J-3.0
G1 Y45.0833 Z-2.1904
G2 X134.9163 Y42.0833 Z-2.5056 I-3.0 J0.0
G1 X128.4163 Z-2.9404
G2 X127.5378 Y42.2148 Z-3.0 I0.0 J3.0
G2 X125.4163 Y45.0833 Z-3.2556 I0.8785 J2.8685
G1 Y51.5983 Z-3.6914
G2 X128.4301 Y54.5982 Z-4.0075 I3.0 J0.0
G1 X134.9301 Y54.5682 Z-4.4423
G2 X137.9163 Y51.5682 Z-4.7566 I-0.0139 J-3.0
G1 Y45.0833 Z-5.1904
G2 X134.9163 Y42.0833 Z-5.5056 I-3.0 J0.0
G1 X128.4163 Z-5.9404
G2 X127.5378 Y42.2148 Z-6.0 I0.0 J3.0
G2 X127.3926 Y42.2634 I0.8785 J2.8685
G2 X125.9025 Y43.446 Z-6.1397 I1.0237 J2.8199
G2 X125.4163 Y45.0833 Z-6.2556 I2.5138 J1.6373
G1 Y51.5983 Z-6.6914
G2 X125.427 Y51.8524 Z-6.7084 I3.0 J0.0
G2 X126.1809 Y53.599 Z-6.0 I2.9892 J-0.2541
G2 X127.9352 Y54.5595 I2.2354 J-2.0008
G2 X128.4301 Y54.5982 Z-6.36 I0.4811 J-2.9612
G1 X129.6271 Y54.5927 Z-7.0876
G1 X134.9301 Y54.5682 Z-7.4423
G2 X137.9064 Y51.8108 Z-7.7403 I-0.0139 J-3.0
G2 X137.9163 Y51.5682 Z-7.4587 I-2.9902 J-0.2426
G1 Y50.3108 Z-6.0
G1 Y48.3108
G1 Y46.8108 Z-8.0748
G1 Y45.0833 Z-8.1904
G2 X134.9163 Y42.0833 Z-8.5056 I-3.0 J0.0
G1 X130.8912 Z-8.7748
G1 X129.3911 Z-6.0
G1 X128.4163
G2 X127.5378 Y42.2148 I0.0 J3.0
G2 X127.3926 Y42.2634 I0.8785 J2.8685
G2 X125.9025 Y43.446 Z-9.0 I1.0237 J2.8199
G2 X125.4163 Y45.0833 I2.5138 J1.6373
G1 Y51.5983
G2 X125.427 Y51.8524 I3.0 J0.0
G2 X126.1809 Y53.599 Z-6.0 I2.9892 J-0.2541
G2 X127.9352 Y54.5595 I2.2354 J-2.0008
G2 X128.4301 Y54.5982 Z-6.9929 I0.4811 J-2.9612
G1 X129.6271 Y54.5927 Z-9.0
G1 X134.9301 Y54.5682
G2 X137.9064 Y51.8108 I-0.0139 J-3.0
G2 X137.9163 Y51.5682 Z-8.5144 I-2.9902 J-0.2426
G1 Y50.3108 Z-6.0
G1 Y48.3108
G1 Y46.8108 Z-9.0
G1 Y45.0833
G2 X134.9163 Y42.0833 I-3.0 J0.0
G1 X130.8912
G1 X129.3911 Z-6.0
G1 X128.4163
G2 X127.5378 Y42.2148 I0.0 J3.0
G0 Z5.0
G0 X142.1222 Y44.5992
G0 Z1.0
G1 F400.0 Z0.0
G2 F1000.0 X142.0829 Y45.0833 Z-0.0325 I2.9607 J0.4841
G1 Y51.5983 Z-0.4683
G2 X145.0967 Y54.5982 Z-0.7845 I3.0 J0.0
G1 X151.5967 Y54.5682 Z-1.2192
G2 X154.5829 Y51.5682 Z-1.5335 I-0.0139 J-3.0
G1 Y45.0833 Z-1.9673
G2 X151.5829 Y42.0833 Z-2.2825 I-3.0 J0.0
G1 X145.0829 Z-2.7173
G2 X142.1222 Y44.5992 Z-3.0 I0.0 J3.0
G2 X142.0829 Y45.0833 Z-3.0325 I2.9607 J0.4841
G1 Y51.5983 Z-3.4683
G2 X145.0967 Y54.5982 Z-3.7845 I3.0 J0.0
G1 X151.5967 Y54.5682 Z-4.2192
G2 X154.5829 Y51.5682 Z-4.5335 I-0.0139 J-3.0
G1 Y45.0833 Z-4.9673
G2 X151.5829 Y42.0833 Z-5.2825 I-3.0 J0.0
G1 X145.0829 Z-5.7173
G2 X142.1222 Y44.5992 Z-6.0 I0.0 J3.0
G2 X142.0829 Y45.0833 Z-6.0325 I2.9607 J0.4841
G1 Y51.5983 Z-6.4683
G2 X142.0936 Y51.8524 Z-6.4853 I3.0 J0.0
G2 X142.8475 Y53.599 Z-6.0 I2.9892 J-0.2541
G2 X144.6018 Y54.5595 I2.2354 J-2.0008
G2 X145.0967 Y54.5982 Z-6.2861 I0.4811 J-2.9612
G1 X146.2937 Y54.5927 Z-6.8645
G1 X151.5967 Y54.5682 Z-7.2192
G2 X154.573 Y51.8108 Z-7.5173 I-0.0139 J-3.0
G2 X154.5829 Y51.5682 Z-7.2717 I-2.9902 J-0.2426
G1 Y50.3108 Z-6.0
G1 Y48.3108
G1 Y46.8108 Z-7.8518
G1 Y45.0833 Z-7.9673
G2 X151.5829 Y42.0833 Z-8.2825 I-3.0 J0.0
G1 X147.5578 Z-8.5518
G1 X146.0577 Z-6.0
G1 X145.0829
G2 X144.0592 Y42.2634 I0.0 J3.0
G2 X142.5691 Y43.446 Z-8.9167 I1.0237 J2.8199
G2 X142.1222 Y44.5992 Z-9.0 I2.5138 J1.6373
G2 X142.0829 Y45.0833 I2.9607 J0.4841
G1 Y51.5983
G2 X142.0936 Y51.8524 I3.0 J0.0
G2 X142.8475 Y53.599 Z-6.0 I2.9892 J-0.2541
G2 X144.6018 Y54.5595 I2.2354 J-2.0008
G2 X145.0967 Y54.5982 Z-6.9929 I0.4811 J-2.9612
G1 X146.2937 Y54.5927 Z-9.0
G1 X151.5967 Y54.5682
G2 X154.573 Y51.8108 I-0.0139 J-3.0
G2 X154.5829 Y51.5682 Z-8.5144 I-2.9902 J-0.2426
G1 Y50.3108 Z-6.0
G1 Y48.3108
G1 Y46.8108 Z-9.0
G1 Y45.0833
G2 X151.5829 Y42.0833 I-3.0 J0.0
G1 X147.5578
G1 X146.0577 Z-6.0
G1 X145.0829
G2 X144.0592 Y42.2634 I0.0 J3.0
G2 X142.5691 Y43.446 Z-9.0 I1.0237 J2.8199
G2 X142.1222 Y44.5992 I2.5138 J1.6373
G0 Z5.0
G0 X144.2044 Y37.8002
G0 Z1.0
G1 F400.0 Z0.0
G2 F1000.0 X145.0967 Y37.9316 Z-0.0606 I0.8785 J-2.8685
G1 X151.5967 Y37.9016 Z-0.4954
G2 X154.5829 Y34.9016 Z-0.8096 I-0.0139 J-3.0
G1 Y28.4167 Z-1.2434
G2 X151.5829 Y25.4167 Z-1.5586 I-3.0 J0.0
G1 X145.0829 Z-1.9934
G2 X142.0829 Y28.4167 Z-2.3086 I0.0 J3.0
G1 Y34.9317 Z-2.7444
G2 X144.2044 Y37.8002 Z-3.0 I3.0 J0.0
G2 X145.0967 Y37.9316 Z-3.0606 I0.8785 J-2.8685
G1 X151.5967 Y37.9016 Z-3.4954
G2 X154.5829 Y34.9016 Z-3.8096 I-0.0139 J-3.0
G1 Y28.4167 Z-4.2434
G2 X151.5829 Y25.4167 Z-4.5586 I-3.0 J0.0
G1 X145.0829 Z-4.9934
G2 X142.0829 Y28.4167 Z-5.3086 I0.0 J3.0
G1 Y34.9317 Z-5.7444
G2 X144.2044 Y37.8002 Z-6.0 I3.0 J0.0
G2 X144.6018 Y37.8929 I0.8785 J-2.8685
G2 X145.0967 Y37.9316 Z-6.0465 I0.4811 J-2.9612
G1 X146.2937 Y37.9261 Z-6.1406
G1 X151.5967 Y37.9016 Z-6.4954
G2 X154.573 Y35.1442 Z-6.7934 I-0.0139 J-3.0
G2 X154.5829 Y34.9016 Z-6.665 I-2.9902 J-0.2426
G1 Y33.6442 Z-6.0
G1 Y31.6442
G1 Y30.1442 Z-7.1279
G1 Y28.4167 Z-7.2434
G2 X151.5829 Y25.4167 Z-7.5586 I-3.0 J0.0
G1 X147.5578 Z-7.8279
G1 X146.0577 Z-6.0
G1 X145.0829
G2 X144.0592 Y25.5968 I0.0 J3.0
G2 X142.5691 Y26.7794 Z-8.1928 I1.0237 J2.8199
G2 X142.0829 Y28.4167 Z-8.3086 I2.5138 J1.6373
G1 Y34.9317 Z-8.7444
G2 X142.0936 Y35.1858 Z-8.7614 I3.0 J0.0
G2 X142.8475 Y36.9324 Z-6.0 I2.9892 J-0.2541
G2 X144.2044 Y37.8002 I2.2354 J-2.0008
G2 X144.6018 Y37.8929 I0.8785 J-2.8685
G2 X145.0967 Y37.9316 Z-6.9929 I0.4811 J-2.9612
G1 X146.2937 Y37.9261 Z-9.0
G1 X151.5967 Y37.9016
G2 X154.573 Y35.1442 I-0.0139 J-3.0
G2 X154.5829 Y34.9016 Z-8.5144 I-2.9902 J-0.2426
G1 Y33.6442 Z-6.0
G1 Y31.6442
G1 Y30.1442 Z-9.0
G1 Y28.4167
G2 X151.5829 Y25.4167 I-3.0 J0.0
G1 X147.5578
G1 X146.0577 Z-6.0
G1 X145.0829
G2 X144.0592 Y25.5968 I0.0 J3.0
G2 X142.5691 Y26.7794 Z-9.0 I1.0237 J2.8199
G2 X142.0829 Y28.4167 I2.5138 J1.6373
G1 Y34.9317
G2 X142.0936 Y35.1858 I3.0 J0.0
G2 X142.8475 Y36.9324 Z-6.0 I2.9892 J-0.2541
G2 X144.2044 Y37.8002 I2.2354 J-2.0008
G0 Z5.0
G0 X158.7888 Y35.4157
G0 Z1.0
G1 F400.0 Z0.0
G2 F1000.0 X161.7633 Y37.9316 Z-0.2836 I2.9607 J-0.4841
G1 X168.2633 Y37.9016 Z-0.7184
G2 X171.2495 Y34.9016 Z-1.0327 I-0.0139 J-3.0
G1 Y28.4167 Z-1.4665
G2 X168.2495 Y25.4167 Z-1.7817 I-3.0 J0.0
G1 X161.7495 Z-2.2165
G2 X158.7495 Y28.4167 Z-2.5317 I0.0 J3.0
G1 Y34.9317 Z-2.9675
G2 X158.7888 Y35.4157 Z-3.0 I3.0 J0.0
G2 X161.7633 Y37.9316 Z-3.2836 I2.9607 J-0.4841
G1 X168.2633 Y37.9016 Z-3.7184
G2 X171.2495 Y34.9016 Z-4.0327 I-0.0139 J-3.0
G1 Y28.4167 Z-4.4665
G2 X168.2495 Y25.4167 Z-4.7817 I-3.0 J0.0
G1 X161.7495 Z-5.2165
G2 X158.7495 Y28.4167 Z-5.5317 I0.0 J3.0
G1 Y34.9317 Z-5.9675
G2 X158.7888 Y35.4157 Z-6.0 I3.0 J0.0
G2 X159.5141 Y36.9324 I2.9607 J-0.4841
G2 X161.2684 Y37.8929 I2.2354 J-2.0008
G2 X161.7633 Y37.9316 Z-6.1204 I0.4811 J-2.9612
G1 X162.9603 Y37.9261 Z-6.3637
G1 X168.2633 Y37.9016 Z-6.7184
G2 X171.2396 Y35.1442 Z-7.0165 I-0.0139 J-3.0
G2 X171.2495 Y34.9016 Z-6.8519 I-2.9902 J-0.2426
G1 Y33.6442 Z-6.0
G1 Y31.6442
G1 Y30.1442 Z-7.3509
G1 Y28.4167 Z-7.4665
G2 X168.2495 Y25.4167 Z-7.7817 I-3.0 J0.0
G1 X164.2244 Z-8.0509
G1 X162.7243 Z-6.0
G1 X161.7495
G2 X160.7258 Y25.5968 I0.0 J3.0
G2 X159.2357 Y26.7794 Z-8.4158 I1.0237 J2.8199
G2 X158.7495 Y28.4167 Z-8.5317 I2.5138 J1.6373
G1 Y34.9317 Z-8.9675
G2 X158.7602 Y35.1858 Z-8.9845 I3.0 J0.0
G2 X158.7888 Y35.4157 Z-8.5234 I2.9892 J-0.2541
G1 F400.0 Z-8.5365
G2 F1000.0 X159.5141 Y36.9324 Z-6.0 I2.9607 J-0.4841
G2 X161.2684 Y37.8929 I2.2354 J-2.0008
G2 X161.7633 Y37.9316 Z-6.9929 I0.4811 J-2.9612
G1 X162.9603 Y37.9261 Z-9.0
G1 X168.2633 Y37.9016
G2 X171.2396 Y35.1442 I-0.0139 J-3.0
G2 X171.2495 Y34.9016 Z-8.5144 I-2.9902 J-0.2426
G1 Y33.6442 Z-6.0
G1 Y31.6442
G1 Y30.1442 Z-9.0
G1 Y28.4167
G2 X168.2495 Y25.4167 I-3.0 J0.0
G1 X164.2244
G1 X162.7243 Z-6.0
G1 X161.7495
G2 X160.7258 Y25.5968 I0.0 J3.0
G2 X159.2357 Y26.7794 Z-9.0 I1.0237 J2.8199
G2 X158.7495 Y28.4167 I2.5138 J1.6373
G1 Y34.9317
G2 X158.7602 Y35.1858 I3.0 J0.0
G2 X158.7888 Y35.4157 Z-8.5365 I2.9892 J-0.2541
G0 Z5.0
G0 X160.871 Y42.2148
G0 Z1.0
G1 F400.0 Z0.0
G2 F1000.0 X158.7495 Y45.0833 Z-0.2556 I0.8785 J2.8685
G1 Y51.5983 Z-0.6914
G2 X161.7633 Y54.5982 Z-1.0075 I3.0 J0.0
G1 X168.2633 Y54.5682 Z-1.4423
G2 X171.2495 Y51.5682 Z-1.7566 I-0.0139 J-3.0
G1 Y45.0833 Z-2.1904
G2 X168.2495 Y42.0833 Z-2.5056 I-3.0 J0.0
G1 X161.7495 Z-2.9404
G2 X160.871 Y42.2148 Z-3.0 I0.0 J3.0
G2 X158.7495 Y45.0833 Z-3.2556 I0.8785 J2.8685
G1 Y51.5983 Z-3.6914
G2 X161.7633 Y54.5982 Z-4.0075 I3.0 J0.0
G1 X168.2633 Y54.5682 Z-4.4423
G2 X171.2495 Y51.5682 Z-4.7566 I-0.0139 J-3.0
G1 Y45.0833 Z-5.1904
G2 X168.2495 Y42.0833 Z-5.5056 I-3.0 J0.0
G1 X161.7495 Z-5.9404
G2 X160.871 Y42.2148 Z-6.0 I0.0 J3.0
G2 X160.7258 Y42.2634 I0.8785 J2.8685
G2 X159.2357 Y43.446 Z-6.1397 I1.0237 J2.8199
G2 X158.7495 Y45.0833 Z-6.2556 I2.5138 J1.6373
G1 Y51.5983 Z-6.6914
G2 X158.7602 Y51.8524 Z-6.7084 I3.0 J0.0
G2 X159.5141 Y53.599 Z-6.0 I2.9892 J-0.2541
G2 X161.2684 Y54.5595 I2.2354 J-2.0008
G2 X161.7633 Y54.5982 Z-6.36 I0.4811 J-2.9612
G1 X162.9603 Y54.5927 Z-7.0876
G1 X168.2633 Y54.5682 Z-7.4423
G2 X171.2396 Y51.8108 Z-7.7403 I-0.0139 J-3.0
G2 X171.2495 Y51.5682 Z-7.4587 I-2.9902 J-0.2426
G1 Y50.3108 Z-6.0
G1 Y48.3108
G1 Y46.8108 Z-8.0748
G1 Y45.0833 Z-8.1904
G2 X168.2495 Y42.0833 Z-8.5056 I-3.0 J0.0
G1 X164.2244 Z-8.7748
G1 X162.7243 Z-6.0
G1 X161.7495
G2 X160.871 Y42.2148 I0.0 J3.0
G2 X160.7258 Y42.2634 I0.8785 J2.8685
G2 X159.2357 Y43.446 Z-9.0 I1.0237 J2.8199
G2 X158.7495 Y45.0833 I2.5138 J1.6373
G1 Y51.5983
G2 X158.7602 Y51.8524 I3.0 J0.0
G2 X159.5141 Y53.599 Z-6.0 I2.9892 J-0.2541
G2 X161.2684 Y54.5595 I2.2354 J-2.0008
G2 X161.7633 Y54.5982 Z-6.9929 I0.4811 J-2.9612
G1 X162.9603 Y54.5927 Z-9.0
G1 X168.2633 Y54.5682
G2 X171.2396 Y51.8108 I-0.0139 J-3.0
G2 X171.2495 Y51.5682 Z-8.5144 I-2.9902 J-0.2426
G1 Y50.3108 Z-6.0
G1 Y48.3108
G1 Y46.8108 Z-9.0
G1 Y45.0833
G2 X168.2495 Y42.0833 I-3.0 J0.0
G1 X164.2244
G1 X162.7243 Z-6.0
G1 X161.7495
G2 X160.871 Y42.2148 I0.0 J3.0
G0 Z5.0
G0 X175.4554 Y44.5992
G0 Z1.0
G1 F400.0 Z0.0
G2 F1000.0 X175.4161 Y45.0833 Z-0.0325 I2.9607 J0.4841
G1 Y51.5983 Z-0.4683
G2 X178.4299 Y54.5982 Z-0.7845 I3.0 J0.0
G1 X184.9299 Y54.5682 Z-1.2192
G2 X187.9161 Y51.5682 Z-1.5335 I-0.0139 J-3.0
G1 Y45.0833 Z-1.9673
G2 X184.9161 Y42.0833 Z-2.2825 I-3.0 J0.0
G1 X178.4161 Z-2.7173
G2 X175.4554 Y44.5992 Z-3.0 I0.0 J3.0
G2 X175.4161 Y45.0833 Z-3.0325 I2.9607 J0.4841
G1 Y51.5983 Z-3.4683
G2 X178.4299 Y54.5982 Z-3.7845 I3.0 J0.0
G1 X184.9299 Y54.5682 Z-4.2192
G2 X187.9161 Y51.5682 Z-4.5335 I-0.0139 J-3.0
G1 Y45.0833 Z-4.9673
G2 X184.9161 Y42.0833 Z-5.2825 I-3.0 J0.0
G1 X178.4161 Z-5.7173
G2 X175.4554 Y44.5992 Z-6.0 I0.0 J3.0
G2 X175.4161 Y45.0833 Z-6.0325 I2.9607 J0.4841
G1 Y51.5983 Z-6.4683
G2 X175.4268 Y51.8524 Z-6.4853 I3.0 J0.0
G2 X176.1807 Y53.599 Z-6.0 I2.9892 J-0.2541
G2 X177.935 Y54.5595 I2.2354 J-2.0008
G2 X178.4299 Y54.5982 Z-6.2861 I0.4811 J-2.9612
G1 X179.6269 Y54.5927 Z-6.8645
G1 X184.9299 Y54.5682 Z-7.2192
G2 X187.9062 Y51.8108 Z-7.5173 I-0.0139 J-3.0
G2 X187.9161 Y51.5682 Z-7.2717 I-2.9902 J-0.2426
G1 Y50.3108 Z-6.0
G1 Y48.3108
G1 Y46.8108 Z-7.8518
G1 Y45.0833 Z-7.9673
G2 X184.9161 Y42.0833 Z-8.2825 I-3.0 J0.0
G1 X180.891 Z-8.5518
G1 X179.3909 Z-6.0
G1 X178.4161
G2 X177.3924 Y42.2634 I0.0 J3.0
G2 X175.9023 Y43.446 Z-8.9167 I1.0237 J2.8199
G2 X175.4554 Y44.5992 Z-9.0 I2.5138 J1.6373
G2 X175.4161 Y45.0833 I2.9607 J0.4841
G1 Y51.5983
G2 X175.4268 Y51.8524 I3.0 J0.0
G2 X176.1807 Y53.599 Z-6.0 I2.9892 J-0.2541
G2 X177.935 Y54.5595 I2.2354 J-2.0008
G2 X178.4299 Y54.5982 Z-6.9929 I0.4811 J-2.9612
G1 X179.6269 Y54.5927 Z-9.0
G1 X184.9299 Y54.5682
G2 X187.9062 Y51.8108 I-0.0139 J-3.0
G2 X187.9161 Y51.5682 Z-8.5144 I-2.9902 J-0.2426
G1 Y50.3108 Z-6.0
G1 Y48.3108
G1 Y46.8108 Z-9.0
G1 Y45.0833
G2 X184.9161 Y42.0833 I-3.0 J0.0
G1 X180.891
G1 X179.3909 Z-6.0
G1 X178.4161
G2 X177.3924 Y42.2634 I0.0 J3.0
G2 X175.9023 Y43.446 Z-9.0 I1.0237 J2.8199
G2 X175.4554 Y44.5992 I2.5138 J1.6373
G0 Z5.0
G0 X177.5376 Y37.8002
G0 Z1.0
G1 F400.0 Z0.0
G2 F1000.0 X178.4299 Y37.9316 Z-0.0606 I0.8785 J-2.8685
G1 X184.9299 Y37.9016 Z-0.4954
G2 X187.9161 Y34.9016 Z-0.8096 I-0.0139 J-3.0
G1 Y28.4167 Z-1.2434
G2 X184.9161 Y25.4167 Z-1.5586 I-3.0 J0.0
G1 X178.4161 Z-1.9934
G2 X175.4161 Y28.4167 Z-2.3086 I0.0 J3.0
G1 Y34.9317 Z-2.7444
G2 X177.5376 Y37.8002 Z-3.0 I3.0 J0.0
G2 X178.4299 Y37.9316 Z-3.0606 I0.8785 J-2.8685
G1 X184.9299 Y37.9016 Z-3.4954
G2 X187.9161 Y34.9016 Z-3.8096 I-0.0139 J-3.0
G1 Y28.4167 Z-4.2434
G2 X184.9161 Y25.4167 Z-4.5586 I-3.0 J0.0
G1 X178.4161 Z-4.9934
G2 X175.4161 Y28.4167 Z-5.3086 I0.0 J3.0
G1 Y34.9317 Z-5.7444
G2 X177.5376 Y37.8002 Z-6.0 I3.0 J0.0
G2 X177.935 Y37.8929 I0.8785 J-2.8685
G2 X178.4299 Y37.9316 Z-6.0465 I0.4811 J-2.9612
G1 X179.6269 Y37.9261 Z-6.1406
G1 X184.9299 Y37.9016 Z-6.4954
G2 X187.9062 Y35.1442 Z-6.7934 I-0.0139 J-3.0
G2 X187.9161 Y34.9016 Z-6.665 I-2.9902 J-0.2426
G1 Y33.6442 Z-6.0
G1 Y31.6442
G1 Y30.1442 Z-7.1279
G1 Y28.4167 Z-7.2434
G2 X184.9161 Y25.4167 Z-7.5586 I-3.0 J0.0
G1 X180.891 Z-7.8279
G1 X179.3909 Z-6.0
G1 X178.4161
G2 X177.3924 Y25.5968 I0.0 J3.0
G2 X175.9023 Y26.7794 Z-8.1928 I1.0237 J2.8199
G2 X175.4161 Y28.4167 Z-8.3086 I2.5138 J1.6373
G1 Y34.9317 Z-8.7444
G2 X175.4268 Y35.1858 Z-8.7614 I3.0 J0.0
G2 X176.1807 Y36.9324 Z-6.0 I2.9892 J-0.2541
G2 X177.5376 Y37.8002 I2.2354 J-2.0008
G2 X177.935 Y37.8929 I0.8785 J-2.8685
G2 X178.4299 Y37.9316 Z-6.9929 I0.4811 J-2.9612
G1 X179.6269 Y37.9261 Z-9.0
G1 X184.9299 Y37.9016
G2 X187.9062 Y35.1442 I-0.0139 J-3.0
G2 X187.9161 Y34.9016 Z-8.5144 I-2.9902 J-0.2426
G1 Y33.6442 Z-6.0
G1 Y31.6442
G1 Y30.1442 Z-9.0
G1 Y28.4167
G2 X184.9161 Y25.4167 I-3.0 J0.0
G1 X180.891
G1 X179.3909 Z-6.0
G1 X178.4161
G2 X177.3924 Y25.5968 I0.0 J3.0
G2 X175.9023 Y26.7794 Z-9.0 I1.0237 J2.8199
G2 X175.4161 Y28.4167 I2.5138 J1.6373
G1 Y34.9317
G2 X175.4268 Y35.1858 I3.0 J0.0
G2 X176.1807 Y36.9324 Z-6.0 I2.9892 J-0.2541
G2 X177.5376 Y37.8002 I2.2354 J-2.0008
G0 Z5.0
G0 X192.122 Y35.4157
G0 Z1.0
G1 F400.0 Z0.0
G2 F1000.0 X195.0965 Y37.9316 Z-0.2836 I2.9607 J-0.4841
G1 X201.5965 Y37.9016 Z-0.7184
G2 X204.5827 Y34.9016 Z-1.0327 I-0.0139 J-3.0
G1 Y28.4167 Z-1.4665
G2 X201.5827 Y25.4167 Z-1.7817 I-3.0 J0.0
G1 X195.0827 Z-2.2165
G2 X192.0827 Y28.4167 Z-2.5317 I0.0 J3.0
G1 Y34.9317 Z-2.9675
G2 X192.122 Y35.4157 Z-3.0 I3.0 J0.0
G2 X195.0965 Y37.9316 Z-3.2836 I2.9607 J-0.4841
G1 X201.5965 Y37.9016 Z-3.7184
G2 X204.5827 Y34.9016 Z-4.0327 I-0.0139 J-3.0
G1 Y28.4167 Z-4.4665
G2 X201.5827 Y25.4167 Z-4.7817 I-3.0 J0.0
G1 X195.0827 Z-5.2165
G2 X192.0827 Y28.4167 Z-5.5317 I0.0 J3.0
G1 Y34.9317 Z-5.9675
G2 X192.122 Y35.4157 Z-6.0 I3.0 J0.0
G2 X192.8473 Y36.9324 I2.9607 J-0.4841
G2 X194.6016 Y37.8929 I2.2354 J-2.0008
G2 X195.0965 Y37.9316 Z-6.1204 I0.4811 J-2.9612
G1 X196.2935 Y37.9261 Z-6.3637
G1 X201.5965 Y37.9016 Z-6.7184
G2 X204.5728 Y35.1442 Z-7.0165 I-0.0139 J-3.0
G2 X204.5827 Y34.9016 Z-6.8519 I-2.9902 J-0.2426
G1 Y33.6442 Z-6.0
G1 Y31.6442
G1 Y30.1442 Z-7.3509
G1 Y28.4167 Z-7.4665
G2 X201.5827 Y25.4167 Z-7.7817 I-3.0 J0.0
G1 X197.5576 Z-8.0509
G1 X196.0575 Z-6.0
G1 X195.0827
G2 X194.059 Y25.5968 I0.0 J3.0
G2 X192.5689 Y26.7794 Z-8.4158 I1.0237 J2.8199
G2 X192.0827 Y28.4167 Z-8.5317 I2.5138 J1.6373
G1 Y34.9317 Z-8.9675
G2 X192.0934 Y35.1858 Z-8.9845 I3.0 J0.0
G2 X192.122 Y35.4157 Z-8.5234 I2.9892 J-0.2541
G1 F400.0 Z-8.5365
G2 F1000.0 X192.8473 Y36.9324 Z-6.0 I2.9607 J-0.4841
G2 X194.6016 Y37.8929 I2.2354 J-2.0008
G2 X195.0965 Y37.9316 Z-6.9929 I0.4811 J-2.9612
G1 X196.2935 Y37.9261 Z-9.0
G1 X201.5965 Y37.9016
G2 X204.5728 Y35.1442 I-0.0139 J-3.0
G2 X204.5827 Y34.9016 Z-8.5144 I-2.9902 J-0.2426
G1 Y33.6442 Z-6.0
G1 Y31.6442
G1 Y30.1442 Z-9.0
G1 Y28.4167
G2 X201.5827 Y25.4167 I-3.0 J0.0
G1 X197.5576
G1 X196.0575 Z-6.0
G1 X195.0827
G2 X194.059 Y25.5968 I0.0 J3.0
G2 X192.5689 Y26.7794 Z-9.0 I1.0237 J2.8199
G2 X192.0827 Y28.4167 I2.5138 J1.6373
G1 Y34.9317
G2 X192.0934 Y35.1858 I3.0 J0.0
G2 X192.122 Y35.4157 Z-8.5365 I2.9892 J-0.2541
G0 Z5.0
G0 X194.2042 Y42.2148
G0 Z1.0
G1 F400.0 Z0.0
G2 F1000.0 X192.0827 Y45.0833 Z-0.2556 I0.8785 J2.8685
G1 Y51.5983 Z-0.6914
G2 X195.0965 Y54.5982 Z-1.0075 I3.0 J0.0
G1 X201.5965 Y54.5682 Z-1.4423
G2 X204.5827 Y51.5682 Z-1.7566 I-0.0139 J-3.0
G1 Y45.0833 Z-2.1904
G2 X201.5827 Y42.0833 Z-2.5056 I-3.0 J0.0
G1 X195.0827 Z-2.9404
G2 X194.2042 Y42.2148 Z-3.0 I0.0 J3.0
G2 X192.0827 Y45.0833 Z-3.2556 I0.8785 J2.8685
G1 Y51.5983 Z-3.6914
G2 X195.0965 Y54.5982 Z-4.0075 I3.0 J0.0
G1 X201.5965 Y54.5682 Z-4.4423
G2 X204.5827 Y51.5682 Z-4.7566 I-0.0139 J-3.0
G1 Y45.0833 Z-5.1904
G2 X201.5827 Y42.0833 Z-5.5056 I-3.0 J0.0
G1 X195.0827 Z-5.9404
G2 X194.2042 Y42.2148 Z-6.0 I0.0 J3.0
G2 X194.059 Y42.2634 I0.8785 J2.8685
G2 X192.5689 Y43.446 Z-6.1397 I1.0237 J2.8199
G2 X192.0827 Y45.0833 Z-6.2556 I2.5138 J1.6373
G1 Y51.5983 Z-6.6914
G2 X192.0934 Y51.8524 Z-6.7084 I3.0 J0.0
G2 X192.8473 Y53.599 Z-6.0 I2.9892 J-0.2541
G2 X194.6016 Y54.5595 I2.2354 J-2.0008
G2 X195.0965 Y54.5982 Z-6.36 I0.4811 J-2.9612
G1 X196.2935 Y54.5927 Z-7.0876
G1 X201.5965 Y54.5682 Z-7.4423
G2 X204.5728 Y51.8108 Z-7.7403 I-0.0139 J-3.0
G2 X204.5827 Y51.5682 Z-7.4587 I-2.9902 J-0.2426
G1 Y50.3108 Z-6.0
G1 Y48.3108
G1 Y46.8108 Z-8.0748
G1 Y45.0833 Z-8.1904
G2 X201.5827 Y42.0833 Z-8.5056 I-3.0 J0.0
G1 X197.5576 Z-8.7748
G1 X196.0575 Z-6.0
G1 X195.0827
G2 X194.2042 Y42.2148 I0.0 J3.0
G2 X194.059 Y42.2634 I0.8785 J2.8685
G2 X192.5689 Y43.446 Z-9.0 I1.0237 J2.8199
G2 X192.0827 Y45.0833 I2.5138 J1.6373
G1 Y51.5983
G2 X192.0934 Y51.8524 I3.0 J0.0
G2 X192.8473 Y53.599 Z-6.0 I2.9892 J-0.2541
G2 X194.6016 Y54.5595 I2.2354 J-2.0008
G2 X195.0965 Y54.5982 Z-6.9929 I0.4811 J-2.9612
G1 X196.2935 Y54.5927 Z-9.0
G1 X201.5965 Y54.5682
G2 X204.5728 Y51.8108 I-0.0139 J-3.0
G2 X204.5827 Y51.5682 Z-8.5144 I-2.9902 J-0.2426
G1 Y50.3108 Z-6.0
G1 Y48.3108
G1 Y46.8108 Z-9.0
G1 Y45.0833
G2 X201.5827 Y42.0833 I-3.0 J0.0
G1 X197.5576
G1 X196.0575 Z-6.0
G1 X195.0827
G2 X194.2042 Y42.2148 I0.0 J3.0
G0 Z5.0
G0 X194.9479 Y58.7529
G0 Z1.0
G1 F400.0 Z0.0
G2 F1000.0 X192.0827 Y61.7499 Z-0.3062 I0.1348 J2.997
G1 Y68.2649 Z-0.742
G2 X195.0965 Y71.2648 Z-1.0581 I3.0 J0.0
G1 X201.5965 Y71.2348 Z-1.4929
G2 X204.5827 Y68.2348 Z-1.8072 I-0.0139 J-3.0
G1 Y61.7499 Z-2.241
G2 X201.5827 Y58.7499 Z-2.5562 I-3.0 J0.0
G1 X195.0827 Z-2.991
G2 X194.9479 Y58.7529 Z-3.0 I0.0 J3.0
G2 X192.0827 Y61.7499 Z-3.3062 I0.1348 J2.997
G1 Y68.2649 Z-3.742
G2 X195.0965 Y71.2648 Z-4.0581 I3.0 J0.0
G1 X201.5965 Y71.2348 Z-4.4929
G2 X204.5827 Y68.2348 Z-4.8072 I-0.0139 J-3.0
G1 Y61.7499 Z-5.241
G2 X201.5827 Y58.7499 Z-5.5562 I-3.0 J0.0
G1 X195.0827 Z-5.991
G2 X194.9479 Y58.7529 Z-6.0 I0.0 J3.0
G2 X194.059 Y58.93 I0.1348 J2.997
G2 X192.5689 Y60.1126 Z-6.1903 I1.0237 J2.8199
G2 X192.0827 Y61.7499 Z-6.3062 I2.5138 J1.6373
G1 Y68.2649 Z-6.742
G2 X192.0934 Y68.519 Z-6.759 I3.0 J0.0
G2 X192.8473 Y70.2656 Z-6.0 I2.9892 J-0.2541
G2 X194.6016 Y71.2261 I2.2354 J-2.0008
G2 X195.0965 Y71.2648 Z-6.3767 I0.4811 J-2.9612
G1 X196.2935 Y71.2593 Z-7.1382
G1 X201.5965 Y71.2348 Z-7.4929
G2 X204.5728 Y68.4774 Z-7.791 I-0.0139 J-3.0
G2 X204.5827 Y68.2348 Z-7.5011 I-2.9902 J-0.2426
G1 Y66.9774 Z-6.0
G1 Y64.9774
G1 Y63.4774 Z-8.1254
G1 Y61.7499 Z-8.241
G2 X201.5827 Y58.7499 Z-8.5562 I-3.0 J0.0
G1 X197.5576 Z-8.8254
G1 X196.0575 Z-6.0
G1 X195.0827
G2 X194.9479 Y58.7529 I0.0 J3.0
G2 X194.059 Y58.93 I0.1348 J2.997
G2 X192.5689 Y60.1126 Z-9.0 I1.0237 J2.8199
G2 X192.0827 Y61.7499 I2.5138 J1.6373
G1 Y68.2649
G2 X192.0934 Y68.519 I3.0 J0.0
G2 X192.8473 Y70.2656 Z-6.0 I2.9892 J-0.2541
G2 X194.6016 Y71.2261 I2.2354 J-2.0008
G2 X195.0965 Y71.2648 Z-6.9929 I0.4811 J-2.9612
G1 X196.2935 Y71.2593 Z-9.0
G1 X201.5965 Y71.2348
G2 X204.5728 Y68.4774 I-0.0139 J-3.0
G2 X204.5827 Y68.2348 Z-8.5144 I-2.9902 J-0.2426
G1 Y66.9774 Z-6.0
G1 Y64.9774
G1 Y63.4774 Z-9.0
G1 Y61.7499
G2 X201.5827 Y58.7499 I-3.0 J0.0
G1 X197.5576
G1 X196.0575 Z-6.0
G1 X195.0827
G2 X194.9479 Y58.7529 I0.0 J3.0
G0 Z5.0
G0 X187.7905 Y60.8912
G0 Z1.0
G1 F400.0 Z0.0
G2 F1000.0 X184.9161 Y58.7499 Z-0.257 I-2.8745 J0.8587
G1 X178.4161 Z-0.6917
G2 X175.4161 Y61.7499 Z-1.007 I0.0 J3.0
G1 Y68.2649 Z-1.4427
G2 X178.4299 Y71.2648 Z-1.7589 I3.0 J0.0
G1 X184.9299 Y71.2348 Z-2.1937
G2 X187.9161 Y68.2348 Z-2.508 I-0.0139 J-3.0
G1 Y61.7499 Z-2.9417
G2 X187.7905 Y60.8912 Z-3.0 I-3.0 J0.0
G2 X184.9161 Y58.7499 Z-3.257 I-2.8745 J0.8587
G1 X178.4161 Z-3.6917
G2 X175.4161 Y61.7499 Z-4.007 I0.0 J3.0
G1 Y68.2649 Z-4.4427
G2 X178.4299 Y71.2648 Z-4.7589 I3.0 J0.0
G1 X184.9299 Y71.2348 Z-5.1937
G2 X187.9161 Y68.2348 Z-5.508 I-0.0139 J-3.0
G1 Y61.7499 Z-5.9417
G2 X187.7905 Y60.8912 Z-6.0 I-3.0 J0.0
G2 X184.9161 Y58.7499 Z-6.257 I-2.8745 J0.8587
G1 X180.891 Z-6.5262
G1 X179.3909 Z-6.0
G1 X178.4161
G2 X177.3924 Y58.93 I0.0 J3.0
G2 X175.9023 Y60.1126 Z-6.8911 I1.0237 J2.8199
G2 X175.4161 Y61.7499 Z-7.007 I2.5138 J1.6373
G1 Y68.2649 Z-7.4427
G2 X175.4268 Y68.519 Z-7.4598 I3.0 J0.0
G2 X176.1807 Y70.2656 Z-6.0 I2.9892 J-0.2541
G2 X177.935 Y71.2261 I2.2354 J-2.0008
G2 X178.4299 Y71.2648 Z-6.6086 I0.4811 J-2.9612
G1 X179.6269 Y71.2593 Z-7.839
G1 X184.9299 Y71.2348 Z-8.1937
G2 X187.9062 Y68.4774 Z-8.4917 I-0.0139 J-3.0
G2 X187.9161 Y68.2348 Z-8.0884 I-2.9902 J-0.2426
G1 Y66.9774 Z-6.0
G1 Y64.9774
G1 Y63.4774 Z-8.8262
G1 Y61.7499 Z-8.9417
G2 X187.7905 Y60.8912 Z-9.0 I-3.0 J0.0
G2 X184.9161 Y58.7499 I-2.8745 J0.8587
G1 X180.891
G1 X179.3909 Z-6.0
G1 X178.4161
G2 X177.3924 Y58.93 I0.0 J3.0
G2 X175.9023 Y60.1126 Z-9.0 I1.0237 J2.8199
G2 X175.4161 Y61.7499 I2.5138 J1.6373
G1 Y68.2649
G2 X175.4268 Y68.519 I3.0 J0.0
G2 X176.1807 Y70.2656 Z-6.0 I2.9892 J-0.2541
G2 X177.935 Y71.2261 I2.2354 J-2.0008
G2 X178.4299 Y71.2648 Z-6.9929 I0.4811 J-2.9612
G1 X179.6269 Y71.2593 Z-9.0
G1 X184.9299 Y71.2348
G2 X187.9062 Y68.4774 I-0.0139 J-3.0
G2 X187.9161 Y68.2348 Z-8.5144 I-2.9902 J-0.2426
G1 Y66.9774 Z-6.0
G1 Y64.9774
G1 Y63.4774 Z-9.0
G1 Y61.7499
G2 X187.7905 Y60.8912 I-3.0 J0.0
G0 Z5.0
G0 X185.4016 Y75.4561
G0 Z1.0
G1 F400.0 Z0.0
G2 F1000.0 X184.9161 Y75.4165 Z-0.0326 I-0.4856 J2.9604
G1 X178.4161 Z-0.4674
G2 X175.4161 Y78.4165 Z-0.7826 I0.0 J3.0
G1 Y84.9315 Z-1.2184
G2 X178.4299 Y87.9314 Z-1.5346 I3.0 J0.0
G1 X184.9299 Y87.9014 Z-1.9693
G2 X187.9161 Y84.9014 Z-2.2836 I-0.0139 J-3.0
G1 Y78.4165 Z-2.7174
G2 X185.4016 Y75.4561 Z-3.0 I-3.0 J0.0
G2 X184.9161 Y75.4165 Z-3.0326 I-0.4856 J2.9604
G1 X178.4161 Z-3.4674
G2 X175.4161 Y78.4165 Z-3.7826 I0.0 J3.0
G1 Y84.9315 Z-4.2184
G2 X178.4299 Y87.9314 Z-4.5346 I3.0 J0.0
G1 X184.9299 Y87.9014 Z-4.9693
G2 X187.9161 Y84.9014 Z-5.2836 I-0.0139 J-3.0
G1 Y78.4165 Z-5.7174
G2 X185.4016 Y75.4561 Z-6.0 I-3.0 J0.0
G2 X184.9161 Y75.4165 Z-6.0326 I-0.4856 J2.9604
G1 X180.891 Z-6.3019
G1 X179.3909 Z-6.0
G1 X178.4161
G2 X177.3924 Y75.5966 I0.0 J3.0
G2 X175.9023 Y76.7792 Z-6.6668 I1.0237 J2.8199
G2 X175.4161 Y78.4165 Z-6.7826 I2.5138 J1.6373
G1 Y84.9315 Z-7.2184
G2 X175.4268 Y85.1856 Z-7.2354 I3.0 J0.0
G2 X176.1807 Y86.9322 Z-6.0 I2.9892 J-0.2541
G2 X177.935 Y87.8927 I2.2354 J-2.0008
G2 X178.4299 Y87.9314 Z-6.5344 I0.4811 J-2.9612
G1 X179.6269 Y87.9259 Z-7.6146
G1 X184.9299 Y87.9014 Z-7.9693
G2 X187.9062 Y85.144 Z-8.2674 I-0.0139 J-3.0
G2 X187.9161 Y84.9014 Z-7.9004 I-2.9902 J-0.2426
G1 Y83.644 Z-6.0
G1 Y81.644
G1 Y80.144 Z-8.6019
G1 Y78.4165 Z-8.7174
G2 X185.4016 Y75.4561 Z-9.0 I-3.0 J0.0
G2 X184.9161 Y75.4165 I-0.4856 J2.9604
G1 X180.891
G1 X179.3909 Z-6.0
G1 X178.4161
G2 X177.3924 Y75.5966 I0.0 J3.0
G2 X175.9023 Y76.7792 Z-9.0 I1.0237 J2.8199
G2 X175.4161 Y78.4165 I2.5138 J1.6373
G1 Y84.9315
G2 X175.4268 Y85.1856 I3.0 J0.0
G2 X176.1807 Y86.9322 Z-6.0 I2.9892 J-0.2541
G2 X177.935 Y87.8927 I2.2354 J-2.0008
G2 X178.4299 Y87.9314 Z-6.9929 I0.4811 J-2.9612
G1 X179.6269 Y87.9259 Z-9.0
G1 X184.9299 Y87.9014
G2 X187.9062 Y85.144 I-0.0139 J-3.0
G2 X187.9161 Y84.9014 Z-8.5144 I-2.9902 J-0.2426
G1 Y83.644 Z-6.0
G1 Y81.644
G1 Y80.144 Z-9.0
G1 Y78.4165
G2 X185.4016 Y75.4561 I-3.0 J0.0
G0 Z5.0
G0 X192.2138 Y77.5392
G0 Z1.0
G1 F400.0 Z0.0
G2 F1000.0 X192.0827 Y78.4165 Z-0.0596 I2.8689 J0.8773
G1 Y84.9315 Z-0.4953
G2 X195.0965 Y87.9314 Z-0.8115 I3.0 J0.0
G1 X201.5965 Y87.9014 Z-1.2463
G2 X204.5827 Y84.9014 Z-1.5606 I-0.0139 J-3.0
G1 Y78.4165 Z-1.9943
G2 X201.5827 Y75.4165 Z-2.3096 I-3.0 J0.0
G1 X195.0827 Z-2.7443
G2 X192.2138 Y77.5392 Z-3.0 I0.0 J3.0
G2 X192.0827 Y78.4165 Z-3.0596 I2.8689 J0.8773
G1 Y84.9315 Z-3.4953
G2 X195.0965 Y87.9314 Z-3.8115 I3.0 J0.0
G1 X201.5965 Y87.9014 Z-4.2463
G2 X204.5827 Y84.9014 Z-4.5606 I-0.0139 J-3.0
G1 Y78.4165 Z-4.9943
G2 X201.5827 Y75.4165 Z-5.3096 I-3.0 J0.0
G1 X195.0827 Z-5.7443
G2 X192.2138 Y77.5392 Z-6.0 I0.0 J3.0
G2 X192.0827 Y78.4165 Z-6.0596 I2.8689 J0.8773
G1 Y84.9315 Z-6.4953
G2 X192.0934 Y85.1856 Z-6.5124 I3.0 J0.0
G2 X192.8473 Y86.9322 Z-6.0 I2.9892 J-0.2541
G2 X194.6016 Y87.8927 I2.2354 J-2.0008
G2 X195.0965 Y87.9314 Z-6.2951 I0.4811 J-2.9612
G1 X196.2935 Y87.9259 Z-6.8915
G1 X201.5965 Y87.9014 Z-7.2463
G2 X204.5728 Y85.144 Z-7.5443 I-0.0139 J-3.0
G2 X204.5827 Y84.9014 Z-7.2944 I-2.9902 J-0.2426
G1 Y83.644 Z-6.0
G1 Y81.644
G1 Y80.144 Z-7.8788
G1 Y78.4165 Z-7.9943
G2 X201.5827 Y75.4165 Z-8.3096 I-3.0 J0.0
G1 X197.5576 Z-8.5788
G1 X196.0575 Z-6.0
G1 X195.0827
G2 X194.059 Y75.5966 I0.0 J3.0
G2 X192.5689 Y76.7792 Z-8.9437 I1.0237 J2.8199
G2 X192.2138 Y77.5392 Z-9.0 I2.5138 J1.6373
G2 X192.0827 Y78.4165 I2.8689 J0.8773
G1 Y84.9315
G2 X192.0934 Y85.1856 I3.0 J0.0
G2 X192.8473 Y86.9322 Z-6.0 I2.9892 J-0.2541
G2 X194.6016 Y87.8927 I2.2354 J-2.0008
G2 X195.0965 Y87.9314 Z-6.9929 I0.4811 J-2.9612
G1 X196.2935 Y87.9259 Z-9.0
G1 X201.5965 Y87.9014
G2 X204.5728 Y85.144 I-0.0139 J-3.0
G2 X204.5827 Y84.9014 Z-8.5144 I-2.9902 J-0.2426
G1 Y83.644 Z-6.0
G1 Y81.644
G1 Y80.144 Z-9.0
G1 Y78.4165
G2 X201.5827 Y75.4165 I-3.0 J0.0
G1 X197.5576
G1 X196.0575 Z-6.0
G1 X195.0827
G2 X194.059 Y75.5966 I0.0 J3.0
G2 X192.5689 Y76.7792 Z-9.0 I1.0237 J2.8199
G2 X192.2138 Y77.5392 I2.5138 J1.6373
G0 Z5.0
G0 X194.5985 Y92.1224
G0 Z1.0
G1 F400.0 Z0.0
G2 F1000.0 X192.0827 Y95.0831 Z-0.2827 I0.4841 J2.9607
G1 Y101.5981 Z-0.7185
G2 X195.0965 Y104.598 Z-1.0346 I3.0 J0.0
G1 X201.5965 Y104.568 Z-1.4694
G2 X204.5827 Y101.568 Z-1.7837 I-0.0139 J-3.0
G1 Y95.0831 Z-2.2175
G2 X201.5827 Y92.0831 Z-2.5327 I-3.0 J0.0
G1 X195.0827 Z-2.9675
G2 X194.5985 Y92.1224 Z-3.0 I0.0 J3.0
G2 X192.0827 Y95.0831 Z-3.2827 I0.4841 J2.9607
G1 Y101.5981 Z-3.7185
G2 X195.0965 Y104.598 Z-4.0346 I3.0 J0.0
G1 X201.5965 Y104.568 Z-4.4694
G2 X204.5827 Y101.568 Z-4.7837 I-0.0139 J-3.0
G1 Y95.0831 Z-5.2175
G2 X201.5827 Y92.0831 Z-5.5327 I-3.0 J0.0
G1 X195.0827 Z-5.9675
G2 X194.5985 Y92.1224 Z-6.0 I0.0 J3.0
G2 X194.059 Y92.2632 I0.4841 J2.9607
G2 X192.5689 Y93.4458 Z-6.1668 I1.0237 J2.8199
G2 X192.0827 Y95.0831 Z-6.2827 I2.5138 J1.6373
G1 Y101.5981 Z-6.7185
G2 X192.0934 Y101.8522 Z-6.7355 I3.0 J0.0
G2 X192.8473 Y103.5988 Z-6.0 I2.9892 J-0.2541
G2 X194.6016 Y104.5593 I2.2354 J-2.0008
G2 X195.0965 Y104.598 Z-6.3689 I0.4811 J-2.9612
G1 X196.2935 Y104.5925 Z-7.1147
G1 X201.5965 Y104.568 Z-7.4694
G2 X204.5728 Y101.8106 Z-7.7674 I-0.0139 J-3.0
G2 X204.5827 Y101.568 Z-7.4814 I-2.9902 J-0.2426
G1 Y100.3106 Z-6.0
G1 Y98.3106
G1 Y96.8106 Z-8.1019
G1 Y95.0831 Z-8.2175
G2 X201.5827 Y92.0831 Z-8.5327 I-3.0 J0.0
G1 X197.5576 Z-8.8019
G1 X196.0575 Z-6.0
G1 X195.0827
G2 X194.5985 Y92.1224 I0.0 J3.0
G2 X194.059 Y92.2632 I0.4841 J2.9607
G2 X192.5689 Y93.4458 Z-9.0 I1.0237 J2.8199
G2 X192.0827 Y95.0831 I2.5138 J1.6373
G1 Y101.5981
G2 X192.0934 Y101.8522 I3.0 J0.0
G2 X192.8473 Y103.5988 Z-6.0 I2.9892 J-0.2541
G2 X194.6016 Y104.5593 I2.2354 J-2.0008
G2 X195.0965 Y104.598 Z-6.9929 I0.4811 J-2.9612
G1 X196.2935 Y104.5925 Z-9.0
G1 X201.5965 Y104.568
G2 X204.5728 Y101.8106 I-0.0139 J-3.0
G2 X204.5827 Y101.568 Z-8.5144 I-2.9902 J-0.2426
G1 Y100.3106 Z-6.0
G1 Y98.3106
G1 Y96.8106 Z-9.0
G1 Y95.0831
G2 X201.5827 Y92.0831 I-3.0 J0.0
G1 X197.5576
G1 X196.0575 Z-6.0
G1 X195.0827
G2 X194.5985 Y92.1224 I0.0 J3.0
G0 Z5.0
G0 X187.7849 Y94.2059
G0 Z1.0
G1 F400.0 Z0.0
G2 F1000.0 X184.9161 Y92.0831 Z-0.2557 I-2.8689 J0.8772
G1 X178.4161 Z-0.6905
G2 X175.4161 Y95.0831 Z-1.0057 I0.0 J3.0
G1 Y101.5981 Z-1.4415
G2 X178.4299 Y104.598 Z-1.7576 I3.0 J0.0
G1 X184.9299 Y104.568 Z-2.1924
G2 X187.9161 Y101.568 Z-2.5067 I-0.0139 J-3.0
G1 Y95.0831 Z-2.9405
G2 X187.7849 Y94.2059 Z-3.0 I-3.0 J0.0
G2 X184.9161 Y92.0831 Z-3.2557 I-2.8689 J0.8772
G1 X178.4161 Z-3.6905
G2 X175.4161 Y95.0831 Z-4.0057 I0.0 J3.0
G1 Y101.5981 Z-4.4415
G2 X178.4299 Y104.598 Z-4.7576 I3.0 J0.0
G1 X184.9299 Y104.568 Z-5.1924
G2 X187.9161 Y101.568 Z-5.5067 I-0.0139 J-3.0
G1 Y95.0831 Z-5.9405
G2 X187.7849 Y94.2059 Z-6.0 I-3.0 J0.0
G2 X184.9161 Y92.0831 Z-6.2557 I-2.8689 J0.8772
G1 X180.891 Z-6.5249
G1 X179.3909 Z-6.0
G1 X178.4161
G2 X177.3924 Y92.2632 I0.0 J3.0
G2 X175.9023 Y93.4458 Z-6.8898 I1.0237 J2.8199
G2 X175.4161 Y95.0831 Z-7.0057 I2.5138 J1.6373
G1 Y101.5981 Z-7.4415
G2 X175.4268 Y101.8522 Z-7.4585 I3.0 J0.0
G2 X176.1807 Y103.5988 Z-6.0 I2.9892 J-0.2541
G2 X177.935 Y104.5593 I2.2354 J-2.0008
G2 X178.4299 Y104.598 Z-6.6082 I0.4811 J-2.9612
G1 X179.6269 Y104.5925 Z-7.8377
G1 X184.9299 Y104.568 Z-8.1924
G2 X187.9062 Y101.8106 Z-8.4904 I-0.0139 J-3.0
G2 X187.9161 Y101.568 Z-8.0874 I-2.9902 J-0.2426
G1 Y100.3106 Z-6.0
G1 Y98.3106
G1 Y96.8106 Z-8.8249
G1 Y95.0831 Z-8.9405
G2 X187.7849 Y94.2059 Z-9.0 I-3.0 J0.0
G2 X184.9161 Y92.0831 I-2.8689 J0.8772
G1 X180.891
G1 X179.3909 Z-6.0
G1 X178.4161
G2 X177.3924 Y92.2632 I0.0 J3.0
G2 X175.9023 Y93.4458 Z-9.0 I1.0237 J2.8199
G2 X175.4161 Y95.0831 I2.5138 J1.6373
G1 Y101.5981
G2 X175.4268 Y101.8522 I3.0 J0.0
G2 X176.1807 Y103.5988 Z-6.0 I2.9892 J-0.2541
G2 X177.935 Y104.5593 I2.2354 J-2.0008
G2 X178.4299 Y104.598 Z-6.9929 I0.4811 J-2.9612
G1 X179.6269 Y104.5925 Z-9.0
G1 X184.9299 Y104.568
G2 X187.9062 Y101.8106 I-0.0139 J-3.0
G2 X187.9161 Y101.568 Z-8.5144 I-2.9902 J-0.2426
G1 Y100.3106 Z-6.0
G1 Y98.3106
G1 Y96.8106 Z-9.0
G1 Y95.0831
G2 X187.7849 Y94.2059 I-3.0 J0.0
G0 Z5.0
G0 X185.4002 Y108.789
G0 Z1.0
G1 F400.0 Z0.0
G2 F1000.0 X184.9161 Y108.7497 Z-0.0325 I-0.4841 J2.9607
G1 X178.4161 Z-0.4673
G2 X175.4161 Y111.7497 Z-0.7825 I0.0 J3.0
G1 Y118.2647 Z-1.2183
G2 X178.4299 Y121.2646 Z-1.5345 I3.0 J0.0
G1 X184.9299 Y121.2346 Z-1.9692
G2 X187.9161 Y118.2346 Z-2.2835 I-0.0139 J-3.0
G1 Y111.7497 Z-2.7173
G2 X185.4002 Y108.789 Z-3.0 I-3.0 J0.0
G2 X184.9161 Y108.7497 Z-3.0325 I-0.4841 J2.9607
G1 X178.4161 Z-3.4673
G2 X175.4161 Y111.7497 Z-3.7825 I0.0 J3.0
G1 Y118.2647 Z-4.2183
G2 X178.4299 Y121.2646 Z-4.5345 I3.0 J0.0
G1 X184.9299 Y121.2346 Z-4.9692
G2 X187.9161 Y118.2346 Z-5.2835 I-0.0139 J-3.0
G1 Y111.7497 Z-5.7173
G2 X185.4002 Y108.789 Z-6.0 I-3.0 J0.0
G2 X184.9161 Y108.7497 Z-6.0325 I-0.4841 J2.9607
G1 X180.891 Z-6.3018
G1 X179.3909 Z-6.0
G1 X178.4161
G2 X177.3924 Y108.9298 I0.0 J3.0
G2 X175.9023 Y110.1124 Z-6.6667 I1.0237 J2.8199
G2 X175.4161 Y111.7497 Z-6.7825 I2.5138 J1.6373
G1 Y118.2647 Z-7.2183
G2 X175.4268 Y118.5188 Z-7.2353 I3.0 J0.0
G2 X176.1807 Y120.2654 Z-6.0 I2.9892 J-0.2541
G2 X177.935 Y121.2259 I2.2354 J-2.0008
G2 X178.4299 Y121.2646 Z-6.5344 I0.4811 J-2.9612
G1 X179.6269 Y121.2591 Z-7.6145
G1 X184.9299 Y121.2346 Z-7.9692
G2 X187.9062 Y118.4772 Z-8.2673 I-0.0139 J-3.0
G2 X187.9161 Y118.2346 Z-7.9003 I-2.9902 J-0.2426
G1 Y116.9772 Z-6.0
G1 Y114.9772
G1 Y113.4772 Z-8.6018
G1 Y111.7497 Z-8.7173
G2 X185.4002 Y108.789 Z-9.0 I-3.0 J0.0
G2 X184.9161 Y108.7497 I-0.4841 J2.9607
G1 X180.891
G1 X179.3909 Z-6.0
G1 X178.4161
G2 X177.3924 Y108.9298 I0.0 J3.0
G2 X175.9023 Y110.1124 Z-9.0 I1.0237 J2.8199
G2 X175.4161 Y111.7497 I2.5138 J1.6373
G1 Y118.2647
G2 X175.4268 Y118.5188 I3.0 J0.0
G2 X176.1807 Y120.2654 Z-6.0 I2.9892 J-0.2541
G2 X177.935 Y121.2259 I2.2354 J-2.0008
G2 X178.4299 Y121.2646 Z-6.9929 I0.4811 J-2.9612
G1 X179.6269 Y121.2591 Z-9.0
G1 X184.9299 Y121.2346
G2 X187.9062 Y118.4772 I-0.0139 J-3.0
G2 X187.9161 Y118.2346 Z-8.5144 I-2.9902 J-0.2426
G1 Y116.9772 Z-6.0
G1 Y114.9772
G1 Y113.4772 Z-9.0
G1 Y111.7497
G2 X185.4002 Y108.789 I-3.0 J0.0
G0 Z5.0
G0 X192.2138 Y110.8725
G0 Z1.0
G1 F400.0 Z0.0
G2 F1000.0 X192.0827 Y111.7497 Z-0.0595 I2.8689 J0.8772
G1 Y118.2647 Z-0.4953
G2 X195.0965 Y121.2646 Z-0.8115 I3.0 J0.0
G1 X201.5965 Y121.2346 Z-1.2463
G2 X204.5827 Y118.2346 Z-1.5606 I-0.0139 J-3.0
G1 Y111.7497 Z-1.9943
G2 X201.5827 Y108.7497 Z-2.3095 I-3.0 J0.0
G1 X195.0827 Z-2.7443
G2 X192.2138 Y110.8725 Z-3.0 I0.0 J3.0
G2 X192.0827 Y111.7497 Z-3.0595 I2.8689 J0.8772
G1 Y118.2647 Z-3.4953
G2 X195.0965 Y121.2646 Z-3.8115 I3.0 J0.0
G1 X201.5965 Y121.2346 Z-4.2463
G2 X204.5827 Y118.2346 Z-4.5606 I-0.0139 J-3.0
G1 Y111.7497 Z-4.9943
G2 X201.5827 Y108.7497 Z-5.3095 I-3.0 J0.0
G1 X195.0827 Z-5.7443
G2 X192.2138 Y110.8725 Z-6.0 I0.0 J3.0
G2 X192.0827 Y111.7497 Z-6.0595 I2.8689 J0.8772
G1 Y118.2647 Z-6.4953
G2 X192.0934 Y118.5188 Z-6.5124 I3.0 J0.0
G2 X192.8473 Y120.2654 Z-6.0 I2.9892 J-0.2541
G2 X194.6016 Y121.2259 I2.2354 J-2.0008
G2 X195.0965 Y121.2646 Z-6.2951 I0.4811 J-2.9612
G1 X196.2935 Y121.2591 Z-6.8915
G1 X201.5965 Y121.2346 Z-7.2463
G2 X204.5728 Y118.4772 Z-7.5443 I-0.0139 J-3.0
G2 X204.5827 Y118.2346 Z-7.2944 I-2.9902 J-0.2426
G1 Y116.9772 Z-6.0
G1 Y114.9772
G1 Y113.4772 Z-7.8788
G1 Y111.7497 Z-7.9943
G2 X201.5827 Y108.7497 Z-8.3095 I-3.0 J0.0
G1 X197.5576 Z-8.5788
G1 X196.0575 Z-6.0
G1 X195.0827
G2 X194.059 Y108.9298 I0.0 J3.0
G2 X192.5689 Y110.1124 Z-8.9437 I1.0237 J2.8199
G2 X192.2138 Y110.8725 Z-9.0 I2.5138 J1.6373
G2 X192.0827 Y111.7497 I2.8689 J0.8772
G1 Y118.2647
G2 X192.0934 Y118.5188 I3.0 J0.0
G2 X192.8473 Y120.2654 Z-6.0 I2.9892 J-0.2541
G2 X194.6016 Y121.2259 I2.2354 J-2.0008
G2 X195.0965 Y121.2646 Z-6.9929 I0.4811 J-2.9612
G1 X196.2935 Y121.2591 Z-9.0
G1 X201.5965 Y121.2346
G2 X204.5728 Y118.4772 I-0.0139 J-3.0
G2 X204.5827 Y118.2346 Z-8.5144 I-2.9902 J-0.2426
G1 Y116.9772 Z-6.0
G1 Y114.9772
G1 Y113.4772 Z-9.0
G1 Y111.7497
G2 X201.5827 Y108.7497 I-3.0 J0.0
G1 X197.5576
G1 X196.0575 Z-6.0
G1 X195.0827
G2 X194.059 Y108.9298 I0.0 J3.0
G2 X192.5689 Y110.1124 Z-9.0 I1.0237 J2.8199
G2 X192.2138 Y110.8725 I2.5138 J1.6373
G0 Z5.0
G0 X194.5985 Y125.4556
G0 Z1.0
G1 F400.0 Z0.0
G2 F1000.0 X192.0827 Y128.4163 Z-0.2827 I0.4841 J2.9607
G1 Y134.9313 Z-0.7185
G2 X195.0965 Y137.9312 Z-1.0346 I3.0 J0.0
G1 X201.5965 Y137.9012 Z-1.4694
G2 X204.5827 Y134.9012 Z-1.7837 I-0.0139 J-3.0
G1 Y128.4163 Z-2.2175
G2 X201.5827 Y125.4163 Z-2.5327 I-3.0 J0.0
G1 X195.0827 Z-2.9675
G2 X194.5985 Y125.4556 Z-3.0 I0.0 J3.0
G2 X192.0827 Y128.4163 Z-3.2827 I0.4841 J2.9607
G1 Y134.9313 Z-3.7185
G2 X195.0965 Y137.9312 Z-4.0346 I3.0 J0.0
G1 X201.5965 Y137.9012 Z-4.4694
G2 X204.5827 Y134.9012 Z-4.7837 I-0.0139 J-3.0
G1 Y128.4163 Z-5.2175
G2 X201.5827 Y125.4163 Z-5.5327 I-3.0 J0.0
G1 X195.0827 Z-5.9675
G2 X194.5985 Y125.4556 Z-6.0 I0.0 J3.0
G2 X194.059 Y125.5964 I0.4841 J2.9607
G2 X192.5689 Y126.779 Z-6.1668 I1.0237 J2.8199
G2 X192.0827 Y128.4163 Z-6.2827 I2.5138 J1.6373
G1 Y134.9313 Z-6.7185
G2 X192.0934 Y135.1854 Z-6.7355 I3.0 J0.0
G2 X192.8473 Y136.932 Z-6.0 I2.9892 J-0.2541
G2 X194.6016 Y137.8925 I2.2354 J-2.0008
G2 X195.0965 Y137.9312 Z-6.3689 I0.4811 J-2.9612
G1 X196.2935 Y137.9257 Z-7.1147
G1 X201.5965 Y137.9012 Z-7.4694
G2 X204.5728 Y135.1438 Z-7.7674 I-0.0139 J-3.0
G2 X204.5827 Y134.9012 Z-7.4814 I-2.9902 J-0.2426
G1 Y133.6438 Z-6.0
G1 Y131.6438
G1 Y130.1438 Z-8.1019
G1 Y128.4163 Z-8.2175
G2 X201.5827 Y125.4163 Z-8.5327 I-3.0 J0.0
G1 X197.5576 Z-8.8019
G1 X196.0575 Z-6.0
G1 X195.0827
G2 X194.5985 Y125.4556 I0.0 J3.0
G2 X194.059 Y125.5964 I0.4841 J2.9607
G2 X192.5689 Y126.779 Z-9.0 I1.0237 J2.8199
G2 X192.0827 Y128.4163 I2.5138 J1.6373
G1 Y134.9313
G2 X192.0934 Y135.1854 I3.0 J0.0
G2 X192.8473 Y136.932 Z-6.0 I2.9892 J-0.2541
G2 X194.6016 Y137.8925 I2.2354 J-2.0008
G2 X195.0965 Y137.9312 Z-6.9929 I0.4811 J-2.9612
G1 X196.2935 Y137.9257 Z-9.0
G1 X201.5965 Y137.9012
G2 X204.5728 Y135.1438 I-0.0139 J-3.0
G2 X204.5827 Y134.9012 Z-8.5144 I-2.9902 J-0.2426
G1 Y133.6438 Z-6.0
G1 Y131.6438
G1 Y130.1438 Z-9.0
G1 Y128.4163
G2 X201.5827 Y125.4163 I-3.0 J0.0
G1 X197.5576
G1 X196.0575 Z-6.0
G1 X195.0827
G2 X194.5985 Y125.4556 I0.0 J3.0
G0 Z5.0
G0 X187.7849 Y127.5391
G0 Z1.0
G1 F400.0 Z0.0
G2 F1000.0 X184.9161 Y125.4163 Z-0.2557 I-2.8689 J0.8772
G1 X178.4161 Z-0.6905
G2 X175.4161 Y128.4163 Z-1.0057 I0.0 J3.0
G1 Y134.9313 Z-1.4415
G2 X178.4299 Y137.9312 Z-1.7576 I3.0 J0.0
G1 X184.9299 Y137.9012 Z-2.1924
G2 X187.9161 Y134.9012 Z-2.5067 I-0.0139 J-3.0
G1 Y128.4163 Z-2.9405
G2 X187.7849 Y127.5391 Z-3.0 I-3.0 J0.0
G2 X184.9161 Y125.4163 Z-3.2557 I-2.8689 J0.8772
G1 X178.4161 Z-3.6905
G2 X175.4161 Y128.4163 Z-4.0057 I0.0 J3.0
G1 Y134.9313 Z-4.4415
G2 X178.4299 Y137.9312 Z-4.7576 I3.0 J0.0
G1 X184.9299 Y137.9012 Z-5.1924
G2 X187.9161 Y134.9012 Z-5.5067 I-0.0139 J-3.0
G1 Y128.4163 Z-5.9405
G2 X187.7849 Y127.5391 Z-6.0 I-3.0 J0.0
G2 X184.9161 Y125.4163 Z-6.2557 I-2.8689 J0.8772
G1 X180.891 Z-6.5249
G1 X179.3909 Z-6.0
G1 X178.4161
G2 X177.3924 Y125.5964 I0.0 J3.0
G2 X175.9023 Y126.779 Z-6.8898 I1.0237 J2.8199
G2 X175.4161 Y128.4163 Z-7.0057 I2.5138 J1.6373
G1 Y134.9313 Z-7.4415
G2 X175.4268 Y135.1854 Z-7.4585 I3.0 J0.0
G2 X176.1807 Y136.932 Z-6.0 I2.9892 J-0.2541
G2 X177.935 Y137.8925 I2.2354 J-2.0008
G2 X178.4299 Y137.9312 Z-6.6082 I0.4811 J-2.9612
G1 X179.6269 Y137.9257 Z-7.8377
G1 X184.9299 Y137.9012 Z-8.1924
G2 X187.9062 Y135.1438 Z-8.4904 I-0.0139 J-3.0
G2 X187.9161 Y134.9012 Z-8.0874 I-2.9902 J-0.2426
G1 Y133.6438 Z-6.0
G1 Y131.6438
G1 Y130.1438 Z-8.8249
G1 Y128.4163 Z-8.9405
G2 X187.7849 Y127.5391 Z-9.0 I-3.0 J0.0
G2 X184.9161 Y125.4163 I-2.8689 J0.8772
G1 X180.891
G1 X179.3909 Z-6.0
G1 X178.4161
G2 X177.3924 Y125.5964 I0.0 J3.0
G2 X175.9023 Y126.779 Z-9.0 I1.0237 J2.8199
G2 X175.4161 Y128.4163 I2.5138 J1.6373
G1 Y134.9313
G2 X175.4268 Y135.1854 I3.0 J0.0
G2 X176.1807 Y136.932 Z-6.0 I2.9892 J-0.2541
G2 X177.935 Y137.8925 I2.2354 J-2.0008
G2 X178.4299 Y137.9312 Z-6.9929 I0.4811 J-2.9612
G1 X179.6269 Y137.9257 Z-9.0
G1 X184.9299 Y137.9012
G2 X187.9062 Y135.1438 I-0.0139 J-3.0
G2 X187.9161 Y134.9012 Z-8.5144 I-2.9902 J-0.2426
G1 Y133.6438 Z-6.0
G1 Y131.6438
G1 Y130.1438 Z-9.0
G1 Y128.4163
G2 X187.7849 Y127.5391 I-3.0 J0.0
G0 Z5.0
G0 X185.4002 Y142.1222
G0 Z1.0
G1 F400.0 Z0.0
G2 F1000.0 X184.9161 Y142.0829 Z-0.0325 I-0.4841 J2.9607
G1 X178.4161 Z-0.4673
G2 X175.4161 Y145.0829 Z-0.7825 I0.0 J3.0
G1 Y151.5979 Z-1.2183
G2 X178.4299 Y154.5978 Z-1.5345 I3.0 J0.0
G1 X184.9299 Y154.5678 Z-1.9692
G2 X187.9161 Y151.5678 Z-2.2835 I-0.0139 J-3.0
G1 Y145.0829 Z-2.7173
G2 X185.4002 Y142.1222 Z-3.0 I-3.0 J0.0
G2 X184.9161 Y142.0829 Z-3.0325 I-0.4841 J2.9607
G1 X178.4161 Z-3.4673
G2 X175.4161 Y145.0829 Z-3.7825 I0.0 J3.0
G1 Y151.5979 Z-4.2183
G2 X178.4299 Y154.5978 Z-4.5345 I3.0 J0.0
G1 X184.9299 Y154.5678 Z-4.9692
G2 X187.9161 Y151.5678 Z-5.2835 I-0.0139 J-3.0
G1 Y145.0829 Z-5.7173
G2 X185.4002 Y142.1222 Z-6.0 I-3.0 J0.0
G2 X184.9161 Y142.0829 Z-6.0325 I-0.4841 J2.9607
G1 X180.891 Z-6.3018
G1 X179.3909 Z-6.0
G1 X178.4161
G2 X177.3924 Y142.263 I0.0 J3.0
G2 X175.9023 Y143.4456 Z-6.6667 I1.0237 J2.8199
G2 X175.4161 Y145.0829 Z-6.7825 I2.5138 J1.6373
G1 Y151.5979 Z-7.2183
G2 X175.4268 Y151.852 Z-7.2353 I3.0 J0.0
G2 X176.1807 Y153.5986 Z-6.0 I2.9892 J-0.2541
G2 X177.935 Y154.5591 I2.2354 J-2.0008
G2 X178.4299 Y154.5978 Z-6.5344 I0.4811 J-2.9612
G1 X179.6269 Y154.5923 Z-7.6145
G1 X184.9299 Y154.5678 Z-7.9692
G2 X187.9062 Y151.8104 Z-8.2673 I-0.0139 J-3.0
G2 X187.9161 Y151.5678 Z-7.9003 I-2.9902 J-0.2426
G1 Y150.3104 Z-6.0
G1 Y148.3104
G1 Y146.8104 Z-8.6018
G1 Y145.0829 Z-8.7173
G2 X185.4002 Y142.1222 Z-9.0 I-3.0 J0.0
G2 X184.9161 Y142.0829 I-0.4841 J2.9607
G1 X180.891
G1 X179.3909 Z-6.0
G1 X178.4161
G2 X177.3924 Y142.263 I0.0 J3.0
G2 X175.9023 Y143.4456 Z-9.0 I1.0237 J2.8199
G2 X175.4161 Y145.0829 I2.5138 J1.6373
G1 Y151.5979
G2 X175.4268 Y151.852 I3.0 J0.0
G2 X176.1807 Y153.5986 Z-6.0 I2.9892 J-0.2541
G2 X177.935 Y154.5591 I2.2354 J-2.0008
G2 X178.4299 Y154.5978 Z-6.9929 I0.4811 J-2.9612
G1 X179.6269 Y154.5923 Z-9.0
G1 X184.9299 Y154.5678
G2 X187.9062 Y151.8104 I-0.0139 J-3.0
G2 X187.9161 Y151.5678 Z-8.5144 I-2.9902 J-0.2426
G1 Y150.3104 Z-6.0
G1 Y148.3104
G1 Y146.8104 Z-9.0
G1 Y145.0829
G2 X185.4002 Y142.1222 I-3.0 J0.0
G0 Z5.0
G0 X192.2138 Y144.2057
G0 Z1.0
G1 F400.0 Z0.0
G2 F1000.0 X192.0827 Y145.0829 Z-0.0595 I2.8689 J0.8772
G1 Y151.5979 Z-0.4953
G2 X195.0965 Y154.5978 Z-0.8115 I3.0 J0.0
G1 X201.5965 Y154.5678 Z-1.2463
G2 X204.5827 Y151.5678 Z-1.5606 I-0.0139 J-3.0
G1 Y145.0829 Z-1.9943
G2 X201.5827 Y142.0829 Z-2.3095 I-3.0 J0.0
G1 X195.0827 Z-2.7443
G2 X192.2138 Y144.2057 Z-3.0 I0.0 J3.0
G2 X192.0827 Y145.0829 Z-3.0595 I2.8689 J0.8772
G1 Y151.5979 Z-3.4953
G2 X195.0965 Y154.5978 Z-3.8115 I3.0 J0.0
G1 X201.5965 Y154.5678 Z-4.2463
G2 X204.5827 Y151.5678 Z-4.5606 I-0.0139 J-3.0
G1 Y145.0829 Z-4.9943
G2 X201.5827 Y142.0829 Z-5.3095 I-3.0 J0.0
G1 X195.0827 Z-5.7443
G2 X192.2138 Y144.2057 Z-6.0 I0.0 J3.0
G2 X192.0827 Y145.0829 Z-6.0595 I2.8689 J0.8772
G1 Y151.5979 Z-6.4953
G2 X192.0934 Y151.852 Z-6.5124 I3.0 J0.0
G2 X192.8473 Y153.5986 Z-6.0 I2.9892 J-0.2541
G2 X194.6016 Y154.5591 I2.2354 J-2.0008
G2 X195.0965 Y154.5978 Z-6.2951 I0.4811 J-2.9612
G1 X196.2935 Y154.5923 Z-6.8915
G1 X201.5965 Y154.5678 Z-7.2463
G2 X204.5728 Y151.8104 Z-7.5443 I-0.0139 J-3.0
G2 X204.5827 Y151.5678 Z-7.2944 I-2.9902 J-0.2426
G1 Y150.3104 Z-6.0
G1 Y148.3104
G1 Y146.8104 Z-7.8788
G1 Y145.0829 Z-7.9943
G2 X201.5827 Y142.0829 Z-8.3095 I-3.0 J0.0
G1 X197.5576 Z-8.5788
G1 X196.0575 Z-6.0
G1 X195.0827
G2 X194.059 Y142.263 I0.0 J3.0
G2 X192.5689 Y143.4456 Z-8.9437 I1.0237 J2.8199
G2 X192.2138 Y144.2057 Z-9.0 I2.5138 J1.6373
G2 X192.0827 Y145.0829 I2.8689 J0.8772
G1 Y151.5979
G2 X192.0934 Y151.852 I3.0 J0.0
G2 X192.8473 Y153.5986 Z-6.0 I2.9892 J-0.2541
G2 X194.6016 Y154.5591 I2.2354 J-2.0008
G2 X195.0965 Y154.5978 Z-6.9929 I0.4811 J-2.9612
G1 X196.2935 Y154.5923 Z-9.0
G1 X201.5965 Y154.5678
G2 X204.5728 Y151.8104 I-0.0139 J-3.0
G2 X204.5827 Y151.5678 Z-8.5144 I-2.9902 J-0.2426
G1 Y150.3104 Z-6.0
G1 Y148.3104
G1 Y146.8104 Z-9.0
G1 Y145.0829
G2 X201.5827 Y142.0829 I-3.0 J0.0
G1 X197.5576
G1 X196.0575 Z-6.0
G1 X195.0827
G2 X194.059 Y142.263 I0.0 J3.0
G2 X192.5689 Y143.4456 Z-9.0 I1.0237 J2.8199
G2 X192.2138 Y144.2057 I2.5138 J1.6373
G0 Z5.0
G0 X194.5985 Y158.7888
G0 Z1.0
G1 F400.0 Z0.0
G2 F1000.0 X192.0827 Y161.7495 Z-0.2827 I0.4841 J2.9607
G1 Y168.2645 Z-0.7185
G2 X195.0965 Y171.2644 Z-1.0346 I3.0 J0.0
G1 X201.5965 Y171.2344 Z-1.4694
G2 X204.5827 Y168.2344 Z-1.7837 I-0.0139 J-3.0
G1 Y161.7495 Z-2.2175
G2 X201.5827 Y158.7495 Z-2.5327 I-3.0 J0.0
G1 X195.0827 Z-2.9675
G2 X194.5985 Y158.7888 Z-3.0 I0.0 J3.0
G2 X192.0827 Y161.7495 Z-3.2827 I0.4841 J2.9607
G1 Y168.2645 Z-3.7185
G2 X195.0965 Y171.2644 Z-4.0346 I3.0 J0.0
G1 X201.5965 Y171.2344 Z-4.4694
G2 X204.5827 Y168.2344 Z-4.7837 I-0.0139 J-3.0
G1 Y161.7495 Z-5.2175
G2 X201.5827 Y158.7495 Z-5.5327 I-3.0 J0.0
G1 X195.0827 Z-5.9675
G2 X194.5985 Y158.7888 Z-6.0 I0.0 J3.0
G2 X194.059 Y158.9296 I0.4841 J2.9607
G2 X192.5689 Y160.1122 Z-6.1668 I1.0237 J2.8199
G2 X192.0827 Y161.7495 Z-6.2827 I2.5138 J1.6373
G1 Y168.2645 Z-6.7185
G2 X192.0934 Y168.5186 Z-6.7355 I3.0 J0.0
G2 X192.8473 Y170.2652 Z-6.0 I2.9892 J-0.2541
G2 X194.6016 Y171.2257 I2.2354 J-2.0008
G2 X195.0965 Y171.2644 Z-6.3689 I0.4811 J-2.9612
G1 X196.2935 Y171.2589 Z-7.1147
G1 X201.5965 Y171.2344 Z-7.4694
G2 X204.5728 Y168.477 Z-7.7674 I-0.0139 J-3.0
G2 X204.5827 Y168.2344 Z-7.4814 I-2.9902 J-0.2426
G1 Y166.977 Z-6.0
G1 Y164.977
G1 Y163.477 Z-8.1019
G1 Y161.7495 Z-8.2175
G2 X201.5827 Y158.7495 Z-8.5327 I-3.0 J0.0
G1 X197.5576 Z-8.8019
G1 X196.0575 Z-6.0
G1 X195.0827
G2 X194.5985 Y158.7888 I0.0 J3.0
G2 X194.059 Y158.9296 I0.4841 J2.9607
G2 X192.5689 Y160.1122 Z-9.0 I1.0237 J2.8199
G2 X192.0827 Y161.7495 I2.5138 J1.6373
G1 Y168.2645
G2 X192.0934 Y168.5186 I3.0 J0.0
G2 X192.8473 Y170.2652 Z-6.0 I2.9892 J-0.2541
G2 X194.6016 Y171.2257 I2.2354 J-2.0008
G2 X195.0965 Y171.2644 Z-6.9929 I0.4811 J-2.9612
G1 X196.2935 Y171.2589 Z-9.0
G1 X201.5965 Y171.2344
G2 X204.5728 Y168.477 I-0.0139 J-3.0
G2 X204.5827 Y168.2344 Z-8.5144 I-2.9902 J-0.2426
G1 Y166.977 Z-6.0
G1 Y164.977
G1 Y163.477 Z-9.0
G1 Y161.7495
G2 X201.5827 Y158.7495 I-3.0 J0.0
G1 X197.5576
G1 X196.0575 Z-6.0
G1 X195.0827
G2 X194.5985 Y158.7888 I0.0 J3.0
G0 Z5.0
G0 X187.7849 Y160.8723
G0 Z1.0
G1 F400.0 Z0.0
G2 F1000.0 X184.9161 Y158.7495 Z-0.2557 I-2.8689 J0.8772
G1 X178.4161 Z-0.6905
G2 X175.4161 Y161.7495 Z-1.0057 I0.0 J3.0
G1 Y168.2645 Z-1.4415
G2 X178.4299 Y171.2644 Z-1.7576 I3.0 J0.0
G1 X184.9299 Y171.2344 Z-2.1924
G2 X187.9161 Y168.2344 Z-2.5067 I-0.0139 J-3.0
G1 Y161.7495 Z-2.9405
G2 X187.7849 Y160.8723 Z-3.0 I-3.0 J0.0
G2 X184.9161 Y158.7495 Z-3.2557 I-2.8689 J0.8772
G1 X178.4161 Z-3.6905
G2 X175.4161 Y161.7495 Z-4.0057 I0.0 J3.0
G1 Y168.2645 Z-4.4415
G2 X178.4299 Y171.2644 Z-4.7576 I3.0 J0.0
G1 X184.9299 Y171.2344 Z-5.1924
G2 X187.9161 Y168.2344 Z-5.5067 I-0.0139 J-3.0
G1 Y161.7495 Z-5.9405
G2 X187.7849 Y160.8723 Z-6.0 I-3.0 J0.0
G2 X184.9161 Y158.7495 Z-6.2557 I-2.8689 J0.8772
G1 X180.891 Z-6.5249
G1 X179.3909 Z-6.0
G1 X178.4161
G2 X177.3924 Y158.9296 I0.0 J3.0
G2 X175.9023 Y160.1122 Z-6.8898 I1.0237 J2.8199
G2 X175.4161 Y161.7495 Z-7.0057 I2.5138 J1.6373
G1 Y168.2645 Z-7.4415
G2 X175.4268 Y168.5186 Z-7.4585 I3.0 J0.0
G2 X176.1807 Y170.2652 Z-6.0 I2.9892 J-0.2541
G2 X177.935 Y171.2257 I2.2354 J-2.0008
G2 X178.4299 Y171.2644 Z-6.6082 I0.4811 J-2.9612
G1 X179.6269 Y171.2589 Z-7.8377
G1 X184.9299 Y171.2344 Z-8.1924
G2 X187.9062 Y168.477 Z-8.4904 I-0.0139 J-3.0
G2 X187.9161 Y168.2344 Z-8.0874 I-2.9902 J-0.2426
G1 Y166.977 Z-6.0
G1 Y164.977
G1 Y163.477 Z-8.8249
G1 Y161.7495 Z-8.9405
G2 X187.7849 Y160.8723 Z-9.0 I-3.0 J0.0
G2 X184.9161 Y158.7495 I-2.8689 J0.8772
G1 X180.891
G1 X179.3909 Z-6.0
G1 X178.4161
G2 X177.3924 Y158.9296 I0.0 J3.0
G2 X175.9023 Y160.1122 Z-9.0 I1.0237 J2.8199
G2 X175.4161 Y161.7495 I2.5138 J1.6373
G1 Y168.2645
G2 X175.4268 Y168.5186 I3.0 J0.0
G2 X176.1807 Y170.2652 Z-6.0 I2.9892 J-0.2541
G2 X177.935 Y171.2257 I2.2354 J-2.0008
G2 X178.4299 Y171.2644 Z-6.9929 I0.4811 J-2.9612
G1 X179.6269 Y171.2589 Z-9.0
G1 X184.9299 Y171.2344
G2 X187.9062 Y168.477 I-0.0139 J-3.0
G2 X187.9161 Y168.2344 Z-8.5144 I-2.9902 J-0.2426
G1 Y166.977 Z-6.0
G1 Y164.977
G1 Y163.477 Z-9.0
G1 Y161.7495
G2 X187.7849 Y160.8723 I-3.0 J0.0
G0 Z5.0
G0 X185.4002 Y175.4554
G0 Z1.0
G1 F400.0 Z0.0
G2 F1000.0 X184.9161 Y175.4161 Z-0.0325 I-0.4841 J2.9607
G1 X178.4161 Z-0.4673
G2 X175.4161 Y178.4161 Z-0.7825 I0.0 J3.0
G1 Y184.9311 Z-1.2183
G2 X178.4299 Y187.931 Z-1.5345 I3.0 J0.0
G1 X184.9299 Y187.901 Z-1.9692
G2 X187.9161 Y184.901 Z-2.2835 I-0.0139 J-3.0
G1 Y178.4161 Z-2.7173
G2 X185.4002 Y175.4554 Z-3.0 I-3.0 J0.0
G2 X184.9161 Y175.4161 Z-3.0325 I-0.4841 J2.9607
G1 X178.4161 Z-3.4673
G2 X175.4161 Y178.4161 Z-3.7825 I0.0 J3.0
G1 Y184.9311 Z-4.2183
G2 X178.4299 Y187.931 Z-4.5345 I3.0 J0.0
G1 X184.9299 Y187.901 Z-4.9692
G2 X187.9161 Y184.901 Z-5.2835 I-0.0139 J-3.0
G1 Y178.4161 Z-5.7173
G2 X185.4002 Y175.4554 Z-6.0 I-3.0 J0.0
G2 X184.9161 Y175.4161 Z-6.0325 I-0.4841 J2.9607
G1 X180.891 Z-6.3018
G1 X179.3909 Z-6.0
G1 X178.4161
G2 X177.3924 Y175.5962 I0.0 J3.0
G2 X175.9023 Y176.7788 Z-6.6667 I1.0237 J2.8199
G2 X175.4161 Y178.4161 Z-6.7825 I2.5138 J1.6373
G1 Y184.9311 Z-7.2183
G2 X175.4268 Y185.1852 Z-7.2353 I3.0 J0.0
G2 X176.1807 Y186.9318 Z-6.0 I2.9892 J-0.2541
G2 X177.935 Y187.8923 I2.2354 J-2.0008
G2 X178.4299 Y187.931 Z-6.5344 I0.4811 J-2.9612
G1 X179.6269 Y187.9255 Z-7.6145
G1 X184.9299 Y187.901 Z-7.9692
G2 X187.9062 Y185.1436 Z-8.2673 I-0.0139 J-3.0
G2 X187.9161 Y184.901 Z-7.9003 I-2.9902 J-0.2426
G1 Y183.6436 Z-6.0
G1 Y181.6436
G1 Y180.1436 Z-8.6018
G1 Y178.4161 Z-8.7173
G2 X185.4002 Y175.4554 Z-9.0 I-3.0 J0.0
G2 X184.9161 Y175.4161 I-0.4841 J2.9607
G1 X180.891
G1 X179.3909 Z-6.0
G1 X178.4161
G2 X177.3924 Y175.5962 I0.0 J3.0
G2 X175.9023 Y176.7788 Z-9.0 I1.0237 J2.8199
G2 X175.4161 Y178.4161 I2.5138 J1.6373
G1 Y184.9311
G2 X175.4268 Y185.1852 I3.0 J0.0
G2 X176.1807 Y186.9318 Z-6.0 I2.9892 J-0.2541
G2 X177.935 Y187.8923 I2.2354 J-2.0008
G2 X178.4299 Y187.931 Z-6.9929 I0.4811 J-2.9612
G1 X179.6269 Y187.9255 Z-9.0
G1 X184.9299 Y187.901
G2 X187.9062 Y185.1436 I-0.0139 J-3.0
G2 X187.9161 Y184.901 Z-8.5144 I-2.9902 J-0.2426
G1 Y183.6436 Z-6.0
G1 Y181.6436
G1 Y180.1436 Z-9.0
G1 Y178.4161
G2 X185.4002 Y175.4554 I-3.0 J0.0
G0 Z5.0
G0 X192.2138 Y177.5389
G0 Z1.0
G1 F400.0 Z0.0
G2 F1000.0 X192.0827 Y178.4161 Z-0.0595 I2.8689 J0.8772
G1 Y184.9311 Z-0.4953
G2 X195.0965 Y187.931 Z-0.8115 I3.0 J0.0
G1 X201.5965 Y187.901 Z-1.2463
G2 X204.5827 Y184.901 Z-1.5606 I-0.0139 J-3.0
G1 Y178.4161 Z-1.9943
G2 X201.5827 Y175.4161 Z-2.3095 I-3.0 J0.0
G1 X195.0827 Z-2.7443
G2 X192.2138 Y177.5389 Z-3.0 I0.0 J3.0
G2 X192.0827 Y178.4161 Z-3.0595 I2.8689 J0.8772
G1 Y184.9311 Z-3.4953
G2 X195.0965 Y187.931 Z-3.8115 I3.0 J0.0
G1 X201.5965 Y187.901 Z-4.2463
G2 X204.5827 Y184.901 Z-4.5606 I-0.0139 J-3.0
G1 Y178.4161 Z-4.9943
G2 X201.5827 Y175.4161 Z-5.3095 I-3.0 J0.0
G1 X195.0827 Z-5.7443
G2 X192.2138 Y177.5389 Z-6.0 I0.0 J3.0
G2 X192.0827 Y178.4161 Z-6.0595 I2.8689 J0.8772
G1 Y184.9311 Z-6.4953
G2 X192.0934 Y185.1852 Z-6.5124 I3.0 J0.0
G2 X192.8473 Y186.9318 Z-6.0 I2.9892 J-0.2541
G2 X194.6016 Y187.8923 I2.2354 J-2.0008
G2 X195.0965 Y187.931 Z-6.2951 I0.4811 J-2.9612
G1 X196.2935 Y187.9255 Z-6.8915
G1 X201.5965 Y187.901 Z-7.2463
G2 X204.5728 Y185.1436 Z-7.5443 I-0.0139 J-3.0
G2 X204.5827 Y184.901 Z-7.2944 I-2.9902 J-0.2426
G1 Y183.6436 Z-6.0
G1 Y181.6436
G1 Y180.1436 Z-7.8788
G1 Y178.4161 Z-7.9943
G2 X201.5827 Y175.4161 Z-8.3095 I-3.0 J0.0
G1 X197.5576 Z-8.5788
G1 X196.0575 Z-6.0
G1 X195.0827
G2 X194.059 Y175.5962 I0.0 J3.0
G2 X192.5689 Y176.7788 Z-8.9437 I1.0237 J2.8199
G2 X192.2138 Y177.5389 Z-9.0 I2.5138 J1.6373
G2 X192.0827 Y178.4161 I2.8689 J0.8772
G1 Y184.9311
G2 X192.0934 Y185.1852 I3.0 J0.0
G2 X192.8473 Y186.9318 Z-6.0 I2.9892 J-0.2541
G2 X194.6016 Y187.8923 I2.2354 J-2.0008
G2 X195.0965 Y187.931 Z-6.9929 I0.4811 J-2.9612
G1 X196.2935 Y187.9255 Z-9.0
G1 X201.5965 Y187.901
G2 X204.5728 Y185.1436 I-0.0139 J-3.0
G2 X204.5827 Y184.901 Z-8.5144 I-2.9902 J-0.2426
G1 Y183.6436 Z-6.0
G1 Y181.6436
G1 Y180.1436 Z-9.0
G1 Y178.4161
G2 X201.5827 Y175.4161 I-3.0 J0.0
G1 X197.5576
G1 X196.0575 Z-6.0
G1 X195.0827
G2 X194.059 Y175.5962 I0.0 J3.0
G2 X192.5689 Y176.7788 Z-9.0 I1.0237 J2.8199
G2 X192.2138 Y177.5389 I2.5138 J1.6373
G0 Z5.0
G0 X194.5985 Y192.122
G0 Z1.0
G1 F400.0 Z0.0
G2 F1000.0 X192.0827 Y195.0827 Z-0.2827 I0.4841 J2.9607
G1 Y201.5977 Z-0.7185
G2 X195.0965 Y204.5976 Z-1.0346 I3.0 J0.0
G1 X201.5965 Y204.5676 Z-1.4694
G2 X204.5827 Y201.5676 Z-1.7837 I-0.0139 J-3.0
G1 Y195.0827 Z-2.2175
G2 X201.5827 Y192.0827 Z-2.5327 I-3.0 J0.0
G1 X195.0827 Z-2.9675
G2 X194.5985 Y192.122 Z-3.0 I0.0 J3.0
G2 X192.0827 Y195.0827 Z-3.2827 I0.4841 J2.9607
G1 Y201.5977 Z-3.7185
G2 X195.0965 Y204.5976 Z-4.0346 I3.0 J0.0
G1 X201.5965 Y204.5676 Z-4.4694
G2 X204.5827 Y201.5676 Z-4.7837 I-0.0139 J-3.0
G1 Y195.0827 Z-5.2175
G2 X201.5827 Y192.0827 Z-5.5327 I-3.0 J0.0
G1 X195.0827 Z-5.9675
G2 X194.5985 Y192.122 Z-6.0 I0.0 J3.0
G2 X194.059 Y192.2628 I0.4841 J2.9607
G2 X192.5689 Y193.4454 Z-6.1668 I1.0237 J2.8199
G2 X192.0827 Y195.0827 Z-6.2827 I2.5138 J1.6373
G1 Y201.5977 Z-6.7185
G2 X192.0934 Y201.8518 Z-6.7355 I3.0 J0.0
G2 X192.8473 Y203.5984 Z-6.0 I2.9892 J-0.2541
G2 X194.6016 Y204.5589 I2.2354 J-2.0008
G2 X195.0965 Y204.5976 Z-6.3689 I0.4811 J-2.9612
G1 X196.2935 Y204.5921 Z-7.1147
G1 X201.5965 Y204.5676 Z-7.4694
G2 X204.5728 Y201.8102 Z-7.7674 I-0.0139 J-3.0
G2 X204.5827 Y201.5676 Z-7.4814 I-2.9902 J-0.2426
G1 Y200.3102 Z-6.0
G1 Y198.3102
G1 Y196.8102 Z-8.1019
G1 Y195.0827 Z-8.2175
G2 X201.5827 Y192.0827 Z-8.5327 I-3.0 J0.0
G1 X197.5576 Z-8.8019
G1 X196.0575 Z-6.0
G1 X195.0827
G2 X194.5985 Y192.122 I0.0 J3.0
G2 X194.059 Y192.2628 I0.4841 J2.9607
G2 X192.5689 Y193.4454 Z-9.0 I1.0237 J2.8199
G2 X192.0827 Y195.0827 I2.5138 J1.6373
G1 Y201.5977
G2 X192.0934 Y201.8518 I3.0 J0.0
G2 X192.8473 Y203.5984 Z-6.0 I2.9892 J-0.2541
G2 X194.6016 Y204.5589 I2.2354 J-2.0008
G2 X195.0965 Y204.5976 Z-6.9929 I0.4811 J-2.9612
G1 X196.2935 Y204.5921 Z-9.0
G1 X201.5965 Y204.5676
G2 X204.5728 Y201.8102 I-0.0139 J-3.0
G2 X204.5827 Y201.5676 Z-8.5144 I-2.9902 J-0.2426
G1 Y200.3102 Z-6.0
G1 Y198.3102
G1 Y196.8102 Z-9.0
G1 Y195.0827
G2 X201.5827 Y192.0827 I-3.0 J0.0
G1 X197.5576
G1 X196.0575 Z-6.0
G1 X195.0827
G2 X194.5985 Y192.122 I0.0 J3.0
G0 Z5.0
G0 X187.7849 Y194.2055
G0 Z1.0
G1 F400.0 Z0.0
G2 F1000.0 X184.9161 Y192.0827 Z-0.2557 I-2.8689 J0.8772
G1 X178.4161 Z-0.6905
G2 X175.4161 Y195.0827 Z-1.0057 I0.0 J3.0
G1 Y201.5977 Z-1.4415
G2 X178.4299 Y204.5976 Z-1.7576 I3.0 J0.0
G1 X184.9299 Y204.5676 Z-2.1924
G2 X187.9161 Y201.5676 Z-2.5067 I-0.0139 J-3.0
G1 Y195.0827 Z-2.9405
G2 X187.7849 Y194.2055 Z-3.0 I-3.0 J0.0
G2 X184.9161 Y192.0827 Z-3.2557 I-2.8689 J0.8772
G1 X178.4161 Z-3.6905
G2 X175.4161 Y195.0827 Z-4.0057 I0.0 J3.0
G1 Y201.5977 Z-4.4415
G2 X178.4299 Y204.5976 Z-4.7576 I3.0 J0.0
G1 X184.9299 Y204.5676 Z-5.1924
G2 X187.9161 Y201.5676 Z-5.5067 I-0.0139 J-3.0
G1 Y195.0827 Z-5.9405
G2 X187.7849 Y194.2055 Z-6.0 I-3.0 J0.0
G2 X184.9161 Y192.0827 Z-6.2557 I-2.8689 J0.8772
G1 X180.891 Z-6.5249
G1 X179.3909 Z-6.0
G1 X178.4161
G2 X177.3924 Y192.2628 I0.0 J3.0
G2 X175.9023 Y193.4454 Z-6.8898 I1.0237 J2.8199
G2 X175.4161 Y195.0827 Z-7.0057 I2.5138 J1.6373
G1 Y201.5977 Z-7.4415
G2 X175.4268 Y201.8518 Z-7.4585 I3.0 J0.0
G2 X176.1807 Y203.5984 Z-6.0 I2.9892 J-0.2541
G2 X177.935 Y204.5589 I2.2354 J-2.0008
G2 X178.4299 Y204.5976 Z-6.6082 I0.4811 J-2.9612
G1 X179.6269 Y204.5921 Z-7.8377
G1 X184.9299 Y204.5676 Z-8.1924
G2 X187.9062 Y201.8102 Z-8.4904 I-0.0139 J-3.0
G2 X187.9161 Y201.5676 Z-8.0874 I-2.9902 J-0.2426
G1 Y200.3102 Z-6.0
G1 Y198.3102
G1 Y196.8102 Z-8.8249
G1 Y195.0827 Z-8.9405
G2 X187.7849 Y194.2055 Z-9.0 I-3.0 J0.0
G2 X184.9161 Y192.0827 I-2.8689 J0.8772
G1 X180.891
G1 X179.3909 Z-6.0
G1 X178.4161
G2 X177.3924 Y192.2628 I0.0 J3.0
G2 X175.9023 Y193.4454 Z-9.0 I1.0237 J2.8199
G2 X175.4161 Y195.0827 I2.5138 J1.6373
G1 Y201.5977
G2 X175.4268 Y201.8518 I3.0 J0.0
G2 X176.1807 Y203.5984 Z-6.0 I2.9892 J-0.2541
G2 X177.935 Y204.5589 I2.2354 J-2.0008
G2 X178.4299 Y204.5976 Z-6.9929 I0.4811 J-2.9612
G1 X179.6269 Y204.5921 Z-9.0
G1 X184.9299 Y204.5676
G2 X187.9062 Y201.8102 I-0.0139 J-3.0
G2 X187.9161 Y201.5676 Z-8.5144 I-2.9902 J-0.2426
G1 Y200.3102 Z-6.0
G1 Y198.3102
G1 Y196.8102 Z-9.0
G1 Y195.0827
G2 X187.7849 Y194.2055 I-3.0 J0.0
G0 Z5.0
G0 X171.2464 Y194.9481
G0 Z1.0
G1 F400.0 Z0.0
G2 F1000.0 X168.2495 Y192.0827 Z-0.3062 I-2.997 J0.1346
G1 X161.7495 Z-0.741
G2 X158.7495 Y195.0827 Z-1.0562 I0.0 J3.0
G1 Y201.5977 Z-1.492
G2 X161.7633 Y204.5976 Z-1.8081 I3.0 J0.0
G1 X168.2633 Y204.5676 Z-2.2429
G2 X171.2495 Y201.5676 Z-2.5572 I-0.0139 J-3.0
G1 Y195.0827 Z-2.991
G2 X171.2464 Y194.9481 Z-3.0 I-3.0 J0.0
G2 X168.2495 Y192.0827 Z-3.3062 I-2.997 J0.1346
G1 X161.7495 Z-3.741
G2 X158.7495 Y195.0827 Z-4.0562 I0.0 J3.0
G1 Y201.5977 Z-4.492
G2 X161.7633 Y204.5976 Z-4.8081 I3.0 J0.0
G1 X168.2633 Y204.5676 Z-5.2429
G2 X171.2495 Y201.5676 Z-5.5572 I-0.0139 J-3.0
G1 Y195.0827 Z-5.991
G2 X171.2464 Y194.9481 Z-6.0 I-3.0 J0.0
G2 X168.2495 Y192.0827 Z-6.3062 I-2.997 J0.1346
G1 X164.2244 Z-6.5754
G1 X162.7243 Z-6.0
G1 X161.7495
G2 X160.7258 Y192.2628 I0.0 J3.0
G2 X159.2357 Y193.4454 Z-6.9404 I1.0237 J2.8199
G2 X158.7495 Y195.0827 Z-7.0562 I2.5138 J1.6373
G1 Y201.5977 Z-7.492
G2 X158.7602 Y201.8518 Z-7.509 I3.0 J0.0
G2 X159.5141 Y203.5984 Z-6.0 I2.9892 J-0.2541
G2 X161.2684 Y204.5589 I2.2354 J-2.0008
G2 X161.7633 Y204.5976 Z-6.6249 I0.4811 J-2.9612
G1 X162.9603 Y204.5921 Z-7.8882
G1 X168.2633 Y204.5676 Z-8.2429
G2 X171.2396 Y201.8102 Z-8.541 I-0.0139 J-3.0
G2 X171.2495 Y201.5676 Z-8.1297 I-2.9902 J-0.2426
G1 Y200.3102 Z-6.0
G1 Y198.3102
G1 Y196.8102 Z-8.8754
G1 Y195.0827 Z-8.991
G2 X171.2464 Y194.9481 Z-9.0 I-3.0 J0.0
G2 X168.2495 Y192.0827 I-2.997 J0.1346
G1 X164.2244
G1 X162.7243 Z-6.0
G1 X161.7495
G2 X160.7258 Y192.2628 I0.0 J3.0
G2 X159.2357 Y193.4454 Z-9.0 I1.0237 J2.8199
G2 X158.7495 Y195.0827 I2.5138 J1.6373
G1 Y201.5977
G2 X158.7602 Y201.8518 I3.0 J0.0
G2 X159.5141 Y203.5984 Z-6.0 I2.9892 J-0.2541
G2 X161.2684 Y204.5589 I2.2354 J-2.0008
G2 X161.7633 Y204.5976 Z-6.9929 I0.4811 J-2.9612
G1 X162.9603 Y204.5921 Z-9.0
G1 X168.2633 Y204.5676
G2 X171.2396 Y201.8102 I-0.0139 J-3.0
G2 X171.2495 Y201.5676 Z-8.5144 I-2.9902 J-0.2426
G1 Y200.3102 Z-6.0
G1 Y198.3102
G1 Y196.8102 Z-9.0
G1 Y195.0827
G2 X171.2464 Y194.9481 I-3.0 J0.0
G0 Z5.0
G0 X169.107 Y187.7759
G0 Z1.0
G1 F400.0 Z0.0
G2 F1000.0 X171.2495 Y184.901 Z-0.257 I-0.8575 J-2.8748
G1 Y178.4161 Z-0.6908
G2 X168.2495 Y175.4161 Z-1.006 I-3.0 J0.0
G1 X161.7495 Z-1.4408
G2 X158.7495 Y178.4161 Z-1.756 I0.0 J3.0
G1 Y184.9311 Z-2.1918
G2 X161.7633 Y187.931 Z-2.508 I3.0 J0.0
G1 X168.2633 Y187.901 Z-2.9428
G2 X169.107 Y187.7759 Z-3.0 I-0.0139 J-3.0
G2 X171.2495 Y184.901 Z-3.257 I-0.8575 J-2.8748
G1 Y178.4161 Z-3.6908
G2 X168.2495 Y175.4161 Z-4.006 I-3.0 J0.0
G1 X161.7495 Z-4.4408
G2 X158.7495 Y178.4161 Z-4.756 I0.0 J3.0
G1 Y184.9311 Z-5.1918
G2 X161.7633 Y187.931 Z-5.508 I3.0 J0.0
G1 X168.2633 Y187.901 Z-5.9428
G2 X169.107 Y187.7759 Z-6.0 I-0.0139 J-3.0
G2 X171.2396 Y185.1436 Z-6.2408 I-0.8575 J-2.8748
G2 X171.2495 Y184.901 Z-6.2018 I-2.9902 J-0.2426
G1 Y183.6436 Z-6.0
G1 Y181.6436
G1 Y180.1436 Z-6.5753
G1 Y178.4161 Z-6.6908
G2 X168.2495 Y175.4161 Z-7.006 I-3.0 J0.0
G1 X164.2244 Z-7.2753
G1 X162.7243 Z-6.0
G1 X161.7495
G2 X160.7258 Y175.5962 I0.0 J3.0
G2 X159.2357 Y176.7788 Z-7.6402 I1.0237 J2.8199
G2 X158.7495 Y178.4161 Z-7.756 I2.5138 J1.6373
G1 Y184.9311 Z-8.1918
G2 X158.7602 Y185.1852 Z-8.2088 I3.0 J0.0
G2 X159.5141 Y186.9318 Z-6.0 I2.9892 J-0.2541
G2 X161.2684 Y187.8923 I2.2354 J-2.0008
G2 X161.7633 Y187.931 Z-6.8566 I0.4811 J-2.9612
G1 X162.9603 Y187.9255 Z-8.588
G1 X168.2633 Y187.901 Z-8.9428
G2 X169.107 Y187.7759 Z-9.0 I-0.0139 J-3.0
G2 X171.2396 Y185.1436 I-0.8575 J-2.8748
G2 X171.2495 Y184.901 Z-8.5144 I-2.9902 J-0.2426
G1 Y183.6436 Z-6.0
G1 Y181.6436
G1 Y180.1436 Z-9.0
G1 Y178.4161
G2 X168.2495 Y175.4161 I-3.0 J0.0
G1 X164.2244
G1 X162.7243 Z-6.0
G1 X161.7495
G2 X160.7258 Y175.5962 I0.0 J3.0
G2 X159.2357 Y176.7788 Z-9.0 I1.0237 J2.8199
G2 X158.7495 Y178.4161 I2.5138 J1.6373
G1 Y184.9311
G2 X158.7602 Y185.1852 I3.0 J0.0
G2 X159.5141 Y186.9318 Z-6.0 I2.9892 J-0.2541
G2 X161.2684 Y187.8923 I2.2354 J-2.0008
G2 X161.7633 Y187.931 Z-6.9929 I0.4811 J-2.9612
G1 X162.9603 Y187.9255 Z-9.0
G1 X168.2633 Y187.901
G2 X169.107 Y187.7759 I-0.0139 J-3.0
G0 Z5.0
G0 X154.5433 Y185.3867
G0 Z1.0
G1 F400.0 Z0.0
G2 F1000.0 X154.5829 Y184.901 Z-0.0326 I-2.9604 J-0.4857
G1 Y178.4161 Z-0.4664
G2 X151.5829 Y175.4161 Z-0.7816 I-3.0 J0.0
G1 X145.0829 Z-1.2164
G2 X142.0829 Y178.4161 Z-1.5316 I0.0 J3.0
G1 Y184.9311 Z-1.9674
G2 X145.0967 Y187.931 Z-2.2836 I3.0 J0.0
G1 X151.5967 Y187.901 Z-2.7183
G2 X154.5433 Y185.3867 Z-3.0 I-0.0139 J-3.0
G2 X154.5829 Y184.901 Z-3.0326 I-2.9604 J-0.4857
G1 Y178.4161 Z-3.4664
G2 X151.5829 Y175.4161 Z-3.7816 I-3.0 J0.0
G1 X145.0829 Z-4.2164
G2 X142.0829 Y178.4161 Z-4.5316 I0.0 J3.0
G1 Y184.9311 Z-4.9674
G2 X145.0967 Y187.931 Z-5.2836 I3.0 J0.0
G1 X151.5967 Y187.901 Z-5.7183
G2 X154.5433 Y185.3867 Z-6.0 I-0.0139 J-3.0
G2 X154.573 Y185.1436 Z-6.0164 I-2.9604 J-0.4857
G2 X154.5829 Y184.901 Z-6.0137 I-2.9902 J-0.2426
G1 Y183.6436 Z-6.0
G1 Y181.6436
G1 Y180.1436 Z-6.3509
G1 Y178.4161 Z-6.4664
G2 X151.5829 Y175.4161 Z-6.7816 I-3.0 J0.0
G1 X147.5578 Z-7.0509
G1 X146.0577 Z-6.0
G1 X145.0829
G2 X144.0592 Y175.5962 I0.0 J3.0
G2 X142.5691 Y176.7788 Z-7.4158 I1.0237 J2.8199
G2 X142.0829 Y178.4161 Z-7.5316 I2.5138 J1.6373
G1 Y184.9311 Z-7.9674
G2 X142.0936 Y185.1852 Z-7.9844 I3.0 J0.0
G2 X142.8475 Y186.9318 Z-6.0 I2.9892 J-0.2541
G2 X144.6018 Y187.8923 I2.2354 J-2.0008
G2 X145.0967 Y187.931 Z-6.7823 I0.4811 J-2.9612
G1 X146.2937 Y187.9255 Z-8.3636
G1 X151.5967 Y187.901 Z-8.7183
G2 X154.5433 Y185.3867 Z-9.0 I-0.0139 J-3.0
G2 X154.573 Y185.1436 I-2.9604 J-0.4857
G2 X154.5829 Y184.901 Z-8.5144 I-2.9902 J-0.2426
G1 Y183.6436 Z-6.0
G1 Y181.6436
G1 Y180.1436 Z-9.0
G1 Y178.4161
G2 X151.5829 Y175.4161 I-3.0 J0.0
G1 X147.5578
G1 X146.0577 Z-6.0
G1 X145.0829
G2 X144.0592 Y175.5962 I0.0 J3.0
G2 X142.5691 Y176.7788 Z-9.0 I1.0237 J2.8199
G2 X142.0829 Y178.4161 I2.5138 J1.6373
G1 Y184.9311
G2 X142.0936 Y185.1852 I3.0 J0.0
G2 X142.8475 Y186.9318 Z-6.0 I2.9892 J-0.2541
G2 X144.6018 Y187.8923 I2.2354 J-2.0008
G2 X145.0967 Y187.931 Z-6.9929 I0.4811 J-2.9612
G1 X146.2937 Y187.9255 Z-9.0
G1 X151.5967 Y187.901
G2 X154.5433 Y185.3867 I-0.0139 J-3.0
G0 Z5.0
G0 X152.4589 Y192.2135
G0 Z1.0
G1 F400.0 Z0.0
G2 F1000.0 X151.5829 Y192.0827 Z-0.0595 I-0.876 J2.8692
G1 X145.0829 Z-0.4943
G2 X142.0829 Y195.0827 Z-0.8095 I0.0 J3.0
G1 Y201.5977 Z-1.2453
G2 X145.0967 Y204.5976 Z-1.5614 I3.0 J0.0
G1 X151.5967 Y204.5676 Z-1.9962
G2 X154.5829 Y201.5676 Z-2.3105 I-0.0139 J-3.0
G1 Y195.0827 Z-2.7443
G2 X152.4589 Y192.2135 Z-3.0 I-3.0 J0.0
G2 X151.5829 Y192.0827 Z-3.0595 I-0.876 J2.8692
G1 X145.0829 Z-3.4943
G2 X142.0829 Y195.0827 Z-3.8095 I0.0 J3.0
G1 Y201.5977 Z-4.2453
G2 X145.0967 Y204.5976 Z-4.5614 I3.0 J0.0
G1 X151.5967 Y204.5676 Z-4.9962
G2 X154.5829 Y201.5676 Z-5.3105 I-0.0139 J-3.0
G1 Y195.0827 Z-5.7443
G2 X152.4589 Y192.2135 Z-6.0 I-3.0 J0.0
G2 X151.5829 Y192.0827 Z-6.0595 I-0.876 J2.8692
G1 X147.5578 Z-6.3287
G1 X146.0577 Z-6.0
G1 X145.0829
G2 X144.0592 Y192.2628 I0.0 J3.0
G2 X142.5691 Y193.4454 Z-6.6936 I1.0237 J2.8199
G2 X142.0829 Y195.0827 Z-6.8095 I2.5138 J1.6373
G1 Y201.5977 Z-7.2453
G2 X142.0936 Y201.8518 Z-7.2623 I3.0 J0.0
G2 X142.8475 Y203.5984 Z-6.0 I2.9892 J-0.2541
G2 X144.6018 Y204.5589 I2.2354 J-2.0008
G2 X145.0967 Y204.5976 Z-6.5433 I0.4811 J-2.9612
G1 X146.2937 Y204.5921 Z-7.6415
G1 X151.5967 Y204.5676 Z-7.9962
G2 X154.573 Y201.8102 Z-8.2942 I-0.0139 J-3.0
G2 X154.5829 Y201.5676 Z-7.9229 I-2.9902 J-0.2426
G1 Y200.3102 Z-6.0
G1 Y198.3102
G1 Y196.8102 Z-8.6287
G1 Y195.0827 Z-8.7443
G2 X152.4589 Y192.2135 Z-9.0 I-3.0 J0.0
G2 X151.5829 Y192.0827 I-0.876 J2.8692
G1 X147.5578
G1 X146.0577 Z-6.0
G1 X145.0829
G2 X144.0592 Y192.2628 I0.0 J3.0
G2 X142.5691 Y193.4454 Z-9.0 I1.0237 J2.8199
G2 X142.0829 Y195.0827 I2.5138 J1.6373
G1 Y201.5977
G2 X142.0936 Y201.8518 I3.0 J0.0
G2 X142.8475 Y203.5984 Z-6.0 I2.9892 J-0.2541
G2 X144.6018 Y204.5589 I2.2354 J-2.0008
G2 X145.0967 Y204.5976 Z-6.9929 I0.4811 J-2.9612
G1 X146.2937 Y204.5921 Z-9.0
G1 X151.5967 Y204.5676
G2 X154.573 Y201.8102 I-0.0139 J-3.0
G2 X154.5829 Y201.5676 Z-8.5144 I-2.9902 J-0.2426
G1 Y200.3102 Z-6.0
G1 Y198.3102
G1 Y196.8102 Z-9.0
G1 Y195.0827
G2 X152.4589 Y192.2135 I-3.0 J0.0
G0 Z5.0
G0 X137.8769 Y194.5985
G0 Z1.0
G1 F400.0 Z0.0
G2 F1000.0 X134.9163 Y192.0827 Z-0.2827 I-2.9607 J0.4842
G1 X128.4163 Z-0.7175
G2 X125.4163 Y195.0827 Z-1.0327 I0.0 J3.0
G1 Y201.5977 Z-1.4685
G2 X128.4301 Y204.5976 Z-1.7846 I3.0 J0.0
G1 X134.9301 Y204.5676 Z-2.2194
G2 X137.9163 Y201.5676 Z-2.5337 I-0.0139 J-3.0
G1 Y195.0827 Z-2.9675
G2 X137.8769 Y194.5985 Z-3.0 I-3.0 J0.0
G2 X134.9163 Y192.0827 Z-3.2827 I-2.9607 J0.4842
G1 X128.4163 Z-3.7175
G2 X125.4163 Y195.0827 Z-4.0327 I0.0 J3.0
G1 Y201.5977 Z-4.4685
G2 X128.4301 Y204.5976 Z-4.7846 I3.0 J0.0
G1 X134.9301 Y204.5676 Z-5.2194
G2 X137.9163 Y201.5676 Z-5.5337 I-0.0139 J-3.0
G1 Y195.0827 Z-5.9675
G2 X137.8769 Y194.5985 Z-6.0 I-3.0 J0.0
G2 X134.9163 Y192.0827 Z-6.2827 I-2.9607 J0.4842
G1 X130.8912 Z-6.5519
G1 X129.3911 Z-6.0
G1 X128.4163
G2 X127.3926 Y192.2628 I0.0 J3.0
G2 X125.9025 Y193.4454 Z-6.9168 I1.0237 J2.8199
G2 X125.4163 Y195.0827 Z-7.0327 I2.5138 J1.6373
G1 Y201.5977 Z-7.4685
G2 X125.427 Y201.8518 Z-7.4855 I3.0 J0.0
G2 X126.1809 Y203.5984 Z-6.0 I2.9892 J-0.2541
G2 X127.9352 Y204.5589 I2.2354 J-2.0008
G2 X128.4301 Y204.5976 Z-6.6172 I0.4811 J-2.9612
G1 X129.6271 Y204.5921 Z-7.8647
G1 X134.9301 Y204.5676 Z-8.2194
G2 X137.9064 Y201.8102 Z-8.5174 I-0.0139 J-3.0
G2 X137.9163 Y201.5676 Z-8.11 I-2.9902 J-0.2426
G1 Y200.3102 Z-6.0
G1 Y198.3102
G1 Y196.8102 Z-8.8519
G1 Y195.0827 Z-8.9675
G2 X137.8769 Y194.5985 Z-9.0 I-3.0 J0.0
G2 X134.9163 Y192.0827 I-2.9607 J0.4842
G1 X130.8912
G1 X129.3911 Z-6.0
G1 X128.4163
G2 X127.3926 Y192.2628 I0.0 J3.0
G2 X125.9025 Y193.4454 Z-9.0 I1.0237 J2.8199
G2 X125.4163 Y195.0827 I2.5138 J1.6373
G1 Y201.5977
G2 X125.427 Y201.8518 I3.0 J0.0
G2 X126.1809 Y203.5984 Z-6.0 I2.9892 J-0.2541
G2 X127.9352 Y204.5589 I2.2354 J-2.0008
G2 X128.4301 Y204.5976 Z-6.9929 I0.4811 J-2.9612
G1 X129.6271 Y204.5921 Z-9.0
G1 X134.9301 Y204.5676
G2 X137.9064 Y201.8102 I-0.0139 J-3.0
G2 X137.9163 Y201.5676 Z-8.5144 I-2.9902 J-0.2426
G1 Y200.3102 Z-6.0
G1 Y198.3102
G1 Y196.8102 Z-9.0
G1 Y195.0827
G2 X137.8769 Y194.5985 I-3.0 J0.0
G0 Z5.0
G0 X135.7923 Y187.7703
G0 Z1.0
G1 F400.0 Z0.0
G2 F1000.0 X137.9163 Y184.901 Z-0.2558 I-0.876 J-2.8693
G1 Y178.4161 Z-0.6895
G2 X134.9163 Y175.4161 Z-1.0047 I-3.0 J0.0
G1 X128.4163 Z-1.4395
G2 X125.4163 Y178.4161 Z-1.7547 I0.0 J3.0
G1 Y184.9311 Z-2.1905
G2 X128.4301 Y187.931 Z-2.5067 I3.0 J0.0
G1 X134.9301 Y187.901 Z-2.9415
G2 X135.7923 Y187.7703 Z-3.0 I-0.0139 J-3.0
G2 X137.9163 Y184.901 Z-3.2558 I-0.876 J-2.8693
G1 Y178.4161 Z-3.6895
G2 X134.9163 Y175.4161 Z-4.0047 I-3.0 J0.0
G1 X128.4163 Z-4.4395
G2 X125.4163 Y178.4161 Z-4.7547 I0.0 J3.0
G1 Y184.9311 Z-5.1905
G2 X128.4301 Y187.931 Z-5.5067 I3.0 J0.0
G1 X134.9301 Y187.901 Z-5.9415
G2 X135.7923 Y187.7703 Z-6.0 I-0.0139 J-3.0
G2 X137.9064 Y185.1436 Z-6.2395 I-0.876 J-2.8693
G2 X137.9163 Y184.901 Z-6.2007 I-2.9902 J-0.2426
G1 Y183.6436 Z-6.0
G1 Y181.6436
G1 Y180.1436 Z-6.574
G1 Y178.4161 Z-6.6895
G2 X134.9163 Y175.4161 Z-7.0047 I-3.0 J0.0
G1 X130.8912 Z-7.274
G1 X129.3911 Z-6.0
G1 X128.4163
G2 X127.3926 Y175.5962 I0.0 J3.0
G2 X125.9025 Y176.7788 Z-7.6389 I1.0237 J2.8199
G2 X125.4163 Y178.4161 Z-7.7547 I2.5138 J1.6373
G1 Y184.9311 Z-8.1905
G2 X125.427 Y185.1852 Z-8.2075 I3.0 J0.0
G2 X126.1809 Y186.9318 Z-6.0 I2.9892 J-0.2541
G2 X127.9352 Y187.8923 I2.2354 J-2.0008
G2 X128.4301 Y187.931 Z-6.8561 I0.4811 J-2.9612
G1 X129.6271 Y187.9255 Z-8.5867
G1 X134.9301 Y187.901 Z-8.9415
G2 X135.7923 Y187.7703 Z-9.0 I-0.0139 J-3.0
G2 X137.9064 Y185.1436 I-0.876 J-2.8693
G2 X137.9163 Y184.901 Z-8.5144 I-2.9902 J-0.2426
G1 Y183.6436 Z-6.0
G1 Y181.6436
G1 Y180.1436 Z-9.0
G1 Y178.4161
G2 X134.9163 Y175.4161 I-3.0 J0.0
G1 X130.8912
G1 X129.3911 Z-6.0
G1 X128.4163
G2 X127.3926 Y175.5962 I0.0 J3.0
G2 X125.9025 Y176.7788 Z-9.0 I1.0237 J2.8199
G2 X125.4163 Y178.4161 I2.5138 J1.6373
G1 Y184.9311
G2 X125.427 Y185.1852 I3.0 J0.0
G2 X126.1809 Y186.9318 Z-6.0 I2.9892 J-0.2541
G2 X127.9352 Y187.8923 I2.2354 J-2.0008
G2 X128.4301 Y187.931 Z-6.9929 I0.4811 J-2.9612
G1 X129.6271 Y187.9255 Z-9.0
G1 X134.9301 Y187.901
G2 X135.7923 Y187.7703 I-0.0139 J-3.0
G0 Z5.0
G0 X121.2103 Y185.3853
G0 Z1.0
G1 F400.0 Z0.0
G2 F1000.0 X121.2497 Y184.901 Z-0.0325 I-2.9607 J-0.4842
G1 Y178.4161 Z-0.4663
G2 X118.2497 Y175.4161 Z-0.7815 I-3.0 J0.0
G1 X111.7497 Z-1.2163
G2 X108.7497 Y178.4161 Z-1.5315 I0.0 J3.0
G1 Y184.9311 Z-1.9673
G2 X111.7635 Y187.931 Z-2.2835 I3.0 J0.0
G1 X118.2635 Y187.901 Z-2.7182
G2 X121.2103 Y185.3853 Z-3.0 I-0.0139 J-3.0
G2 X121.2497 Y184.901 Z-3.0325 I-2.9607 J-0.4842
G1 Y178.4161 Z-3.4663
G2 X118.2497 Y175.4161 Z-3.7815 I-3.0 J0.0
G1 X111.7497 Z-4.2163
G2 X108.7497 Y178.4161 Z-4.5315 I0.0 J3.0
G1 Y184.9311 Z-4.9673
G2 X111.7635 Y187.931 Z-5.2835 I3.0 J0.0
G1 X118.2635 Y187.901 Z-5.7182
G2 X121.2103 Y185.3853 Z-6.0 I-0.0139 J-3.0
G2 X121.2398 Y185.1436 Z-6.0163 I-2.9607 J-0.4842
G2 X121.2497 Y184.901 Z-6.0137 I-2.9902 J-0.2426
G1 Y183.6436 Z-6.0
G1 Y181.6436
G1 Y180.1436 Z-6.3508
G1 Y178.4161 Z-6.4663
G2 X118.2497 Y175.4161 Z-6.7815 I-3.0 J0.0
G1 X114.2246 Z-7.0508
G1 X112.7245 Z-6.0
G1 X111.7497
G2 X110.726 Y175.5962 I0.0 J3.0
G2 X109.2359 Y176.7788 Z-7.4157 I1.0237 J2.8199
G2 X108.7497 Y178.4161 Z-7.5315 I2.5138 J1.6373
G1 Y184.9311 Z-7.9673
G2 X108.7604 Y185.1852 Z-7.9843 I3.0 J0.0
G2 X109.5143 Y186.9318 Z-6.0 I2.9892 J-0.2541
G2 X111.2686 Y187.8923 I2.2354 J-2.0008
G2 X111.7635 Y187.931 Z-6.7823 I0.4811 J-2.9612
G1 X112.9605 Y187.9255 Z-8.3635
G1 X118.2635 Y187.901 Z-8.7182
G2 X121.2103 Y185.3853 Z-9.0 I-0.0139 J-3.0
G2 X121.2398 Y185.1436 I-2.9607 J-0.4842
G2 X121.2497 Y184.901 Z-8.5144 I-2.9902 J-0.2426
G1 Y183.6436 Z-6.0
G1 Y181.6436
G1 Y180.1436 Z-9.0
G1 Y178.4161
G2 X118.2497 Y175.4161 I-3.0 J0.0
G1 X114.2246
G1 X112.7245 Z-6.0
G1 X111.7497
G2 X110.726 Y175.5962 I0.0 J3.0
G2 X109.2359 Y176.7788 Z-9.0 I1.0237 J2.8199
G2 X108.7497 Y178.4161 I2.5138 J1.6373
G1 Y184.9311
G2 X108.7604 Y185.1852 I3.0 J0.0
G2 X109.5143 Y186.9318 Z-6.0 I2.9892 J-0.2541
G2 X111.2686 Y187.8923 I2.2354 J-2.0008
G2 X111.7635 Y187.931 Z-6.9929 I0.4811 J-2.9612
G1 X112.9605 Y187.9255 Z-9.0
G1 X118.2635 Y187.901
G2 X121.2103 Y185.3853 I-0.0139 J-3.0
G0 Z5.0
G0 X119.1257 Y192.2134
G0 Z1.0
G1 F400.0 Z0.0
G2 F1000.0 X118.2497 Y192.0827 Z-0.0595 I-0.876 J2.8693
G1 X111.7497 Z-0.4942
G2 X108.7497 Y195.0827 Z-0.8095 I0.0 J3.0
G1 Y201.5977 Z-1.2453
G2 X111.7635 Y204.5976 Z-1.5614 I3.0 J0.0
G1 X118.2635 Y204.5676 Z-1.9962
G2 X121.2497 Y201.5676 Z-2.3105 I-0.0139 J-3.0
G1 Y195.0827 Z-2.7442
G2 X119.1257 Y192.2134 Z-3.0 I-3.0 J0.0
G2 X118.2497 Y192.0827 Z-3.0595 I-0.876 J2.8693
G1 X111.7497 Z-3.4942
G2 X108.7497 Y195.0827 Z-3.8095 I0.0 J3.0
G1 Y201.5977 Z-4.2453
G2 X111.7635 Y204.5976 Z-4.5614 I3.0 J0.0
G1 X118.2635 Y204.5676 Z-4.9962
G2 X121.2497 Y201.5676 Z-5.3105 I-0.0139 J-3.0
G1 Y195.0827 Z-5.7442
G2 X119.1257 Y192.2134 Z-6.0 I-3.0 J0.0
G2 X118.2497 Y192.0827 Z-6.0595 I-0.876 J2.8693
G1 X114.2246 Z-6.3287
G1 X112.7245 Z-6.0
G1 X111.7497
G2 X110.726 Y192.2628 I0.0 J3.0
G2 X109.2359 Y193.4454 Z-6.6936 I1.0237 J2.8199
G2 X108.7497 Y195.0827 Z-6.8095 I2.5138 J1.6373
G1 Y201.5977 Z-7.2453
G2 X108.7604 Y201.8518 Z-7.2623 I3.0 J0.0
G2 X109.5143 Y203.5984 Z-6.0 I2.9892 J-0.2541
G2 X111.2686 Y204.5589 I2.2354 J-2.0008
G2 X111.7635 Y204.5976 Z-6.5433 I0.4811 J-2.9612
G1 X112.9605 Y204.5921 Z-7.6415
G1 X118.2635 Y204.5676 Z-7.9962
G2 X121.2398 Y201.8102 Z-8.2942 I-0.0139 J-3.0
G2 X121.2497 Y201.5676 Z-7.9229 I-2.9902 J-0.2426
G1 Y200.3102 Z-6.0
G1 Y198.3102
G1 Y196.8102 Z-8.6287
G1 Y195.0827 Z-8.7442
G2 X119.1257 Y192.2134 Z-9.0 I-3.0 J0.0
G2 X118.2497 Y192.0827 I-0.876 J2.8693
G1 X114.2246
G1 X112.7245 Z-6.0
G1 X111.7497
G2 X110.726 Y192.2628 I0.0 J3.0
G2 X109.2359 Y193.4454 Z-9.0 I1.0237 J2.8199
G2 X108.7497 Y195.0827 I2.5138 J1.6373
G1 Y201.5977
G2 X108.7604 Y201.8518 I3.0 J0.0
G2 X109.5143 Y203.5984 Z-6.0 I2.9892 J-0.2541
G2 X111.2686 Y204.5589 I2.2354 J-2.0008
G2 X111.7635 Y204.5976 Z-6.9929 I0.4811 J-2.9612
G1 X112.9605 Y204.5921 Z-9.0
G1 X118.2635 Y204.5676
G2 X121.2398 Y201.8102 I-0.0139 J-3.0
G2 X121.2497 Y201.5676 Z-8.5144 I-2.9902 J-0.2426
G1 Y200.3102 Z-6.0
G1 Y198.3102
G1 Y196.8102 Z-9.0
G1 Y195.0827
G2 X119.1257 Y192.2134 I-3.0 J0.0
G0 Z5.0
G0 X104.5437 Y194.5985
G0 Z1.0
G1 F400.0 Z0.0
G2 F1000.0 X101.5831 Y192.0827 Z-0.2827 I-2.9607 J0.4842
G1 X95.0831 Z-0.7175
G2 X92.0831 Y195.0827 Z-1.0327 I0.0 J3.0
G1 Y201.5977 Z-1.4685
G2 X95.0969 Y204.5976 Z-1.7846 I3.0 J0.0
G1 X101.5969 Y204.5676 Z-2.2194
G2 X104.5831 Y201.5676 Z-2.5337 I-0.0139 J-3.0
G1 Y195.0827 Z-2.9675
G2 X104.5437 Y194.5985 Z-3.0 I-3.0 J0.0
G2 X101.5831 Y192.0827 Z-3.2827 I-2.9607 J0.4842
G1 X95.0831 Z-3.7175
G2 X92.0831 Y195.0827 Z-4.0327 I0.0 J3.0
G1 Y201.5977 Z-4.4685
G2 X95.0969 Y204.5976 Z-4.7846 I3.0 J0.0
G1 X101.5969 Y204.5676 Z-5.2194
G2 X104.5831 Y201.5676 Z-5.5337 I-0.0139 J-3.0
G1 Y195.0827 Z-5.9675
G2 X104.5437 Y194.5985 Z-6.0 I-3.0 J0.0
G2 X101.5831 Y192.0827 Z-6.2827 I-2.9607 J0.4842
G1 X97.558 Z-6.5519
G1 X96.0579 Z-6.0
G1 X95.0831
G2 X94.0594 Y192.2628 I0.0 J3.0
G2 X92.5693 Y193.4454 Z-6.9168 I1.0237 J2.8199
G2 X92.0831 Y195.0827 Z-7.0327 I2.5138 J1.6373
G1 Y201.5977 Z-7.4685
G2 X92.0938 Y201.8518 Z-7.4855 I3.0 J0.0
G2 X92.8477 Y203.5984 Z-6.0 I2.9892 J-0.2541
G2 X94.602 Y204.5589 I2.2354 J-2.0008
G2 X95.0969 Y204.5976 Z-6.6172 I0.4811 J-2.9612
G1 X96.2939 Y204.5921 Z-7.8647
G1 X101.5969 Y204.5676 Z-8.2194
G2 X104.5732 Y201.8102 Z-8.5174 I-0.0139 J-3.0
G2 X104.5831 Y201.5676 Z-8.11 I-2.9902 J-0.2426
G1 Y200.3102 Z-6.0
G1 Y198.3102
G1 Y196.8102 Z-8.8519
G1 Y195.0827 Z-8.9675
G2 X104.5437 Y194.5985 Z-9.0 I-3.0 J0.0
G2 X101.5831 Y192.0827 I-2.9607 J0.4842
G1 X97.558
G1 X96.0579 Z-6.0
G1 X95.0831
G2 X94.0594 Y192.2628 I0.0 J3.0
G2 X92.5693 Y193.4454 Z-9.0 I1.0237 J2.8199
G2 X92.0831 Y195.0827 I2.5138 J1.6373
G1 Y201.5977
G2 X92.0938 Y201.8518 I3.0 J0.0
G2 X92.8477 Y203.5984 Z-6.0 I2.9892 J-0.2541
G2 X94.602 Y204.5589 I2.2354 J-2.0008
G2 X95.0969 Y204.5976 Z-6.9929 I0.4811 J-2.9612
G1 X96.2939 Y204.5921 Z-9.0
G1 X101.5969 Y204.5676
G2 X104.5732 Y201.8102 I-0.0139 J-3.0
G2 X104.5831 Y201.5676 Z-8.5144 I-2.9902 J-0.2426
G1 Y200.3102 Z-6.0
G1 Y198.3102
G1 Y196.8102 Z-9.0
G1 Y195.0827
G2 X104.5437 Y194.5985 I-3.0 J0.0
G0 Z5.0
G0 X102.4591 Y187.7703
G0 Z1.0
G1 F400.0 Z0.0
G2 F1000.0 X104.5831 Y184.901 Z-0.2558 I-0.876 J-2.8693
G1 Y178.4161 Z-0.6895
G2 X101.5831 Y175.4161 Z-1.0047 I-3.0 J0.0
G1 X95.0831 Z-1.4395
G2 X92.0831 Y178.4161 Z-1.7547 I0.0 J3.0
G1 Y184.9311 Z-2.1905
G2 X95.0969 Y187.931 Z-2.5067 I3.0 J0.0
G1 X101.5969 Y187.901 Z-2.9415
G2 X102.4591 Y187.7703 Z-3.0 I-0.0139 J-3.0
G2 X104.5831 Y184.901 Z-3.2558 I-0.876 J-2.8693
G1 Y178.4161 Z-3.6895
G2 X101.5831 Y175.4161 Z-4.0047 I-3.0 J0.0
G1 X95.0831 Z-4.4395
G2 X92.0831 Y178.4161 Z-4.7547 I0.0 J3.0
G1 Y184.9311 Z-5.1905
G2 X95.0969 Y187.931 Z-5.5067 I3.0 J0.0
G1 X101.5969 Y187.901 Z-5.9415
G2 X102.4591 Y187.7703 Z-6.0 I-0.0139 J-3.0
G2 X104.5732 Y185.1436 Z-6.2395 I-0.876 J-2.8693
G2 X104.5831 Y184.901 Z-6.2007 I-2.9902 J-0.2426
G1 Y183.6436 Z-6.0
G1 Y181.6436
G1 Y180.1436 Z-6.574
G1 Y178.4161 Z-6.6895
G2 X101.5831 Y175.4161 Z-7.0047 I-3.0 J0.0
G1 X97.558 Z-7.274
G1 X96.0579 Z-6.0
G1 X95.0831
G2 X94.0594 Y175.5962 I0.0 J3.0
G2 X92.5693 Y176.7788 Z-7.6389 I1.0237 J2.8199
G2 X92.0831 Y178.4161 Z-7.7547 I2.5138 J1.6373
G1 Y184.9311 Z-8.1905
G2 X92.0938 Y185.1852 Z-8.2075 I3.0 J0.0
G2 X92.8477 Y186.9318 Z-6.0 I2.9892 J-0.2541
G2 X94.602 Y187.8923 I2.2354 J-2.0008
G2 X95.0969 Y187.931 Z-6.8561 I0.4811 J-2.9612
G1 X96.2939 Y187.9255 Z-8.5867
G1 X101.5969 Y187.901 Z-8.9415
G2 X102.4591 Y187.7703 Z-9.0 I-0.0139 J-3.0
G2 X104.5732 Y185.1436 I-0.876 J-2.8693
G2 X104.5831 Y184.901 Z-8.5144 I-2.9902 J-0.2426
G1 Y183.6436 Z-6.0
G1 Y181.6436
G1 Y180.1436 Z-9.0
G1 Y178.4161
G2 X101.5831 Y175.4161 I-3.0 J0.0
G1 X97.558
G1 X96.0579 Z-6.0
G1 X95.0831
G2 X94.0594 Y175.5962 I0.0 J3.0
G2 X92.5693 Y176.7788 Z-9.0 I1.0237 J2.8199
G2 X92.0831 Y178.4161 I2.5138 J1.6373
G1 Y184.9311
G2 X92.0938 Y185.1852 I3.0 J0.0
G2 X92.8477 Y186.9318 Z-6.0 I2.9892 J-0.2541
G2 X94.602 Y187.8923 I2.2354 J-2.0008
G2 X95.0969 Y187.931 Z-6.9929 I0.4811 J-2.9612
G1 X96.2939 Y187.9255 Z-9.0
G1 X101.5969 Y187.901
G2 X102.4591 Y187.7703 I-0.0139 J-3.0
G0 Z5.0
G0 X87.8771 Y185.3853
G0 Z1.0
G1 F400.0 Z0.0
G2 F1000.0 X87.9165 Y184.901 Z-0.0325 I-2.9607 J-0.4842
G1 Y178.4161 Z-0.4663
G2 X84.9165 Y175.4161 Z-0.7815 I-3.0 J0.0
G1 X78.4165 Z-1.2163
G2 X75.4165 Y178.4161 Z-1.5315 I0.0 J3.0
G1 Y184.9311 Z-1.9673
G2 X78.4303 Y187.931 Z-2.2835 I3.0 J0.0
G1 X84.9303 Y187.901 Z-2.7182
G2 X87.8771 Y185.3853 Z-3.0 I-0.0139 J-3.0
G2 X87.9165 Y184.901 Z-3.0325 I-2.9607 J-0.4842
G1 Y178.4161 Z-3.4663
G2 X84.9165 Y175.4161 Z-3.7815 I-3.0 J0.0
G1 X78.4165 Z-4.2163
G2 X75.4165 Y178.4161 Z-4.5315 I0.0 J3.0
G1 Y184.9311 Z-4.9673
G2 X78.4303 Y187.931 Z-5.2835 I3.0 J0.0
G1 X84.9303 Y187.901 Z-5.7182
G2 X87.8771 Y185.3853 Z-6.0 I-0.0139 J-3.0
G2 X87.9066 Y185.1436 Z-6.0163 I-2.9607 J-0.4842
G2 X87.9165 Y184.901 Z-6.0137 I-2.9902 J-0.2426
G1 Y183.6436 Z-6.0
G1 Y181.6436
G1 Y180.1436 Z-6.3508
G1 Y178.4161 Z-6.4663
G2 X84.9165 Y175.4161 Z-6.7815 I-3.0 J0.0
G1 X80.8914 Z-7.0508
G1 X79.3913 Z-6.0
G1 X78.4165
G2 X77.3928 Y175.5962 I0.0 J3.0
G2 X75.9027 Y176.7788 Z-7.4157 I1.0237 J2.8199
G2 X75.4165 Y178.4161 Z-7.5315 I2.5138 J1.6373
G1 Y184.9311 Z-7.9673
