( Made using CamBam - http://www.cambam.co.uk )
( gatenboard_groot_kwart 9/13/2017 8:36:19 PM )
( T2 : 2.0 )
(G21 G90 G64 G40)
G0 Z5.0
( T2 : 2.0 )
(T2 M6)
( 5rows )
G17
M8
M3 S10000
G0 X-138.0 Y27.3333
G0 Z1.0
G1 F300.0 Z-3.0
G2 F1300.0 X-145.0 Y20.3333 I-7.0 J0.0
G1 X-157.0
G2 X-164.0 Y27.3333 I0.0 J7.0
G1 Y39.3333
G2 X-157.0 Y46.3333 I7.0 J0.0
G1 X-145.0
G2 X-138.0 Y39.3333 I0.0 J-7.0
G1 Y27.3333
G1 F300.0 Z-6.0
G2 F1300.0 X-145.0 Y20.3333 I-7.0 J0.0
G1 X-157.0
G2 X-164.0 Y27.3333 I0.0 J7.0
G1 Y39.3333
G2 X-157.0 Y46.3333 I7.0 J0.0
G1 X-145.0
G2 X-138.0 Y39.3333 I0.0 J-7.0
G1 Y27.3333
G1 F300.0 Z-9.0
G2 F1300.0 X-145.0 Y20.3333 I-7.0 J0.0
G1 X-157.0
G2 X-164.0 Y27.3333 I0.0 J7.0
G1 Y39.3333
G2 X-157.0 Y46.3333 I7.0 J0.0
G1 X-145.0
G2 X-138.0 Y39.3333 I0.0 J-7.0
G1 Y27.3333
G1 F300.0 Z-12.0
G2 F1300.0 X-145.0 Y20.3333 I-7.0 J0.0
G1 X-145.8112
G1 X-147.8112 Z-9.0
G1 X-149.8112
G1 X-151.8112 Z-12.0
G1 X-157.0
G2 X-164.0 Y27.3333 I0.0 J7.0
G1 Y36.3333
G1 Y38.3333 Z-9.0
G1 Y39.3333
G2 X-163.9282 Y40.3333 I7.0 J0.0
G2 X-163.3246 Y42.3333 Z-12.0 I6.9282 J-1.0
G2 X-157.0 Y46.3333 I6.3246 J-3.0
G1 X-145.0
G2 X-141.1598 Y45.1859 I0.0 J-7.0
G2 X-139.6037 Y43.792 Z-9.0 I-3.8402 J-5.8526
G2 X-138.5631 Y42.0841 I-5.3963 J-4.4587
G2 X-138.038 Y40.062 Z-12.0 I-6.4369 J-2.7507
G2 X-138.0 Y39.3333 I-6.962 J-0.7287
G1 Y27.3333
G0 Z5.0
G0 X-130.6667
G0 Z1.0
G1 F300.0 Z-3.0
G1 F1300.0 Y39.3333
G2 X-123.6667 Y46.3333 I7.0 J0.0
G1 X-111.6667
G2 X-104.6667 Y39.3333 I0.0 J-7.0
G1 Y27.3333
G2 X-111.6667 Y20.3333 I-7.0 J0.0
G1 X-123.6667
G2 X-130.6667 Y27.3333 I0.0 J7.0
G1 F300.0 Z-6.0
G1 F1300.0 Y39.3333
G2 X-123.6667 Y46.3333 I7.0 J0.0
G1 X-111.6667
G2 X-104.6667 Y39.3333 I0.0 J-7.0
G1 Y27.3333
G2 X-111.6667 Y20.3333 I-7.0 J0.0
G1 X-123.6667
G2 X-130.6667 Y27.3333 I0.0 J7.0
G1 F300.0 Z-9.0
G1 F1300.0 Y39.3333
G2 X-123.6667 Y46.3333 I7.0 J0.0
G1 X-111.6667
G2 X-104.6667 Y39.3333 I0.0 J-7.0
G1 Y27.3333
G2 X-111.6667 Y20.3333 I-7.0 J0.0
G1 X-123.6667
G2 X-130.6667 Y27.3333 I0.0 J7.0
G1 F300.0 Z-12.0
G1 F1300.0 Y39.3333
G2 X-130.6286 Y40.062 I7.0 J0.0
G2 X-130.1036 Y42.0841 Z-9.0 I6.962 J-0.7287
G2 X-129.063 Y43.792 I6.4369 J-2.7507
G2 X-127.5069 Y45.1859 Z-12.0 I5.3963 J-4.4587
G2 X-123.6667 Y46.3333 I3.8402 J-5.8526
G1 X-111.6667
G2 X-105.3421 Y42.3333 I0.0 J-7.0
G2 X-104.7385 Y40.3333 Z-9.0 I-6.3246 J-3.0
G2 X-104.6667 Y39.3333 I-6.9282 J-1.0
G1 Y38.3333
G1 Y36.3333 Z-12.0
G1 Y27.3333
G2 X-111.6667 Y20.3333 I-7.0 J0.0
G1 X-116.8555
G1 X-118.8555 Z-9.0
G1 X-120.8555
G1 X-122.8555 Z-12.0
G1 X-123.6667
G2 X-130.6667 Y27.3333 I0.0 J7.0
G0 Z5.0
G0 X-125.1053 Y53.8161
G0 Z1.0
G1 F300.0 Z-3.0
G2 F1300.0 X-130.6667 Y60.6667 I1.4386 J6.8506
G1 Y72.6667
G2 X-123.6667 Y79.6667 I7.0 J0.0
G1 X-111.6667
G2 X-104.6667 Y72.6667 I0.0 J-7.0
G1 Y60.6667
G2 X-111.6667 Y53.6667 I-7.0 J0.0
G1 X-123.6667
G2 X-125.1053 Y53.8161 I0.0 J7.0
G1 F300.0 Z-6.0
G2 F1300.0 X-130.6667 Y60.6667 I1.4386 J6.8506
G1 Y72.6667
G2 X-123.6667 Y79.6667 I7.0 J0.0
G1 X-111.6667
G2 X-104.6667 Y72.6667 I0.0 J-7.0
G1 Y60.6667
G2 X-111.6667 Y53.6667 I-7.0 J0.0
G1 X-123.6667
G2 X-125.1053 Y53.8161 I0.0 J7.0
G1 F300.0 Z-9.0
G2 F1300.0 X-130.6667 Y60.6667 I1.4386 J6.8506
G1 Y72.6667
G2 X-123.6667 Y79.6667 I7.0 J0.0
G1 X-111.6667
G2 X-104.6667 Y72.6667 I0.0 J-7.0
G1 Y60.6667
G2 X-111.6667 Y53.6667 I-7.0 J0.0
G1 X-123.6667
G2 X-125.1053 Y53.8161 I0.0 J7.0
G1 F300.0 Z-9.6682
G2 F1300.0 X-126.6667 Y54.3421 Z-12.0 I1.4386 J6.8506
G2 X-130.6667 Y60.6667 I3.0 J6.3246
G1 Y72.6667
G2 X-129.5193 Y76.5069 I7.0 J0.0
G2 X-128.1254 Y78.063 Z-9.0 I5.8526 J-3.8402
G2 X-126.4174 Y79.1036 I4.4587 J-5.3963
G2 X-124.3953 Y79.6286 Z-12.0 I2.7507 J-6.4369
G2 X-123.6667 Y79.6667 I0.7287 J-6.962
G1 X-111.6667
G2 X-104.6667 Y72.6667 I0.0 J-7.0
G1 Y71.8555
G1 Y69.8555 Z-9.0
G1 Y67.8555
G1 Y65.8555 Z-12.0
G1 Y60.6667
G2 X-111.6667 Y53.6667 I-7.0 J0.0
G1 X-120.6667
G1 X-122.6667 Z-9.0
G1 X-123.6667
G2 X-124.6667 Y53.7385 I0.0 J7.0
G2 X-125.1053 Y53.8161 Z-9.6682 I1.0 J6.9282
G0 Z5.0
G0 X-138.3814 Y58.3876
G0 Z1.0
G1 F300.0 Z-3.0
G2 F1300.0 X-145.0 Y53.6667 I-6.6186 J2.2791
G1 X-157.0
G2 X-164.0 Y60.6667 I0.0 J7.0
G1 Y72.6667
G2 X-157.0 Y79.6667 I7.0 J0.0
G1 X-145.0
G2 X-138.0 Y72.6667 I0.0 J-7.0
G1 Y60.6667
G2 X-138.3814 Y58.3876 I-7.0 J0.0
G1 F300.0 Z-6.0
G2 F1300.0 X-145.0 Y53.6667 I-6.6186 J2.2791
G1 X-157.0
G2 X-164.0 Y60.6667 I0.0 J7.0
G1 Y72.6667
G2 X-157.0 Y79.6667 I7.0 J0.0
G1 X-145.0
G2 X-138.0 Y72.6667 I0.0 J-7.0
G1 Y60.6667
G2 X-138.3814 Y58.3876 I-7.0 J0.0
G1 F300.0 Z-9.0
G2 F1300.0 X-145.0 Y53.6667 I-6.6186 J2.2791
G1 X-157.0
G2 X-164.0 Y60.6667 I0.0 J7.0
G1 Y72.6667
G2 X-157.0 Y79.6667 I7.0 J0.0
G1 X-145.0
G2 X-138.0 Y72.6667 I0.0 J-7.0
G1 Y60.6667
G2 X-138.3814 Y58.3876 I-7.0 J0.0
G1 F300.0 Z-12.0
G2 F1300.0 X-145.0 Y53.6667 I-6.6186 J2.2791
G1 X-150.1888
G1 X-152.1888 Z-9.0
G1 X-154.1888
G1 X-156.1888 Z-12.0
G1 X-157.0
G2 X-164.0 Y60.6667 I0.0 J7.0
G1 Y72.6667
G2 X-163.962 Y73.3953 I7.0 J0.0
G2 X-163.4369 Y75.4174 Z-9.0 I6.962 J-0.7287
G2 X-162.3963 Y77.1254 I6.4369 J-2.7507
G2 X-160.8402 Y78.5193 Z-12.0 I5.3963 J-4.4587
G2 X-157.0 Y79.6667 I3.8402 J-5.8526
G1 X-145.0
G2 X-138.6754 Y75.6667 I0.0 J-7.0
G2 X-138.0718 Y73.6667 Z-9.0 I-6.3246 J-3.0
G2 X-138.0 Y72.6667 I-6.9282 J-1.0
G1 Y71.6667
G1 Y69.6667 Z-12.0
G1 Y60.6667
G2 X-138.3814 Y58.3876 I-7.0 J0.0
G0 Z5.0
G0 X-143.7209 Y87.1178
G0 Z1.0
G1 F300.0 Z-3.0
G2 F1300.0 X-145.0 Y87.0 I-1.2791 J6.8822
G1 X-157.0
G2 X-164.0 Y94.0 I0.0 J7.0
G1 Y106.0
G2 X-157.0 Y113.0 I7.0 J0.0
G1 X-145.0
G2 X-138.0 Y106.0 I0.0 J-7.0
G1 Y94.0
G2 X-143.7209 Y87.1178 I-7.0 J0.0
G1 F300.0 Z-6.0
G2 F1300.0 X-145.0 Y87.0 I-1.2791 J6.8822
G1 X-157.0
G2 X-164.0 Y94.0 I0.0 J7.0
G1 Y106.0
G2 X-157.0 Y113.0 I7.0 J0.0
G1 X-145.0
G2 X-138.0 Y106.0 I0.0 J-7.0
G1 Y94.0
G2 X-143.7209 Y87.1178 I-7.0 J0.0
G1 F300.0 Z-9.0
G2 F1300.0 X-145.0 Y87.0 I-1.2791 J6.8822
G1 X-157.0
G2 X-164.0 Y94.0 I0.0 J7.0
G1 Y106.0
G2 X-157.0 Y113.0 I7.0 J0.0
G1 X-145.0
G2 X-138.0 Y106.0 I0.0 J-7.0
G1 Y94.0
G2 X-143.7209 Y87.1178 I-7.0 J0.0
G1 F300.0 Z-12.0
G2 F1300.0 X-145.0 Y87.0 I-1.2791 J6.8822
G1 X-150.1888
G1 X-152.1888 Z-9.0
G1 X-154.1888
G1 X-156.1888 Z-12.0
G1 X-157.0
G2 X-164.0 Y94.0 I0.0 J7.0
G1 Y106.0
G2 X-163.962 Y106.7287 I7.0 J0.0
G2 X-163.4369 Y108.7507 Z-9.0 I6.962 J-0.7287
G2 X-162.3963 Y110.4587 I6.4369 J-2.7507
G2 X-160.8402 Y111.8526 Z-12.0 I5.3963 J-4.4587
G2 X-157.0 Y113.0 I3.8402 J-5.8526
G1 X-145.0
G2 X-138.6754 Y109.0 I0.0 J-7.0
G2 X-138.0718 Y107.0 Z-9.0 I-6.3246 J-3.0
G2 X-138.0 Y106.0 I-6.9282 J-1.0
G1 Y105.0
G1 Y103.0 Z-12.0
G1 Y94.0
G2 X-143.7209 Y87.1178 I-7.0 J0.0
G0 Z5.0
G0 X-130.2876 Y91.7278
G0 Z1.0
G1 F300.0 Z-3.0
G2 F1300.0 X-130.6667 Y94.0 I6.621 J2.2722
G1 Y106.0
G2 X-123.6667 Y113.0 I7.0 J0.0
G1 X-111.6667
G2 X-104.6667 Y106.0 I0.0 J-7.0
G1 Y94.0
G2 X-111.6667 Y87.0 I-7.0 J0.0
G1 X-123.6667
G2 X-130.2876 Y91.7278 I0.0 J7.0
G1 F300.0 Z-6.0
G2 F1300.0 X-130.6667 Y94.0 I6.621 J2.2722
G1 Y106.0
G2 X-123.6667 Y113.0 I7.0 J0.0
G1 X-111.6667
G2 X-104.6667 Y106.0 I0.0 J-7.0
G1 Y94.0
G2 X-111.6667 Y87.0 I-7.0 J0.0
G1 X-123.6667
G2 X-130.2876 Y91.7278 I0.0 J7.0
G1 F300.0 Z-9.0
G2 F1300.0 X-130.6667 Y94.0 I6.621 J2.2722
G1 Y106.0
G2 X-123.6667 Y113.0 I7.0 J0.0
G1 X-111.6667
G2 X-104.6667 Y106.0 I0.0 J-7.0
G1 Y94.0
G2 X-111.6667 Y87.0 I-7.0 J0.0
G1 X-123.6667
G2 X-130.2876 Y91.7278 I0.0 J7.0
G1 F300.0 Z-12.0
G2 F1300.0 X-130.6667 Y94.0 I6.621 J2.2722
G1 Y106.0
G2 X-130.6286 Y106.7287 I7.0 J0.0
G2 X-130.1036 Y108.7507 Z-9.0 I6.962 J-0.7287
G2 X-129.063 Y110.4587 I6.4369 J-2.7507
G2 X-127.5069 Y111.8526 Z-12.0 I5.3963 J-4.4587
G2 X-123.6667 Y113.0 I3.8402 J-5.8526
G1 X-111.6667
G2 X-105.3421 Y109.0 I0.0 J-7.0
G2 X-104.7385 Y107.0 Z-9.0 I-6.3246 J-3.0
G2 X-104.6667 Y106.0 I-6.9282 J-1.0
G1 Y105.0
G1 Y103.0 Z-12.0
G1 Y94.0
G2 X-111.6667 Y87.0 I-7.0 J0.0
G1 X-116.8555
G1 X-118.8555 Z-9.0
G1 X-120.8555
G1 X-122.8555 Z-12.0
G1 X-123.6667
G2 X-130.2876 Y91.7278 I0.0 J7.0
G0 Z5.0
G0 X-124.9464 Y120.4513
G0 Z1.0
G1 F300.0 Z-3.0
G2 F1300.0 X-130.6667 Y127.3333 I1.2797 J6.882
G1 Y139.3333
G2 X-123.6667 Y146.3333 I7.0 J0.0
G1 X-111.6667
G2 X-104.6667 Y139.3333 I0.0 J-7.0
G1 Y127.3333
G2 X-111.6667 Y120.3333 I-7.0 J0.0
G1 X-123.6667
G2 X-124.9464 Y120.4513 I0.0 J7.0
G1 F300.0 Z-6.0
G2 F1300.0 X-130.6667 Y127.3333 I1.2797 J6.882
G1 Y139.3333
G2 X-123.6667 Y146.3333 I7.0 J0.0
G1 X-111.6667
G2 X-104.6667 Y139.3333 I0.0 J-7.0
G1 Y127.3333
G2 X-111.6667 Y120.3333 I-7.0 J0.0
G1 X-123.6667
G2 X-124.9464 Y120.4513 I0.0 J7.0
G1 F300.0 Z-9.0
G2 F1300.0 X-130.6667 Y127.3333 I1.2797 J6.882
G1 Y139.3333
G2 X-123.6667 Y146.3333 I7.0 J0.0
G1 X-111.6667
G2 X-104.6667 Y139.3333 I0.0 J-7.0
G1 Y127.3333
G2 X-111.6667 Y120.3333 I-7.0 J0.0
G1 X-123.6667
G2 X-124.9464 Y120.4513 I0.0 J7.0
G1 F300.0 Z-9.4253
G2 F1300.0 X-126.6667 Y121.0088 Z-12.0 I1.2797 J6.882
G2 X-130.6667 Y127.3333 I3.0 J6.3246
G1 Y139.3333
G2 X-129.5193 Y143.1735 I7.0 J0.0
G2 X-128.1254 Y144.7296 Z-9.0 I5.8526 J-3.8402
G2 X-126.4174 Y145.7702 I4.4587 J-5.3963
G2 X-124.3953 Y146.2953 Z-12.0 I2.7507 J-6.4369
G2 X-123.6667 Y146.3333 I0.7287 J-6.962
G1 X-111.6667
G2 X-104.6667 Y139.3333 I0.0 J-7.0
G1 Y138.5221
G1 Y136.5221 Z-9.0
G1 Y134.5221
G1 Y132.5221 Z-12.0
G1 Y127.3333
G2 X-111.6667 Y120.3333 I-7.0 J0.0
G1 X-120.6667
G1 X-122.6667 Z-9.0
G1 X-123.6667
G2 X-124.6667 Y120.4051 I0.0 J7.0
G2 X-124.9464 Y120.4513 Z-9.4253 I1.0 J6.9282
G0 Z5.0
G0 X-138.379 Y125.0611
G0 Z1.0
G1 F300.0 Z-3.0
G2 F1300.0 X-145.0 Y120.3333 I-6.621 J2.2722
G1 X-157.0
G2 X-164.0 Y127.3333 I0.0 J7.0
G1 Y139.3333
G2 X-157.0 Y146.3333 I7.0 J0.0
G1 X-145.0
G2 X-138.0 Y139.3333 I0.0 J-7.0
G1 Y127.3333
G2 X-138.379 Y125.0611 I-7.0 J0.0
G1 F300.0 Z-6.0
G2 F1300.0 X-145.0 Y120.3333 I-6.621 J2.2722
G1 X-157.0
G2 X-164.0 Y127.3333 I0.0 J7.0
G1 Y139.3333
G2 X-157.0 Y146.3333 I7.0 J0.0
G1 X-145.0
G2 X-138.0 Y139.3333 I0.0 J-7.0
G1 Y127.3333
G2 X-138.379 Y125.0611 I-7.0 J0.0
G1 F300.0 Z-9.0
G2 F1300.0 X-145.0 Y120.3333 I-6.621 J2.2722
G1 X-157.0
G2 X-164.0 Y127.3333 I0.0 J7.0
G1 Y139.3333
G2 X-157.0 Y146.3333 I7.0 J0.0
G1 X-145.0
G2 X-138.0 Y139.3333 I0.0 J-7.0
G1 Y127.3333
G2 X-138.379 Y125.0611 I-7.0 J0.0
G1 F300.0 Z-12.0
G2 F1300.0 X-145.0 Y120.3333 I-6.621 J2.2722
G1 X-150.1888
G1 X-152.1888 Z-9.0
G1 X-154.1888
G1 X-156.1888 Z-12.0
G1 X-157.0
G2 X-164.0 Y127.3333 I0.0 J7.0
G1 Y139.3333
G2 X-163.962 Y140.062 I7.0 J0.0
G2 X-163.4369 Y142.0841 Z-9.0 I6.962 J-0.7287
G2 X-162.3963 Y143.792 I6.4369 J-2.7507
G2 X-160.8402 Y145.1859 Z-12.0 I5.3963 J-4.4587
G2 X-157.0 Y146.3333 I3.8402 J-5.8526
G1 X-145.0
G2 X-138.6754 Y142.3333 I0.0 J-7.0
G2 X-138.0718 Y140.3333 Z-9.0 I-6.3246 J-3.0
G2 X-138.0 Y139.3333 I-6.9282 J-1.0
G1 Y138.3333
G1 Y136.3333 Z-12.0
G1 Y127.3333
G2 X-138.379 Y125.0611 I-7.0 J0.0
G0 Z5.0
G0 X-143.7203 Y153.7846
G0 Z1.0
G1 F300.0 Z-3.0
G2 F1300.0 X-145.0 Y153.6667 I-1.2797 J6.882
G1 X-157.0
G2 X-164.0 Y160.6667 I0.0 J7.0
G1 Y172.6667
G2 X-157.0 Y179.6667 I7.0 J0.0
G1 X-145.0
G2 X-138.0 Y172.6667 I0.0 J-7.0
G1 Y160.6667
G2 X-143.7203 Y153.7846 I-7.0 J0.0
G1 F300.0 Z-6.0
G2 F1300.0 X-145.0 Y153.6667 I-1.2797 J6.882
G1 X-157.0
G2 X-164.0 Y160.6667 I0.0 J7.0
G1 Y172.6667
G2 X-157.0 Y179.6667 I7.0 J0.0
G1 X-145.0
G2 X-138.0 Y172.6667 I0.0 J-7.0
G1 Y160.6667
G2 X-143.7203 Y153.7846 I-7.0 J0.0
G1 F300.0 Z-9.0
G2 F1300.0 X-145.0 Y153.6667 I-1.2797 J6.882
G1 X-157.0
G2 X-164.0 Y160.6667 I0.0 J7.0
G1 Y172.6667
G2 X-157.0 Y179.6667 I7.0 J0.0
G1 X-145.0
G2 X-138.0 Y172.6667 I0.0 J-7.0
G1 Y160.6667
G2 X-143.7203 Y153.7846 I-7.0 J0.0
G1 F300.0 Z-12.0
G2 F1300.0 X-145.0 Y153.6667 I-1.2797 J6.882
G1 X-150.1888
G1 X-152.1888 Z-9.0
G1 X-154.1888
G1 X-156.1888 Z-12.0
G1 X-157.0
G2 X-164.0 Y160.6667 I0.0 J7.0
G1 Y172.6667
G2 X-163.962 Y173.3953 I7.0 J0.0
G2 X-163.4369 Y175.4174 Z-9.0 I6.962 J-0.7287
G2 X-162.3963 Y177.1254 I6.4369 J-2.7507
G2 X-160.8402 Y178.5193 Z-12.0 I5.3963 J-4.4587
G2 X-157.0 Y179.6667 I3.8402 J-5.8526
G1 X-145.0
G2 X-138.6754 Y175.6667 I0.0 J-7.0
G2 X-138.0718 Y173.6667 Z-9.0 I-6.3246 J-3.0
G2 X-138.0 Y172.6667 I-6.9282 J-1.0
G1 Y171.6667
G1 Y169.6667 Z-12.0
G1 Y160.6667
G2 X-143.7203 Y153.7846 I-7.0 J0.0
G0 Z5.0
G0 X-130.2876 Y158.3945
G0 Z1.0
G1 F300.0 Z-3.0
G2 F1300.0 X-130.6667 Y160.6667 I6.621 J2.2722
G1 Y172.6667
G2 X-123.6667 Y179.6667 I7.0 J0.0
G1 X-111.6667
G2 X-104.6667 Y172.6667 I0.0 J-7.0
G1 Y160.6667
G2 X-111.6667 Y153.6667 I-7.0 J0.0
G1 X-123.6667
G2 X-130.2876 Y158.3945 I0.0 J7.0
G1 F300.0 Z-6.0
G2 F1300.0 X-130.6667 Y160.6667 I6.621 J2.2722
G1 Y172.6667
G2 X-123.6667 Y179.6667 I7.0 J0.0
G1 X-111.6667
G2 X-104.6667 Y172.6667 I0.0 J-7.0
G1 Y160.6667
G2 X-111.6667 Y153.6667 I-7.0 J0.0
G1 X-123.6667
G2 X-130.2876 Y158.3945 I0.0 J7.0
G1 F300.0 Z-9.0
G2 F1300.0 X-130.6667 Y160.6667 I6.621 J2.2722
G1 Y172.6667
G2 X-123.6667 Y179.6667 I7.0 J0.0
G1 X-111.6667
G2 X-104.6667 Y172.6667 I0.0 J-7.0
G1 Y160.6667
G2 X-111.6667 Y153.6667 I-7.0 J0.0
G1 X-123.6667
G2 X-130.2876 Y158.3945 I0.0 J7.0
G1 F300.0 Z-12.0
G2 F1300.0 X-130.6667 Y160.6667 I6.621 J2.2722
G1 Y172.6667
G2 X-130.6286 Y173.3953 I7.0 J0.0
G2 X-130.1036 Y175.4174 Z-9.0 I6.962 J-0.7287
G2 X-129.063 Y177.1254 I6.4369 J-2.7507
G2 X-127.5069 Y178.5193 Z-12.0 I5.3963 J-4.4587
G2 X-123.6667 Y179.6667 I3.8402 J-5.8526
G1 X-111.6667
G2 X-105.3421 Y175.6667 I0.0 J-7.0
G2 X-104.7385 Y173.6667 Z-9.0 I-6.3246 J-3.0
G2 X-104.6667 Y172.6667 I-6.9282 J-1.0
G1 Y171.6667
G1 Y169.6667 Z-12.0
G1 Y160.6667
G2 X-111.6667 Y153.6667 I-7.0 J0.0
G1 X-116.8555
G1 X-118.8555 Z-9.0
G1 X-120.8555
G1 X-122.8555 Z-12.0
G1 X-123.6667
G2 X-130.2876 Y158.3945 I0.0 J7.0
G0 Z5.0
G0 X-97.322 Y160.2692
G0 Z1.0
G1 F300.0 Z-3.0
G2 F1300.0 X-97.3333 Y160.6667 I6.9887 J0.3974
G1 Y172.6667
G2 X-90.3333 Y179.6667 I7.0 J0.0
G1 X-78.3333
G2 X-71.3333 Y172.6667 I0.0 J-7.0
G1 Y160.6667
G2 X-78.3333 Y153.6667 I-7.0 J0.0
G1 X-90.3333
G2 X-97.322 Y160.2692 I0.0 J7.0
G1 F300.0 Z-6.0
G2 F1300.0 X-97.3333 Y160.6667 I6.9887 J0.3974
G1 Y172.6667
G2 X-90.3333 Y179.6667 I7.0 J0.0
G1 X-78.3333
G2 X-71.3333 Y172.6667 I0.0 J-7.0
G1 Y160.6667
G2 X-78.3333 Y153.6667 I-7.0 J0.0
G1 X-90.3333
G2 X-97.322 Y160.2692 I0.0 J7.0
G1 F300.0 Z-9.0
G2 F1300.0 X-97.3333 Y160.6667 I6.9887 J0.3974
G1 Y172.6667
G2 X-90.3333 Y179.6667 I7.0 J0.0
G1 X-78.3333
G2 X-71.3333 Y172.6667 I0.0 J-7.0
G1 Y160.6667
G2 X-78.3333 Y153.6667 I-7.0 J0.0
G1 X-90.3333
G2 X-97.322 Y160.2692 I0.0 J7.0
G1 F300.0 Z-12.0
G2 F1300.0 X-97.3333 Y160.6667 I6.9887 J0.3974
G1 Y172.6667
G2 X-97.2953 Y173.3953 I7.0 J0.0
G2 X-96.7702 Y175.4174 Z-9.0 I6.962 J-0.7287
G2 X-95.7296 Y177.1254 I6.4369 J-2.7507
G2 X-94.1735 Y178.5193 Z-12.0 I5.3963 J-4.4587
G2 X-90.3333 Y179.6667 I3.8402 J-5.8526
G1 X-78.3333
G2 X-72.0088 Y175.6667 I0.0 J-7.0
G2 X-71.4051 Y173.6667 Z-9.0 I-6.3246 J-3.0
G2 X-71.3333 Y172.6667 I-6.9282 J-1.0
G1 Y171.6667
G1 Y169.6667 Z-12.0
G1 Y160.6667
G2 X-78.3333 Y153.6667 I-7.0 J0.0
G1 X-83.5221
G1 X-85.5221 Z-9.0
G1 X-87.5221
G1 X-89.5221 Z-12.0
G1 X-90.3333
G2 X-97.322 Y160.2692 I0.0 J7.0
G0 Z5.0
G0 X-92.5498 Y145.9732
G0 Z1.0
G1 F300.0 Z-3.0
G2 F1300.0 X-90.3333 Y146.3333 I2.2165 J-6.6398
G1 X-78.3333
G2 X-71.3333 Y139.3333 I0.0 J-7.0
G1 Y127.3333
G2 X-78.3333 Y120.3333 I-7.0 J0.0
G1 X-90.3333
G2 X-97.3333 Y127.3333 I0.0 J7.0
G1 Y139.3333
G2 X-92.5498 Y145.9732 I7.0 J0.0
G1 F300.0 Z-6.0
G2 F1300.0 X-90.3333 Y146.3333 I2.2165 J-6.6398
G1 X-78.3333
G2 X-71.3333 Y139.3333 I0.0 J-7.0
G1 Y127.3333
G2 X-78.3333 Y120.3333 I-7.0 J0.0
G1 X-90.3333
G2 X-97.3333 Y127.3333 I0.0 J7.0
G1 Y139.3333
G2 X-92.5498 Y145.9732 I7.0 J0.0
G1 F300.0 Z-9.0
G2 F1300.0 X-90.3333 Y146.3333 I2.2165 J-6.6398
G1 X-78.3333
G2 X-71.3333 Y139.3333 I0.0 J-7.0
G1 Y127.3333
G2 X-78.3333 Y120.3333 I-7.0 J0.0
G1 X-90.3333
G2 X-97.3333 Y127.3333 I0.0 J7.0
G1 Y139.3333
G2 X-92.5498 Y145.9732 I7.0 J0.0
G1 F300.0 Z-12.0
G2 F1300.0 X-90.3333 Y146.3333 I2.2165 J-6.6398
G1 X-78.3333
G2 X-72.0088 Y142.3333 I0.0 J-7.0
G2 X-71.4051 Y140.3333 Z-9.0 I-6.3246 J-3.0
G2 X-71.3333 Y139.3333 I-6.9282 J-1.0
G1 Y138.3333
G1 Y136.3333 Z-12.0
G1 Y127.3333
G2 X-78.3333 Y120.3333 I-7.0 J0.0
G1 X-83.5221
G1 X-85.5221 Z-9.0
G1 X-87.5221
G1 X-89.5221 Z-12.0
G1 X-90.3333
G2 X-97.3333 Y127.3333 I0.0 J7.0
G1 Y139.3333
G2 X-97.2953 Y140.062 I7.0 J0.0
G2 X-96.7702 Y142.0841 Z-9.0 I6.962 J-0.7287
G2 X-95.7296 Y143.792 I6.4369 J-2.7507
G2 X-94.1735 Y145.1859 Z-12.0 I5.3963 J-4.4587
G2 X-92.5498 Y145.9732 I3.8402 J-5.8526
G0 Z5.0
G0 X-90.7209 Y112.9893
G0 Z1.0
G1 F300.0 Z-3.0
G2 F1300.0 X-90.3333 Y113.0 I0.3875 J-6.9893
G1 X-78.3333
G2 X-71.3333 Y106.0 I0.0 J-7.0
G1 Y94.0
G2 X-78.3333 Y87.0 I-7.0 J0.0
G1 X-90.3333
G2 X-97.3333 Y94.0 I0.0 J7.0
G1 Y106.0
G2 X-90.7209 Y112.9893 I7.0 J0.0
G1 F300.0 Z-6.0
G2 F1300.0 X-90.3333 Y113.0 I0.3875 J-6.9893
G1 X-78.3333
G2 X-71.3333 Y106.0 I0.0 J-7.0
G1 Y94.0
G2 X-78.3333 Y87.0 I-7.0 J0.0
G1 X-90.3333
G2 X-97.3333 Y94.0 I0.0 J7.0
G1 Y106.0
G2 X-90.7209 Y112.9893 I7.0 J0.0
G1 F300.0 Z-9.0
G2 F1300.0 X-90.3333 Y113.0 I0.3875 J-6.9893
G1 X-78.3333
G2 X-71.3333 Y106.0 I0.0 J-7.0
G1 Y94.0
G2 X-78.3333 Y87.0 I-7.0 J0.0
G1 X-90.3333
G2 X-97.3333 Y94.0 I0.0 J7.0
G1 Y106.0
G2 X-90.7209 Y112.9893 I7.0 J0.0
G1 F300.0 Z-12.0
G2 F1300.0 X-90.3333 Y113.0 I0.3875 J-6.9893
G1 X-78.3333
G2 X-72.0088 Y109.0 I0.0 J-7.0
G2 X-71.4051 Y107.0 Z-9.0 I-6.3246 J-3.0
G2 X-71.3333 Y106.0 I-6.9282 J-1.0
G1 Y105.0
G1 Y103.0 Z-12.0
G1 Y94.0
G2 X-78.3333 Y87.0 I-7.0 J0.0
G1 X-83.5221
G1 X-85.5221 Z-9.0
G1 X-87.5221
G1 X-89.5221 Z-12.0
G1 X-90.3333
G2 X-97.3333 Y94.0 I0.0 J7.0
G1 Y106.0
G2 X-97.2953 Y106.7287 I7.0 J0.0
G2 X-96.7702 Y108.7507 Z-9.0 I6.962 J-0.7287
G2 X-95.7296 Y110.4587 I6.4369 J-2.7507
G2 X-94.1735 Y111.8526 Z-12.0 I5.3963 J-4.4587
G2 X-90.7209 Y112.9893 I3.8402 J-5.8526
G0 Z5.0
G0 X-90.4006 Y79.6663
G0 Z1.0
G1 F300.0 Z-3.0
G2 F1300.0 X-90.3333 Y79.6667 I0.0673 J-6.9997
G1 X-78.3333
G2 X-71.3333 Y72.6667 I0.0 J-7.0
G1 Y60.6667
G2 X-78.3333 Y53.6667 I-7.0 J0.0
G1 X-90.3333
G2 X-97.3333 Y60.6667 I0.0 J7.0
G1 Y72.6667
G2 X-90.4006 Y79.6663 I7.0 J0.0
G1 F300.0 Z-6.0
G2 F1300.0 X-90.3333 Y79.6667 I0.0673 J-6.9997
G1 X-78.3333
G2 X-71.3333 Y72.6667 I0.0 J-7.0
G1 Y60.6667
G2 X-78.3333 Y53.6667 I-7.0 J0.0
G1 X-90.3333
G2 X-97.3333 Y60.6667 I0.0 J7.0
G1 Y72.6667
G2 X-90.4006 Y79.6663 I7.0 J0.0
G1 F300.0 Z-9.0
G2 F1300.0 X-90.3333 Y79.6667 I0.0673 J-6.9997
G1 X-78.3333
G2 X-71.3333 Y72.6667 I0.0 J-7.0
G1 Y60.6667
G2 X-78.3333 Y53.6667 I-7.0 J0.0
G1 X-90.3333
G2 X-97.3333 Y60.6667 I0.0 J7.0
G1 Y72.6667
G2 X-90.4006 Y79.6663 I7.0 J0.0
G1 F300.0 Z-12.0
G2 F1300.0 X-90.3333 Y79.6667 I0.0673 J-6.9997
G1 X-78.3333
G2 X-72.0088 Y75.6667 I0.0 J-7.0
G2 X-71.4051 Y73.6667 Z-9.0 I-6.3246 J-3.0
G2 X-71.3333 Y72.6667 I-6.9282 J-1.0
G1 Y71.6667
G1 Y69.6667 Z-12.0
G1 Y60.6667
G2 X-78.3333 Y53.6667 I-7.0 J0.0
G1 X-83.5221
G1 X-85.5221 Z-9.0
G1 X-87.5221
G1 X-89.5221 Z-12.0
G1 X-90.3333
G2 X-97.3333 Y60.6667 I0.0 J7.0
G1 Y72.6667
G2 X-97.2953 Y73.3953 I7.0 J0.0
G2 X-96.7702 Y75.4174 Z-9.0 I6.962 J-0.7287
G2 X-95.7296 Y77.1254 I6.4369 J-2.7507
G2 X-94.1735 Y78.5193 Z-12.0 I5.3963 J-4.4587
G2 X-90.4006 Y79.6663 I3.8402 J-5.8526
G0 Z5.0
G0 X-90.345 Y46.3333
G0 Z1.0
G1 F300.0 Z-3.0
G2 F1300.0 X-90.3333 I0.0117 J-7.0
G1 X-78.3333
G2 X-71.3333 Y39.3333 I0.0 J-7.0
G1 Y27.3333
G2 X-78.3333 Y20.3333 I-7.0 J0.0
G1 X-90.3333
G2 X-97.3333 Y27.3333 I0.0 J7.0
G1 Y39.3333
G2 X-90.345 Y46.3333 I7.0 J0.0
G1 F300.0 Z-6.0
G2 F1300.0 X-90.3333 I0.0117 J-7.0
G1 X-78.3333
G2 X-71.3333 Y39.3333 I0.0 J-7.0
G1 Y27.3333
G2 X-78.3333 Y20.3333 I-7.0 J0.0
G1 X-90.3333
G2 X-97.3333 Y27.3333 I0.0 J7.0
G1 Y39.3333
G2 X-90.345 Y46.3333 I7.0 J0.0
G1 F300.0 Z-9.0
G2 F1300.0 X-90.3333 I0.0117 J-7.0
G1 X-78.3333
G2 X-71.3333 Y39.3333 I0.0 J-7.0
G1 Y27.3333
G2 X-78.3333 Y20.3333 I-7.0 J0.0
G1 X-90.3333
G2 X-97.3333 Y27.3333 I0.0 J7.0
G1 Y39.3333
G2 X-90.345 Y46.3333 I7.0 J0.0
G1 F300.0 Z-12.0
G2 F1300.0 X-90.3333 I0.0117 J-7.0
G1 X-81.3333
G1 X-79.3333 Z-9.0
G1 X-78.3333
G2 X-77.3333 Y46.2615 I0.0 J-7.0
G2 X-75.3333 Y45.6579 Z-12.0 I-1.0 J-6.9282
G2 X-71.3333 Y39.3333 I-3.0 J-6.3246
G1 Y27.3333
G2 X-72.4807 Y23.4931 I-7.0 J0.0
G2 X-73.8746 Y21.937 Z-9.0 I-5.8526 J3.8402
G2 X-75.5826 Y20.8964 I-4.4587 J5.3963
G2 X-77.6047 Y20.3714 Z-12.0 I-2.7507 J6.4369
G2 X-78.3333 Y20.3333 I-0.7287 J6.962
G1 X-90.3333
G2 X-97.3333 Y27.3333 I0.0 J7.0
G1 Y28.1445
G1 Y30.1445 Z-9.0
G1 Y32.1445
G1 Y34.1445 Z-12.0
G1 Y39.3333
G2 X-90.345 Y46.3333 I7.0 J0.0
G0 Z5.0
G0 X-97.3333 Y0.0
G0 Z1.0
G1 F300.0 Z-3.0
G1 F1300.0 Y6.0
G2 X-90.3333 Y13.0 I7.0 J0.0
G1 X-78.3333
G2 X-71.3333 Y6.0 I0.0 J-7.0
G1 Y0.0
G0 Z5.0
G0 X-97.3333
G0 Z-2.0
G1 F300.0 Z-6.0
G1 F1300.0 Y6.0
G2 X-90.3333 Y13.0 I7.0 J0.0
G1 X-78.3333
G2 X-71.3333 Y6.0 I0.0 J-7.0
G1 Y0.0
G0 Z5.0
G0 X-97.3333
G0 Z-5.0
G1 F300.0 Z-9.0
G1 F1300.0 Y6.0
G2 X-90.3333 Y13.0 I7.0 J0.0
G1 X-78.3333
G2 X-71.3333 Y6.0 I0.0 J-7.0
G1 Y0.0
G0 Z5.0
G0 X-97.3333
G0 Z-8.0
G1 F300.0 Z-12.0
G1 F1300.0 Y4.8486
G1 Y6.0 Z-10.2728
G2 X-97.274 Y6.9092 Z-9.0 I7.0 J0.0
G2 X-96.7336 Y8.8348 I6.9407 J-0.9092
G2 X-95.6121 Y10.5973 Z-12.0 I6.4003 J-2.8348
G2 X-90.3333 Y13.0 I5.2787 J-4.5973
G1 X-87.3333
G1 X-85.3333 Z-9.0
G1 X-83.3333
G1 X-81.3333 Z-12.0
G1 X-78.3333
G2 X-73.0546 Y10.5973 I0.0 J-7.0
G2 X-71.933 Y8.8348 Z-9.0 I-5.2787 J-4.5973
G2 X-71.3926 Y6.9092 I-6.4003 J-2.8348
G2 X-71.3333 Y6.0 Z-10.3667 I-6.9407 J-0.9092
G1 Y4.8486 Z-12.0
G1 Y0.0
G0 Z5.0
G0 X-130.6667
G0 Z1.0
G1 F300.0 Z-3.0
G1 F1300.0 Y6.0
G2 X-123.6667 Y13.0 I7.0 J0.0
G1 X-111.6667
G2 X-104.6667 Y6.0 I0.0 J-7.0
G1 Y0.0
G0 Z5.0
G0 X-130.6667
G0 Z-2.0
G1 F300.0 Z-6.0
G1 F1300.0 Y6.0
G2 X-123.6667 Y13.0 I7.0 J0.0
G1 X-111.6667
G2 X-104.6667 Y6.0 I0.0 J-7.0
G1 Y0.0
G0 Z5.0
G0 X-130.6667
G0 Z-5.0
G1 F300.0 Z-9.0
G1 F1300.0 Y6.0
G2 X-123.6667 Y13.0 I7.0 J0.0
G1 X-111.6667
G2 X-104.6667 Y6.0 I0.0 J-7.0
G1 Y0.0
G0 Z5.0
G0 X-130.6667
G0 Z-8.0
G1 F300.0 Z-12.0
G1 F1300.0 Y4.8486
G1 Y6.0 Z-10.2728
G2 X-130.6074 Y6.9092 Z-9.0 I7.0 J0.0
G2 X-130.067 Y8.8348 I6.9407 J-0.9092
G2 X-128.9454 Y10.5973 Z-12.0 I6.4003 J-2.8348
G2 X-123.6667 Y13.0 I5.2787 J-4.5973
G1 X-120.6667
G1 X-118.6667 Z-9.0
G1 X-116.6667
G1 X-114.6667 Z-12.0
G1 X-111.6667
G2 X-106.3879 Y10.5973 I0.0 J-7.0
G2 X-105.2664 Y8.8348 Z-9.0 I-5.2787 J-4.5973
G2 X-104.726 Y6.9092 I-6.4003 J-2.8348
G2 X-104.6667 Y6.0 Z-10.3667 I-6.9407 J-0.9092
G1 Y4.8486 Z-12.0
G1 Y0.0
G0 Z5.0
G0 X-164.0
G0 Z1.0
G1 F300.0 Z-3.0
G1 F1300.0 Y6.0
G2 X-157.0 Y13.0 I7.0 J0.0
G1 X-145.0
G2 X-138.0 Y6.0 I0.0 J-7.0
G1 Y0.0
G0 Z5.0
G0 X-164.0
G0 Z-2.0
G1 F300.0 Z-6.0
G1 F1300.0 Y6.0
G2 X-157.0 Y13.0 I7.0 J0.0
G1 X-145.0
G2 X-138.0 Y6.0 I0.0 J-7.0
G1 Y0.0
G0 Z5.0
G0 X-164.0
G0 Z-5.0
G1 F300.0 Z-9.0
G1 F1300.0 Y6.0
G2 X-157.0 Y13.0 I7.0 J0.0
G1 X-145.0
G2 X-138.0 Y6.0 I0.0 J-7.0
G1 Y0.0
G0 Z5.0
G0 X-164.0
G0 Z-8.0
G1 F300.0 Z-12.0
G1 F1300.0 Y4.8486
G1 Y6.0 Z-10.2728
G2 X-163.9407 Y6.9092 Z-9.0 I7.0 J0.0
G2 X-163.4003 Y8.8348 I6.9407 J-0.9092
G2 X-162.2787 Y10.5973 Z-12.0 I6.4003 J-2.8348
G2 X-157.0 Y13.0 I5.2787 J-4.5973
G1 X-154.0
G1 X-152.0 Z-9.0
G1 X-150.0
G1 X-148.0 Z-12.0
G1 X-145.0
G2 X-139.7213 Y10.5973 I0.0 J-7.0
G2 X-138.5997 Y8.8348 Z-9.0 I-5.2787 J-4.5973
G2 X-138.0593 Y6.9092 I-6.4003 J-2.8348
G2 X-138.0 Y6.0 Z-10.3667 I-6.9407 J-0.9092
G1 Y4.8486 Z-12.0
G1 Y0.0
G0 Z5.0
G0 X-172.5386 Y23.4063
G0 Z1.0
G1 F300.0 Z-3.0
G2 F1300.0 X-178.3333 Y20.3333 I-5.7947 J3.927
G1 X-190.3333
G2 X-197.3333 Y27.3333 I0.0 J7.0
G1 Y39.3333
G2 X-190.3333 Y46.3333 I7.0 J0.0
G1 X-178.3333
G2 X-171.3333 Y39.3333 I0.0 J-7.0
G1 Y27.3333
G2 X-172.5386 Y23.4063 I-7.0 J0.0
G1 F300.0 Z-6.0
G2 F1300.0 X-178.3333 Y20.3333 I-5.7947 J3.927
G1 X-190.3333
G2 X-197.3333 Y27.3333 I0.0 J7.0
G1 Y39.3333
G2 X-190.3333 Y46.3333 I7.0 J0.0
G1 X-178.3333
G2 X-171.3333 Y39.3333 I0.0 J-7.0
G1 Y27.3333
G2 X-172.5386 Y23.4063 I-7.0 J0.0
G1 F300.0 Z-9.0
G2 F1300.0 X-178.3333 Y20.3333 I-5.7947 J3.927
G1 X-190.3333
G2 X-197.3333 Y27.3333 I0.0 J7.0
G1 Y39.3333
G2 X-190.3333 Y46.3333 I7.0 J0.0
G1 X-178.3333
G2 X-171.3333 Y39.3333 I0.0 J-7.0
G1 Y27.3333
G2 X-172.5386 Y23.4063 I-7.0 J0.0
G1 F300.0 Z-12.0
G2 F1300.0 X-178.3333 Y20.3333 I-5.7947 J3.927
G1 X-179.1445
G1 X-181.1445 Z-9.0
G1 X-183.1445
G1 X-185.1445 Z-12.0
G1 X-190.3333
G2 X-197.3333 Y27.3333 I0.0 J7.0
G1 Y36.3333
G1 Y38.3333 Z-9.0
G1 Y39.3333
G2 X-197.2615 Y40.3333 I7.0 J0.0
G2 X-196.6579 Y42.3333 Z-12.0 I6.9282 J-1.0
G2 X-190.3333 Y46.3333 I6.3246 J-3.0
G1 X-178.3333
G2 X-174.4931 Y45.1859 I0.0 J-7.0
G2 X-172.937 Y43.792 Z-9.0 I-3.8402 J-5.8526
G2 X-171.8964 Y42.0841 I-5.3963 J-4.4587
G2 X-171.3714 Y40.062 Z-12.0 I-6.4369 J-2.7507
G2 X-171.3333 Y39.3333 I-6.962 J-0.7287
G1 Y27.3333
G2 X-172.5386 Y23.4063 I-7.0 J0.0
G0 Z5.0
G0 X-177.2576 Y53.7498
G0 Z1.0
G1 F300.0 Z-3.0
G2 F1300.0 X-178.3333 Y53.6667 I-1.0757 J6.9169
G1 X-190.3333
G2 X-197.3333 Y60.6667 I0.0 J7.0
G1 Y72.6667
G2 X-190.3333 Y79.6667 I7.0 J0.0
G1 X-178.3333
G2 X-171.3333 Y72.6667 I0.0 J-7.0
G1 Y60.6667
G2 X-177.2576 Y53.7498 I-7.0 J0.0
G1 F300.0 Z-6.0
G2 F1300.0 X-178.3333 Y53.6667 I-1.0757 J6.9169
G1 X-190.3333
G2 X-197.3333 Y60.6667 I0.0 J7.0
G1 Y72.6667
G2 X-190.3333 Y79.6667 I7.0 J0.0
G1 X-178.3333
G2 X-171.3333 Y72.6667 I0.0 J-7.0
G1 Y60.6667
G2 X-177.2576 Y53.7498 I-7.0 J0.0
G1 F300.0 Z-9.0
G2 F1300.0 X-178.3333 Y53.6667 I-1.0757 J6.9169
G1 X-190.3333
G2 X-197.3333 Y60.6667 I0.0 J7.0
G1 Y72.6667
G2 X-190.3333 Y79.6667 I7.0 J0.0
G1 X-178.3333
G2 X-171.3333 Y72.6667 I0.0 J-7.0
G1 Y60.6667
G2 X-177.2576 Y53.7498 I-7.0 J0.0
G1 F300.0 Z-12.0
G2 F1300.0 X-178.3333 Y53.6667 I-1.0757 J6.9169
G1 X-183.5221
G1 X-185.5221 Z-9.0
G1 X-187.5221
G1 X-189.5221 Z-12.0
G1 X-190.3333
G2 X-197.3333 Y60.6667 I0.0 J7.0
G1 Y72.6667
G2 X-197.2953 Y73.3953 I7.0 J0.0
G2 X-196.7702 Y75.4174 Z-9.0 I6.962 J-0.7287
G2 X-195.7296 Y77.1254 I6.4369 J-2.7507
G2 X-194.1735 Y78.5193 Z-12.0 I5.3963 J-4.4587
G2 X-190.3333 Y79.6667 I3.8402 J-5.8526
G1 X-178.3333
G2 X-172.0088 Y75.6667 I0.0 J-7.0
G2 X-171.4051 Y73.6667 Z-9.0 I-6.3246 J-3.0
G2 X-171.3333 Y72.6667 I-6.9282 J-1.0
G1 Y71.6667
G1 Y69.6667 Z-12.0
G1 Y60.6667
G2 X-177.2576 Y53.7498 I-7.0 J0.0
G0 Z5.0
G0 X-204.8039 Y59.2871
G0 Z1.0
G1 F300.0 Z-3.0
G2 F1300.0 X-211.6667 Y53.6667 I-6.8627 J1.3795
G1 X-223.6667
G2 X-230.6667 Y60.6667 I0.0 J7.0
G1 Y72.6667
G2 X-223.6667 Y79.6667 I7.0 J0.0
G1 X-211.6667
G2 X-204.6667 Y72.6667 I0.0 J-7.0
G1 Y60.6667
G2 X-204.8039 Y59.2871 I-7.0 J0.0
G1 F300.0 Z-6.0
G2 F1300.0 X-211.6667 Y53.6667 I-6.8627 J1.3795
G1 X-223.6667
G2 X-230.6667 Y60.6667 I0.0 J7.0
G1 Y72.6667
G2 X-223.6667 Y79.6667 I7.0 J0.0
G1 X-211.6667
G2 X-204.6667 Y72.6667 I0.0 J-7.0
G1 Y60.6667
G2 X-204.8039 Y59.2871 I-7.0 J0.0
G1 F300.0 Z-9.0
G2 F1300.0 X-211.6667 Y53.6667 I-6.8627 J1.3795
G1 X-223.6667
G2 X-230.6667 Y60.6667 I0.0 J7.0
G1 Y72.6667
G2 X-223.6667 Y79.6667 I7.0 J0.0
G1 X-211.6667
G2 X-204.6667 Y72.6667 I0.0 J-7.0
G1 Y60.6667
G2 X-204.8039 Y59.2871 I-7.0 J0.0
G1 F300.0 Z-12.0
G2 F1300.0 X-211.6667 Y53.6667 I-6.8627 J1.3795
G1 X-216.8555
G1 X-218.8555 Z-9.0
G1 X-220.8555
G1 X-222.8555 Z-12.0
G1 X-223.6667
G2 X-230.6667 Y60.6667 I0.0 J7.0
G1 Y72.6667
G2 X-230.6286 Y73.3953 I7.0 J0.0
G2 X-230.1036 Y75.4174 Z-9.0 I6.962 J-0.7287
G2 X-229.063 Y77.1254 I6.4369 J-2.7507
G2 X-227.5069 Y78.5193 Z-12.0 I5.3963 J-4.4587
G2 X-223.6667 Y79.6667 I3.8402 J-5.8526
G1 X-211.6667
G2 X-205.3421 Y75.6667 I0.0 J-7.0
G2 X-204.7385 Y73.6667 Z-9.0 I-6.3246 J-3.0
G2 X-204.6667 Y72.6667 I-6.9282 J-1.0
G1 Y71.6667
G1 Y69.6667 Z-12.0
G1 Y60.6667
G2 X-204.8039 Y59.2871 I-7.0 J0.0
G0 Z5.0
G0 X-209.39 Y45.9528
G0 Z1.0
G1 F300.0 Z-3.0
G2 F1300.0 X-204.6667 Y39.3333 I-2.2766 J-6.6194
G1 Y27.3333
G2 X-211.6667 Y20.3333 I-7.0 J0.0
G1 X-223.6667
G2 X-230.6667 Y27.3333 I0.0 J7.0
G1 Y39.3333
G2 X-223.6667 Y46.3333 I7.0 J0.0
G1 X-211.6667
G2 X-209.39 Y45.9528 I0.0 J-7.0
G1 F300.0 Z-6.0
G2 F1300.0 X-204.6667 Y39.3333 I-2.2766 J-6.6194
G1 Y27.3333
G2 X-211.6667 Y20.3333 I-7.0 J0.0
G1 X-223.6667
G2 X-230.6667 Y27.3333 I0.0 J7.0
G1 Y39.3333
G2 X-223.6667 Y46.3333 I7.0 J0.0
G1 X-211.6667
G2 X-209.39 Y45.9528 I0.0 J-7.0
G1 F300.0 Z-9.0
G2 F1300.0 X-204.6667 Y39.3333 I-2.2766 J-6.6194
G1 Y27.3333
G2 X-211.6667 Y20.3333 I-7.0 J0.0
G1 X-223.6667
G2 X-230.6667 Y27.3333 I0.0 J7.0
G1 Y39.3333
G2 X-223.6667 Y46.3333 I7.0 J0.0
G1 X-211.6667
G2 X-209.39 Y45.9528 I0.0 J-7.0
G1 F300.0 Z-12.0
G2 F1300.0 X-207.8265 Y45.1859 I-2.2766 J-6.6194
G2 X-206.2704 Y43.792 Z-9.0 I-3.8402 J-5.8526
G2 X-205.2298 Y42.0841 I-5.3963 J-4.4587
G2 X-204.7047 Y40.062 Z-12.0 I-6.4369 J-2.7507
G2 X-204.6667 Y39.3333 I-6.962 J-0.7287
G1 Y27.3333
G2 X-211.6667 Y20.3333 I-7.0 J0.0
G1 X-212.4779
G1 X-214.4779 Z-9.0
G1 X-216.4779
G1 X-218.4779 Z-12.0
G1 X-223.6667
G2 X-230.6667 Y27.3333 I0.0 J7.0
G1 Y36.3333
G1 Y38.3333 Z-9.0
G1 Y39.3333
G2 X-230.5949 Y40.3333 I7.0 J0.0
G2 X-229.9912 Y42.3333 Z-12.0 I6.9282 J-1.0
G2 X-223.6667 Y46.3333 I6.3246 J-3.0
G1 X-211.6667
G2 X-209.39 Y45.9528 I0.0 J-7.0
G0 Z5.0
G0 X-211.3354 Y87.0078
G0 Z1.0
G1 F300.0 Z-3.0
G2 F1300.0 X-211.6667 Y87.0 I-0.3313 J6.9922
G1 X-223.6667
G2 X-230.6667 Y94.0 I0.0 J7.0
G1 Y106.0
G2 X-223.6667 Y113.0 I7.0 J0.0
G1 X-211.6667
G2 X-204.6667 Y106.0 I0.0 J-7.0
G1 Y94.0
G2 X-211.3354 Y87.0078 I-7.0 J0.0
G1 F300.0 Z-6.0
G2 F1300.0 X-211.6667 Y87.0 I-0.3313 J6.9922
G1 X-223.6667
G2 X-230.6667 Y94.0 I0.0 J7.0
G1 Y106.0
G2 X-223.6667 Y113.0 I7.0 J0.0
G1 X-211.6667
G2 X-204.6667 Y106.0 I0.0 J-7.0
G1 Y94.0
G2 X-211.3354 Y87.0078 I-7.0 J0.0
G1 F300.0 Z-9.0
G2 F1300.0 X-211.6667 Y87.0 I-0.3313 J6.9922
G1 X-223.6667
G2 X-230.6667 Y94.0 I0.0 J7.0
G1 Y106.0
G2 X-223.6667 Y113.0 I7.0 J0.0
G1 X-211.6667
G2 X-204.6667 Y106.0 I0.0 J-7.0
G1 Y94.0
G2 X-211.3354 Y87.0078 I-7.0 J0.0
G1 F300.0 Z-12.0
G2 F1300.0 X-211.6667 Y87.0 I-0.3313 J6.9922
G1 X-216.8555
G1 X-218.8555 Z-9.0
G1 X-220.8555
G1 X-222.8555 Z-12.0
G1 X-223.6667
G2 X-230.6667 Y94.0 I0.0 J7.0
G1 Y106.0
G2 X-230.6286 Y106.7287 I7.0 J0.0
G2 X-230.1036 Y108.7507 Z-9.0 I6.962 J-0.7287
G2 X-229.063 Y110.4587 I6.4369 J-2.7507
G2 X-227.5069 Y111.8526 Z-12.0 I5.3963 J-4.4587
G2 X-223.6667 Y113.0 I3.8402 J-5.8526
G1 X-211.6667
G2 X-205.3421 Y109.0 I0.0 J-7.0
G2 X-204.7385 Y107.0 Z-9.0 I-6.3246 J-3.0
G2 X-204.6667 Y106.0 I-6.9282 J-1.0
G1 Y105.0
G1 Y103.0 Z-12.0
G1 Y94.0
G2 X-211.3354 Y87.0078 I-7.0 J0.0
G0 Z5.0
G0 X-196.9749 Y91.7888
G0 Z1.0
G1 F300.0 Z-3.0
G2 F1300.0 X-197.3333 Y94.0 I6.6416 J2.2112
G1 Y106.0
G2 X-190.3333 Y113.0 I7.0 J0.0
G1 X-178.3333
G2 X-171.3333 Y106.0 I0.0 J-7.0
G1 Y94.0
G2 X-178.3333 Y87.0 I-7.0 J0.0
G1 X-190.3333
G2 X-196.9749 Y91.7888 I0.0 J7.0
G1 F300.0 Z-6.0
G2 F1300.0 X-197.3333 Y94.0 I6.6416 J2.2112
G1 Y106.0
G2 X-190.3333 Y113.0 I7.0 J0.0
G1 X-178.3333
G2 X-171.3333 Y106.0 I0.0 J-7.0
G1 Y94.0
G2 X-178.3333 Y87.0 I-7.0 J0.0
G1 X-190.3333
G2 X-196.9749 Y91.7888 I0.0 J7.0
G1 F300.0 Z-9.0
G2 F1300.0 X-197.3333 Y94.0 I6.6416 J2.2112
G1 Y106.0
G2 X-190.3333 Y113.0 I7.0 J0.0
G1 X-178.3333
G2 X-171.3333 Y106.0 I0.0 J-7.0
G1 Y94.0
G2 X-178.3333 Y87.0 I-7.0 J0.0
G1 X-190.3333
G2 X-196.9749 Y91.7888 I0.0 J7.0
G1 F300.0 Z-12.0
G2 F1300.0 X-197.3333 Y94.0 I6.6416 J2.2112
G1 Y106.0
G2 X-197.2953 Y106.7287 I7.0 J0.0
G2 X-196.7702 Y108.7507 Z-9.0 I6.962 J-0.7287
G2 X-195.7296 Y110.4587 I6.4369 J-2.7507
G2 X-194.1735 Y111.8526 Z-12.0 I5.3963 J-4.4587
G2 X-190.3333 Y113.0 I3.8402 J-5.8526
G1 X-178.3333
G2 X-172.0088 Y109.0 I0.0 J-7.0
G2 X-171.4051 Y107.0 Z-9.0 I-6.3246 J-3.0
G2 X-171.3333 Y106.0 I-6.9282 J-1.0
G1 Y105.0
G1 Y103.0 Z-12.0
G1 Y94.0
G2 X-178.3333 Y87.0 I-7.0 J0.0
G1 X-183.5221
G1 X-185.5221 Z-9.0
G1 X-187.5221
G1 X-189.5221 Z-12.0
G1 X-190.3333
G2 X-196.9749 Y91.7888 I0.0 J7.0
G0 Z5.0
G0 X-191.6191 Y120.4524
G0 Z1.0
G1 F300.0 Z-3.0
G2 F1300.0 X-197.3333 Y127.3333 I1.2857 J6.8809
G1 Y139.3333
G2 X-190.3333 Y146.3333 I7.0 J0.0
G1 X-178.3333
G2 X-171.3333 Y139.3333 I0.0 J-7.0
G1 Y127.3333
G2 X-178.3333 Y120.3333 I-7.0 J0.0
G1 X-190.3333
G2 X-191.6191 Y120.4524 I0.0 J7.0
G1 F300.0 Z-6.0
G2 F1300.0 X-197.3333 Y127.3333 I1.2857 J6.8809
G1 Y139.3333
G2 X-190.3333 Y146.3333 I7.0 J0.0
G1 X-178.3333
G2 X-171.3333 Y139.3333 I0.0 J-7.0
G1 Y127.3333
G2 X-178.3333 Y120.3333 I-7.0 J0.0
G1 X-190.3333
G2 X-191.6191 Y120.4524 I0.0 J7.0
G1 F300.0 Z-9.0
G2 F1300.0 X-197.3333 Y127.3333 I1.2857 J6.8809
G1 Y139.3333
G2 X-190.3333 Y146.3333 I7.0 J0.0
G1 X-178.3333
G2 X-171.3333 Y139.3333 I0.0 J-7.0
G1 Y127.3333
G2 X-178.3333 Y120.3333 I-7.0 J0.0
G1 X-190.3333
G2 X-191.6191 Y120.4524 I0.0 J7.0
G1 F300.0 Z-12.0
G2 F1300.0 X-197.3333 Y127.3333 I1.2857 J6.8809
G1 Y139.3333
G2 X-197.2953 Y140.062 I7.0 J0.0
G2 X-196.7702 Y142.0841 Z-9.0 I6.962 J-0.7287
G2 X-195.7296 Y143.792 I6.4369 J-2.7507
G2 X-194.1735 Y145.1859 Z-12.0 I5.3963 J-4.4587
G2 X-190.3333 Y146.3333 I3.8402 J-5.8526
G1 X-178.3333
G2 X-172.0088 Y142.3333 I0.0 J-7.0
G2 X-171.4051 Y140.3333 Z-9.0 I-6.3246 J-3.0
G2 X-171.3333 Y139.3333 I-6.9282 J-1.0
G1 Y138.3333
G1 Y136.3333 Z-12.0
G1 Y127.3333
G2 X-178.3333 Y120.3333 I-7.0 J0.0
G1 X-183.5221
G1 X-185.5221 Z-9.0
G1 X-187.5221
G1 X-189.5221 Z-12.0
G1 X-190.3333
G2 X-191.6191 Y120.4524 I0.0 J7.0
G0 Z5.0
G0 X-205.0458 Y125.0609
G0 Z1.0
G1 F300.0 Z-3.0
G2 F1300.0 X-211.6667 Y120.3333 I-6.6209 J2.2725
G1 X-223.6667
G2 X-230.6667 Y127.3333 I0.0 J7.0
G1 Y139.3333
G2 X-223.6667 Y146.3333 I7.0 J0.0
G1 X-211.6667
G2 X-204.6667 Y139.3333 I0.0 J-7.0
G1 Y127.3333
G2 X-205.0458 Y125.0609 I-7.0 J0.0
G1 F300.0 Z-6.0
G2 F1300.0 X-211.6667 Y120.3333 I-6.6209 J2.2725
G1 X-223.6667
G2 X-230.6667 Y127.3333 I0.0 J7.0
G1 Y139.3333
G2 X-223.6667 Y146.3333 I7.0 J0.0
G1 X-211.6667
G2 X-204.6667 Y139.3333 I0.0 J-7.0
G1 Y127.3333
G2 X-205.0458 Y125.0609 I-7.0 J0.0
G1 F300.0 Z-9.0
G2 F1300.0 X-211.6667 Y120.3333 I-6.6209 J2.2725
G1 X-223.6667
G2 X-230.6667 Y127.3333 I0.0 J7.0
G1 Y139.3333
G2 X-223.6667 Y146.3333 I7.0 J0.0
G1 X-211.6667
G2 X-204.6667 Y139.3333 I0.0 J-7.0
G1 Y127.3333
G2 X-205.0458 Y125.0609 I-7.0 J0.0
G1 F300.0 Z-12.0
G2 F1300.0 X-211.6667 Y120.3333 I-6.6209 J2.2725
G1 X-216.8555
G1 X-218.8555 Z-9.0
G1 X-220.8555
G1 X-222.8555 Z-12.0
G1 X-223.6667
G2 X-230.6667 Y127.3333 I0.0 J7.0
G1 Y139.3333
G2 X-230.6286 Y140.062 I7.0 J0.0
G2 X-230.1036 Y142.0841 Z-9.0 I6.962 J-0.7287
G2 X-229.063 Y143.792 I6.4369 J-2.7507
G2 X-227.5069 Y145.1859 Z-12.0 I5.3963 J-4.4587
G2 X-223.6667 Y146.3333 I3.8402 J-5.8526
G1 X-211.6667
G2 X-205.3421 Y142.3333 I0.0 J-7.0
G2 X-204.7385 Y140.3333 Z-9.0 I-6.3246 J-3.0
G2 X-204.6667 Y139.3333 I-6.9282 J-1.0
G1 Y138.3333
G1 Y136.3333 Z-12.0
G1 Y127.3333
G2 X-205.0458 Y125.0609 I-7.0 J0.0
G0 Z5.0
G0 X-210.387 Y153.7846
G0 Z1.0
G1 F300.0 Z-3.0
G2 F1300.0 X-211.6667 Y153.6667 I-1.2797 J6.882
G1 X-223.6667
G2 X-230.6667 Y160.6667 I0.0 J7.0
G1 Y172.6667
G2 X-223.6667 Y179.6667 I7.0 J0.0
G1 X-211.6667
G2 X-204.6667 Y172.6667 I0.0 J-7.0
G1 Y160.6667
G2 X-210.387 Y153.7846 I-7.0 J0.0
G1 F300.0 Z-6.0
G2 F1300.0 X-211.6667 Y153.6667 I-1.2797 J6.882
G1 X-223.6667
G2 X-230.6667 Y160.6667 I0.0 J7.0
G1 Y172.6667
G2 X-223.6667 Y179.6667 I7.0 J0.0
G1 X-211.6667
G2 X-204.6667 Y172.6667 I0.0 J-7.0
G1 Y160.6667
G2 X-210.387 Y153.7846 I-7.0 J0.0
G1 F300.0 Z-9.0
G2 F1300.0 X-211.6667 Y153.6667 I-1.2797 J6.882
G1 X-223.6667
G2 X-230.6667 Y160.6667 I0.0 J7.0
G1 Y172.6667
G2 X-223.6667 Y179.6667 I7.0 J0.0
G1 X-211.6667
G2 X-204.6667 Y172.6667 I0.0 J-7.0
G1 Y160.6667
G2 X-210.387 Y153.7846 I-7.0 J0.0
G1 F300.0 Z-12.0
G2 F1300.0 X-211.6667 Y153.6667 I-1.2797 J6.882
G1 X-216.8555
G1 X-218.8555 Z-9.0
G1 X-220.8555
G1 X-222.8555 Z-12.0
G1 X-223.6667
G2 X-230.6667 Y160.6667 I0.0 J7.0
G1 Y172.6667
G2 X-230.6286 Y173.3953 I7.0 J0.0
G2 X-230.1036 Y175.4174 Z-9.0 I6.962 J-0.7287
G2 X-229.063 Y177.1254 I6.4369 J-2.7507
G2 X-227.5069 Y178.5193 Z-12.0 I5.3963 J-4.4587
G2 X-223.6667 Y179.6667 I3.8402 J-5.8526
G1 X-211.6667
G2 X-205.3421 Y175.6667 I0.0 J-7.0
G2 X-204.7385 Y173.6667 Z-9.0 I-6.3246 J-3.0
G2 X-204.6667 Y172.6667 I-6.9282 J-1.0
G1 Y171.6667
G1 Y169.6667 Z-12.0
G1 Y160.6667
G2 X-210.387 Y153.7846 I-7.0 J0.0
G0 Z5.0
G0 X-196.9543 Y158.3945
G0 Z1.0
G1 F300.0 Z-3.0
G2 F1300.0 X-197.3333 Y160.6667 I6.621 J2.2722
G1 Y172.6667
G2 X-190.3333 Y179.6667 I7.0 J0.0
G1 X-178.3333
G2 X-171.3333 Y172.6667 I0.0 J-7.0
G1 Y160.6667
G2 X-178.3333 Y153.6667 I-7.0 J0.0
G1 X-190.3333
G2 X-196.9543 Y158.3945 I0.0 J7.0
G1 F300.0 Z-6.0
G2 F1300.0 X-197.3333 Y160.6667 I6.621 J2.2722
G1 Y172.6667
G2 X-190.3333 Y179.6667 I7.0 J0.0
G1 X-178.3333
G2 X-171.3333 Y172.6667 I0.0 J-7.0
G1 Y160.6667
G2 X-178.3333 Y153.6667 I-7.0 J0.0
G1 X-190.3333
G2 X-196.9543 Y158.3945 I0.0 J7.0
G1 F300.0 Z-9.0
G2 F1300.0 X-197.3333 Y160.6667 I6.621 J2.2722
G1 Y172.6667
G2 X-190.3333 Y179.6667 I7.0 J0.0
G1 X-178.3333
G2 X-171.3333 Y172.6667 I0.0 J-7.0
G1 Y160.6667
G2 X-178.3333 Y153.6667 I-7.0 J0.0
G1 X-190.3333
G2 X-196.9543 Y158.3945 I0.0 J7.0
G1 F300.0 Z-12.0
G2 F1300.0 X-197.3333 Y160.6667 I6.621 J2.2722
G1 Y172.6667
G2 X-197.2953 Y173.3953 I7.0 J0.0
G2 X-196.7702 Y175.4174 Z-9.0 I6.962 J-0.7287
G2 X-195.7296 Y177.1254 I6.4369 J-2.7507
G2 X-194.1735 Y178.5193 Z-12.0 I5.3963 J-4.4587
G2 X-190.3333 Y179.6667 I3.8402 J-5.8526
G1 X-178.3333
G2 X-172.0088 Y175.6667 I0.0 J-7.0
G2 X-171.4051 Y173.6667 Z-9.0 I-6.3246 J-3.0
G2 X-171.3333 Y172.6667 I-6.9282 J-1.0
G1 Y171.6667
G1 Y169.6667 Z-12.0
G1 Y160.6667
G2 X-178.3333 Y153.6667 I-7.0 J0.0
G1 X-183.5221
G1 X-185.5221 Z-9.0
G1 X-187.5221
G1 X-189.5221 Z-12.0
G1 X-190.3333
G2 X-196.9543 Y158.3945 I0.0 J7.0
G0 Z5.0
G0 X-197.3333 Y0.0
G0 Z1.0
G1 F300.0 Z-3.0
G1 F1300.0 Y6.0
G2 X-190.3333 Y13.0 I7.0 J0.0
G1 X-178.3333
G2 X-171.3333 Y6.0 I0.0 J-7.0
G1 Y0.0
G0 Z5.0
G0 X-197.3333
G0 Z-2.0
G1 F300.0 Z-6.0
G1 F1300.0 Y6.0
G2 X-190.3333 Y13.0 I7.0 J0.0
G1 X-178.3333
G2 X-171.3333 Y6.0 I0.0 J-7.0
G1 Y0.0
G0 Z5.0
G0 X-197.3333
G0 Z-5.0
G1 F300.0 Z-9.0
G1 F1300.0 Y6.0
G2 X-190.3333 Y13.0 I7.0 J0.0
G1 X-178.3333
G2 X-171.3333 Y6.0 I0.0 J-7.0
G1 Y0.0
G0 Z5.0
G0 X-197.3333
G0 Z-8.0
G1 F300.0 Z-12.0
G1 F1300.0 Y4.8486
G1 Y6.0 Z-10.2728
G2 X-197.274 Y6.9092 Z-9.0 I7.0 J0.0
G2 X-196.7336 Y8.8348 I6.9407 J-0.9092
G2 X-195.6121 Y10.5973 Z-12.0 I6.4003 J-2.8348
G2 X-190.3333 Y13.0 I5.2787 J-4.5973
G1 X-187.3333
G1 X-185.3333 Z-9.0
G1 X-183.3333
G1 X-181.3333 Z-12.0
G1 X-178.3333
G2 X-173.0546 Y10.5973 I0.0 J-7.0
G2 X-171.933 Y8.8348 Z-9.0 I-5.2787 J-4.5973
G2 X-171.3926 Y6.9092 I-6.4003 J-2.8348
G2 X-171.3333 Y6.0 Z-10.3667 I-6.9407 J-0.9092
G1 Y4.8486 Z-12.0
G1 Y0.0
G0 Z5.0
G0 X-230.6667
G0 Z1.0
G1 F300.0 Z-3.0
G1 F1300.0 Y6.0
G2 X-223.6667 Y13.0 I7.0 J0.0
G1 X-211.6667
G2 X-204.6667 Y6.0 I0.0 J-7.0
G1 Y0.0
G0 Z5.0
G0 X-230.6667
G0 Z-2.0
G1 F300.0 Z-6.0
G1 F1300.0 Y6.0
G2 X-223.6667 Y13.0 I7.0 J0.0
G1 X-211.6667
G2 X-204.6667 Y6.0 I0.0 J-7.0
G1 Y0.0
G0 Z5.0
G0 X-230.6667
G0 Z-5.0
G1 F300.0 Z-9.0
G1 F1300.0 Y6.0
G2 X-223.6667 Y13.0 I7.0 J0.0
G1 X-211.6667
G2 X-204.6667 Y6.0 I0.0 J-7.0
G1 Y0.0
G0 Z5.0
G0 X-230.6667
G0 Z-8.0
G1 F300.0 Z-12.0
G1 F1300.0 Y4.8486
G1 Y6.0 Z-10.2728
G2 X-230.6074 Y6.9092 Z-9.0 I7.0 J0.0
G2 X-230.067 Y8.8348 I6.9407 J-0.9092
G2 X-228.9454 Y10.5973 Z-12.0 I6.4003 J-2.8348
G2 X-223.6667 Y13.0 I5.2787 J-4.5973
G1 X-220.6667
G1 X-218.6667 Z-9.0
G1 X-216.6667
G1 X-214.6667 Z-12.0
G1 X-211.6667
G2 X-206.3879 Y10.5973 I0.0 J-7.0
G2 X-205.2664 Y8.8348 Z-9.0 I-5.2787 J-4.5973
G2 X-204.726 Y6.9092 I-6.4003 J-2.8348
G2 X-204.6667 Y6.0 Z-10.3667 I-6.9407 J-0.9092
G1 Y4.8486 Z-12.0
G1 Y0.0
G0 Z5.0
G0 X0.0 Y32.0
G0 Z1.0
G1 F300.0 Z-3.0
G1 F1300.0 X-49.0
G1 Y180.5858
G1 X-19.5858 Y210.0
G1 X0.0
G0 Z5.0
G0 X-41.0 Y251.0
G0 Z1.0
G1 F300.0 Z-3.0
G1 F1300.0 Y231.4142
G1 X-70.4142 Y202.0
G1 X-219.0
G1 Y251.0
G0 Z5.0
G0 X-41.0
G0 Z-2.0
G1 F300.0 Z-6.0
G1 F1300.0 Y231.4142
G1 X-70.4142 Y202.0
G1 X-219.0
G1 Y251.0
G0 Z5.0
G0 X-41.0
G0 Z-5.0
G1 F300.0 Z-9.0
G1 F1300.0 Y231.4142
G1 X-70.4142 Y202.0
G1 X-219.0
G1 Y251.0
G0 Z5.0
G0 X-41.0
G0 Z-8.0
G1 F300.0 Z-11.1396
G1 F1300.0 Y249.5736 Z-9.0
G1 Y247.5736
G1 Y245.5736 Z-12.0
G1 Y231.4142
G1 X-54.4437 Y217.9706
G1 X-55.8579 Y216.5563 Z-9.0
G1 X-57.2721 Y215.1421
G1 X-58.6863 Y213.7279 Z-12.0
G1 X-70.4142 Y202.0
G1 X-87.0
G1 X-89.0 Z-9.0
G1 X-91.0
G1 X-93.0 Z-12.0
G1 X-127.0
G1 X-129.0 Z-9.0
G1 X-131.0
G1 X-133.0 Z-12.0
G1 X-167.0
G1 X-169.0 Z-9.0
G1 X-171.0
G1 X-173.0 Z-12.0
G1 X-207.0
G1 X-209.0 Z-9.0
G1 X-211.0
G1 X-213.0 Z-12.0
G1 X-219.0
G1 Y228.0
G1 Y230.0 Z-9.0
G1 Y232.0
G1 Y234.0 Z-12.0
G1 Y251.0
G0 Z5.0
G0 X0.0 Y32.0
G0 Z-2.0
G1 F300.0 Z-6.0
G1 F1300.0 X-49.0
G1 Y180.5858
G1 X-19.5858 Y210.0
G1 X0.0
G0 Z5.0
G0 Y32.0
G0 Z-5.0
G1 F300.0 Z-9.0
G1 F1300.0 X-49.0
G1 Y180.5858
G1 X-19.5858 Y210.0
G1 X0.0
G0 Z5.0
G0 Y32.0
G0 Z-8.0
G1 F300.0 Z-11.1396
G1 F1300.0 X-1.4264 Z-9.0
G1 X-3.4264
G1 X-5.4264 Z-12.0
G1 X-39.4264
G1 X-41.4264 Z-9.0
G1 X-43.4264
G1 X-45.4264 Z-12.0
G1 X-49.0
G1 Y60.4264
G1 Y62.4264 Z-9.0
G1 Y64.4264
G1 Y66.4264 Z-12.0
G1 Y100.4264
G1 Y102.4264 Z-9.0
G1 Y104.4264
G1 Y106.4264 Z-12.0
G1 Y140.4264
G1 Y142.4264 Z-9.0
G1 Y144.4264
G1 Y146.4264 Z-12.0
G1 Y179.1888
G1 Y180.5858 Z-9.9045
G1 X-48.2843 Y181.3015 Z-9.0
G1 X-46.8701 Y182.7157
G1 X-45.4558 Y184.1299 Z-12.0
G1 X-19.5858 Y210.0
G1 X0.0
( 6thRow )
M8
S10000
G0 Z5.0
G0 X-257.0 Y113.0
G0 Z1.0
G1 F300.0 Z-3.0
G1 F1300.0 X-245.0
G2 X-238.0 Y106.0 I0.0 J-7.0
G1 Y94.0
G2 X-245.0 Y87.0 I-7.0 J0.0
G1 X-257.0
G2 X-264.0 Y94.0 I0.0 J7.0
G1 Y106.0
G2 X-257.0 Y113.0 I7.0 J0.0
G1 F300.0 Z-6.0
G1 F1300.0 X-245.0
G2 X-238.0 Y106.0 I0.0 J-7.0
G1 Y94.0
G2 X-245.0 Y87.0 I-7.0 J0.0
G1 X-257.0
G2 X-264.0 Y94.0 I0.0 J7.0
G1 Y106.0
G2 X-257.0 Y113.0 I7.0 J0.0
G1 F300.0 Z-9.0
G1 F1300.0 X-245.0
G2 X-238.0 Y106.0 I0.0 J-7.0
G1 Y94.0
G2 X-245.0 Y87.0 I-7.0 J0.0
G1 X-257.0
G2 X-264.0 Y94.0 I0.0 J7.0
G1 Y106.0
G2 X-257.0 Y113.0 I7.0 J0.0
G1 F300.0 Z-12.0
G1 F1300.0 X-245.0
G2 X-244.2713 Y112.962 I0.0 J-7.0
G2 X-242.2493 Y112.4369 Z-9.0 I-0.7287 J-6.962
G2 X-240.5413 Y111.3963 I-2.7507 J-6.4369
G2 X-239.1474 Y109.8402 Z-12.0 I-4.4587 J-5.3963
G2 X-238.0 Y106.0 I-5.8526 J-3.8402
G1 Y94.0
G2 X-242.0 Y87.6754 I-7.0 J0.0
G2 X-244.0 Y87.0718 Z-9.0 I-3.0 J6.3246
G2 X-245.0 Y87.0 I-1.0 J6.9282
G1 X-246.0
G1 X-248.0 Z-12.0
G1 X-257.0
G2 X-264.0 Y94.0 I0.0 J7.0
G1 Y99.1888
G1 Y101.1888 Z-9.0
G1 Y103.1888
G1 Y105.1888 Z-12.0
G1 Y106.0
G2 X-257.0 Y113.0 I7.0 J0.0
G0 Z5.0
G0 Y120.3333
G0 Z1.0
G1 F300.0 Z-3.0
G2 F1300.0 X-264.0 Y127.3333 I0.0 J7.0
G1 Y139.3333
G2 X-257.0 Y146.3333 I7.0 J0.0
G1 X-245.0
G2 X-238.0 Y139.3333 I0.0 J-7.0
G1 Y127.3333
G2 X-245.0 Y120.3333 I-7.0 J0.0
G1 X-257.0
G1 F300.0 Z-6.0
G2 F1300.0 X-264.0 Y127.3333 I0.0 J7.0
G1 Y139.3333
G2 X-257.0 Y146.3333 I7.0 J0.0
G1 X-245.0
G2 X-238.0 Y139.3333 I0.0 J-7.0
G1 Y127.3333
G2 X-245.0 Y120.3333 I-7.0 J0.0
G1 X-257.0
G1 F300.0 Z-9.0
G2 F1300.0 X-264.0 Y127.3333 I0.0 J7.0
G1 Y139.3333
G2 X-257.0 Y146.3333 I7.0 J0.0
G1 X-245.0
G2 X-238.0 Y139.3333 I0.0 J-7.0
G1 Y127.3333
G2 X-245.0 Y120.3333 I-7.0 J0.0
G1 X-257.0
G1 F300.0 Z-12.0
G2 F1300.0 X-264.0 Y127.3333 I0.0 J7.0
G1 Y139.3333
G2 X-263.962 Y140.062 I7.0 J0.0
G2 X-263.4369 Y142.0841 Z-9.0 I6.962 J-0.7287
G2 X-262.3963 Y143.792 I6.4369 J-2.7507
G2 X-260.8402 Y145.1859 Z-12.0 I5.3963 J-4.4587
G2 X-257.0 Y146.3333 I3.8402 J-5.8526
G1 X-245.0
G2 X-238.6754 Y142.3333 I0.0 J-7.0
G2 X-238.0718 Y140.3333 Z-9.0 I-6.3246 J-3.0
G2 X-238.0 Y139.3333 I-6.9282 J-1.0
G1 Y138.3333
G1 Y136.3333 Z-12.0
G1 Y127.3333
G2 X-245.0 Y120.3333 I-7.0 J0.0
G1 X-250.1888
G1 X-252.1888 Z-9.0
G1 X-254.1888
G1 X-256.1888 Z-12.0
G1 X-257.0
G0 Z5.0
G0 Y153.6667
G0 Z1.0
G1 F300.0 Z-3.0
G2 F1300.0 X-264.0 Y160.6667 I0.0 J7.0
G1 Y172.6667
G2 X-257.0 Y179.6667 I7.0 J0.0
G1 X-245.0
G2 X-238.0 Y172.6667 I0.0 J-7.0
G1 Y160.6667
G2 X-245.0 Y153.6667 I-7.0 J0.0
G1 X-257.0
G1 F300.0 Z-6.0
G2 F1300.0 X-264.0 Y160.6667 I0.0 J7.0
G1 Y172.6667
G2 X-257.0 Y179.6667 I7.0 J0.0
G1 X-245.0
G2 X-238.0 Y172.6667 I0.0 J-7.0
G1 Y160.6667
G2 X-245.0 Y153.6667 I-7.0 J0.0
G1 X-257.0
G1 F300.0 Z-9.0
G2 F1300.0 X-264.0 Y160.6667 I0.0 J7.0
G1 Y172.6667
G2 X-257.0 Y179.6667 I7.0 J0.0
G1 X-245.0
G2 X-238.0 Y172.6667 I0.0 J-7.0
G1 Y160.6667
G2 X-245.0 Y153.6667 I-7.0 J0.0
G1 X-257.0
G1 F300.0 Z-12.0
G2 F1300.0 X-264.0 Y160.6667 I0.0 J7.0
G1 Y172.6667
G2 X-263.962 Y173.3953 I7.0 J0.0
G2 X-263.4369 Y175.4174 Z-9.0 I6.962 J-0.7287
G2 X-262.3963 Y177.1254 I6.4369 J-2.7507
G2 X-260.8402 Y178.5193 Z-12.0 I5.3963 J-4.4587
G2 X-257.0 Y179.6667 I3.8402 J-5.8526
G1 X-245.0
G2 X-238.6754 Y175.6667 I0.0 J-7.0
G2 X-238.0718 Y173.6667 Z-9.0 I-6.3246 J-3.0
G2 X-238.0 Y172.6667 I-6.9282 J-1.0
G1 Y171.6667
G1 Y169.6667 Z-12.0
G1 Y160.6667
G2 X-245.0 Y153.6667 I-7.0 J0.0
G1 X-250.1888
G1 X-252.1888 Z-9.0
G1 X-254.1888
G1 X-256.1888 Z-12.0
G1 X-257.0
G0 Z5.0
G0 Y79.6667
G0 Z1.0
G1 F300.0 Z-3.0
G1 F1300.0 X-245.0
G2 X-238.0 Y72.6667 I0.0 J-7.0
G1 Y60.6667
G2 X-245.0 Y53.6667 I-7.0 J0.0
G1 X-257.0
G2 X-264.0 Y60.6667 I0.0 J7.0
G1 Y72.6667
G2 X-257.0 Y79.6667 I7.0 J0.0
G1 F300.0 Z-6.0
G1 F1300.0 X-245.0
G2 X-238.0 Y72.6667 I0.0 J-7.0
G1 Y60.6667
G2 X-245.0 Y53.6667 I-7.0 J0.0
G1 X-257.0
G2 X-264.0 Y60.6667 I0.0 J7.0
G1 Y72.6667
G2 X-257.0 Y79.6667 I7.0 J0.0
G1 F300.0 Z-9.0
G1 F1300.0 X-245.0
G2 X-238.0 Y72.6667 I0.0 J-7.0
G1 Y60.6667
G2 X-245.0 Y53.6667 I-7.0 J0.0
G1 X-257.0
G2 X-264.0 Y60.6667 I0.0 J7.0
G1 Y72.6667
G2 X-257.0 Y79.6667 I7.0 J0.0
G1 F300.0 Z-12.0
G1 F1300.0 X-245.0
G2 X-238.6754 Y75.6667 I0.0 J-7.0
G2 X-238.0718 Y73.6667 Z-9.0 I-6.3246 J-3.0
G2 X-238.0 Y72.6667 I-6.9282 J-1.0
G1 Y71.6667
G1 Y69.6667 Z-12.0
G1 Y60.6667
G2 X-245.0 Y53.6667 I-7.0 J0.0
G1 X-250.1888
G1 X-252.1888 Z-9.0
G1 X-254.1888
G1 X-256.1888 Z-12.0
G1 X-257.0
G2 X-264.0 Y60.6667 I0.0 J7.0
G1 Y72.6667
G2 X-263.962 Y73.3953 I7.0 J0.0
G2 X-263.4369 Y75.4174 Z-9.0 I6.962 J-0.7287
G2 X-262.3963 Y77.1254 I6.4369 J-2.7507
G2 X-260.8402 Y78.5193 Z-12.0 I5.3963 J-4.4587
G2 X-257.0 Y79.6667 I3.8402 J-5.8526
G0 Z5.0
G0 Y46.3333
G0 Z1.0
G1 F300.0 Z-3.0
G1 F1300.0 X-245.0
G2 X-238.0 Y39.3333 I0.0 J-7.0
G1 Y27.3333
G2 X-245.0 Y20.3333 I-7.0 J0.0
G1 X-257.0
G2 X-264.0 Y27.3333 I0.0 J7.0
G1 Y39.3333
G2 X-257.0 Y46.3333 I7.0 J0.0
G1 F300.0 Z-6.0
G1 F1300.0 X-245.0
G2 X-238.0 Y39.3333 I0.0 J-7.0
G1 Y27.3333
G2 X-245.0 Y20.3333 I-7.0 J0.0
G1 X-257.0
G2 X-264.0 Y27.3333 I0.0 J7.0
G1 Y39.3333
G2 X-257.0 Y46.3333 I7.0 J0.0
G1 F300.0 Z-9.0
G1 F1300.0 X-245.0
G2 X-238.0 Y39.3333 I0.0 J-7.0
G1 Y27.3333
G2 X-245.0 Y20.3333 I-7.0 J0.0
G1 X-257.0
G2 X-264.0 Y27.3333 I0.0 J7.0
G1 Y39.3333
G2 X-257.0 Y46.3333 I7.0 J0.0
G1 F300.0 Z-12.0
G1 F1300.0 X-245.0
G2 X-241.1598 Y45.1859 I0.0 J-7.0
G2 X-239.6037 Y43.792 Z-9.0 I-3.8402 J-5.8526
G2 X-238.5631 Y42.0841 I-5.3963 J-4.4587
G2 X-238.038 Y40.062 Z-12.0 I-6.4369 J-2.7507
G2 X-238.0 Y39.3333 I-6.962 J-0.7287
G1 Y27.3333
G2 X-245.0 Y20.3333 I-7.0 J0.0
G1 X-245.8112
G1 X-247.8112 Z-9.0
G1 X-249.8112
G1 X-251.8112 Z-12.0
G1 X-257.0
G2 X-264.0 Y27.3333 I0.0 J7.0
G1 Y36.3333
G1 Y38.3333 Z-9.0
G1 Y39.3333
G2 X-263.9282 Y40.3333 I7.0 J0.0
G2 X-263.3246 Y42.3333 Z-12.0 I6.9282 J-1.0
G2 X-257.0 Y46.3333 I6.3246 J-3.0
G0 Z5.0
G0 X-264.0 Y0.0
G0 Z1.0
G1 F300.0 Z-3.0
G1 F1300.0 Y6.0
G2 X-257.0 Y13.0 I7.0 J0.0
G1 X-245.0
G2 X-238.0 Y6.0 I0.0 J-7.0
G1 Y0.0
G0 Z5.0
G0 X-264.0
G0 Z-2.0
G1 F300.0 Z-6.0
G1 F1300.0 Y6.0
G2 X-257.0 Y13.0 I7.0 J0.0
G1 X-245.0
G2 X-238.0 Y6.0 I0.0 J-7.0
G1 Y0.0
G0 Z5.0
G0 X-264.0
G0 Z-5.0
G1 F300.0 Z-9.0
G1 F1300.0 Y6.0
G2 X-257.0 Y13.0 I7.0 J0.0
G1 X-245.0
G2 X-238.0 Y6.0 I0.0 J-7.0
G1 Y0.0
G0 Z5.0
G0 X-264.0
G0 Z-8.0
G1 F300.0 Z-12.0
G1 F1300.0 Y4.8486
G1 Y6.0 Z-10.2728
G2 X-263.9407 Y6.9092 Z-9.0 I7.0 J0.0
G2 X-263.4003 Y8.8348 I6.9407 J-0.9092
G2 X-262.2787 Y10.5973 Z-12.0 I6.4003 J-2.8348
G2 X-257.0 Y13.0 I5.2787 J-4.5973
G1 X-254.0
G1 X-252.0 Z-9.0
G1 X-250.0
G1 X-248.0 Z-12.0
G1 X-245.0
G2 X-239.7213 Y10.5973 I0.0 J-7.0
G2 X-238.5997 Y8.8348 Z-9.0 I-5.2787 J-4.5973
G2 X-238.0593 Y6.9092 I-6.4003 J-2.8348
G2 X-238.0 Y6.0 Z-10.3667 I-6.9407 J-0.9092
G1 Y4.8486 Z-12.0
G1 Y0.0
( 5rowsFinal )
M9
S10000
G0 Z5.0
G0 X-138.0 Y27.3333
G0 Z-11.0
G1 F300.0 Z-12.0
G2 F1300.0 X-145.0 Y20.3333 I-7.0 J0.0
G1 X-157.0
G2 X-164.0 Y27.3333 I0.0 J7.0
G1 Y39.3333
G2 X-157.0 Y46.3333 I7.0 J0.0
G1 X-145.0
G2 X-138.0 Y39.3333 I0.0 J-7.0
G1 Y27.3333
G0 Z5.0
G0 X-130.6667
G0 Z-11.0
G1 F300.0 Z-12.0
G1 F1300.0 Y39.3333
G2 X-123.6667 Y46.3333 I7.0 J0.0
G1 X-111.6667
G2 X-104.6667 Y39.3333 I0.0 J-7.0
G1 Y27.3333
G2 X-111.6667 Y20.3333 I-7.0 J0.0
G1 X-123.6667
G2 X-130.6667 Y27.3333 I0.0 J7.0
G0 Z5.0
G0 X-125.1053 Y53.8161
G0 Z-8.6682
G1 F300.0 Z-12.0
G2 F1300.0 X-130.6667 Y60.6667 I1.4386 J6.8506
G1 Y72.6667
G2 X-123.6667 Y79.6667 I7.0 J0.0
G1 X-111.6667
G2 X-104.6667 Y72.6667 I0.0 J-7.0
G1 Y60.6667
G2 X-111.6667 Y53.6667 I-7.0 J0.0
G1 X-123.6667
G2 X-125.1053 Y53.8161 I0.0 J7.0
G0 Z5.0
G0 X-138.3814 Y58.3876
G0 Z-11.0
G1 F300.0 Z-12.0
G2 F1300.0 X-145.0 Y53.6667 I-6.6186 J2.2791
G1 X-157.0
G2 X-164.0 Y60.6667 I0.0 J7.0
G1 Y72.6667
G2 X-157.0 Y79.6667 I7.0 J0.0
G1 X-145.0
G2 X-138.0 Y72.6667 I0.0 J-7.0
G1 Y60.6667
G2 X-138.3814 Y58.3876 I-7.0 J0.0
G0 Z5.0
G0 X-143.7209 Y87.1178
G0 Z-11.0
G1 F300.0 Z-12.0
G2 F1300.0 X-145.0 Y87.0 I-1.2791 J6.8822
G1 X-157.0
G2 X-164.0 Y94.0 I0.0 J7.0
G1 Y106.0
G2 X-157.0 Y113.0 I7.0 J0.0
G1 X-145.0
G2 X-138.0 Y106.0 I0.0 J-7.0
G1 Y94.0
G2 X-143.7209 Y87.1178 I-7.0 J0.0
G0 Z5.0
G0 X-130.2876 Y91.7278
G0 Z-11.0
G1 F300.0 Z-12.0
G2 F1300.0 X-130.6667 Y94.0 I6.621 J2.2722
G1 Y106.0
G2 X-123.6667 Y113.0 I7.0 J0.0
G1 X-111.6667
G2 X-104.6667 Y106.0 I0.0 J-7.0
G1 Y94.0
G2 X-111.6667 Y87.0 I-7.0 J0.0
G1 X-123.6667
G2 X-130.2876 Y91.7278 I0.0 J7.0
G0 Z5.0
G0 X-124.9464 Y120.4513
G0 Z-8.4253
G1 F300.0 Z-12.0
G2 F1300.0 X-130.6667 Y127.3333 I1.2797 J6.882
G1 Y139.3333
G2 X-123.6667 Y146.3333 I7.0 J0.0
G1 X-111.6667
G2 X-104.6667 Y139.3333 I0.0 J-7.0
G1 Y127.3333
G2 X-111.6667 Y120.3333 I-7.0 J0.0
G1 X-123.6667
G2 X-124.9464 Y120.4513 I0.0 J7.0
G0 Z5.0
G0 X-138.379 Y125.0611
G0 Z-11.0
G1 F300.0 Z-12.0
G2 F1300.0 X-145.0 Y120.3333 I-6.621 J2.2722
G1 X-157.0
G2 X-164.0 Y127.3333 I0.0 J7.0
G1 Y139.3333
G2 X-157.0 Y146.3333 I7.0 J0.0
G1 X-145.0
G2 X-138.0 Y139.3333 I0.0 J-7.0
G1 Y127.3333
G2 X-138.379 Y125.0611 I-7.0 J0.0
G0 Z5.0
G0 X-143.7203 Y153.7846
G0 Z-11.0
G1 F300.0 Z-12.0
G2 F1300.0 X-145.0 Y153.6667 I-1.2797 J6.882
G1 X-157.0
G2 X-164.0 Y160.6667 I0.0 J7.0
G1 Y172.6667
G2 X-157.0 Y179.6667 I7.0 J0.0
G1 X-145.0
G2 X-138.0 Y172.6667 I0.0 J-7.0
G1 Y160.6667
G2 X-143.7203 Y153.7846 I-7.0 J0.0
G0 Z5.0
G0 X-130.2876 Y158.3945
G0 Z-11.0
G1 F300.0 Z-12.0
G2 F1300.0 X-130.6667 Y160.6667 I6.621 J2.2722
G1 Y172.6667
G2 X-123.6667 Y179.6667 I7.0 J0.0
G1 X-111.6667
G2 X-104.6667 Y172.6667 I0.0 J-7.0
G1 Y160.6667
G2 X-111.6667 Y153.6667 I-7.0 J0.0
G1 X-123.6667
G2 X-130.2876 Y158.3945 I0.0 J7.0
G0 Z5.0
G0 X-97.322 Y160.2692
G0 Z-11.0
G1 F300.0 Z-12.0
G2 F1300.0 X-97.3333 Y160.6667 I6.9887 J0.3974
G1 Y172.6667
G2 X-90.3333 Y179.6667 I7.0 J0.0
G1 X-78.3333
G2 X-71.3333 Y172.6667 I0.0 J-7.0
G1 Y160.6667
G2 X-78.3333 Y153.6667 I-7.0 J0.0
G1 X-90.3333
G2 X-97.322 Y160.2692 I0.0 J7.0
G0 Z5.0
G0 X-92.5498 Y145.9732
G0 Z-11.0
G1 F300.0 Z-12.0
G2 F1300.0 X-90.3333 Y146.3333 I2.2165 J-6.6398
G1 X-78.3333
G2 X-71.3333 Y139.3333 I0.0 J-7.0
G1 Y127.3333
G2 X-78.3333 Y120.3333 I-7.0 J0.0
G1 X-90.3333
G2 X-97.3333 Y127.3333 I0.0 J7.0
G1 Y139.3333
G2 X-92.5498 Y145.9732 I7.0 J0.0
G0 Z5.0
G0 X-90.7209 Y112.9893
G0 Z-11.0
G1 F300.0 Z-12.0
G2 F1300.0 X-90.3333 Y113.0 I0.3875 J-6.9893
G1 X-78.3333
G2 X-71.3333 Y106.0 I0.0 J-7.0
G1 Y94.0
G2 X-78.3333 Y87.0 I-7.0 J0.0
G1 X-90.3333
G2 X-97.3333 Y94.0 I0.0 J7.0
G1 Y106.0
G2 X-90.7209 Y112.9893 I7.0 J0.0
G0 Z5.0
G0 X-90.4006 Y79.6663
G0 Z-11.0
G1 F300.0 Z-12.0
G2 F1300.0 X-90.3333 Y79.6667 I0.0673 J-6.9997
G1 X-78.3333
G2 X-71.3333 Y72.6667 I0.0 J-7.0
G1 Y60.6667
G2 X-78.3333 Y53.6667 I-7.0 J0.0
G1 X-90.3333
G2 X-97.3333 Y60.6667 I0.0 J7.0
G1 Y72.6667
G2 X-90.4006 Y79.6663 I7.0 J0.0
G0 Z5.0
G0 X-90.345 Y46.3333
G0 Z-11.0
G1 F300.0 Z-12.0
G2 F1300.0 X-90.3333 I0.0117 J-7.0
G1 X-78.3333
G2 X-71.3333 Y39.3333 I0.0 J-7.0
G1 Y27.3333
G2 X-78.3333 Y20.3333 I-7.0 J0.0
G1 X-90.3333
G2 X-97.3333 Y27.3333 I0.0 J7.0
G1 Y39.3333
G2 X-90.345 Y46.3333 I7.0 J0.0
G0 Z5.0
G0 X-97.3333 Y0.0
G0 Z-11.0
G1 F300.0 Z-12.0
G1 F1300.0 Y6.0
G2 X-90.3333 Y13.0 I7.0 J0.0
G1 X-78.3333
G2 X-71.3333 Y6.0 I0.0 J-7.0
G1 Y0.0
G0 Z5.0
G0 X-130.6667
G0 Z-11.0
G1 F300.0 Z-12.0
G1 F1300.0 Y6.0
G2 X-123.6667 Y13.0 I7.0 J0.0
G1 X-111.6667
G2 X-104.6667 Y6.0 I0.0 J-7.0
G1 Y0.0
G0 Z5.0
G0 X-164.0
G0 Z-11.0
G1 F300.0 Z-12.0
G1 F1300.0 Y6.0
G2 X-157.0 Y13.0 I7.0 J0.0
G1 X-145.0
G2 X-138.0 Y6.0 I0.0 J-7.0
G1 Y0.0
G0 Z5.0
G0 X-172.5386 Y23.4063
G0 Z-11.0
G1 F300.0 Z-12.0
G2 F1300.0 X-178.3333 Y20.3333 I-5.7947 J3.927
G1 X-190.3333
G2 X-197.3333 Y27.3333 I0.0 J7.0
G1 Y39.3333
G2 X-190.3333 Y46.3333 I7.0 J0.0
G1 X-178.3333
G2 X-171.3333 Y39.3333 I0.0 J-7.0
G1 Y27.3333
G2 X-172.5386 Y23.4063 I-7.0 J0.0
G0 Z5.0
G0 X-177.2576 Y53.7498
G0 Z-11.0
G1 F300.0 Z-12.0
G2 F1300.0 X-178.3333 Y53.6667 I-1.0757 J6.9169
G1 X-190.3333
G2 X-197.3333 Y60.6667 I0.0 J7.0
G1 Y72.6667
G2 X-190.3333 Y79.6667 I7.0 J0.0
G1 X-178.3333
G2 X-171.3333 Y72.6667 I0.0 J-7.0
G1 Y60.6667
G2 X-177.2576 Y53.7498 I-7.0 J0.0
G0 Z5.0
G0 X-204.8039 Y59.2871
G0 Z-11.0
G1 F300.0 Z-12.0
G2 F1300.0 X-211.6667 Y53.6667 I-6.8627 J1.3795
G1 X-223.6667
G2 X-230.6667 Y60.6667 I0.0 J7.0
G1 Y72.6667
G2 X-223.6667 Y79.6667 I7.0 J0.0
G1 X-211.6667
G2 X-204.6667 Y72.6667 I0.0 J-7.0
G1 Y60.6667
G2 X-204.8039 Y59.2871 I-7.0 J0.0
G0 Z5.0
G0 X-209.39 Y45.9528
G0 Z-11.0
G1 F300.0 Z-12.0
G2 F1300.0 X-204.6667 Y39.3333 I-2.2766 J-6.6194
G1 Y27.3333
G2 X-211.6667 Y20.3333 I-7.0 J0.0
G1 X-223.6667
G2 X-230.6667 Y27.3333 I0.0 J7.0
G1 Y39.3333
G2 X-223.6667 Y46.3333 I7.0 J0.0
G1 X-211.6667
G2 X-209.39 Y45.9528 I0.0 J-7.0
G0 Z5.0
G0 X-211.3354 Y87.0078
G0 Z-11.0
G1 F300.0 Z-12.0
G2 F1300.0 X-211.6667 Y87.0 I-0.3313 J6.9922
G1 X-223.6667
G2 X-230.6667 Y94.0 I0.0 J7.0
G1 Y106.0
G2 X-223.6667 Y113.0 I7.0 J0.0
G1 X-211.6667
G2 X-204.6667 Y106.0 I0.0 J-7.0
G1 Y94.0
G2 X-211.3354 Y87.0078 I-7.0 J0.0
G0 Z5.0
G0 X-196.9749 Y91.7888
G0 Z-11.0
G1 F300.0 Z-12.0
G2 F1300.0 X-197.3333 Y94.0 I6.6416 J2.2112
G1 Y106.0
G2 X-190.3333 Y113.0 I7.0 J0.0
G1 X-178.3333
G2 X-171.3333 Y106.0 I0.0 J-7.0
G1 Y94.0
G2 X-178.3333 Y87.0 I-7.0 J0.0
G1 X-190.3333
G2 X-196.9749 Y91.7888 I0.0 J7.0
G0 Z5.0
G0 X-191.6191 Y120.4524
G0 Z-11.0
G1 F300.0 Z-12.0
G2 F1300.0 X-197.3333 Y127.3333 I1.2857 J6.8809
G1 Y139.3333
G2 X-190.3333 Y146.3333 I7.0 J0.0
G1 X-178.3333
G2 X-171.3333 Y139.3333 I0.0 J-7.0
G1 Y127.3333
G2 X-178.3333 Y120.3333 I-7.0 J0.0
G1 X-190.3333
G2 X-191.6191 Y120.4524 I0.0 J7.0
G0 Z5.0
G0 X-205.0458 Y125.0609
G0 Z-11.0
G1 F300.0 Z-12.0
G2 F1300.0 X-211.6667 Y120.3333 I-6.6209 J2.2725
G1 X-223.6667
G2 X-230.6667 Y127.3333 I0.0 J7.0
G1 Y139.3333
G2 X-223.6667 Y146.3333 I7.0 J0.0
G1 X-211.6667
G2 X-204.6667 Y139.3333 I0.0 J-7.0
G1 Y127.3333
G2 X-205.0458 Y125.0609 I-7.0 J0.0
G0 Z5.0
G0 X-210.387 Y153.7846
G0 Z-11.0
G1 F300.0 Z-12.0
G2 F1300.0 X-211.6667 Y153.6667 I-1.2797 J6.882
G1 X-223.6667
G2 X-230.6667 Y160.6667 I0.0 J7.0
G1 Y172.6667
G2 X-223.6667 Y179.6667 I7.0 J0.0
G1 X-211.6667
G2 X-204.6667 Y172.6667 I0.0 J-7.0
G1 Y160.6667
G2 X-210.387 Y153.7846 I-7.0 J0.0
G0 Z5.0
G0 X-196.9543 Y158.3945
G0 Z-11.0
G1 F300.0 Z-12.0
G2 F1300.0 X-197.3333 Y160.6667 I6.621 J2.2722
G1 Y172.6667
G2 X-190.3333 Y179.6667 I7.0 J0.0
G1 X-178.3333
G2 X-171.3333 Y172.6667 I0.0 J-7.0
G1 Y160.6667
G2 X-178.3333 Y153.6667 I-7.0 J0.0
G1 X-190.3333
G2 X-196.9543 Y158.3945 I0.0 J7.0
G0 Z5.0
G0 X-197.3333 Y0.0
G0 Z-11.0
G1 F300.0 Z-12.0
G1 F1300.0 Y6.0
G2 X-190.3333 Y13.0 I7.0 J0.0
G1 X-178.3333
G2 X-171.3333 Y6.0 I0.0 J-7.0
G1 Y0.0
G0 Z5.0
G0 X-230.6667
G0 Z-11.0
G1 F300.0 Z-12.0
G1 F1300.0 Y6.0
G2 X-223.6667 Y13.0 I7.0 J0.0
G1 X-211.6667
G2 X-204.6667 Y6.0 I0.0 J-7.0
G1 Y0.0
G0 Z5.0
G0 X0.0 Y32.0
G0 Z-10.1396
G1 F300.0 Z-12.0
G1 F1300.0 X-49.0
G1 Y180.5858
G1 X-19.5858 Y210.0
G1 X0.0
G0 Z5.0
G0 X-41.0 Y251.0
G0 Z-10.1396
G1 F300.0 Z-12.0
G1 F1300.0 Y231.4142
G1 X-70.4142 Y202.0
G1 X-219.0
G1 Y251.0
( 6thRowFinal )
M9
S10000
G0 Z5.0
G0 X-257.0 Y113.0
G0 Z-11.0
G1 F300.0 Z-12.0
G1 F1300.0 X-245.0
G2 X-238.0 Y106.0 I0.0 J-7.0
G1 Y94.0
G2 X-245.0 Y87.0 I-7.0 J0.0
G1 X-257.0
G2 X-264.0 Y94.0 I0.0 J7.0
G1 Y106.0
G2 X-257.0 Y113.0 I7.0 J0.0
G0 Z5.0
G0 Y120.3333
G0 Z-11.0
G1 F300.0 Z-12.0
G2 F1300.0 X-264.0 Y127.3333 I0.0 J7.0
G1 Y139.3333
G2 X-257.0 Y146.3333 I7.0 J0.0
G1 X-245.0
G2 X-238.0 Y139.3333 I0.0 J-7.0
G1 Y127.3333
G2 X-245.0 Y120.3333 I-7.0 J0.0
G1 X-257.0
G0 Z5.0
G0 Y153.6667
G0 Z-11.0
G1 F300.0 Z-12.0
G2 F1300.0 X-264.0 Y160.6667 I0.0 J7.0
G1 Y172.6667
G2 X-257.0 Y179.6667 I7.0 J0.0
G1 X-245.0
G2 X-238.0 Y172.6667 I0.0 J-7.0
G1 Y160.6667
G2 X-245.0 Y153.6667 I-7.0 J0.0
G1 X-257.0
G0 Z5.0
G0 Y79.6667
G0 Z-11.0
G1 F300.0 Z-12.0
G1 F1300.0 X-245.0
G2 X-238.0 Y72.6667 I0.0 J-7.0
G1 Y60.6667
G2 X-245.0 Y53.6667 I-7.0 J0.0
G1 X-257.0
G2 X-264.0 Y60.6667 I0.0 J7.0
G1 Y72.6667
G2 X-257.0 Y79.6667 I7.0 J0.0
G0 Z5.0
G0 Y46.3333
G0 Z-11.0
G1 F300.0 Z-12.0
G1 F1300.0 X-245.0
G2 X-238.0 Y39.3333 I0.0 J-7.0
G1 Y27.3333
G2 X-245.0 Y20.3333 I-7.0 J0.0
G1 X-257.0
G2 X-264.0 Y27.3333 I0.0 J7.0
G1 Y39.3333
G2 X-257.0 Y46.3333 I7.0 J0.0
G0 Z5.0
G0 X-264.0 Y0.0
G0 Z-11.0
G1 F300.0 Z-12.0
G1 F1300.0 Y6.0
G2 X-257.0 Y13.0 I7.0 J0.0
G1 X-245.0
G2 X-238.0 Y6.0 I0.0 J-7.0
G1 Y0.0
G0 Z5.0
M5
M30
