( Made using CamBam - http://www.cambam.co.uk )
( gatenboard_groot_kwart 9/13/2017 8:35:47 PM )
( T2 : 2.0 )
(G21 G90 G64 G40)
G0 Z5.0
( T2 : 2.0 )
(T2 M6)
( 6thRow )
G17
M8
M3 S10000
G0 X-257.0 Y113.0
G0 Z1.0
G1 F300.0 Z-3.0
G1 F1300.0 X-245.0
G2 X-238.0 Y106.0 I0.0 J-7.0
G1 Y94.0
G2 X-245.0 Y87.0 I-7.0 J0.0
G1 X-257.0
G2 X-264.0 Y94.0 I0.0 J7.0
G1 Y106.0
G2 X-257.0 Y113.0 I7.0 J0.0
G1 F300.0 Z-6.0
G1 F1300.0 X-245.0
G2 X-238.0 Y106.0 I0.0 J-7.0
G1 Y94.0
G2 X-245.0 Y87.0 I-7.0 J0.0
G1 X-257.0
G2 X-264.0 Y94.0 I0.0 J7.0
G1 Y106.0
G2 X-257.0 Y113.0 I7.0 J0.0
G1 F300.0 Z-9.0
G1 F1300.0 X-245.0
G2 X-238.0 Y106.0 I0.0 J-7.0
G1 Y94.0
G2 X-245.0 Y87.0 I-7.0 J0.0
G1 X-257.0
G2 X-264.0 Y94.0 I0.0 J7.0
G1 Y106.0
G2 X-257.0 Y113.0 I7.0 J0.0
G1 F300.0 Z-12.0
G1 F1300.0 X-245.0
G2 X-244.2713 Y112.962 I0.0 J-7.0
G2 X-242.2493 Y112.4369 Z-9.0 I-0.7287 J-6.962
G2 X-240.5413 Y111.3963 I-2.7507 J-6.4369
G2 X-239.1474 Y109.8402 Z-12.0 I-4.4587 J-5.3963
G2 X-238.0 Y106.0 I-5.8526 J-3.8402
G1 Y94.0
G2 X-242.0 Y87.6754 I-7.0 J0.0
G2 X-244.0 Y87.0718 Z-9.0 I-3.0 J6.3246
G2 X-245.0 Y87.0 I-1.0 J6.9282
G1 X-246.0
G1 X-248.0 Z-12.0
G1 X-257.0
G2 X-264.0 Y94.0 I0.0 J7.0
G1 Y99.1888
G1 Y101.1888 Z-9.0
G1 Y103.1888
G1 Y105.1888 Z-12.0
G1 Y106.0
G2 X-257.0 Y113.0 I7.0 J0.0
G0 Z5.0
G0 Y120.3333
G0 Z1.0
G1 F300.0 Z-3.0
G2 F1300.0 X-264.0 Y127.3333 I0.0 J7.0
G1 Y139.3333
G2 X-257.0 Y146.3333 I7.0 J0.0
G1 X-245.0
G2 X-238.0 Y139.3333 I0.0 J-7.0
G1 Y127.3333
G2 X-245.0 Y120.3333 I-7.0 J0.0
G1 X-257.0
G1 F300.0 Z-6.0
G2 F1300.0 X-264.0 Y127.3333 I0.0 J7.0
G1 Y139.3333
G2 X-257.0 Y146.3333 I7.0 J0.0
G1 X-245.0
G2 X-238.0 Y139.3333 I0.0 J-7.0
G1 Y127.3333
G2 X-245.0 Y120.3333 I-7.0 J0.0
G1 X-257.0
G1 F300.0 Z-9.0
G2 F1300.0 X-264.0 Y127.3333 I0.0 J7.0
G1 Y139.3333
G2 X-257.0 Y146.3333 I7.0 J0.0
G1 X-245.0
G2 X-238.0 Y139.3333 I0.0 J-7.0
G1 Y127.3333
G2 X-245.0 Y120.3333 I-7.0 J0.0
G1 X-257.0
G1 F300.0 Z-12.0
G2 F1300.0 X-264.0 Y127.3333 I0.0 J7.0
G1 Y139.3333
G2 X-263.962 Y140.062 I7.0 J0.0
G2 X-263.4369 Y142.0841 Z-9.0 I6.962 J-0.7287
G2 X-262.3963 Y143.792 I6.4369 J-2.7507
G2 X-260.8402 Y145.1859 Z-12.0 I5.3963 J-4.4587
G2 X-257.0 Y146.3333 I3.8402 J-5.8526
G1 X-245.0
G2 X-238.6754 Y142.3333 I0.0 J-7.0
G2 X-238.0718 Y140.3333 Z-9.0 I-6.3246 J-3.0
G2 X-238.0 Y139.3333 I-6.9282 J-1.0
G1 Y138.3333
G1 Y136.3333 Z-12.0
G1 Y127.3333
G2 X-245.0 Y120.3333 I-7.0 J0.0
G1 X-250.1888
G1 X-252.1888 Z-9.0
G1 X-254.1888
G1 X-256.1888 Z-12.0
G1 X-257.0
G0 Z5.0
G0 Y153.6667
G0 Z1.0
G1 F300.0 Z-3.0
G2 F1300.0 X-264.0 Y160.6667 I0.0 J7.0
G1 Y172.6667
G2 X-257.0 Y179.6667 I7.0 J0.0
G1 X-245.0
G2 X-238.0 Y172.6667 I0.0 J-7.0
G1 Y160.6667
G2 X-245.0 Y153.6667 I-7.0 J0.0
G1 X-257.0
G1 F300.0 Z-6.0
G2 F1300.0 X-264.0 Y160.6667 I0.0 J7.0
G1 Y172.6667
G2 X-257.0 Y179.6667 I7.0 J0.0
G1 X-245.0
G2 X-238.0 Y172.6667 I0.0 J-7.0
G1 Y160.6667
G2 X-245.0 Y153.6667 I-7.0 J0.0
G1 X-257.0
G1 F300.0 Z-9.0
G2 F1300.0 X-264.0 Y160.6667 I0.0 J7.0
G1 Y172.6667
G2 X-257.0 Y179.6667 I7.0 J0.0
G1 X-245.0
G2 X-238.0 Y172.6667 I0.0 J-7.0
G1 Y160.6667
G2 X-245.0 Y153.6667 I-7.0 J0.0
G1 X-257.0
G1 F300.0 Z-12.0
G2 F1300.0 X-264.0 Y160.6667 I0.0 J7.0
G1 Y172.6667
G2 X-263.962 Y173.3953 I7.0 J0.0
G2 X-263.4369 Y175.4174 Z-9.0 I6.962 J-0.7287
G2 X-262.3963 Y177.1254 I6.4369 J-2.7507
G2 X-260.8402 Y178.5193 Z-12.0 I5.3963 J-4.4587
G2 X-257.0 Y179.6667 I3.8402 J-5.8526
G1 X-245.0
G2 X-238.6754 Y175.6667 I0.0 J-7.0
G2 X-238.0718 Y173.6667 Z-9.0 I-6.3246 J-3.0
G2 X-238.0 Y172.6667 I-6.9282 J-1.0
G1 Y171.6667
G1 Y169.6667 Z-12.0
G1 Y160.6667
G2 X-245.0 Y153.6667 I-7.0 J0.0
G1 X-250.1888
G1 X-252.1888 Z-9.0
G1 X-254.1888
G1 X-256.1888 Z-12.0
G1 X-257.0
G0 Z5.0
G0 Y79.6667
G0 Z1.0
G1 F300.0 Z-3.0
G1 F1300.0 X-245.0
G2 X-238.0 Y72.6667 I0.0 J-7.0
G1 Y60.6667
G2 X-245.0 Y53.6667 I-7.0 J0.0
G1 X-257.0
G2 X-264.0 Y60.6667 I0.0 J7.0
G1 Y72.6667
G2 X-257.0 Y79.6667 I7.0 J0.0
G1 F300.0 Z-6.0
G1 F1300.0 X-245.0
G2 X-238.0 Y72.6667 I0.0 J-7.0
G1 Y60.6667
G2 X-245.0 Y53.6667 I-7.0 J0.0
G1 X-257.0
G2 X-264.0 Y60.6667 I0.0 J7.0
G1 Y72.6667
G2 X-257.0 Y79.6667 I7.0 J0.0
G1 F300.0 Z-9.0
G1 F1300.0 X-245.0
G2 X-238.0 Y72.6667 I0.0 J-7.0
G1 Y60.6667
G2 X-245.0 Y53.6667 I-7.0 J0.0
G1 X-257.0
G2 X-264.0 Y60.6667 I0.0 J7.0
G1 Y72.6667
G2 X-257.0 Y79.6667 I7.0 J0.0
G1 F300.0 Z-12.0
G1 F1300.0 X-245.0
G2 X-238.6754 Y75.6667 I0.0 J-7.0
G2 X-238.0718 Y73.6667 Z-9.0 I-6.3246 J-3.0
G2 X-238.0 Y72.6667 I-6.9282 J-1.0
G1 Y71.6667
G1 Y69.6667 Z-12.0
G1 Y60.6667
G2 X-245.0 Y53.6667 I-7.0 J0.0
G1 X-250.1888
G1 X-252.1888 Z-9.0
G1 X-254.1888
G1 X-256.1888 Z-12.0
G1 X-257.0
G2 X-264.0 Y60.6667 I0.0 J7.0
G1 Y72.6667
G2 X-263.962 Y73.3953 I7.0 J0.0
G2 X-263.4369 Y75.4174 Z-9.0 I6.962 J-0.7287
G2 X-262.3963 Y77.1254 I6.4369 J-2.7507
G2 X-260.8402 Y78.5193 Z-12.0 I5.3963 J-4.4587
G2 X-257.0 Y79.6667 I3.8402 J-5.8526
G0 Z5.0
G0 Y46.3333
G0 Z1.0
G1 F300.0 Z-3.0
G1 F1300.0 X-245.0
G2 X-238.0 Y39.3333 I0.0 J-7.0
G1 Y27.3333
G2 X-245.0 Y20.3333 I-7.0 J0.0
G1 X-257.0
G2 X-264.0 Y27.3333 I0.0 J7.0
G1 Y39.3333
G2 X-257.0 Y46.3333 I7.0 J0.0
G1 F300.0 Z-6.0
G1 F1300.0 X-245.0
G2 X-238.0 Y39.3333 I0.0 J-7.0
G1 Y27.3333
G2 X-245.0 Y20.3333 I-7.0 J0.0
G1 X-257.0
G2 X-264.0 Y27.3333 I0.0 J7.0
G1 Y39.3333
G2 X-257.0 Y46.3333 I7.0 J0.0
G1 F300.0 Z-9.0
G1 F1300.0 X-245.0
G2 X-238.0 Y39.3333 I0.0 J-7.0
G1 Y27.3333
G2 X-245.0 Y20.3333 I-7.0 J0.0
G1 X-257.0
G2 X-264.0 Y27.3333 I0.0 J7.0
G1 Y39.3333
G2 X-257.0 Y46.3333 I7.0 J0.0
G1 F300.0 Z-12.0
G1 F1300.0 X-245.0
G2 X-241.1598 Y45.1859 I0.0 J-7.0
G2 X-239.6037 Y43.792 Z-9.0 I-3.8402 J-5.8526
G2 X-238.5631 Y42.0841 I-5.3963 J-4.4587
G2 X-238.038 Y40.062 Z-12.0 I-6.4369 J-2.7507
G2 X-238.0 Y39.3333 I-6.962 J-0.7287
G1 Y27.3333
G2 X-245.0 Y20.3333 I-7.0 J0.0
G1 X-245.8112
G1 X-247.8112 Z-9.0
G1 X-249.8112
G1 X-251.8112 Z-12.0
G1 X-257.0
G2 X-264.0 Y27.3333 I0.0 J7.0
G1 Y36.3333
G1 Y38.3333 Z-9.0
G1 Y39.3333
G2 X-263.9282 Y40.3333 I7.0 J0.0
G2 X-263.3246 Y42.3333 Z-12.0 I6.9282 J-1.0
G2 X-257.0 Y46.3333 I6.3246 J-3.0
G0 Z5.0
G0 X-264.0 Y0.0
G0 Z1.0
G1 F300.0 Z-3.0
G1 F1300.0 Y6.0
G2 X-257.0 Y13.0 I7.0 J0.0
G1 X-245.0
G2 X-238.0 Y6.0 I0.0 J-7.0
G1 Y0.0
G0 Z5.0
G0 X-264.0
G0 Z-2.0
G1 F300.0 Z-6.0
G1 F1300.0 Y6.0
G2 X-257.0 Y13.0 I7.0 J0.0
G1 X-245.0
G2 X-238.0 Y6.0 I0.0 J-7.0
G1 Y0.0
G0 Z5.0
G0 X-264.0
G0 Z-5.0
G1 F300.0 Z-9.0
G1 F1300.0 Y6.0
G2 X-257.0 Y13.0 I7.0 J0.0
G1 X-245.0
G2 X-238.0 Y6.0 I0.0 J-7.0
G1 Y0.0
G0 Z5.0
G0 X-264.0
G0 Z-8.0
G1 F300.0 Z-12.0
G1 F1300.0 Y4.8486
G1 Y6.0 Z-10.2728
G2 X-263.9407 Y6.9092 Z-9.0 I7.0 J0.0
G2 X-263.4003 Y8.8348 I6.9407 J-0.9092
G2 X-262.2787 Y10.5973 Z-12.0 I6.4003 J-2.8348
G2 X-257.0 Y13.0 I5.2787 J-4.5973
G1 X-254.0
G1 X-252.0 Z-9.0
G1 X-250.0
G1 X-248.0 Z-12.0
G1 X-245.0
G2 X-239.7213 Y10.5973 I0.0 J-7.0
G2 X-238.5997 Y8.8348 Z-9.0 I-5.2787 J-4.5973
G2 X-238.0593 Y6.9092 I-6.4003 J-2.8348
G2 X-238.0 Y6.0 Z-10.3667 I-6.9407 J-0.9092
G1 Y4.8486 Z-12.0
G1 Y0.0
( 6thRowFinal )
M9
S10000
G0 Z5.0
G0 X-257.0 Y113.0
G0 Z-11.0
G1 F300.0 Z-12.0
G1 F1300.0 X-245.0
G2 X-238.0 Y106.0 I0.0 J-7.0
G1 Y94.0
G2 X-245.0 Y87.0 I-7.0 J0.0
G1 X-257.0
G2 X-264.0 Y94.0 I0.0 J7.0
G1 Y106.0
G2 X-257.0 Y113.0 I7.0 J0.0
G0 Z5.0
G0 Y120.3333
G0 Z-11.0
G1 F300.0 Z-12.0
G2 F1300.0 X-264.0 Y127.3333 I0.0 J7.0
G1 Y139.3333
G2 X-257.0 Y146.3333 I7.0 J0.0
G1 X-245.0
G2 X-238.0 Y139.3333 I0.0 J-7.0
G1 Y127.3333
G2 X-245.0 Y120.3333 I-7.0 J0.0
G1 X-257.0
G0 Z5.0
G0 Y153.6667
G0 Z-11.0
G1 F300.0 Z-12.0
G2 F1300.0 X-264.0 Y160.6667 I0.0 J7.0
G1 Y172.6667
G2 X-257.0 Y179.6667 I7.0 J0.0
G1 X-245.0
G2 X-238.0 Y172.6667 I0.0 J-7.0
G1 Y160.6667
G2 X-245.0 Y153.6667 I-7.0 J0.0
G1 X-257.0
G0 Z5.0
G0 Y79.6667
G0 Z-11.0
G1 F300.0 Z-12.0
G1 F1300.0 X-245.0
G2 X-238.0 Y72.6667 I0.0 J-7.0
G1 Y60.6667
G2 X-245.0 Y53.6667 I-7.0 J0.0
G1 X-257.0
G2 X-264.0 Y60.6667 I0.0 J7.0
G1 Y72.6667
G2 X-257.0 Y79.6667 I7.0 J0.0
G0 Z5.0
G0 Y46.3333
G0 Z-11.0
G1 F300.0 Z-12.0
G1 F1300.0 X-245.0
G2 X-238.0 Y39.3333 I0.0 J-7.0
G1 Y27.3333
G2 X-245.0 Y20.3333 I-7.0 J0.0
G1 X-257.0
G2 X-264.0 Y27.3333 I0.0 J7.0
G1 Y39.3333
G2 X-257.0 Y46.3333 I7.0 J0.0
G0 Z5.0
G0 X-264.0 Y0.0
G0 Z-11.0
G1 F300.0 Z-12.0
G1 F1300.0 Y6.0
G2 X-257.0 Y13.0 I7.0 J0.0
G1 X-245.0
G2 X-238.0 Y6.0 I0.0 J-7.0
G1 Y0.0
G0 Z5.0
M5
M30
