%
(13X13_V2_RIGHT_BACK_6MM)
(T2  D=6. CR=0. - ZMIN=-1. - FLAT END MILL)
N10 G90 G94 G17 G91.1
N15 G21
(WHEN USING FUSION 360 FOR PERSONAL USE, THE FEEDRATE OF)
(RAPID MOVES IS REDUCED TO MATCH THE FEEDRATE OF CUTTING)
(MOVES, WHICH CAN INCREASE MACHINING TIME. UNRESTRICTED RAPID)
(MOVES ARE AVAILABLE WITH A FUSION 360 SUBSCRIPTION.)
(2D CONTOUR3)
N20 M8
N25 S12000 M3
N30 G54
N35 G0 X276.2 Y2.733
N45 G1 Z5. F2700.
N50 Z1. F1800.
N55 Z-0.4
N60 G18 G2 X276.8 Z-1. I0.6 K0. F2700.
N65 G1 X277.4
N70 G17 G3 X278. Y3.333 I0. J0.6
N75 G1 Y222.
N80 X272.
N85 Y3.333
N90 G3 X272.6 Y2.733 I0.6 J0.
N95 G1 X273.2
N100 G18 G2 X273.8 Z-0.4 I0. K0.6
N105 G1 Z5.
N110 X242.867
N115 Z1. F1800.
N120 Z-0.4
N125 G2 X243.467 Z-1. I0.6 K0. F2700.
N130 G1 X244.067
N135 G17 G3 X244.667 Y3.333 I0. J0.6
N140 G1 Y222.
N145 X238.667
N150 Y3.333
N155 G3 X239.267 Y2.733 I0.6 J0.
N160 G1 X239.867
N165 G18 G2 X240.467 Z-0.4 I0. K0.6
N170 G1 Z5.
N175 X209.533
N180 Z1. F1800.
N185 Z-0.4
N190 G2 X210.133 Z-1. I0.6 K0. F2700.
N195 G1 X210.733
N200 G17 G3 X211.333 Y3.333 I0. J0.6
N205 G1 Y222.
N210 X205.333
N215 Y3.333
N220 G3 X205.933 Y2.733 I0.6 J0.
N225 G1 X206.533
N230 G18 G2 X207.133 Z-0.4 I0. K0.6
N235 G1 Z5.
N240 X176.2
N245 Z1. F1800.
N250 Z-0.4
N255 G2 X176.8 Z-1. I0.6 K0. F2700.
N260 G1 X177.4
N265 G17 G3 X178. Y3.333 I0. J0.6
N270 G1 Y222.
N275 X172.
N280 Y3.333
N285 G3 X172.6 Y2.733 I0.6 J0.
N290 G1 X173.2
N295 G18 G2 X173.8 Z-0.4 I0. K0.6
N300 G1 Z5.
N305 X142.867
N310 Z1. F1800.
N315 Z-0.4
N320 G2 X143.467 Z-1. I0.6 K0. F2700.
N325 G1 X144.067
N330 G17 G3 X144.667 Y3.333 I0. J0.6
N335 G1 Y222.
N340 X138.667
N345 Y3.333
N350 G3 X139.267 Y2.733 I0.6 J0.
N355 G1 X139.867
N360 G18 G2 X140.467 Z-0.4 I0. K0.6
N365 G1 Z5.
N370 X109.533
N375 Z1. F1800.
N380 Z-0.4
N385 G2 X110.133 Z-1. I0.6 K0. F2700.
N390 G1 X110.733
N395 G17 G3 X111.333 Y3.333 I0. J0.6
N400 G1 Y222.
N405 X105.333
N410 Y3.333
N415 G3 X105.933 Y2.733 I0.6 J0.
N420 G1 X106.533
N425 G18 G2 X107.133 Z-0.4 I0. K0.6
N430 G1 Z5.
N435 X76.2
N440 Z1. F1800.
N445 Z-0.4
N450 G2 X76.8 Z-1. I0.6 K0. F2700.
N455 G1 X77.4
N460 G17 G3 X78. Y3.333 I0. J0.6
N465 G1 Y222.
N470 X72.
N475 Y3.333
N480 G3 X72.6 Y2.733 I0.6 J0.
N485 G1 X73.2
N490 G18 G2 X73.8 Z-0.4 I0. K0.6
N495 G1 Z5.
N500 X309.533
N505 Z1. F1800.
N510 Z-0.4
N515 G2 X310.133 Z-1. I0.6 K0. F2700.
N520 G1 X310.733
N525 G17 G3 X311.333 Y3.333 I0. J0.6
N530 G1 Y222.
N535 X305.333
N540 Y3.333
N545 G3 X305.933 Y2.733 I0.6 J0.
N550 G1 X306.533
N555 G18 G2 X307.133 Z-0.4 I0. K0.6
N560 G1 Z5.
N565 X342.867
N570 Z1. F1800.
N575 Z-0.4
N580 G2 X343.467 Z-1. I0.6 K0. F2700.
N585 G1 X344.067
N590 G17 G3 X344.667 Y3.333 I0. J0.6
N595 G1 Y222.
N600 X338.667
N605 Y3.333
N610 G3 X339.267 Y2.733 I0.6 J0.
N615 G1 X339.867
N620 G18 G2 X340.467 Z-0.4 I0. K0.6
N625 G1 Z5.
N630 X376.2
N635 Z1. F1800.
N640 Z-0.4
N645 G2 X376.8 Z-1. I0.6 K0. F2700.
N650 G1 X377.4
N655 G17 G3 X378. Y3.333 I0. J0.6
N660 G1 Y222.
N665 X372.
N670 Y3.333
N675 G3 X372.6 Y2.733 I0.6 J0.
N680 G1 X373.2
N685 G18 G2 X373.8 Z-0.4 I0. K0.6
N690 G1 Z5.
N695 X409.533
N700 Z1. F1800.
N705 Z-0.4
N710 G2 X410.133 Z-1. I0.6 K0. F2700.
N715 G1 X410.733
N720 G17 G3 X411.333 Y3.333 I0. J0.6
N725 G1 Y222.
N730 X405.333
N735 Y3.333
N740 G3 X405.933 Y2.733 I0.6 J0.
N745 G1 X406.533
N750 G18 G2 X407.133 Z-0.4 I0. K0.6
N755 G1 Z5.
N760 X442.867
N765 Z1. F1800.
N770 Z-0.4
N775 G2 X443.467 Z-1. I0.6 K0. F2700.
N780 G1 X444.067
N785 G17 G3 X444.667 Y3.333 I0. J0.6
N790 G1 Y222.
N795 X438.667
N800 Y3.333
N805 G3 X439.267 Y2.733 I0.6 J0.
N810 G1 X439.867
N815 G18 G2 X440.467 Z-0.4 I0. K0.6
N820 G1 Z5.
N825 X476.2
N830 Z1. F1800.
N835 Z-0.4
N840 G2 X476.8 Z-1. I0.6 K0. F2700.
N845 G1 X477.4
N850 G17 G3 X478. Y3.333 I0. J0.6
N855 G1 Y222.
N860 X472.
N865 Y3.333
N870 G3 X472.6 Y2.733 I0.6 J0.
N875 G1 X473.2
N880 G18 G2 X473.8 Z-0.4 I0. K0.6
N885 G1 Z15.
N890 G17
N895 M30
%
