%
(13X13_V2_RIGHT_FRONT_VBIT)
(T50  D=32. CR=0. TAPER=45DEG - ZMIN=-15. - CHAMFER MILL)
N10 G90 G94 G17 G91.1
N15 G21
(WHEN USING FUSION 360 FOR PERSONAL USE, THE FEEDRATE OF)
(RAPID MOVES IS REDUCED TO MATCH THE FEEDRATE OF CUTTING)
(MOVES, WHICH CAN INCREASE MACHINING TIME. UNRESTRICTED RAPID)
(MOVES ARE AVAILABLE WITH A FUSION 360 SUBSCRIPTION.)
(2D CONTOUR2 3)
N20 M8
N25 S10001 M3
N30 G54
N35 G0 X276. Y136.231
N45 G1 Z5. F1000.
N50 Z1. F500.
N55 Z0.
N60 S10000
N65 Y135.662 Z-0.121
N70 X274. Z-0.546
N75 Y137.662 Z-0.971
N80 X276. Z-1.396
N85 Y135.662 Z-1.821
N90 X274. Z-2.247
N95 Y137.662 Z-2.672
N100 X276. Z-3.097
N105 Y135.662 Z-3.522
N110 X274. Z-3.947
N115 Y137.662 Z-4.372
N120 X276. Z-4.797
N125 Y135.662 Z-5.222
N130 X274. Z-5.648
N135 Y137.662 Z-6.073
N140 X276. Z-6.498
N145 Y135.662 Z-6.923
N150 X274. Z-7.348
N155 Y137.662 Z-7.773
N160 X276. Z-8.198
N165 Y135.662 Z-8.623
N170 X274. Z-9.048
N175 Y137.662 Z-9.474
N180 X276. Z-9.899
N185 Y135.662 Z-10.324
N190 X274. Z-10.749
N195 Y137.662 Z-11.174
N200 X276. Z-11.599
N205 Y135.662 Z-12.024
N210 X274. Z-12.449
N215 Y137.662 Z-12.874
N220 X276. Z-13.3
N225 Y135.662 Z-13.725
N230 X274. Z-14.15
N235 Y137.662 Z-14.575
N240 X276. Z-15.
N245 S10001
N250 Y135.662 F1000.
N255 X274.
N260 Y137.662
N265 X276.
N270 Z5.
N275 X309.333 Y136.231
N280 Z1. F500.
N285 Z0.
N290 S10000
N295 Y135.662 Z-0.121
N300 X307.333 Z-0.546
N305 Y137.662 Z-0.971
N310 X309.333 Z-1.396
N315 Y135.662 Z-1.821
N320 X307.333 Z-2.247
N325 Y137.662 Z-2.672
N330 X309.333 Z-3.097
N335 Y135.662 Z-3.522
N340 X307.333 Z-3.947
N345 Y137.662 Z-4.372
N350 X309.333 Z-4.797
N355 Y135.662 Z-5.222
N360 X307.333 Z-5.648
N365 Y137.662 Z-6.073
N370 X309.333 Z-6.498
N375 Y135.662 Z-6.923
N380 X307.333 Z-7.348
N385 Y137.662 Z-7.773
N390 X309.333 Z-8.198
N395 Y135.662 Z-8.623
N400 X307.333 Z-9.048
N405 Y137.662 Z-9.474
N410 X309.333 Z-9.899
N415 Y135.662 Z-10.324
N420 X307.333 Z-10.749
N425 Y137.662 Z-11.174
N430 X309.333 Z-11.599
N435 Y135.662 Z-12.024
N440 X307.333 Z-12.449
N445 Y137.662 Z-12.874
N450 X309.333 Z-13.3
N455 Y135.662 Z-13.725
N460 X307.333 Z-14.15
N465 Y137.662 Z-14.575
N470 X309.333 Z-15.
N475 S10001
N480 Y135.662 F1000.
N485 X307.333
N490 Y137.662
N495 X309.333
N500 Z5.
N505 X307.902 Y168.996
N510 Z1. F500.
N515 Z0.
N520 S10000
N525 X307.333 Z-0.121
N530 Y170.996 Z-0.546
N535 X309.333 Z-0.971
N540 Y168.996 Z-1.396
N545 X307.333 Z-1.821
N550 Y170.996 Z-2.247
N555 X309.333 Z-2.672
N560 Y168.996 Z-3.097
N565 X307.333 Z-3.522
N570 Y170.996 Z-3.947
N575 X309.333 Z-4.372
N580 Y168.996 Z-4.797
N585 X307.333 Z-5.222
N590 Y170.996 Z-5.648
N595 X309.333 Z-6.073
N600 Y168.996 Z-6.498
N605 X307.333 Z-6.923
N610 Y170.996 Z-7.348
N615 X309.333 Z-7.773
N620 Y168.996 Z-8.198
N625 X307.333 Z-8.623
N630 Y170.996 Z-9.048
N635 X309.333 Z-9.474
N640 Y168.996 Z-9.899
N645 X307.333 Z-10.324
N650 Y170.996 Z-10.749
N655 X309.333 Z-11.174
N660 Y168.996 Z-11.599
N665 X307.333 Z-12.024
N670 Y170.996 Z-12.449
N675 X309.333 Z-12.874
N680 Y168.996 Z-13.3
N685 X307.333 Z-13.725
N690 Y170.996 Z-14.15
N695 X309.333 Z-14.575
N700 Y168.996 Z-15.
N705 S10001
N710 X307.333 F1000.
N715 Y170.996
N720 X309.333
N725 Y168.996
N730 Z5.
N735 X340.667 Y170.427
N740 Z1. F500.
N745 Z0.
N750 S10000
N755 Y170.996 Z-0.121
N760 X342.667 Z-0.546
N765 Y168.996 Z-0.971
N770 X340.667 Z-1.396
N775 Y170.996 Z-1.821
N780 X342.667 Z-2.247
N785 Y168.996 Z-2.672
N790 X340.667 Z-3.097
N795 Y170.996 Z-3.522
N800 X342.667 Z-3.947
N805 Y168.996 Z-4.372
N810 X340.667 Z-4.797
N815 Y170.996 Z-5.222
N820 X342.667 Z-5.648
N825 Y168.996 Z-6.073
N830 X340.667 Z-6.498
N835 Y170.996 Z-6.923
N840 X342.667 Z-7.348
N845 Y168.996 Z-7.773
N850 X340.667 Z-8.198
N855 Y170.996 Z-8.623
N860 X342.667 Z-9.048
N865 Y168.996 Z-9.474
N870 X340.667 Z-9.899
N875 Y170.996 Z-10.324
N880 X342.667 Z-10.749
N885 Y168.996 Z-11.174
N890 X340.667 Z-11.599
N895 Y170.996 Z-12.024
N900 X342.667 Z-12.449
N905 Y168.996 Z-12.874
N910 X340.667 Z-13.3
N915 Y170.996 Z-13.725
N920 X342.667 Z-14.15
N925 Y168.996 Z-14.575
N930 X340.667 Z-15.
N935 S10001
N940 Y170.996 F1000.
N945 X342.667
N950 Y168.996
N955 X340.667
N960 Z5.
N965 X342.098 Y137.662
N970 Z1. F500.
N975 Z0.
N980 S10000
N985 X342.667 Z-0.121
N990 Y135.662 Z-0.546
N995 X340.667 Z-0.971
N1000 Y137.662 Z-1.396
N1005 X342.667 Z-1.821
N1010 Y135.662 Z-2.247
N1015 X340.667 Z-2.672
N1020 Y137.662 Z-3.097
N1025 X342.667 Z-3.522
N1030 Y135.662 Z-3.947
N1035 X340.667 Z-4.372
N1040 Y137.662 Z-4.797
N1045 X342.667 Z-5.222
N1050 Y135.662 Z-5.648
N1055 X340.667 Z-6.073
N1060 Y137.662 Z-6.498
N1065 X342.667 Z-6.923
N1070 Y135.662 Z-7.348
N1075 X340.667 Z-7.773
N1080 Y137.662 Z-8.198
N1085 X342.667 Z-8.623
N1090 Y135.662 Z-9.048
N1095 X340.667 Z-9.474
N1100 Y137.662 Z-9.899
N1105 X342.667 Z-10.324
N1110 Y135.662 Z-10.749
N1115 X340.667 Z-11.174
N1120 Y137.662 Z-11.599
N1125 X342.667 Z-12.024
N1130 Y135.662 Z-12.449
N1135 X340.667 Z-12.874
N1140 Y137.662 Z-13.3
N1145 X342.667 Z-13.725
N1150 Y135.662 Z-14.15
N1155 X340.667 Z-14.575
N1160 Y137.662 Z-15.
N1165 S10001
N1170 X342.667 F1000.
N1175 Y135.662
N1180 X340.667
N1185 Y137.662
N1190 Z5.
N1195 Y103.761
N1200 Z1. F500.
N1205 Z0.
N1210 S10000
N1215 Y104.329 Z-0.121
N1220 X342.667 Z-0.546
N1225 Y102.329 Z-0.971
N1230 X340.667 Z-1.396
N1235 Y104.329 Z-1.821
N1240 X342.667 Z-2.246
N1245 Y102.329 Z-2.671
N1250 X340.667 Z-3.097
N1255 Y104.329 Z-3.522
N1260 X342.667 Z-3.947
N1265 Y102.329 Z-4.372
N1270 X340.667 Z-4.797
N1275 Y104.329 Z-5.222
N1280 X342.667 Z-5.647
N1285 Y102.329 Z-6.072
N1290 X340.667 Z-6.498
N1295 Y104.329 Z-6.923
N1300 X342.667 Z-7.348
N1305 Y102.329 Z-7.773
N1310 X340.667 Z-8.198
N1315 Y104.329 Z-8.623
N1320 X342.667 Z-9.048
N1325 Y102.329 Z-9.473
N1330 X340.667 Z-9.899
N1335 Y104.329 Z-10.324
N1340 X342.667 Z-10.749
N1345 Y102.329 Z-11.174
N1350 X340.667 Z-11.599
N1355 Y104.329 Z-12.024
N1360 X342.667 Z-12.449
N1365 Y102.329 Z-12.874
N1370 X340.667 Z-13.3
N1375 Y104.329 Z-13.725
N1380 X342.667 Z-14.15
N1385 Y102.329 Z-14.575
N1390 X340.667 Z-15.
N1395 S10001
N1400 Y104.329 F1000.
N1405 X342.667
N1410 Y102.329
N1415 X340.667
N1420 Z5.
N1425 Y70.426
N1430 Z1. F500.
N1435 Z0.
N1440 S10000
N1445 Y70.996 Z-0.121
N1450 X342.667 Z-0.546
N1455 Y68.996 Z-0.971
N1460 X340.667 Z-1.396
N1465 Y70.996 Z-1.821
N1470 X342.667 Z-2.247
N1475 Y68.996 Z-2.672
N1480 X340.667 Z-3.097
N1485 Y70.996 Z-3.522
N1490 X342.667 Z-3.947
N1495 Y68.996 Z-4.372
N1500 X340.667 Z-4.797
N1505 Y70.996 Z-5.222
N1510 X342.667 Z-5.648
N1515 Y68.996 Z-6.073
N1520 X340.667 Z-6.498
N1525 Y70.996 Z-6.923
N1530 X342.667 Z-7.348
N1535 Y68.996 Z-7.773
N1540 X340.667 Z-8.198
N1545 Y70.996 Z-8.623
N1550 X342.667 Z-9.048
N1555 Y68.996 Z-9.474
N1560 X340.667 Z-9.899
N1565 Y70.996 Z-10.324
N1570 X342.667 Z-10.749
N1575 Y68.996 Z-11.174
N1580 X340.667 Z-11.599
N1585 Y70.996 Z-12.024
N1590 X342.667 Z-12.449
N1595 Y68.996 Z-12.874
N1600 X340.667 Z-13.3
N1605 Y70.996 Z-13.725
N1610 X342.667 Z-14.15
N1615 Y68.996 Z-14.575
N1620 X340.667 Z-15.
N1625 S10001
N1630 Y70.996 F1000.
N1635 X342.667
N1640 Y68.996
N1645 X340.667
N1650 Z5.
N1655 Y37.093
N1660 Z1. F500.
N1665 Z0.
N1670 S10000
N1675 Y37.662 Z-0.121
N1680 X342.667 Z-0.546
N1685 Y35.662 Z-0.971
N1690 X340.667 Z-1.396
N1695 Y37.662 Z-1.821
N1700 X342.667 Z-2.247
N1705 Y35.662 Z-2.672
N1710 X340.667 Z-3.097
N1715 Y37.662 Z-3.522
N1720 X342.667 Z-3.947
N1725 Y35.662 Z-4.372
N1730 X340.667 Z-4.797
N1735 Y37.662 Z-5.222
N1740 X342.667 Z-5.648
N1745 Y35.662 Z-6.073
N1750 X340.667 Z-6.498
N1755 Y37.662 Z-6.923
N1760 X342.667 Z-7.348
N1765 Y35.662 Z-7.773
N1770 X340.667 Z-8.198
N1775 Y37.662 Z-8.623
N1780 X342.667 Z-9.048
N1785 Y35.662 Z-9.474
N1790 X340.667 Z-9.899
N1795 Y37.662 Z-10.324
N1800 X342.667 Z-10.749
N1805 Y35.662 Z-11.174
N1810 X340.667 Z-11.599
N1815 Y37.662 Z-12.024
N1820 X342.667 Z-12.449
N1825 Y35.662 Z-12.874
N1830 X340.667 Z-13.3
N1835 Y37.662 Z-13.725
N1840 X342.667 Z-14.15
N1845 Y35.662 Z-14.575
N1850 X340.667 Z-15.
N1855 S10001
N1860 Y37.662 F1000.
N1865 X342.667
N1870 Y35.662
N1875 X340.667
N1880 Z5.
N1885 X307.333 Y37.093
N1890 Z1. F500.
N1895 Z0.
N1900 S10000
N1905 Y37.662 Z-0.121
N1910 X309.333 Z-0.546
N1915 Y35.662 Z-0.971
N1920 X307.333 Z-1.396
N1925 Y37.662 Z-1.821
N1930 X309.333 Z-2.247
N1935 Y35.662 Z-2.672
N1940 X307.333 Z-3.097
N1945 Y37.662 Z-3.522
N1950 X309.333 Z-3.947
N1955 Y35.662 Z-4.372
N1960 X307.333 Z-4.797
N1965 Y37.662 Z-5.222
N1970 X309.333 Z-5.648
N1975 Y35.662 Z-6.073
N1980 X307.333 Z-6.498
N1985 Y37.662 Z-6.923
N1990 X309.333 Z-7.348
N1995 Y35.662 Z-7.773
N2000 X307.333 Z-8.198
N2005 Y37.662 Z-8.623
N2010 X309.333 Z-9.048
N2015 Y35.662 Z-9.474
N2020 X307.333 Z-9.899
N2025 Y37.662 Z-10.324
N2030 X309.333 Z-10.749
N2035 Y35.662 Z-11.174
N2040 X307.333 Z-11.599
N2045 Y37.662 Z-12.024
N2050 X309.333 Z-12.449
N2055 Y35.662 Z-12.874
N2060 X307.333 Z-13.3
N2065 Y37.662 Z-13.725
N2070 X309.333 Z-14.15
N2075 Y35.662 Z-14.575
N2080 X307.333 Z-15.
N2085 S10001
N2090 Y37.662 F1000.
N2095 X309.333
N2100 Y35.662
N2105 X307.333
N2110 Z5.
N2115 X274. Y36.093
N2120 Z1. F500.
N2125 Z0.
N2130 S10000
N2135 Y37.662 Z-0.333
N2140 X276. Z-0.759
N2145 Y35.662 Z-1.184
N2150 X274. Z-1.609
N2155 Y37.662 Z-2.034
N2160 X276. Z-2.459
N2165 Y35.662 Z-2.884
N2170 X274. Z-3.309
N2175 Y37.662 Z-3.734
N2180 X276. Z-4.16
N2185 Y35.662 Z-4.585
N2190 X274. Z-5.01
N2195 Y37.662 Z-5.435
N2200 X276. Z-5.86
N2205 Y35.662 Z-6.285
N2210 X274. Z-6.71
N2215 Y37.662 Z-7.135
N2220 X276. Z-7.56
N2225 Y35.662 Z-7.986
N2230 X274. Z-8.411
N2235 Y37.662 Z-8.836
N2240 X276. Z-9.261
N2245 Y35.662 Z-9.686
N2250 X274. Z-10.111
N2255 Y37.662 Z-10.536
N2260 X276. Z-10.961
N2265 Y35.662 Z-11.386
N2270 X274. Z-11.812
N2275 Y37.662 Z-12.237
N2280 X276. Z-12.662
N2285 Y35.662 Z-13.087
N2290 X274. Z-13.512
N2295 Y37.662 Z-13.937
N2300 X276. Z-14.362
N2305 Y35.662 Z-14.787
N2310 X275. Z-15.
N2315 S10001
N2320 X274. F1000.
N2325 Y37.662
N2330 X276.
N2335 Y35.662
N2340 X275.
N2345 Z5.
N2350 X241.236
N2355 Z1. F500.
N2360 Z0.
N2365 S10000
N2370 X240.667 Z-0.121
N2375 Y37.662 Z-0.546
N2380 X242.667 Z-0.971
N2385 Y35.662 Z-1.396
N2390 X240.667 Z-1.821
N2395 Y37.662 Z-2.247
N2400 X242.667 Z-2.672
N2405 Y35.662 Z-3.097
N2410 X240.667 Z-3.522
N2415 Y37.662 Z-3.947
N2420 X242.667 Z-4.372
N2425 Y35.662 Z-4.797
N2430 X240.667 Z-5.222
N2435 Y37.662 Z-5.648
N2440 X242.667 Z-6.073
N2445 Y35.662 Z-6.498
N2450 X240.667 Z-6.923
N2455 Y37.662 Z-7.348
N2460 X242.667 Z-7.773
N2465 Y35.662 Z-8.198
N2470 X240.667 Z-8.623
N2475 Y37.662 Z-9.048
N2480 X242.667 Z-9.474
N2485 Y35.662 Z-9.899
N2490 X240.667 Z-10.324
N2495 Y37.662 Z-10.749
N2500 X242.667 Z-11.174
N2505 Y35.662 Z-11.599
N2510 X240.667 Z-12.024
N2515 Y37.662 Z-12.449
N2520 X242.667 Z-12.874
N2525 Y35.662 Z-13.3
N2530 X240.667 Z-13.725
N2535 Y37.662 Z-14.15
N2540 X242.667 Z-14.575
N2545 Y35.662 Z-15.
N2550 S10001
N2555 X240.667 F1000.
N2560 Y37.662
N2565 X242.667
N2570 Y35.662
N2575 Z5.
N2580 X240.667 Y70.426
N2585 Z1. F500.
N2590 Z0.
N2595 S10000
N2600 Y70.996 Z-0.121
N2605 X242.667 Z-0.546
N2610 Y68.996 Z-0.971
N2615 X240.667 Z-1.396
N2620 Y70.996 Z-1.821
N2625 X242.667 Z-2.247
N2630 Y68.996 Z-2.672
N2635 X240.667 Z-3.097
N2640 Y70.996 Z-3.522
N2645 X242.667 Z-3.947
N2650 Y68.996 Z-4.372
N2655 X240.667 Z-4.797
N2660 Y70.996 Z-5.222
N2665 X242.667 Z-5.648
N2670 Y68.996 Z-6.073
N2675 X240.667 Z-6.498
N2680 Y70.996 Z-6.923
N2685 X242.667 Z-7.348
N2690 Y68.996 Z-7.773
N2695 X240.667 Z-8.198
N2700 Y70.996 Z-8.623
N2705 X242.667 Z-9.048
N2710 Y68.996 Z-9.474
N2715 X240.667 Z-9.899
N2720 Y70.996 Z-10.324
N2725 X242.667 Z-10.749
N2730 Y68.996 Z-11.174
N2735 X240.667 Z-11.599
N2740 Y70.996 Z-12.024
N2745 X242.667 Z-12.449
N2750 Y68.996 Z-12.874
N2755 X240.667 Z-13.3
N2760 Y70.996 Z-13.725
N2765 X242.667 Z-14.15
N2770 Y68.996 Z-14.575
N2775 X240.667 Z-15.
N2780 S10001
N2785 Y70.996 F1000.
N2790 X242.667
N2795 Y68.996
N2800 X240.667
N2805 Z5.
N2810 X207.902
N2815 Z1. F500.
N2820 Z0.
N2825 S10000
N2830 X207.333 Z-0.121
N2835 Y70.996 Z-0.546
N2840 X209.333 Z-0.971
N2845 Y68.996 Z-1.396
N2850 X207.333 Z-1.821
N2855 Y70.996 Z-2.247
N2860 X209.333 Z-2.672
N2865 Y68.996 Z-3.097
N2870 X207.333 Z-3.522
N2875 Y70.996 Z-3.947
N2880 X209.333 Z-4.372
N2885 Y68.996 Z-4.797
N2890 X207.333 Z-5.222
N2895 Y70.996 Z-5.648
N2900 X209.333 Z-6.073
N2905 Y68.996 Z-6.498
N2910 X207.333 Z-6.923
N2915 Y70.996 Z-7.348
N2920 X209.333 Z-7.773
N2925 Y68.996 Z-8.198
N2930 X207.333 Z-8.623
N2935 Y70.996 Z-9.048
N2940 X209.333 Z-9.474
N2945 Y68.996 Z-9.899
N2950 X207.333 Z-10.324
N2955 Y70.996 Z-10.749
N2960 X209.333 Z-11.174
N2965 Y68.996 Z-11.599
N2970 X207.333 Z-12.024
N2975 Y70.996 Z-12.449
N2980 X209.333 Z-12.874
N2985 Y68.996 Z-13.3
N2990 X207.333 Z-13.725
N2995 Y70.996 Z-14.15
N3000 X209.333 Z-14.575
N3005 Y68.996 Z-15.
N3010 S10001
N3015 X207.333 F1000.
N3020 Y70.996
N3025 X209.333
N3030 Y68.996
N3035 Z5.
N3040 X207.902 Y35.662
N3045 Z1. F500.
N3050 Z0.
N3055 S10000
N3060 X207.333 Z-0.121
N3065 Y37.662 Z-0.546
N3070 X209.333 Z-0.971
N3075 Y35.662 Z-1.396
N3080 X207.333 Z-1.821
N3085 Y37.662 Z-2.247
N3090 X209.333 Z-2.672
N3095 Y35.662 Z-3.097
N3100 X207.333 Z-3.522
N3105 Y37.662 Z-3.947
N3110 X209.333 Z-4.372
N3115 Y35.662 Z-4.797
N3120 X207.333 Z-5.222
N3125 Y37.662 Z-5.648
N3130 X209.333 Z-6.073
N3135 Y35.662 Z-6.498
N3140 X207.333 Z-6.923
N3145 Y37.662 Z-7.348
N3150 X209.333 Z-7.773
N3155 Y35.662 Z-8.198
N3160 X207.333 Z-8.623
N3165 Y37.662 Z-9.048
N3170 X209.333 Z-9.474
N3175 Y35.662 Z-9.899
N3180 X207.333 Z-10.324
N3185 Y37.662 Z-10.749
N3190 X209.333 Z-11.174
N3195 Y35.662 Z-11.599
N3200 X207.333 Z-12.024
N3205 Y37.662 Z-12.449
N3210 X209.333 Z-12.874
N3215 Y35.662 Z-13.3
N3220 X207.333 Z-13.725
N3225 Y37.662 Z-14.15
N3230 X209.333 Z-14.575
N3235 Y35.662 Z-15.
N3240 S10001
N3245 X207.333 F1000.
N3250 Y37.662
N3255 X209.333
N3260 Y35.662
N3265 Z5.
N3270 X174.569
N3275 Z1. F500.
N3280 Z0.
N3285 S10000
N3290 X174. Z-0.121
N3295 Y37.662 Z-0.546
N3300 X176. Z-0.971
N3305 Y35.662 Z-1.396
N3310 X174. Z-1.821
N3315 Y37.662 Z-2.247
N3320 X176. Z-2.672
N3325 Y35.662 Z-3.097
N3330 X174. Z-3.522
N3335 Y37.662 Z-3.947
N3340 X176. Z-4.372
N3345 Y35.662 Z-4.797
N3350 X174. Z-5.222
N3355 Y37.662 Z-5.648
N3360 X176. Z-6.073
N3365 Y35.662 Z-6.498
N3370 X174. Z-6.923
N3375 Y37.662 Z-7.348
N3380 X176. Z-7.773
N3385 Y35.662 Z-8.198
N3390 X174. Z-8.623
N3395 Y37.662 Z-9.048
N3400 X176. Z-9.474
N3405 Y35.662 Z-9.899
N3410 X174. Z-10.324
N3415 Y37.662 Z-10.749
N3420 X176. Z-11.174
N3425 Y35.662 Z-11.599
N3430 X174. Z-12.024
N3435 Y37.662 Z-12.449
N3440 X176. Z-12.874
N3445 Y35.662 Z-13.3
N3450 X174. Z-13.725
N3455 Y37.662 Z-14.15
N3460 X176. Z-14.575
N3465 Y35.662 Z-15.
N3470 S10001
N3475 X174. F1000.
N3480 Y37.662
N3485 X176.
N3490 Y35.662
N3495 Z5.
N3500 X141.236
N3505 Z1. F500.
N3510 Z0.
N3515 S10000
N3520 X140.667 Z-0.121
N3525 Y37.662 Z-0.546
N3530 X142.667 Z-0.971
N3535 Y35.662 Z-1.396
N3540 X140.667 Z-1.821
N3545 Y37.662 Z-2.247
N3550 X142.667 Z-2.672
N3555 Y35.662 Z-3.097
N3560 X140.667 Z-3.522
N3565 Y37.662 Z-3.947
N3570 X142.667 Z-4.372
N3575 Y35.662 Z-4.797
N3580 X140.667 Z-5.222
N3585 Y37.662 Z-5.648
N3590 X142.667 Z-6.073
N3595 Y35.662 Z-6.498
N3600 X140.667 Z-6.923
N3605 Y37.662 Z-7.348
N3610 X142.667 Z-7.773
N3615 Y35.662 Z-8.198
N3620 X140.667 Z-8.623
N3625 Y37.662 Z-9.048
N3630 X142.667 Z-9.474
N3635 Y35.662 Z-9.899
N3640 X140.667 Z-10.324
N3645 Y37.662 Z-10.749
N3650 X142.667 Z-11.174
N3655 Y35.662 Z-11.599
N3660 X140.667 Z-12.024
N3665 Y37.662 Z-12.449
N3670 X142.667 Z-12.874
N3675 Y35.662 Z-13.3
N3680 X140.667 Z-13.725
N3685 Y37.662 Z-14.15
N3690 X142.667 Z-14.575
N3695 Y35.662 Z-15.
N3700 S10001
N3705 X140.667 F1000.
N3710 Y37.662
N3715 X142.667
N3720 Y35.662
N3725 Z5.
N3730 X140.667 Y70.426
N3735 Z1. F500.
N3740 Z0.
N3745 S10000
N3750 Y70.996 Z-0.121
N3755 X142.667 Z-0.546
N3760 Y68.996 Z-0.971
N3765 X140.667 Z-1.396
N3770 Y70.996 Z-1.821
N3775 X142.667 Z-2.247
N3780 Y68.996 Z-2.672
N3785 X140.667 Z-3.097
N3790 Y70.996 Z-3.522
N3795 X142.667 Z-3.947
N3800 Y68.996 Z-4.372
N3805 X140.667 Z-4.797
N3810 Y70.996 Z-5.222
N3815 X142.667 Z-5.648
N3820 Y68.996 Z-6.073
N3825 X140.667 Z-6.498
N3830 Y70.996 Z-6.923
N3835 X142.667 Z-7.348
N3840 Y68.996 Z-7.773
N3845 X140.667 Z-8.198
N3850 Y70.996 Z-8.623
N3855 X142.667 Z-9.048
N3860 Y68.996 Z-9.474
N3865 X140.667 Z-9.899
N3870 Y70.996 Z-10.324
N3875 X142.667 Z-10.749
N3880 Y68.996 Z-11.174
N3885 X140.667 Z-11.599
N3890 Y70.996 Z-12.024
N3895 X142.667 Z-12.449
N3900 Y68.996 Z-12.874
N3905 X140.667 Z-13.3
N3910 Y70.996 Z-13.725
N3915 X142.667 Z-14.15
N3920 Y68.996 Z-14.575
N3925 X140.667 Z-15.
N3930 S10001
N3935 Y70.996 F1000.
N3940 X142.667
N3945 Y68.996
N3950 X140.667
N3955 Z5.
N3960 X107.902
N3965 Z1. F500.
N3970 Z0.
N3975 S10000
N3980 X107.333 Z-0.121
N3985 Y70.996 Z-0.546
N3990 X109.333 Z-0.971
N3995 Y68.996 Z-1.396
N4000 X107.333 Z-1.821
N4005 Y70.996 Z-2.247
N4010 X109.333 Z-2.672
N4015 Y68.996 Z-3.097
N4020 X107.333 Z-3.522
N4025 Y70.996 Z-3.947
N4030 X109.333 Z-4.372
N4035 Y68.996 Z-4.797
N4040 X107.333 Z-5.222
N4045 Y70.996 Z-5.648
N4050 X109.333 Z-6.073
N4055 Y68.996 Z-6.498
N4060 X107.333 Z-6.923
N4065 Y70.996 Z-7.348
N4070 X109.333 Z-7.773
N4075 Y68.996 Z-8.198
N4080 X107.333 Z-8.623
N4085 Y70.996 Z-9.048
N4090 X109.333 Z-9.474
N4095 Y68.996 Z-9.899
N4100 X107.333 Z-10.324
N4105 Y70.996 Z-10.749
N4110 X109.333 Z-11.174
N4115 Y68.996 Z-11.599
N4120 X107.333 Z-12.024
N4125 Y70.996 Z-12.449
N4130 X109.333 Z-12.874
N4135 Y68.996 Z-13.3
N4140 X107.333 Z-13.725
N4145 Y70.996 Z-14.15
N4150 X109.333 Z-14.575
N4155 Y68.996 Z-15.
N4160 S10001
N4165 X107.333 F1000.
N4170 Y70.996
N4175 X109.333
N4180 Y68.996
N4185 Z5.
N4190 X107.902 Y35.662
N4195 Z1. F500.
N4200 Z0.
N4205 S10000
N4210 X107.333 Z-0.121
N4215 Y37.662 Z-0.546
N4220 X109.333 Z-0.971
N4225 Y35.662 Z-1.396
N4230 X107.333 Z-1.821
N4235 Y37.662 Z-2.247
N4240 X109.333 Z-2.672
N4245 Y35.662 Z-3.097
N4250 X107.333 Z-3.522
N4255 Y37.662 Z-3.947
N4260 X109.333 Z-4.372
N4265 Y35.662 Z-4.797
N4270 X107.333 Z-5.222
N4275 Y37.662 Z-5.648
N4280 X109.333 Z-6.073
N4285 Y35.662 Z-6.498
N4290 X107.333 Z-6.923
N4295 Y37.662 Z-7.348
N4300 X109.333 Z-7.773
N4305 Y35.662 Z-8.198
N4310 X107.333 Z-8.623
N4315 Y37.662 Z-9.048
N4320 X109.333 Z-9.474
N4325 Y35.662 Z-9.899
N4330 X107.333 Z-10.324
N4335 Y37.662 Z-10.749
N4340 X109.333 Z-11.174
N4345 Y35.662 Z-11.599
N4350 X107.333 Z-12.024
N4355 Y37.662 Z-12.449
N4360 X109.333 Z-12.874
N4365 Y35.662 Z-13.3
N4370 X107.333 Z-13.725
N4375 Y37.662 Z-14.15
N4380 X109.333 Z-14.575
N4385 Y35.662 Z-15.
N4390 S10001
N4395 X107.333 F1000.
N4400 Y37.662
N4405 X109.333
N4410 Y35.662
N4415 Z5.
N4420 X74.569
N4425 Z1. F500.
N4430 Z0.
N4435 S10000
N4440 X74. Z-0.121
N4445 Y37.662 Z-0.546
N4450 X76. Z-0.971
N4455 Y35.662 Z-1.396
N4460 X74. Z-1.821
N4465 Y37.662 Z-2.247
N4470 X76. Z-2.672
N4475 Y35.662 Z-3.097
N4480 X74. Z-3.522
N4485 Y37.662 Z-3.947
N4490 X76. Z-4.372
N4495 Y35.662 Z-4.797
N4500 X74. Z-5.222
N4505 Y37.662 Z-5.648
N4510 X76. Z-6.073
N4515 Y35.662 Z-6.498
N4520 X74. Z-6.923
N4525 Y37.662 Z-7.348
N4530 X76. Z-7.773
N4535 Y35.662 Z-8.198
N4540 X74. Z-8.623
N4545 Y37.662 Z-9.048
N4550 X76. Z-9.474
N4555 Y35.662 Z-9.899
N4560 X74. Z-10.324
N4565 Y37.662 Z-10.749
N4570 X76. Z-11.174
N4575 Y35.662 Z-11.599
N4580 X74. Z-12.024
N4585 Y37.662 Z-12.449
N4590 X76. Z-12.874
N4595 Y35.662 Z-13.3
N4600 X74. Z-13.725
N4605 Y37.662 Z-14.15
N4610 X76. Z-14.575
N4615 Y35.662 Z-15.
N4620 S10001
N4625 X74. F1000.
N4630 Y37.662
N4635 X76.
N4640 Y35.662
N4645 Z5.
N4650 X75.431 Y70.996
N4655 Z1. F500.
N4660 Z0.
N4665 S10000
N4670 X76. Z-0.121
N4675 Y68.996 Z-0.546
N4680 X74. Z-0.971
N4685 Y70.996 Z-1.396
N4690 X76. Z-1.821
N4695 Y68.996 Z-2.247
N4700 X74. Z-2.672
N4705 Y70.996 Z-3.097
N4710 X76. Z-3.522
N4715 Y68.996 Z-3.947
N4720 X74. Z-4.372
N4725 Y70.996 Z-4.797
N4730 X76. Z-5.222
N4735 Y68.996 Z-5.648
N4740 X74. Z-6.073
N4745 Y70.996 Z-6.498
N4750 X76. Z-6.923
N4755 Y68.996 Z-7.348
N4760 X74. Z-7.773
N4765 Y70.996 Z-8.198
N4770 X76. Z-8.623
N4775 Y68.996 Z-9.048
N4780 X74. Z-9.474
N4785 Y70.996 Z-9.899
N4790 X76. Z-10.324
N4795 Y68.996 Z-10.749
N4800 X74. Z-11.174
N4805 Y70.996 Z-11.599
N4810 X76. Z-12.024
N4815 Y68.996 Z-12.449
N4820 X74. Z-12.874
N4825 Y70.996 Z-13.3
N4830 X76. Z-13.725
N4835 Y68.996 Z-14.15
N4840 X74. Z-14.575
N4845 Y70.996 Z-15.
N4850 S10001
N4855 X76. F1000.
N4860 Y68.996
N4865 X74.
N4870 Y70.996
N4875 Z5.
N4880 X75.432 Y104.329
N4885 Z1. F500.
N4890 Z0.
N4895 S10000
N4900 X76. Z-0.121
N4905 Y102.329 Z-0.546
N4910 X74. Z-0.971
N4915 Y104.329 Z-1.396
N4920 X76. Z-1.821
N4925 Y102.329 Z-2.246
N4930 X74. Z-2.671
N4935 Y104.329 Z-3.097
N4940 X76. Z-3.522
N4945 Y102.329 Z-3.947
N4950 X74. Z-4.372
N4955 Y104.329 Z-4.797
N4960 X76. Z-5.222
N4965 Y102.329 Z-5.647
N4970 X74. Z-6.072
N4975 Y104.329 Z-6.498
N4980 X76. Z-6.923
N4985 Y102.329 Z-7.348
N4990 X74. Z-7.773
N4995 Y104.329 Z-8.198
N5000 X76. Z-8.623
N5005 Y102.329 Z-9.048
N5010 X74. Z-9.473
N5015 Y104.329 Z-9.899
N5020 X76. Z-10.324
N5025 Y102.329 Z-10.749
N5030 X74. Z-11.174
N5035 Y104.329 Z-11.599
N5040 X76. Z-12.024
N5045 Y102.329 Z-12.449
N5050 X74. Z-12.874
N5055 Y104.329 Z-13.3
N5060 X76. Z-13.725
N5065 Y102.329 Z-14.15
N5070 X74. Z-14.575
N5075 Y104.329 Z-15.
N5080 S10001
N5085 X76. F1000.
N5090 Y102.329
N5095 X74.
N5100 Y104.329
N5105 Z5.
N5110 X74.431 Y137.662
N5115 Z1. F500.
N5120 Z0.
N5125 S10000
N5130 X76. Z-0.334
N5135 Y135.662 Z-0.759
N5140 X74. Z-1.184
N5145 Y137.662 Z-1.609
N5150 X76. Z-2.034
N5155 Y135.662 Z-2.459
N5160 X74. Z-2.884
N5165 Y137.662 Z-3.309
N5170 X76. Z-3.734
N5175 Y135.662 Z-4.16
N5180 X74. Z-4.585
N5185 Y137.662 Z-5.01
N5190 X76. Z-5.435
N5195 Y135.662 Z-5.86
N5200 X74. Z-6.285
N5205 Y137.662 Z-6.71
N5210 X76. Z-7.135
N5215 Y135.662 Z-7.56
N5220 X74. Z-7.986
N5225 Y137.662 Z-8.411
N5230 X76. Z-8.836
N5235 Y135.662 Z-9.261
N5240 X74. Z-9.686
N5245 Y137.662 Z-10.111
N5250 X76. Z-10.536
N5255 Y135.662 Z-10.961
N5260 X74. Z-11.386
N5265 Y137.662 Z-11.812
N5270 X76. Z-12.237
N5275 Y135.662 Z-12.662
N5280 X74. Z-13.087
N5285 Y137.662 Z-13.512
N5290 X76. Z-13.937
N5295 Y135.662 Z-14.362
N5300 X74. Z-14.787
N5305 Y136.662 Z-15.
N5310 S10001
N5315 Y137.662 F1000.
N5320 X76.
N5325 Y135.662
N5330 X74.
N5335 Y136.662
N5340 Z5.
N5345 Y170.427
N5350 Z1. F500.
N5355 Z0.
N5360 S10000
N5365 Y170.996 Z-0.121
N5370 X76. Z-0.546
N5375 Y168.996 Z-0.971
N5380 X74. Z-1.396
N5385 Y170.996 Z-1.821
N5390 X76. Z-2.247
N5395 Y168.996 Z-2.672
N5400 X74. Z-3.097
N5405 Y170.996 Z-3.522
N5410 X76. Z-3.947
N5415 Y168.996 Z-4.372
N5420 X74. Z-4.797
N5425 Y170.996 Z-5.222
N5430 X76. Z-5.648
N5435 Y168.996 Z-6.073
N5440 X74. Z-6.498
N5445 Y170.996 Z-6.923
N5450 X76. Z-7.348
N5455 Y168.996 Z-7.773
N5460 X74. Z-8.198
N5465 Y170.996 Z-8.623
N5470 X76. Z-9.048
N5475 Y168.996 Z-9.474
N5480 X74. Z-9.899
N5485 Y170.996 Z-10.324
N5490 X76. Z-10.749
N5495 Y168.996 Z-11.174
N5500 X74. Z-11.599
N5505 Y170.996 Z-12.024
N5510 X76. Z-12.449
N5515 Y168.996 Z-12.874
N5520 X74. Z-13.3
N5525 Y170.996 Z-13.725
N5530 X76. Z-14.15
N5535 Y168.996 Z-14.575
N5540 X74. Z-15.
N5545 S10001
N5550 Y170.996 F1000.
N5555 X76.
N5560 Y168.996
N5565 X74.
N5570 Z5.
N5575 X107.902
N5580 Z1. F500.
N5585 Z0.
N5590 S10000
N5595 X107.333 Z-0.121
N5600 Y170.996 Z-0.546
N5605 X109.333 Z-0.971
N5610 Y168.996 Z-1.396
N5615 X107.333 Z-1.821
N5620 Y170.996 Z-2.247
N5625 X109.333 Z-2.672
N5630 Y168.996 Z-3.097
N5635 X107.333 Z-3.522
N5640 Y170.996 Z-3.947
N5645 X109.333 Z-4.372
N5650 Y168.996 Z-4.797
N5655 X107.333 Z-5.222
N5660 Y170.996 Z-5.648
N5665 X109.333 Z-6.073
N5670 Y168.996 Z-6.498
N5675 X107.333 Z-6.923
N5680 Y170.996 Z-7.348
N5685 X109.333 Z-7.773
N5690 Y168.996 Z-8.198
N5695 X107.333 Z-8.623
N5700 Y170.996 Z-9.048
N5705 X109.333 Z-9.474
N5710 Y168.996 Z-9.899
N5715 X107.333 Z-10.324
N5720 Y170.996 Z-10.749
N5725 X109.333 Z-11.174
N5730 Y168.996 Z-11.599
N5735 X107.333 Z-12.024
N5740 Y170.996 Z-12.449
N5745 X109.333 Z-12.874
N5750 Y168.996 Z-13.3
N5755 X107.333 Z-13.725
N5760 Y170.996 Z-14.15
N5765 X109.333 Z-14.575
N5770 Y168.996 Z-15.
N5775 S10001
N5780 X107.333 F1000.
N5785 Y170.996
N5790 X109.333
N5795 Y168.996
N5800 Z5.
N5805 X140.667 Y170.427
N5810 Z1. F500.
N5815 Z0.
N5820 S10000
N5825 Y170.996 Z-0.121
N5830 X142.667 Z-0.546
N5835 Y168.996 Z-0.971
N5840 X140.667 Z-1.396
N5845 Y170.996 Z-1.821
N5850 X142.667 Z-2.247
N5855 Y168.996 Z-2.672
N5860 X140.667 Z-3.097
N5865 Y170.996 Z-3.522
N5870 X142.667 Z-3.947
N5875 Y168.996 Z-4.372
N5880 X140.667 Z-4.797
N5885 Y170.996 Z-5.222
N5890 X142.667 Z-5.648
N5895 Y168.996 Z-6.073
N5900 X140.667 Z-6.498
N5905 Y170.996 Z-6.923
N5910 X142.667 Z-7.348
N5915 Y168.996 Z-7.773
N5920 X140.667 Z-8.198
N5925 Y170.996 Z-8.623
N5930 X142.667 Z-9.048
N5935 Y168.996 Z-9.474
N5940 X140.667 Z-9.899
N5945 Y170.996 Z-10.324
N5950 X142.667 Z-10.749
N5955 Y168.996 Z-11.174
N5960 X140.667 Z-11.599
N5965 Y170.996 Z-12.024
N5970 X142.667 Z-12.449
N5975 Y168.996 Z-12.874
N5980 X140.667 Z-13.3
N5985 Y170.996 Z-13.725
N5990 X142.667 Z-14.15
N5995 Y168.996 Z-14.575
N6000 X140.667 Z-15.
N6005 S10001
N6010 Y170.996 F1000.
N6015 X142.667
N6020 Y168.996
N6025 X140.667
N6030 Z5.
N6035 X142.098 Y137.662
N6040 Z1. F500.
N6045 Z0.
N6050 S10000
N6055 X142.667 Z-0.121
N6060 Y135.662 Z-0.546
N6065 X140.667 Z-0.971
N6070 Y137.662 Z-1.396
N6075 X142.667 Z-1.821
N6080 Y135.662 Z-2.247
N6085 X140.667 Z-2.672
N6090 Y137.662 Z-3.097
N6095 X142.667 Z-3.522
N6100 Y135.662 Z-3.947
N6105 X140.667 Z-4.372
N6110 Y137.662 Z-4.797
N6115 X142.667 Z-5.222
N6120 Y135.662 Z-5.648
N6125 X140.667 Z-6.073
N6130 Y137.662 Z-6.498
N6135 X142.667 Z-6.923
N6140 Y135.662 Z-7.348
N6145 X140.667 Z-7.773
N6150 Y137.662 Z-8.198
N6155 X142.667 Z-8.623
N6160 Y135.662 Z-9.048
N6165 X140.667 Z-9.474
N6170 Y137.662 Z-9.899
N6175 X142.667 Z-10.324
N6180 Y135.662 Z-10.749
N6185 X140.667 Z-11.174
N6190 Y137.662 Z-11.599
N6195 X142.667 Z-12.024
N6200 Y135.662 Z-12.449
N6205 X140.667 Z-12.874
N6210 Y137.662 Z-13.3
N6215 X142.667 Z-13.725
N6220 Y135.662 Z-14.15
N6225 X140.667 Z-14.575
N6230 Y137.662 Z-15.
N6235 S10001
N6240 X142.667 F1000.
N6245 Y135.662
N6250 X140.667
N6255 Y137.662
N6260 Z5.
N6265 X109.333 Y136.231
N6270 Z1. F500.
N6275 Z0.
N6280 S10000
N6285 Y135.662 Z-0.121
N6290 X107.333 Z-0.546
N6295 Y137.662 Z-0.971
N6300 X109.333 Z-1.396
N6305 Y135.662 Z-1.821
N6310 X107.333 Z-2.247
N6315 Y137.662 Z-2.672
N6320 X109.333 Z-3.097
N6325 Y135.662 Z-3.522
N6330 X107.333 Z-3.947
N6335 Y137.662 Z-4.372
N6340 X109.333 Z-4.797
N6345 Y135.662 Z-5.222
N6350 X107.333 Z-5.648
N6355 Y137.662 Z-6.073
N6360 X109.333 Z-6.498
N6365 Y135.662 Z-6.923
N6370 X107.333 Z-7.348
N6375 Y137.662 Z-7.773
N6380 X109.333 Z-8.198
N6385 Y135.662 Z-8.623
N6390 X107.333 Z-9.048
N6395 Y137.662 Z-9.474
N6400 X109.333 Z-9.899
N6405 Y135.662 Z-10.324
N6410 X107.333 Z-10.749
N6415 Y137.662 Z-11.174
N6420 X109.333 Z-11.599
N6425 Y135.662 Z-12.024
N6430 X107.333 Z-12.449
N6435 Y137.662 Z-12.874
N6440 X109.333 Z-13.3
N6445 Y135.662 Z-13.725
N6450 X107.333 Z-14.15
N6455 Y137.662 Z-14.575
N6460 X109.333 Z-15.
N6465 S10001
N6470 Y135.662 F1000.
N6475 X107.333
N6480 Y137.662
N6485 X109.333
N6490 Z5.
N6495 X107.901 Y102.329
N6500 Z1. F500.
N6505 Z0.
N6510 S10000
N6515 X107.333 Z-0.121
N6520 Y104.329 Z-0.546
N6525 X109.333 Z-0.971
N6530 Y102.329 Z-1.396
N6535 X107.333 Z-1.821
N6540 Y104.329 Z-2.246
N6545 X109.333 Z-2.671
N6550 Y102.329 Z-3.097
N6555 X107.333 Z-3.522
N6560 Y104.329 Z-3.947
N6565 X109.333 Z-4.372
N6570 Y102.329 Z-4.797
N6575 X107.333 Z-5.222
N6580 Y104.329 Z-5.647
N6585 X109.333 Z-6.072
N6590 Y102.329 Z-6.498
N6595 X107.333 Z-6.923
N6600 Y104.329 Z-7.348
N6605 X109.333 Z-7.773
N6610 Y102.329 Z-8.198
N6615 X107.333 Z-8.623
N6620 Y104.329 Z-9.048
N6625 X109.333 Z-9.473
N6630 Y102.329 Z-9.899
N6635 X107.333 Z-10.324
N6640 Y104.329 Z-10.749
N6645 X109.333 Z-11.174
N6650 Y102.329 Z-11.599
N6655 X107.333 Z-12.024
N6660 Y104.329 Z-12.449
N6665 X109.333 Z-12.874
N6670 Y102.329 Z-13.3
N6675 X107.333 Z-13.725
N6680 Y104.329 Z-14.15
N6685 X109.333 Z-14.575
N6690 Y102.329 Z-15.
N6695 S10001
N6700 X107.333 F1000.
N6705 Y104.329
N6710 X109.333
N6715 Y102.329
N6720 Z5.
N6725 X140.667 Y103.761
N6730 Z1. F500.
N6735 Z0.
N6740 S10000
N6745 Y104.329 Z-0.121
N6750 X142.667 Z-0.546
N6755 Y102.329 Z-0.971
N6760 X140.667 Z-1.396
N6765 Y104.329 Z-1.821
N6770 X142.667 Z-2.246
N6775 Y102.329 Z-2.671
N6780 X140.667 Z-3.097
N6785 Y104.329 Z-3.522
N6790 X142.667 Z-3.947
N6795 Y102.329 Z-4.372
N6800 X140.667 Z-4.797
N6805 Y104.329 Z-5.222
N6810 X142.667 Z-5.647
N6815 Y102.329 Z-6.072
N6820 X140.667 Z-6.498
N6825 Y104.329 Z-6.923
N6830 X142.667 Z-7.348
N6835 Y102.329 Z-7.773
N6840 X140.667 Z-8.198
N6845 Y104.329 Z-8.623
N6850 X142.667 Z-9.048
N6855 Y102.329 Z-9.473
N6860 X140.667 Z-9.899
N6865 Y104.329 Z-10.324
N6870 X142.667 Z-10.749
N6875 Y102.329 Z-11.174
N6880 X140.667 Z-11.599
N6885 Y104.329 Z-12.024
N6890 X142.667 Z-12.449
N6895 Y102.329 Z-12.874
N6900 X140.667 Z-13.3
N6905 Y104.329 Z-13.725
N6910 X142.667 Z-14.15
N6915 Y102.329 Z-14.575
N6920 X140.667 Z-15.
N6925 S10001
N6930 Y104.329 F1000.
N6935 X142.667
N6940 Y102.329
N6945 X140.667
N6950 Z5.
N6955 X174.568
N6960 Z1. F500.
N6965 Z0.
N6970 S10000
N6975 X174. Z-0.121
N6980 Y104.329 Z-0.546
N6985 X176. Z-0.971
N6990 Y102.329 Z-1.396
N6995 X174. Z-1.821
N7000 Y104.329 Z-2.246
N7005 X176. Z-2.671
N7010 Y102.329 Z-3.097
N7015 X174. Z-3.522
N7020 Y104.329 Z-3.947
N7025 X176. Z-4.372
N7030 Y102.329 Z-4.797
N7035 X174. Z-5.222
N7040 Y104.329 Z-5.647
N7045 X176. Z-6.072
N7050 Y102.329 Z-6.498
N7055 X174. Z-6.923
N7060 Y104.329 Z-7.348
N7065 X176. Z-7.773
N7070 Y102.329 Z-8.198
N7075 X174. Z-8.623
N7080 Y104.329 Z-9.048
N7085 X176. Z-9.473
N7090 Y102.329 Z-9.899
N7095 X174. Z-10.324
N7100 Y104.329 Z-10.749
N7105 X176. Z-11.174
N7110 Y102.329 Z-11.599
N7115 X174. Z-12.024
N7120 Y104.329 Z-12.449
N7125 X176. Z-12.874
N7130 Y102.329 Z-13.3
N7135 X174. Z-13.725
N7140 Y104.329 Z-14.15
N7145 X176. Z-14.575
N7150 Y102.329 Z-15.
N7155 S10001
N7160 X174. F1000.
N7165 Y104.329
N7170 X176.
N7175 Y102.329
N7180 Z5.
N7185 X207.901
N7190 Z1. F500.
N7195 Z0.
N7200 S10000
N7205 X207.333 Z-0.121
N7210 Y104.329 Z-0.546
N7215 X209.333 Z-0.971
N7220 Y102.329 Z-1.396
N7225 X207.333 Z-1.821
N7230 Y104.329 Z-2.246
N7235 X209.333 Z-2.671
N7240 Y102.329 Z-3.097
N7245 X207.333 Z-3.522
N7250 Y104.329 Z-3.947
N7255 X209.333 Z-4.372
N7260 Y102.329 Z-4.797
N7265 X207.333 Z-5.222
N7270 Y104.329 Z-5.647
N7275 X209.333 Z-6.072
N7280 Y102.329 Z-6.498
N7285 X207.333 Z-6.923
N7290 Y104.329 Z-7.348
N7295 X209.333 Z-7.773
N7300 Y102.329 Z-8.198
N7305 X207.333 Z-8.623
N7310 Y104.329 Z-9.048
N7315 X209.333 Z-9.473
N7320 Y102.329 Z-9.899
N7325 X207.333 Z-10.324
N7330 Y104.329 Z-10.749
N7335 X209.333 Z-11.174
N7340 Y102.329 Z-11.599
N7345 X207.333 Z-12.024
N7350 Y104.329 Z-12.449
N7355 X209.333 Z-12.874
N7360 Y102.329 Z-13.3
N7365 X207.333 Z-13.725
N7370 Y104.329 Z-14.15
N7375 X209.333 Z-14.575
N7380 Y102.329 Z-15.
N7385 S10001
N7390 X207.333 F1000.
N7395 Y104.329
N7400 X209.333
N7405 Y102.329
N7410 Z5.
N7415 X240.667 Y103.761
N7420 Z1. F500.
N7425 Z0.
N7430 S10000
N7435 Y104.329 Z-0.121
N7440 X242.667 Z-0.546
N7445 Y102.329 Z-0.971
N7450 X240.667 Z-1.396
N7455 Y104.329 Z-1.821
N7460 X242.667 Z-2.246
N7465 Y102.329 Z-2.671
N7470 X240.667 Z-3.097
N7475 Y104.329 Z-3.522
N7480 X242.667 Z-3.947
N7485 Y102.329 Z-4.372
N7490 X240.667 Z-4.797
N7495 Y104.329 Z-5.222
N7500 X242.667 Z-5.647
N7505 Y102.329 Z-6.072
N7510 X240.667 Z-6.498
N7515 Y104.329 Z-6.923
N7520 X242.667 Z-7.348
N7525 Y102.329 Z-7.773
N7530 X240.667 Z-8.198
N7535 Y104.329 Z-8.623
N7540 X242.667 Z-9.048
N7545 Y102.329 Z-9.473
N7550 X240.667 Z-9.899
N7555 Y104.329 Z-10.324
N7560 X242.667 Z-10.749
N7565 Y102.329 Z-11.174
N7570 X240.667 Z-11.599
N7575 Y104.329 Z-12.024
N7580 X242.667 Z-12.449
N7585 Y102.329 Z-12.874
N7590 X240.667 Z-13.3
N7595 Y104.329 Z-13.725
N7600 X242.667 Z-14.15
N7605 Y102.329 Z-14.575
N7610 X240.667 Z-15.
N7615 S10001
N7620 Y104.329 F1000.
N7625 X242.667
N7630 Y102.329
N7635 X240.667
N7640 Z5.
N7645 X274.568
N7650 Z1. F500.
N7655 Z0.
N7660 S10000
N7665 X274. Z-0.121
N7670 Y104.329 Z-0.546
N7675 X276. Z-0.971
N7680 Y102.329 Z-1.396
N7685 X274. Z-1.821
N7690 Y104.329 Z-2.246
N7695 X276. Z-2.671
N7700 Y102.329 Z-3.097
N7705 X274. Z-3.522
N7710 Y104.329 Z-3.947
N7715 X276. Z-4.372
N7720 Y102.329 Z-4.797
N7725 X274. Z-5.222
N7730 Y104.329 Z-5.647
N7735 X276. Z-6.072
N7740 Y102.329 Z-6.498
N7745 X274. Z-6.923
N7750 Y104.329 Z-7.348
N7755 X276. Z-7.773
N7760 Y102.329 Z-8.198
N7765 X274. Z-8.623
N7770 Y104.329 Z-9.048
N7775 X276. Z-9.473
N7780 Y102.329 Z-9.899
N7785 X274. Z-10.324
N7790 Y104.329 Z-10.749
N7795 X276. Z-11.174
N7800 Y102.329 Z-11.599
N7805 X274. Z-12.024
N7810 Y104.329 Z-12.449
N7815 X276. Z-12.874
N7820 Y102.329 Z-13.3
N7825 X274. Z-13.725
N7830 Y104.329 Z-14.15
N7835 X276. Z-14.575
N7840 Y102.329 Z-15.
N7845 S10001
N7850 X274. F1000.
N7855 Y104.329
N7860 X276.
N7865 Y102.329
N7870 Z5.
N7875 X307.901
N7880 Z1. F500.
N7885 Z0.
N7890 S10000
N7895 X307.333 Z-0.121
N7900 Y104.329 Z-0.546
N7905 X309.333 Z-0.971
N7910 Y102.329 Z-1.396
N7915 X307.333 Z-1.821
N7920 Y104.329 Z-2.246
N7925 X309.333 Z-2.671
N7930 Y102.329 Z-3.097
N7935 X307.333 Z-3.522
N7940 Y104.329 Z-3.947
N7945 X309.333 Z-4.372
N7950 Y102.329 Z-4.797
N7955 X307.333 Z-5.222
N7960 Y104.329 Z-5.647
N7965 X309.333 Z-6.072
N7970 Y102.329 Z-6.498
N7975 X307.333 Z-6.923
N7980 Y104.329 Z-7.348
N7985 X309.333 Z-7.773
N7990 Y102.329 Z-8.198
N7995 X307.333 Z-8.623
N8000 Y104.329 Z-9.048
N8005 X309.333 Z-9.473
N8010 Y102.329 Z-9.899
N8015 X307.333 Z-10.324
N8020 Y104.329 Z-10.749
N8025 X309.333 Z-11.174
N8030 Y102.329 Z-11.599
N8035 X307.333 Z-12.024
N8040 Y104.329 Z-12.449
N8045 X309.333 Z-12.874
N8050 Y102.329 Z-13.3
N8055 X307.333 Z-13.725
N8060 Y104.329 Z-14.15
N8065 X309.333 Z-14.575
N8070 Y102.329 Z-15.
N8075 S10001
N8080 X307.333 F1000.
N8085 Y104.329
N8090 X309.333
N8095 Y102.329
N8100 Z5.
N8105 X307.902 Y68.996
N8110 Z1. F500.
N8115 Z0.
N8120 S10000
N8125 X307.333 Z-0.121
N8130 Y70.996 Z-0.546
N8135 X309.333 Z-0.971
N8140 Y68.996 Z-1.396
N8145 X307.333 Z-1.821
N8150 Y70.996 Z-2.247
N8155 X309.333 Z-2.672
N8160 Y68.996 Z-3.097
N8165 X307.333 Z-3.522
N8170 Y70.996 Z-3.947
N8175 X309.333 Z-4.372
N8180 Y68.996 Z-4.797
N8185 X307.333 Z-5.222
N8190 Y70.996 Z-5.648
N8195 X309.333 Z-6.073
N8200 Y68.996 Z-6.498
N8205 X307.333 Z-6.923
N8210 Y70.996 Z-7.348
N8215 X309.333 Z-7.773
N8220 Y68.996 Z-8.198
N8225 X307.333 Z-8.623
N8230 Y70.996 Z-9.048
N8235 X309.333 Z-9.474
N8240 Y68.996 Z-9.899
N8245 X307.333 Z-10.324
N8250 Y70.996 Z-10.749
N8255 X309.333 Z-11.174
N8260 Y68.996 Z-11.599
N8265 X307.333 Z-12.024
N8270 Y70.996 Z-12.449
N8275 X309.333 Z-12.874
N8280 Y68.996 Z-13.3
N8285 X307.333 Z-13.725
N8290 Y70.996 Z-14.15
N8295 X309.333 Z-14.575
N8300 Y68.996 Z-15.
N8305 S10001
N8310 X307.333 F1000.
N8315 Y70.996
N8320 X309.333
N8325 Y68.996
N8330 Z5.
N8335 X274.569
N8340 Z1. F500.
N8345 Z0.
N8350 S10000
N8355 X274. Z-0.121
N8360 Y70.996 Z-0.546
N8365 X276. Z-0.971
N8370 Y68.996 Z-1.396
N8375 X274. Z-1.821
N8380 Y70.996 Z-2.247
N8385 X276. Z-2.672
N8390 Y68.996 Z-3.097
N8395 X274. Z-3.522
N8400 Y70.996 Z-3.947
N8405 X276. Z-4.372
N8410 Y68.996 Z-4.797
N8415 X274. Z-5.222
N8420 Y70.996 Z-5.648
N8425 X276. Z-6.073
N8430 Y68.996 Z-6.498
N8435 X274. Z-6.923
N8440 Y70.996 Z-7.348
N8445 X276. Z-7.773
N8450 Y68.996 Z-8.198
N8455 X274. Z-8.623
N8460 Y70.996 Z-9.048
N8465 X276. Z-9.474
N8470 Y68.996 Z-9.899
N8475 X274. Z-10.324
N8480 Y70.996 Z-10.749
N8485 X276. Z-11.174
N8490 Y68.996 Z-11.599
N8495 X274. Z-12.024
N8500 Y70.996 Z-12.449
N8505 X276. Z-12.874
N8510 Y68.996 Z-13.3
N8515 X274. Z-13.725
N8520 Y70.996 Z-14.15
N8525 X276. Z-14.575
N8530 Y68.996 Z-15.
N8535 S10001
N8540 X274. F1000.
N8545 Y70.996
N8550 X276.
N8555 Y68.996
N8560 Z5.
N8565 X242.098 Y137.662
N8570 Z1. F500.
N8575 Z0.
N8580 S10000
N8585 X242.667 Z-0.121
N8590 Y135.662 Z-0.546
N8595 X240.667 Z-0.971
N8600 Y137.662 Z-1.396
N8605 X242.667 Z-1.821
N8610 Y135.662 Z-2.247
N8615 X240.667 Z-2.672
N8620 Y137.662 Z-3.097
N8625 X242.667 Z-3.522
N8630 Y135.662 Z-3.947
N8635 X240.667 Z-4.372
N8640 Y137.662 Z-4.797
N8645 X242.667 Z-5.222
N8650 Y135.662 Z-5.648
N8655 X240.667 Z-6.073
N8660 Y137.662 Z-6.498
N8665 X242.667 Z-6.923
N8670 Y135.662 Z-7.348
N8675 X240.667 Z-7.773
N8680 Y137.662 Z-8.198
N8685 X242.667 Z-8.623
N8690 Y135.662 Z-9.048
N8695 X240.667 Z-9.474
N8700 Y137.662 Z-9.899
N8705 X242.667 Z-10.324
N8710 Y135.662 Z-10.749
N8715 X240.667 Z-11.174
N8720 Y137.662 Z-11.599
N8725 X242.667 Z-12.024
N8730 Y135.662 Z-12.449
N8735 X240.667 Z-12.874
N8740 Y137.662 Z-13.3
N8745 X242.667 Z-13.725
N8750 Y135.662 Z-14.15
N8755 X240.667 Z-14.575
N8760 Y137.662 Z-15.
N8765 S10001
N8770 X242.667 F1000.
N8775 Y135.662
N8780 X240.667
N8785 Y137.662
N8790 Z5.
N8795 X209.333 Y136.231
N8800 Z1. F500.
N8805 Z0.
N8810 S10000
N8815 Y135.662 Z-0.121
N8820 X207.333 Z-0.546
N8825 Y137.662 Z-0.971
N8830 X209.333 Z-1.396
N8835 Y135.662 Z-1.821
N8840 X207.333 Z-2.247
N8845 Y137.662 Z-2.672
N8850 X209.333 Z-3.097
N8855 Y135.662 Z-3.522
N8860 X207.333 Z-3.947
N8865 Y137.662 Z-4.372
N8870 X209.333 Z-4.797
N8875 Y135.662 Z-5.222
N8880 X207.333 Z-5.648
N8885 Y137.662 Z-6.073
N8890 X209.333 Z-6.498
N8895 Y135.662 Z-6.923
N8900 X207.333 Z-7.348
N8905 Y137.662 Z-7.773
N8910 X209.333 Z-8.198
N8915 Y135.662 Z-8.623
N8920 X207.333 Z-9.048
N8925 Y137.662 Z-9.474
N8930 X209.333 Z-9.899
N8935 Y135.662 Z-10.324
N8940 X207.333 Z-10.749
N8945 Y137.662 Z-11.174
N8950 X209.333 Z-11.599
N8955 Y135.662 Z-12.024
N8960 X207.333 Z-12.449
N8965 Y137.662 Z-12.874
N8970 X209.333 Z-13.3
N8975 Y135.662 Z-13.725
N8980 X207.333 Z-14.15
N8985 Y137.662 Z-14.575
N8990 X209.333 Z-15.
N8995 S10001
N9000 Y135.662 F1000.
N9005 X207.333
N9010 Y137.662
N9015 X209.333
N9020 Z5.
N9025 X207.902 Y168.996
N9030 Z1. F500.
N9035 Z0.
N9040 S10000
N9045 X207.333 Z-0.121
N9050 Y170.996 Z-0.546
N9055 X209.333 Z-0.971
N9060 Y168.996 Z-1.396
N9065 X207.333 Z-1.821
N9070 Y170.996 Z-2.247
N9075 X209.333 Z-2.672
N9080 Y168.996 Z-3.097
N9085 X207.333 Z-3.522
N9090 Y170.996 Z-3.947
N9095 X209.333 Z-4.372
N9100 Y168.996 Z-4.797
N9105 X207.333 Z-5.222
N9110 Y170.996 Z-5.648
N9115 X209.333 Z-6.073
N9120 Y168.996 Z-6.498
N9125 X207.333 Z-6.923
N9130 Y170.996 Z-7.348
N9135 X209.333 Z-7.773
N9140 Y168.996 Z-8.198
N9145 X207.333 Z-8.623
N9150 Y170.996 Z-9.048
N9155 X209.333 Z-9.474
N9160 Y168.996 Z-9.899
N9165 X207.333 Z-10.324
N9170 Y170.996 Z-10.749
N9175 X209.333 Z-11.174
N9180 Y168.996 Z-11.599
N9185 X207.333 Z-12.024
N9190 Y170.996 Z-12.449
N9195 X209.333 Z-12.874
N9200 Y168.996 Z-13.3
N9205 X207.333 Z-13.725
N9210 Y170.996 Z-14.15
N9215 X209.333 Z-14.575
N9220 Y168.996 Z-15.
N9225 S10001
N9230 X207.333 F1000.
N9235 Y170.996
N9240 X209.333
N9245 Y168.996
N9250 Z5.
N9255 X240.667 Y170.427
N9260 Z1. F500.
N9265 Z0.
N9270 S10000
N9275 Y170.996 Z-0.121
N9280 X242.667 Z-0.546
N9285 Y168.996 Z-0.971
N9290 X240.667 Z-1.396
N9295 Y170.996 Z-1.821
N9300 X242.667 Z-2.247
N9305 Y168.996 Z-2.672
N9310 X240.667 Z-3.097
N9315 Y170.996 Z-3.522
N9320 X242.667 Z-3.947
N9325 Y168.996 Z-4.372
N9330 X240.667 Z-4.797
N9335 Y170.996 Z-5.222
N9340 X242.667 Z-5.648
N9345 Y168.996 Z-6.073
N9350 X240.667 Z-6.498
N9355 Y170.996 Z-6.923
N9360 X242.667 Z-7.348
N9365 Y168.996 Z-7.773
N9370 X240.667 Z-8.198
N9375 Y170.996 Z-8.623
N9380 X242.667 Z-9.048
N9385 Y168.996 Z-9.474
N9390 X240.667 Z-9.899
N9395 Y170.996 Z-10.324
N9400 X242.667 Z-10.749
N9405 Y168.996 Z-11.174
N9410 X240.667 Z-11.599
N9415 Y170.996 Z-12.024
N9420 X242.667 Z-12.449
N9425 Y168.996 Z-12.874
N9430 X240.667 Z-13.3
N9435 Y170.996 Z-13.725
N9440 X242.667 Z-14.15
N9445 Y168.996 Z-14.575
N9450 X240.667 Z-15.
N9455 S10001
N9460 Y170.996 F1000.
N9465 X242.667
N9470 Y168.996
N9475 X240.667
N9480 Z5.
N9485 X274.569
N9490 Z1. F500.
N9495 Z0.
N9500 S10000
N9505 X274. Z-0.121
N9510 Y170.996 Z-0.546
N9515 X276. Z-0.971
N9520 Y168.996 Z-1.396
N9525 X274. Z-1.821
N9530 Y170.996 Z-2.247
N9535 X276. Z-2.672
N9540 Y168.996 Z-3.097
N9545 X274. Z-3.522
N9550 Y170.996 Z-3.947
N9555 X276. Z-4.372
N9560 Y168.996 Z-4.797
N9565 X274. Z-5.222
N9570 Y170.996 Z-5.648
N9575 X276. Z-6.073
N9580 Y168.996 Z-6.498
N9585 X274. Z-6.923
N9590 Y170.996 Z-7.348
N9595 X276. Z-7.773
N9600 Y168.996 Z-8.198
N9605 X274. Z-8.623
N9610 Y170.996 Z-9.048
N9615 X276. Z-9.474
N9620 Y168.996 Z-9.899
N9625 X274. Z-10.324
N9630 Y170.996 Z-10.749
N9635 X276. Z-11.174
N9640 Y168.996 Z-11.599
N9645 X274. Z-12.024
N9650 Y170.996 Z-12.449
N9655 X276. Z-12.874
N9660 Y168.996 Z-13.3
N9665 X274. Z-13.725
N9670 Y170.996 Z-14.15
N9675 X276. Z-14.575
N9680 Y168.996 Z-15.
N9685 S10001
N9690 X274. F1000.
N9695 Y170.996
N9700 X276.
N9705 Y168.996
N9710 Z5.
N9715 X274.569 Y202.329
N9720 Z1. F500.
N9725 Z0.
N9730 S10000
N9735 X274. Z-0.121
N9740 Y204.329 Z-0.546
N9745 X276. Z-0.971
N9750 Y202.329 Z-1.396
N9755 X274. Z-1.821
N9760 Y204.329 Z-2.247
N9765 X276. Z-2.672
N9770 Y202.329 Z-3.097
N9775 X274. Z-3.522
N9780 Y204.329 Z-3.947
N9785 X276. Z-4.372
N9790 Y202.329 Z-4.797
N9795 X274. Z-5.222
N9800 Y204.329 Z-5.648
N9805 X276. Z-6.073
N9810 Y202.329 Z-6.498
N9815 X274. Z-6.923
N9820 Y204.329 Z-7.348
N9825 X276. Z-7.773
N9830 Y202.329 Z-8.198
N9835 X274. Z-8.623
N9840 Y204.329 Z-9.048
N9845 X276. Z-9.474
N9850 Y202.329 Z-9.899
N9855 X274. Z-10.324
N9860 Y204.329 Z-10.749
N9865 X276. Z-11.174
N9870 Y202.329 Z-11.599
N9875 X274. Z-12.024
N9880 Y204.329 Z-12.449
N9885 X276. Z-12.874
N9890 Y202.329 Z-13.3
N9895 X274. Z-13.725
N9900 Y204.329 Z-14.15
N9905 X276. Z-14.575
N9910 Y202.329 Z-15.
N9915 S10001
N9920 X274. F1000.
N9925 Y204.329
N9930 X276.
N9935 Y202.329
N9940 Z5.
N9945 X309.333 Y202.898
N9950 Z1. F500.
N9955 Z0.
N9960 S10000
N9965 Y202.329 Z-0.121
N9970 X307.333 Z-0.546
N9975 Y204.329 Z-0.971
N9980 X309.333 Z-1.396
N9985 Y202.329 Z-1.821
N9990 X307.333 Z-2.247
N9995 Y204.329 Z-2.672
N10000 X309.333 Z-3.097
N10005 Y202.329 Z-3.522
N10010 X307.333 Z-3.947
N10015 Y204.329 Z-4.372
N10020 X309.333 Z-4.797
N10025 Y202.329 Z-5.222
N10030 X307.333 Z-5.648
N10035 Y204.329 Z-6.073
N10040 X309.333 Z-6.498
N10045 Y202.329 Z-6.923
N10050 X307.333 Z-7.348
N10055 Y204.329 Z-7.773
N10060 X309.333 Z-8.198
N10065 Y202.329 Z-8.623
N10070 X307.333 Z-9.048
N10075 Y204.329 Z-9.474
N10080 X309.333 Z-9.899
N10085 Y202.329 Z-10.324
N10090 X307.333 Z-10.749
N10095 Y204.329 Z-11.174
N10100 X309.333 Z-11.599
N10105 Y202.329 Z-12.024
N10110 X307.333 Z-12.449
N10115 Y204.329 Z-12.874
N10120 X309.333 Z-13.3
N10125 Y202.329 Z-13.725
N10130 X307.333 Z-14.15
N10135 Y204.329 Z-14.575
N10140 X309.333 Z-15.
N10145 S10001
N10150 Y202.329 F1000.
N10155 X307.333
N10160 Y204.329
N10165 X309.333
N10170 Z5.
N10175 X308.764 Y237.662
N10180 Z1. F500.
N10185 Z0.
N10190 S10000
N10195 X309.333 Z-0.121
N10200 Y235.662 Z-0.546
N10205 X307.333 Z-0.971
N10210 Y237.662 Z-1.396
N10215 X309.333 Z-1.821
N10220 Y235.662 Z-2.247
N10225 X307.333 Z-2.672
N10230 Y237.662 Z-3.097
N10235 X309.333 Z-3.522
N10240 Y235.662 Z-3.947
N10245 X307.333 Z-4.372
N10250 Y237.662 Z-4.797
N10255 X309.333 Z-5.222
N10260 Y235.662 Z-5.648
N10265 X307.333 Z-6.073
N10270 Y237.662 Z-6.498
N10275 X309.333 Z-6.923
N10280 Y235.662 Z-7.348
N10285 X307.333 Z-7.773
N10290 Y237.662 Z-8.198
N10295 X309.333 Z-8.623
N10300 Y235.662 Z-9.048
N10305 X307.333 Z-9.474
N10310 Y237.662 Z-9.899
N10315 X309.333 Z-10.324
N10320 Y235.662 Z-10.749
N10325 X307.333 Z-11.174
N10330 Y237.662 Z-11.599
N10335 X309.333 Z-12.024
N10340 Y235.662 Z-12.449
N10345 X307.333 Z-12.874
N10350 Y237.662 Z-13.3
N10355 X309.333 Z-13.725
N10360 Y235.662 Z-14.15
N10365 X307.333 Z-14.575
N10370 Y237.662 Z-15.
N10375 S10001
N10380 X309.333 F1000.
N10385 Y235.662
N10390 X307.333
N10395 Y237.662
N10400 Z5.
N10405 X276. Y237.231
N10410 Z1. F500.
N10415 Z0.
N10420 S10000
N10425 Y235.662 Z-0.333
N10430 X274. Z-0.759
N10435 Y237.662 Z-1.184
N10440 X276. Z-1.609
N10445 Y235.662 Z-2.034
N10450 X274. Z-2.459
N10455 Y237.662 Z-2.884
N10460 X276. Z-3.309
N10465 Y235.662 Z-3.734
N10470 X274. Z-4.16
N10475 Y237.662 Z-4.585
N10480 X276. Z-5.01
N10485 Y235.662 Z-5.435
N10490 X274. Z-5.86
N10495 Y237.662 Z-6.285
N10500 X276. Z-6.71
N10505 Y235.662 Z-7.135
N10510 X274. Z-7.56
N10515 Y237.662 Z-7.986
N10520 X276. Z-8.411
N10525 Y235.662 Z-8.836
N10530 X274. Z-9.261
N10535 Y237.662 Z-9.686
N10540 X276. Z-10.111
N10545 Y235.662 Z-10.536
N10550 X274. Z-10.961
N10555 Y237.662 Z-11.386
N10560 X276. Z-11.812
N10565 Y235.662 Z-12.237
N10570 X274. Z-12.662
N10575 Y237.662 Z-13.087
N10580 X276. Z-13.512
N10585 Y235.662 Z-13.937
N10590 X274. Z-14.362
N10595 Y237.662 Z-14.787
N10600 X275. Z-15.
N10605 S10001
N10610 X276. F1000.
N10615 Y235.662
N10620 X274.
N10625 Y237.662
N10630 X275.
N10635 Z5.
N10640 X242.667 Y236.231
N10645 Z1. F500.
N10650 Z0.
N10655 S10000
N10660 Y235.662 Z-0.121
N10665 X240.667 Z-0.546
N10670 Y237.662 Z-0.971
N10675 X242.667 Z-1.396
N10680 Y235.662 Z-1.821
N10685 X240.667 Z-2.247
N10690 Y237.662 Z-2.672
N10695 X242.667 Z-3.097
N10700 Y235.662 Z-3.522
N10705 X240.667 Z-3.947
N10710 Y237.662 Z-4.372
N10715 X242.667 Z-4.797
N10720 Y235.662 Z-5.222
N10725 X240.667 Z-5.648
N10730 Y237.662 Z-6.073
N10735 X242.667 Z-6.498
N10740 Y235.662 Z-6.923
N10745 X240.667 Z-7.348
N10750 Y237.662 Z-7.773
N10755 X242.667 Z-8.198
N10760 Y235.662 Z-8.623
N10765 X240.667 Z-9.048
N10770 Y237.662 Z-9.474
N10775 X242.667 Z-9.899
N10780 Y235.662 Z-10.324
N10785 X240.667 Z-10.749
N10790 Y237.662 Z-11.174
N10795 X242.667 Z-11.599
N10800 Y235.662 Z-12.024
N10805 X240.667 Z-12.449
N10810 Y237.662 Z-12.874
N10815 X242.667 Z-13.3
N10820 Y235.662 Z-13.725
N10825 X240.667 Z-14.15
N10830 Y237.662 Z-14.575
N10835 X242.667 Z-15.
N10840 S10001
N10845 Y235.662 F1000.
N10850 X240.667
N10855 Y237.662
N10860 X242.667
N10865 Z5.
N10870 X240.667 Y203.76
N10875 Z1. F500.
N10880 Z0.
N10885 S10000
N10890 Y204.329 Z-0.121
N10895 X242.667 Z-0.546
N10900 Y202.329 Z-0.971
N10905 X240.667 Z-1.396
N10910 Y204.329 Z-1.821
N10915 X242.667 Z-2.247
N10920 Y202.329 Z-2.672
N10925 X240.667 Z-3.097
N10930 Y204.329 Z-3.522
N10935 X242.667 Z-3.947
N10940 Y202.329 Z-4.372
N10945 X240.667 Z-4.797
N10950 Y204.329 Z-5.222
N10955 X242.667 Z-5.648
N10960 Y202.329 Z-6.073
N10965 X240.667 Z-6.498
N10970 Y204.329 Z-6.923
N10975 X242.667 Z-7.348
N10980 Y202.329 Z-7.773
N10985 X240.667 Z-8.198
N10990 Y204.329 Z-8.623
N10995 X242.667 Z-9.048
N11000 Y202.329 Z-9.474
N11005 X240.667 Z-9.899
N11010 Y204.329 Z-10.324
N11015 X242.667 Z-10.749
N11020 Y202.329 Z-11.174
N11025 X240.667 Z-11.599
N11030 Y204.329 Z-12.024
N11035 X242.667 Z-12.449
N11040 Y202.329 Z-12.874
N11045 X240.667 Z-13.3
N11050 Y204.329 Z-13.725
N11055 X242.667 Z-14.15
N11060 Y202.329 Z-14.575
N11065 X240.667 Z-15.
N11070 S10001
N11075 Y204.329 F1000.
N11080 X242.667
N11085 Y202.329
N11090 X240.667
N11095 Z5.
N11100 X209.333 Y202.898
N11105 Z1. F500.
N11110 Z0.
N11115 S10000
N11120 Y202.329 Z-0.121
N11125 X207.333 Z-0.546
N11130 Y204.329 Z-0.971
N11135 X209.333 Z-1.396
N11140 Y202.329 Z-1.821
N11145 X207.333 Z-2.247
N11150 Y204.329 Z-2.672
N11155 X209.333 Z-3.097
N11160 Y202.329 Z-3.522
N11165 X207.333 Z-3.947
N11170 Y204.329 Z-4.372
N11175 X209.333 Z-4.797
N11180 Y202.329 Z-5.222
N11185 X207.333 Z-5.648
N11190 Y204.329 Z-6.073
N11195 X209.333 Z-6.498
N11200 Y202.329 Z-6.923
N11205 X207.333 Z-7.348
N11210 Y204.329 Z-7.773
N11215 X209.333 Z-8.198
N11220 Y202.329 Z-8.623
N11225 X207.333 Z-9.048
N11230 Y204.329 Z-9.474
N11235 X209.333 Z-9.899
N11240 Y202.329 Z-10.324
N11245 X207.333 Z-10.749
N11250 Y204.329 Z-11.174
N11255 X209.333 Z-11.599
N11260 Y202.329 Z-12.024
N11265 X207.333 Z-12.449
N11270 Y204.329 Z-12.874
N11275 X209.333 Z-13.3
N11280 Y202.329 Z-13.725
N11285 X207.333 Z-14.15
N11290 Y204.329 Z-14.575
N11295 X209.333 Z-15.
N11300 S10001
N11305 Y202.329 F1000.
N11310 X207.333
N11315 Y204.329
N11320 X209.333
N11325 Z5.
N11330 Y236.231
N11335 Z1. F500.
N11340 Z0.
N11345 S10000
N11350 Y235.662 Z-0.121
N11355 X207.333 Z-0.546
N11360 Y237.662 Z-0.971
N11365 X209.333 Z-1.396
N11370 Y235.662 Z-1.821
N11375 X207.333 Z-2.247
N11380 Y237.662 Z-2.672
N11385 X209.333 Z-3.097
N11390 Y235.662 Z-3.522
N11395 X207.333 Z-3.947
N11400 Y237.662 Z-4.372
N11405 X209.333 Z-4.797
N11410 Y235.662 Z-5.222
N11415 X207.333 Z-5.648
N11420 Y237.662 Z-6.073
N11425 X209.333 Z-6.498
N11430 Y235.662 Z-6.923
N11435 X207.333 Z-7.348
N11440 Y237.662 Z-7.773
N11445 X209.333 Z-8.198
N11450 Y235.662 Z-8.623
N11455 X207.333 Z-9.048
N11460 Y237.662 Z-9.474
N11465 X209.333 Z-9.899
N11470 Y235.662 Z-10.324
N11475 X207.333 Z-10.749
N11480 Y237.662 Z-11.174
N11485 X209.333 Z-11.599
N11490 Y235.662 Z-12.024
N11495 X207.333 Z-12.449
N11500 Y237.662 Z-12.874
N11505 X209.333 Z-13.3
N11510 Y235.662 Z-13.725
N11515 X207.333 Z-14.15
N11520 Y237.662 Z-14.575
N11525 X209.333 Z-15.
N11530 S10001
N11535 Y235.662 F1000.
N11540 X207.333
N11545 Y237.662
N11550 X209.333
N11555 Z5.
N11560 X176. Y236.231
N11565 Z1. F500.
N11570 Z0.
N11575 S10000
N11580 Y235.662 Z-0.121
N11585 X174. Z-0.546
N11590 Y237.662 Z-0.971
N11595 X176. Z-1.396
N11600 Y235.662 Z-1.821
N11605 X174. Z-2.247
N11610 Y237.662 Z-2.672
N11615 X176. Z-3.097
N11620 Y235.662 Z-3.522
N11625 X174. Z-3.947
N11630 Y237.662 Z-4.372
N11635 X176. Z-4.797
N11640 Y235.662 Z-5.222
N11645 X174. Z-5.648
N11650 Y237.662 Z-6.073
N11655 X176. Z-6.498
N11660 Y235.662 Z-6.923
N11665 X174. Z-7.348
N11670 Y237.662 Z-7.773
N11675 X176. Z-8.198
N11680 Y235.662 Z-8.623
N11685 X174. Z-9.048
N11690 Y237.662 Z-9.474
N11695 X176. Z-9.899
N11700 Y235.662 Z-10.324
N11705 X174. Z-10.749
N11710 Y237.662 Z-11.174
N11715 X176. Z-11.599
N11720 Y235.662 Z-12.024
N11725 X174. Z-12.449
N11730 Y237.662 Z-12.874
N11735 X176. Z-13.3
N11740 Y235.662 Z-13.725
N11745 X174. Z-14.15
N11750 Y237.662 Z-14.575
N11755 X176. Z-15.
N11760 S10001
N11765 Y235.662 F1000.
N11770 X174.
N11775 Y237.662
N11780 X176.
N11785 Z5.
N11790 X142.667 Y236.231
N11795 Z1. F500.
N11800 Z0.
N11805 S10000
N11810 Y235.662 Z-0.121
N11815 X140.667 Z-0.546
N11820 Y237.662 Z-0.971
N11825 X142.667 Z-1.396
N11830 Y235.662 Z-1.821
N11835 X140.667 Z-2.247
N11840 Y237.662 Z-2.672
N11845 X142.667 Z-3.097
N11850 Y235.662 Z-3.522
N11855 X140.667 Z-3.947
N11860 Y237.662 Z-4.372
N11865 X142.667 Z-4.797
N11870 Y235.662 Z-5.222
N11875 X140.667 Z-5.648
N11880 Y237.662 Z-6.073
N11885 X142.667 Z-6.498
N11890 Y235.662 Z-6.923
N11895 X140.667 Z-7.348
N11900 Y237.662 Z-7.773
N11905 X142.667 Z-8.198
N11910 Y235.662 Z-8.623
N11915 X140.667 Z-9.048
N11920 Y237.662 Z-9.474
N11925 X142.667 Z-9.899
N11930 Y235.662 Z-10.324
N11935 X140.667 Z-10.749
N11940 Y237.662 Z-11.174
N11945 X142.667 Z-11.599
N11950 Y235.662 Z-12.024
N11955 X140.667 Z-12.449
N11960 Y237.662 Z-12.874
N11965 X142.667 Z-13.3
N11970 Y235.662 Z-13.725
N11975 X140.667 Z-14.15
N11980 Y237.662 Z-14.575
N11985 X142.667 Z-15.
N11990 S10001
N11995 Y235.662 F1000.
N12000 X140.667
N12005 Y237.662
N12010 X142.667
N12015 Z5.
N12020 X142.098 Y204.329
N12025 Z1. F500.
N12030 Z0.
N12035 S10000
N12040 X142.667 Z-0.121
N12045 Y202.329 Z-0.546
N12050 X140.667 Z-0.971
N12055 Y204.329 Z-1.396
N12060 X142.667 Z-1.821
N12065 Y202.329 Z-2.247
N12070 X140.667 Z-2.672
N12075 Y204.329 Z-3.097
N12080 X142.667 Z-3.522
N12085 Y202.329 Z-3.947
N12090 X140.667 Z-4.372
N12095 Y204.329 Z-4.797
N12100 X142.667 Z-5.222
N12105 Y202.329 Z-5.648
N12110 X140.667 Z-6.073
N12115 Y204.329 Z-6.498
N12120 X142.667 Z-6.923
N12125 Y202.329 Z-7.348
N12130 X140.667 Z-7.773
N12135 Y204.329 Z-8.198
N12140 X142.667 Z-8.623
N12145 Y202.329 Z-9.048
N12150 X140.667 Z-9.474
N12155 Y204.329 Z-9.899
N12160 X142.667 Z-10.324
N12165 Y202.329 Z-10.749
N12170 X140.667 Z-11.174
N12175 Y204.329 Z-11.599
N12180 X142.667 Z-12.024
N12185 Y202.329 Z-12.449
N12190 X140.667 Z-12.874
N12195 Y204.329 Z-13.3
N12200 X142.667 Z-13.725
N12205 Y202.329 Z-14.15
N12210 X140.667 Z-14.575
N12215 Y204.329 Z-15.
N12220 S10001
N12225 X142.667 F1000.
N12230 Y202.329
N12235 X140.667
N12240 Y204.329
N12245 Z5.
N12250 X109.333 Y202.898
N12255 Z1. F500.
N12260 Z0.
N12265 S10000
N12270 Y202.329 Z-0.121
N12275 X107.333 Z-0.546
N12280 Y204.329 Z-0.971
N12285 X109.333 Z-1.396
N12290 Y202.329 Z-1.821
N12295 X107.333 Z-2.247
N12300 Y204.329 Z-2.672
N12305 X109.333 Z-3.097
N12310 Y202.329 Z-3.522
N12315 X107.333 Z-3.947
N12320 Y204.329 Z-4.372
N12325 X109.333 Z-4.797
N12330 Y202.329 Z-5.222
N12335 X107.333 Z-5.648
N12340 Y204.329 Z-6.073
N12345 X109.333 Z-6.498
N12350 Y202.329 Z-6.923
N12355 X107.333 Z-7.348
N12360 Y204.329 Z-7.773
N12365 X109.333 Z-8.198
N12370 Y202.329 Z-8.623
N12375 X107.333 Z-9.048
N12380 Y204.329 Z-9.474
N12385 X109.333 Z-9.899
N12390 Y202.329 Z-10.324
N12395 X107.333 Z-10.749
N12400 Y204.329 Z-11.174
N12405 X109.333 Z-11.599
N12410 Y202.329 Z-12.024
N12415 X107.333 Z-12.449
N12420 Y204.329 Z-12.874
N12425 X109.333 Z-13.3
N12430 Y202.329 Z-13.725
N12435 X107.333 Z-14.15
N12440 Y204.329 Z-14.575
N12445 X109.333 Z-15.
N12450 S10001
N12455 Y202.329 F1000.
N12460 X107.333
N12465 Y204.329
N12470 X109.333
N12475 Z5.
N12480 Y236.231
N12485 Z1. F500.
N12490 Z0.
N12495 S10000
N12500 Y235.662 Z-0.121
N12505 X107.333 Z-0.546
N12510 Y237.662 Z-0.971
N12515 X109.333 Z-1.396
N12520 Y235.662 Z-1.821
N12525 X107.333 Z-2.247
N12530 Y237.662 Z-2.672
N12535 X109.333 Z-3.097
N12540 Y235.662 Z-3.522
N12545 X107.333 Z-3.947
N12550 Y237.662 Z-4.372
N12555 X109.333 Z-4.797
N12560 Y235.662 Z-5.222
N12565 X107.333 Z-5.648
N12570 Y237.662 Z-6.073
N12575 X109.333 Z-6.498
N12580 Y235.662 Z-6.923
N12585 X107.333 Z-7.348
N12590 Y237.662 Z-7.773
N12595 X109.333 Z-8.198
N12600 Y235.662 Z-8.623
N12605 X107.333 Z-9.048
N12610 Y237.662 Z-9.474
N12615 X109.333 Z-9.899
N12620 Y235.662 Z-10.324
N12625 X107.333 Z-10.749
N12630 Y237.662 Z-11.174
N12635 X109.333 Z-11.599
N12640 Y235.662 Z-12.024
N12645 X107.333 Z-12.449
N12650 Y237.662 Z-12.874
N12655 X109.333 Z-13.3
N12660 Y235.662 Z-13.725
N12665 X107.333 Z-14.15
N12670 Y237.662 Z-14.575
N12675 X109.333 Z-15.
N12680 S10001
N12685 Y235.662 F1000.
N12690 X107.333
N12695 Y237.662
N12700 X109.333
N12705 Z5.
N12710 X76. Y236.231
N12715 Z1. F500.
N12720 Z0.
N12725 S10000
N12730 Y235.662 Z-0.121
N12735 X74. Z-0.546
N12740 Y237.662 Z-0.971
N12745 X76. Z-1.396
N12750 Y235.662 Z-1.821
N12755 X74. Z-2.247
N12760 Y237.662 Z-2.672
N12765 X76. Z-3.097
N12770 Y235.662 Z-3.522
N12775 X74. Z-3.947
N12780 Y237.662 Z-4.372
N12785 X76. Z-4.797
N12790 Y235.662 Z-5.222
N12795 X74. Z-5.648
N12800 Y237.662 Z-6.073
N12805 X76. Z-6.498
N12810 Y235.662 Z-6.923
N12815 X74. Z-7.348
N12820 Y237.662 Z-7.773
N12825 X76. Z-8.198
N12830 Y235.662 Z-8.623
N12835 X74. Z-9.048
N12840 Y237.662 Z-9.474
N12845 X76. Z-9.899
N12850 Y235.662 Z-10.324
N12855 X74. Z-10.749
N12860 Y237.662 Z-11.174
N12865 X76. Z-11.599
N12870 Y235.662 Z-12.024
N12875 X74. Z-12.449
N12880 Y237.662 Z-12.874
N12885 X76. Z-13.3
N12890 Y235.662 Z-13.725
N12895 X74. Z-14.15
N12900 Y237.662 Z-14.575
N12905 X76. Z-15.
N12910 S10001
N12915 Y235.662 F1000.
N12920 X74.
N12925 Y237.662
N12930 X76.
N12935 Z5.
N12940 X74. Y203.76
N12945 Z1. F500.
N12950 Z0.
N12955 S10000
N12960 Y204.329 Z-0.121
N12965 X76. Z-0.546
N12970 Y202.329 Z-0.971
N12975 X74. Z-1.396
N12980 Y204.329 Z-1.821
N12985 X76. Z-2.247
N12990 Y202.329 Z-2.672
N12995 X74. Z-3.097
N13000 Y204.329 Z-3.522
N13005 X76. Z-3.947
N13010 Y202.329 Z-4.372
N13015 X74. Z-4.797
N13020 Y204.329 Z-5.222
N13025 X76. Z-5.648
N13030 Y202.329 Z-6.073
N13035 X74. Z-6.498
N13040 Y204.329 Z-6.923
N13045 X76. Z-7.348
N13050 Y202.329 Z-7.773
N13055 X74. Z-8.198
N13060 Y204.329 Z-8.623
N13065 X76. Z-9.048
N13070 Y202.329 Z-9.474
N13075 X74. Z-9.899
N13080 Y204.329 Z-10.324
N13085 X76. Z-10.749
N13090 Y202.329 Z-11.174
N13095 X74. Z-11.599
N13100 Y204.329 Z-12.024
N13105 X76. Z-12.449
N13110 Y202.329 Z-12.874
N13115 X74. Z-13.3
N13120 Y204.329 Z-13.725
N13125 X76. Z-14.15
N13130 Y202.329 Z-14.575
N13135 X74. Z-15.
N13140 S10001
N13145 Y204.329 F1000.
N13150 X76.
N13155 Y202.329
N13160 X74.
N13165 Z5.
N13170 X175.431 Y204.329
N13175 Z1. F500.
N13180 Z0.
N13185 S10000
N13190 X176. Z-0.121
N13195 Y202.329 Z-0.546
N13200 X174. Z-0.971
N13205 Y204.329 Z-1.396
N13210 X176. Z-1.821
N13215 Y202.329 Z-2.247
N13220 X174. Z-2.672
N13225 Y204.329 Z-3.097
N13230 X176. Z-3.522
N13235 Y202.329 Z-3.947
N13240 X174. Z-4.372
N13245 Y204.329 Z-4.797
N13250 X176. Z-5.222
N13255 Y202.329 Z-5.648
N13260 X174. Z-6.073
N13265 Y204.329 Z-6.498
N13270 X176. Z-6.923
N13275 Y202.329 Z-7.348
N13280 X174. Z-7.773
N13285 Y204.329 Z-8.198
N13290 X176. Z-8.623
N13295 Y202.329 Z-9.048
N13300 X174. Z-9.474
N13305 Y204.329 Z-9.899
N13310 X176. Z-10.324
N13315 Y202.329 Z-10.749
N13320 X174. Z-11.174
N13325 Y204.329 Z-11.599
N13330 X176. Z-12.024
N13335 Y202.329 Z-12.449
N13340 X174. Z-12.874
N13345 Y204.329 Z-13.3
N13350 X176. Z-13.725
N13355 Y202.329 Z-14.15
N13360 X174. Z-14.575
N13365 Y204.329 Z-15.
N13370 S10001
N13375 X176. F1000.
N13380 Y202.329
N13385 X174.
N13390 Y204.329
N13395 Z5.
N13400 X174.569 Y168.996
N13405 Z1. F500.
N13410 Z0.
N13415 S10000
N13420 X174. Z-0.121
N13425 Y170.996 Z-0.546
N13430 X176. Z-0.971
N13435 Y168.996 Z-1.396
N13440 X174. Z-1.821
N13445 Y170.996 Z-2.247
N13450 X176. Z-2.672
N13455 Y168.996 Z-3.097
N13460 X174. Z-3.522
N13465 Y170.996 Z-3.947
N13470 X176. Z-4.372
N13475 Y168.996 Z-4.797
N13480 X174. Z-5.222
N13485 Y170.996 Z-5.648
N13490 X176. Z-6.073
N13495 Y168.996 Z-6.498
N13500 X174. Z-6.923
N13505 Y170.996 Z-7.348
N13510 X176. Z-7.773
N13515 Y168.996 Z-8.198
N13520 X174. Z-8.623
N13525 Y170.996 Z-9.048
N13530 X176. Z-9.474
N13535 Y168.996 Z-9.899
N13540 X174. Z-10.324
N13545 Y170.996 Z-10.749
N13550 X176. Z-11.174
N13555 Y168.996 Z-11.599
N13560 X174. Z-12.024
N13565 Y170.996 Z-12.449
N13570 X176. Z-12.874
N13575 Y168.996 Z-13.3
N13580 X174. Z-13.725
N13585 Y170.996 Z-14.15
N13590 X176. Z-14.575
N13595 Y168.996 Z-15.
N13600 S10001
N13605 X174. F1000.
N13610 Y170.996
N13615 X176.
N13620 Y168.996
N13625 Z5.
N13630 Y136.231
N13635 Z1. F500.
N13640 Z0.
N13645 S10000
N13650 Y135.662 Z-0.121
N13655 X174. Z-0.546
N13660 Y137.662 Z-0.971
N13665 X176. Z-1.396
N13670 Y135.662 Z-1.821
N13675 X174. Z-2.247
N13680 Y137.662 Z-2.672
N13685 X176. Z-3.097
N13690 Y135.662 Z-3.522
N13695 X174. Z-3.947
N13700 Y137.662 Z-4.372
N13705 X176. Z-4.797
N13710 Y135.662 Z-5.222
N13715 X174. Z-5.648
N13720 Y137.662 Z-6.073
N13725 X176. Z-6.498
N13730 Y135.662 Z-6.923
N13735 X174. Z-7.348
N13740 Y137.662 Z-7.773
N13745 X176. Z-8.198
N13750 Y135.662 Z-8.623
N13755 X174. Z-9.048
N13760 Y137.662 Z-9.474
N13765 X176. Z-9.899
N13770 Y135.662 Z-10.324
N13775 X174. Z-10.749
N13780 Y137.662 Z-11.174
N13785 X176. Z-11.599
N13790 Y135.662 Z-12.024
N13795 X174. Z-12.449
N13800 Y137.662 Z-12.874
N13805 X176. Z-13.3
N13810 Y135.662 Z-13.725
N13815 X174. Z-14.15
N13820 Y137.662 Z-14.575
N13825 X176. Z-15.
N13830 S10001
N13835 Y135.662 F1000.
N13840 X174.
N13845 Y137.662
N13850 X176.
N13855 Z5.
N13860 X174.569 Y68.996
N13865 Z1. F500.
N13870 Z0.
N13875 S10000
N13880 X174. Z-0.121
N13885 Y70.996 Z-0.546
N13890 X176. Z-0.971
N13895 Y68.996 Z-1.396
N13900 X174. Z-1.821
N13905 Y70.996 Z-2.247
N13910 X176. Z-2.672
N13915 Y68.996 Z-3.097
N13920 X174. Z-3.522
N13925 Y70.996 Z-3.947
N13930 X176. Z-4.372
N13935 Y68.996 Z-4.797
N13940 X174. Z-5.222
N13945 Y70.996 Z-5.648
N13950 X176. Z-6.073
N13955 Y68.996 Z-6.498
N13960 X174. Z-6.923
N13965 Y70.996 Z-7.348
N13970 X176. Z-7.773
N13975 Y68.996 Z-8.198
N13980 X174. Z-8.623
N13985 Y70.996 Z-9.048
N13990 X176. Z-9.474
N13995 Y68.996 Z-9.899
N14000 X174. Z-10.324
N14005 Y70.996 Z-10.749
N14010 X176. Z-11.174
N14015 Y68.996 Z-11.599
N14020 X174. Z-12.024
N14025 Y70.996 Z-12.449
N14030 X176. Z-12.874
N14035 Y68.996 Z-13.3
N14040 X174. Z-13.725
N14045 Y70.996 Z-14.15
N14050 X176. Z-14.575
N14055 Y68.996 Z-15.
N14060 S10001
N14065 X174. F1000.
N14070 Y70.996
N14075 X176.
N14080 Y68.996
N14085 Z5.
N14090 X374.569
N14095 Z1. F500.
N14100 Z0.
N14105 S10000
N14110 X374. Z-0.121
N14115 Y70.996 Z-0.546
N14120 X376. Z-0.971
N14125 Y68.996 Z-1.396
N14130 X374. Z-1.821
N14135 Y70.996 Z-2.247
N14140 X376. Z-2.672
N14145 Y68.996 Z-3.097
N14150 X374. Z-3.522
N14155 Y70.996 Z-3.947
N14160 X376. Z-4.372
N14165 Y68.996 Z-4.797
N14170 X374. Z-5.222
N14175 Y70.996 Z-5.648
N14180 X376. Z-6.073
N14185 Y68.996 Z-6.498
N14190 X374. Z-6.923
N14195 Y70.996 Z-7.348
N14200 X376. Z-7.773
N14205 Y68.996 Z-8.198
N14210 X374. Z-8.623
N14215 Y70.996 Z-9.048
N14220 X376. Z-9.474
N14225 Y68.996 Z-9.899
N14230 X374. Z-10.324
N14235 Y70.996 Z-10.749
N14240 X376. Z-11.174
N14245 Y68.996 Z-11.599
N14250 X374. Z-12.024
N14255 Y70.996 Z-12.449
N14260 X376. Z-12.874
N14265 Y68.996 Z-13.3
N14270 X374. Z-13.725
N14275 Y70.996 Z-14.15
N14280 X376. Z-14.575
N14285 Y68.996 Z-15.
N14290 S10001
N14295 X374. F1000.
N14300 Y70.996
N14305 X376.
N14310 Y68.996
N14315 Z5.
N14320 X407.902
N14325 Z1. F500.
N14330 Z0.
N14335 S10000
N14340 X407.333 Z-0.121
N14345 Y70.996 Z-0.546
N14350 X409.333 Z-0.971
N14355 Y68.996 Z-1.396
N14360 X407.333 Z-1.821
N14365 Y70.996 Z-2.247
N14370 X409.333 Z-2.672
N14375 Y68.996 Z-3.097
N14380 X407.333 Z-3.522
N14385 Y70.996 Z-3.947
N14390 X409.333 Z-4.372
N14395 Y68.996 Z-4.797
N14400 X407.333 Z-5.222
N14405 Y70.996 Z-5.648
N14410 X409.333 Z-6.073
N14415 Y68.996 Z-6.498
N14420 X407.333 Z-6.923
N14425 Y70.996 Z-7.348
N14430 X409.333 Z-7.773
N14435 Y68.996 Z-8.198
N14440 X407.333 Z-8.623
N14445 Y70.996 Z-9.048
N14450 X409.333 Z-9.474
N14455 Y68.996 Z-9.899
N14460 X407.333 Z-10.324
N14465 Y70.996 Z-10.749
N14470 X409.333 Z-11.174
N14475 Y68.996 Z-11.599
N14480 X407.333 Z-12.024
N14485 Y70.996 Z-12.449
N14490 X409.333 Z-12.874
N14495 Y68.996 Z-13.3
N14500 X407.333 Z-13.725
N14505 Y70.996 Z-14.15
N14510 X409.333 Z-14.575
N14515 Y68.996 Z-15.
N14520 S10001
N14525 X407.333 F1000.
N14530 Y70.996
N14535 X409.333
N14540 Y68.996
N14545 Z5.
N14550 X407.333 Y37.093
N14555 Z1. F500.
N14560 Z0.
N14565 S10000
N14570 Y37.662 Z-0.121
N14575 X409.333 Z-0.546
N14580 Y35.662 Z-0.971
N14585 X407.333 Z-1.396
N14590 Y37.662 Z-1.821
N14595 X409.333 Z-2.247
N14600 Y35.662 Z-2.672
N14605 X407.333 Z-3.097
N14610 Y37.662 Z-3.522
N14615 X409.333 Z-3.947
N14620 Y35.662 Z-4.372
N14625 X407.333 Z-4.797
N14630 Y37.662 Z-5.222
N14635 X409.333 Z-5.648
N14640 Y35.662 Z-6.073
N14645 X407.333 Z-6.498
N14650 Y37.662 Z-6.923
N14655 X409.333 Z-7.348
N14660 Y35.662 Z-7.773
N14665 X407.333 Z-8.198
N14670 Y37.662 Z-8.623
N14675 X409.333 Z-9.048
N14680 Y35.662 Z-9.474
N14685 X407.333 Z-9.899
N14690 Y37.662 Z-10.324
N14695 X409.333 Z-10.749
N14700 Y35.662 Z-11.174
N14705 X407.333 Z-11.599
N14710 Y37.662 Z-12.024
N14715 X409.333 Z-12.449
N14720 Y35.662 Z-12.874
N14725 X407.333 Z-13.3
N14730 Y37.662 Z-13.725
N14735 X409.333 Z-14.15
N14740 Y35.662 Z-14.575
N14745 X407.333 Z-15.
N14750 S10001
N14755 Y37.662 F1000.
N14760 X409.333
N14765 Y35.662
N14770 X407.333
N14775 Z5.
N14780 X374. Y37.093
N14785 Z1. F500.
N14790 Z0.
N14795 S10000
N14800 Y37.662 Z-0.121
N14805 X376. Z-0.546
N14810 Y35.662 Z-0.971
N14815 X374. Z-1.396
N14820 Y37.662 Z-1.821
N14825 X376. Z-2.247
N14830 Y35.662 Z-2.672
N14835 X374. Z-3.097
N14840 Y37.662 Z-3.522
N14845 X376. Z-3.947
N14850 Y35.662 Z-4.372
N14855 X374. Z-4.797
N14860 Y37.662 Z-5.222
N14865 X376. Z-5.648
N14870 Y35.662 Z-6.073
N14875 X374. Z-6.498
N14880 Y37.662 Z-6.923
N14885 X376. Z-7.348
N14890 Y35.662 Z-7.773
N14895 X374. Z-8.198
N14900 Y37.662 Z-8.623
N14905 X376. Z-9.048
N14910 Y35.662 Z-9.474
N14915 X374. Z-9.899
N14920 Y37.662 Z-10.324
N14925 X376. Z-10.749
N14930 Y35.662 Z-11.174
N14935 X374. Z-11.599
N14940 Y37.662 Z-12.024
N14945 X376. Z-12.449
N14950 Y35.662 Z-12.874
N14955 X374. Z-13.3
N14960 Y37.662 Z-13.725
N14965 X376. Z-14.15
N14970 Y35.662 Z-14.575
N14975 X374. Z-15.
N14980 S10001
N14985 Y37.662 F1000.
N14990 X376.
N14995 Y35.662
N15000 X374.
N15005 Z5.
N15010 X374.568 Y102.329
N15015 Z1. F500.
N15020 Z0.
N15025 S10000
N15030 X374. Z-0.121
N15035 Y104.329 Z-0.546
N15040 X376. Z-0.971
N15045 Y102.329 Z-1.396
N15050 X374. Z-1.821
N15055 Y104.329 Z-2.246
N15060 X376. Z-2.671
N15065 Y102.329 Z-3.097
N15070 X374. Z-3.522
N15075 Y104.329 Z-3.947
N15080 X376. Z-4.372
N15085 Y102.329 Z-4.797
N15090 X374. Z-5.222
N15095 Y104.329 Z-5.647
N15100 X376. Z-6.072
N15105 Y102.329 Z-6.498
N15110 X374. Z-6.923
N15115 Y104.329 Z-7.348
N15120 X376. Z-7.773
N15125 Y102.329 Z-8.198
N15130 X374. Z-8.623
N15135 Y104.329 Z-9.048
N15140 X376. Z-9.473
N15145 Y102.329 Z-9.899
N15150 X374. Z-10.324
N15155 Y104.329 Z-10.749
N15160 X376. Z-11.174
N15165 Y102.329 Z-11.599
N15170 X374. Z-12.024
N15175 Y104.329 Z-12.449
N15180 X376. Z-12.874
N15185 Y102.329 Z-13.3
N15190 X374. Z-13.725
N15195 Y104.329 Z-14.15
N15200 X376. Z-14.575
N15205 Y102.329 Z-15.
N15210 S10001
N15215 X374. F1000.
N15220 Y104.329
N15225 X376.
N15230 Y102.329
N15235 Z5.
N15240 X407.901
N15245 Z1. F500.
N15250 Z0.
N15255 S10000
N15260 X407.333 Z-0.121
N15265 Y104.329 Z-0.546
N15270 X409.333 Z-0.971
N15275 Y102.329 Z-1.396
N15280 X407.333 Z-1.821
N15285 Y104.329 Z-2.246
N15290 X409.333 Z-2.671
N15295 Y102.329 Z-3.097
N15300 X407.333 Z-3.522
N15305 Y104.329 Z-3.947
N15310 X409.333 Z-4.372
N15315 Y102.329 Z-4.797
N15320 X407.333 Z-5.222
N15325 Y104.329 Z-5.647
N15330 X409.333 Z-6.072
N15335 Y102.329 Z-6.498
N15340 X407.333 Z-6.923
N15345 Y104.329 Z-7.348
N15350 X409.333 Z-7.773
N15355 Y102.329 Z-8.198
N15360 X407.333 Z-8.623
N15365 Y104.329 Z-9.048
N15370 X409.333 Z-9.473
N15375 Y102.329 Z-9.899
N15380 X407.333 Z-10.324
N15385 Y104.329 Z-10.749
N15390 X409.333 Z-11.174
N15395 Y102.329 Z-11.599
N15400 X407.333 Z-12.024
N15405 Y104.329 Z-12.449
N15410 X409.333 Z-12.874
N15415 Y102.329 Z-13.3
N15420 X407.333 Z-13.725
N15425 Y104.329 Z-14.15
N15430 X409.333 Z-14.575
N15435 Y102.329 Z-15.
N15440 S10001
N15445 X407.333 F1000.
N15450 Y104.329
N15455 X409.333
N15460 Y102.329
N15465 Z5.
N15470 X440.667 Y103.761
N15475 Z1. F500.
N15480 Z0.
N15485 S10000
N15490 Y104.329 Z-0.121
N15495 X442.667 Z-0.546
N15500 Y102.329 Z-0.971
N15505 X440.667 Z-1.396
N15510 Y104.329 Z-1.821
N15515 X442.667 Z-2.246
N15520 Y102.329 Z-2.671
N15525 X440.667 Z-3.097
N15530 Y104.329 Z-3.522
N15535 X442.667 Z-3.947
N15540 Y102.329 Z-4.372
N15545 X440.667 Z-4.797
N15550 Y104.329 Z-5.222
N15555 X442.667 Z-5.647
N15560 Y102.329 Z-6.072
N15565 X440.667 Z-6.498
N15570 Y104.329 Z-6.923
N15575 X442.667 Z-7.348
N15580 Y102.329 Z-7.773
N15585 X440.667 Z-8.198
N15590 Y104.329 Z-8.623
N15595 X442.667 Z-9.048
N15600 Y102.329 Z-9.473
N15605 X440.667 Z-9.899
N15610 Y104.329 Z-10.324
N15615 X442.667 Z-10.749
N15620 Y102.329 Z-11.174
N15625 X440.667 Z-11.599
N15630 Y104.329 Z-12.024
N15635 X442.667 Z-12.449
N15640 Y102.329 Z-12.874
N15645 X440.667 Z-13.3
N15650 Y104.329 Z-13.725
N15655 X442.667 Z-14.15
N15660 Y102.329 Z-14.575
N15665 X440.667 Z-15.
N15670 S10001
N15675 Y104.329 F1000.
N15680 X442.667
N15685 Y102.329
N15690 X440.667
N15695 Z5.
N15700 Y70.426
N15705 Z1. F500.
N15710 Z0.
N15715 S10000
N15720 Y70.996 Z-0.121
N15725 X442.667 Z-0.546
N15730 Y68.996 Z-0.971
N15735 X440.667 Z-1.396
N15740 Y70.996 Z-1.821
N15745 X442.667 Z-2.247
N15750 Y68.996 Z-2.672
N15755 X440.667 Z-3.097
N15760 Y70.996 Z-3.522
N15765 X442.667 Z-3.947
N15770 Y68.996 Z-4.372
N15775 X440.667 Z-4.797
N15780 Y70.996 Z-5.222
N15785 X442.667 Z-5.648
N15790 Y68.996 Z-6.073
N15795 X440.667 Z-6.498
N15800 Y70.996 Z-6.923
N15805 X442.667 Z-7.348
N15810 Y68.996 Z-7.773
N15815 X440.667 Z-8.198
N15820 Y70.996 Z-8.623
N15825 X442.667 Z-9.048
N15830 Y68.996 Z-9.474
N15835 X440.667 Z-9.899
N15840 Y70.996 Z-10.324
N15845 X442.667 Z-10.749
N15850 Y68.996 Z-11.174
N15855 X440.667 Z-11.599
N15860 Y70.996 Z-12.024
N15865 X442.667 Z-12.449
N15870 Y68.996 Z-12.874
N15875 X440.667 Z-13.3
N15880 Y70.996 Z-13.725
N15885 X442.667 Z-14.15
N15890 Y68.996 Z-14.575
N15895 X440.667 Z-15.
N15900 S10001
N15905 Y70.996 F1000.
N15910 X442.667
N15915 Y68.996
N15920 X440.667
N15925 Z5.
N15930 Y37.093
N15935 Z1. F500.
N15940 Z0.
N15945 S10000
N15950 Y37.662 Z-0.121
N15955 X442.667 Z-0.546
N15960 Y35.662 Z-0.971
N15965 X440.667 Z-1.396
N15970 Y37.662 Z-1.821
N15975 X442.667 Z-2.247
N15980 Y35.662 Z-2.672
N15985 X440.667 Z-3.097
N15990 Y37.662 Z-3.522
N15995 X442.667 Z-3.947
N16000 Y35.662 Z-4.372
N16005 X440.667 Z-4.797
N16010 Y37.662 Z-5.222
N16015 X442.667 Z-5.648
N16020 Y35.662 Z-6.073
N16025 X440.667 Z-6.498
N16030 Y37.662 Z-6.923
N16035 X442.667 Z-7.348
N16040 Y35.662 Z-7.773
N16045 X440.667 Z-8.198
N16050 Y37.662 Z-8.623
N16055 X442.667 Z-9.048
N16060 Y35.662 Z-9.474
N16065 X440.667 Z-9.899
N16070 Y37.662 Z-10.324
N16075 X442.667 Z-10.749
N16080 Y35.662 Z-11.174
N16085 X440.667 Z-11.599
N16090 Y37.662 Z-12.024
N16095 X442.667 Z-12.449
N16100 Y35.662 Z-12.874
N16105 X440.667 Z-13.3
N16110 Y37.662 Z-13.725
N16115 X442.667 Z-14.15
N16120 Y35.662 Z-14.575
N16125 X440.667 Z-15.
N16130 S10001
N16135 Y37.662 F1000.
N16140 X442.667
N16145 Y35.662
N16150 X440.667
N16155 Z5.
N16160 X474. Y37.093
N16165 Z1. F500.
N16170 Z0.
N16175 S10000
N16180 Y37.662 Z-0.121
N16185 X476. Z-0.546
N16190 Y35.662 Z-0.971
N16195 X474. Z-1.396
N16200 Y37.662 Z-1.821
N16205 X476. Z-2.247
N16210 Y35.662 Z-2.672
N16215 X474. Z-3.097
N16220 Y37.662 Z-3.522
N16225 X476. Z-3.947
N16230 Y35.662 Z-4.372
N16235 X474. Z-4.797
N16240 Y37.662 Z-5.222
N16245 X476. Z-5.648
N16250 Y35.662 Z-6.073
N16255 X474. Z-6.498
N16260 Y37.662 Z-6.923
N16265 X476. Z-7.348
N16270 Y35.662 Z-7.773
N16275 X474. Z-8.198
N16280 Y37.662 Z-8.623
N16285 X476. Z-9.048
N16290 Y35.662 Z-9.474
N16295 X474. Z-9.899
N16300 Y37.662 Z-10.324
N16305 X476. Z-10.749
N16310 Y35.662 Z-11.174
N16315 X474. Z-11.599
N16320 Y37.662 Z-12.024
N16325 X476. Z-12.449
N16330 Y35.662 Z-12.874
N16335 X474. Z-13.3
N16340 Y37.662 Z-13.725
N16345 X476. Z-14.15
N16350 Y35.662 Z-14.575
N16355 X474. Z-15.
N16360 S10001
N16365 Y37.662 F1000.
N16370 X476.
N16375 Y35.662
N16380 X474.
N16385 Z5.
N16390 X476. Y69.565
N16395 Z1. F500.
N16400 Z0.
N16405 S10000
N16410 Y68.996 Z-0.121
N16415 X474. Z-0.546
N16420 Y70.996 Z-0.971
N16425 X476. Z-1.396
N16430 Y68.996 Z-1.821
N16435 X474. Z-2.247
N16440 Y70.996 Z-2.672
N16445 X476. Z-3.097
N16450 Y68.996 Z-3.522
N16455 X474. Z-3.947
N16460 Y70.996 Z-4.372
N16465 X476. Z-4.797
N16470 Y68.996 Z-5.222
N16475 X474. Z-5.648
N16480 Y70.996 Z-6.073
N16485 X476. Z-6.498
N16490 Y68.996 Z-6.923
N16495 X474. Z-7.348
N16500 Y70.996 Z-7.773
N16505 X476. Z-8.198
N16510 Y68.996 Z-8.623
N16515 X474. Z-9.048
N16520 Y70.996 Z-9.474
N16525 X476. Z-9.899
N16530 Y68.996 Z-10.324
N16535 X474. Z-10.749
N16540 Y70.996 Z-11.174
N16545 X476. Z-11.599
N16550 Y68.996 Z-12.024
N16555 X474. Z-12.449
N16560 Y70.996 Z-12.874
N16565 X476. Z-13.3
N16570 Y68.996 Z-13.725
N16575 X474. Z-14.15
N16580 Y70.996 Z-14.575
N16585 X476. Z-15.
N16590 S10001
N16595 Y68.996 F1000.
N16600 X474.
N16605 Y70.996
N16610 X476.
N16615 Z5.
N16620 Y102.897
N16625 Z1. F500.
N16630 Z0.
N16635 S10000
N16640 Y102.329 Z-0.121
N16645 X474. Z-0.546
N16650 Y104.329 Z-0.971
N16655 X476. Z-1.396
N16660 Y102.329 Z-1.821
N16665 X474. Z-2.246
N16670 Y104.329 Z-2.671
N16675 X476. Z-3.097
N16680 Y102.329 Z-3.522
N16685 X474. Z-3.947
N16690 Y104.329 Z-4.372
N16695 X476. Z-4.797
N16700 Y102.329 Z-5.222
N16705 X474. Z-5.647
N16710 Y104.329 Z-6.072
N16715 X476. Z-6.498
N16720 Y102.329 Z-6.923
N16725 X474. Z-7.348
N16730 Y104.329 Z-7.773
N16735 X476. Z-8.198
N16740 Y102.329 Z-8.623
N16745 X474. Z-9.048
N16750 Y104.329 Z-9.473
N16755 X476. Z-9.899
N16760 Y102.329 Z-10.324
N16765 X474. Z-10.749
N16770 Y104.329 Z-11.174
N16775 X476. Z-11.599
N16780 Y102.329 Z-12.024
N16785 X474. Z-12.449
N16790 Y104.329 Z-12.874
N16795 X476. Z-13.3
N16800 Y102.329 Z-13.725
N16805 X474. Z-14.15
N16810 Y104.329 Z-14.575
N16815 X476. Z-15.
N16820 S10001
N16825 Y102.329 F1000.
N16830 X474.
N16835 Y104.329
N16840 X476.
N16845 Z5.
N16850 X475.569 Y135.662
N16855 Z1. F500.
N16860 Z0.
N16865 S10000
N16870 X474. Z-0.334
N16875 Y137.662 Z-0.759
N16880 X476. Z-1.184
N16885 Y135.662 Z-1.609
N16890 X474. Z-2.034
N16895 Y137.662 Z-2.459
N16900 X476. Z-2.884
N16905 Y135.662 Z-3.309
N16910 X474. Z-3.734
N16915 Y137.662 Z-4.16
N16920 X476. Z-4.585
N16925 Y135.662 Z-5.01
N16930 X474. Z-5.435
N16935 Y137.662 Z-5.86
N16940 X476. Z-6.285
N16945 Y135.662 Z-6.71
N16950 X474. Z-7.135
N16955 Y137.662 Z-7.561
N16960 X476. Z-7.986
N16965 Y135.662 Z-8.411
N16970 X474. Z-8.836
N16975 Y137.662 Z-9.261
N16980 X476. Z-9.686
N16985 Y135.662 Z-10.111
N16990 X474. Z-10.536
N16995 Y137.662 Z-10.961
N17000 X476. Z-11.387
N17005 Y135.662 Z-11.812
N17010 X474. Z-12.237
N17015 Y137.662 Z-12.662
N17020 X476. Z-13.087
N17025 Y135.662 Z-13.512
N17030 X474. Z-13.937
N17035 Y137.662 Z-14.362
N17040 X476. Z-14.787
N17045 Y136.662 Z-15.
N17050 S10001
N17055 Y135.662 F1000.
N17060 X474.
N17065 Y137.662
N17070 X476.
N17075 Y136.662
N17080 Z5.
N17085 X474.569 Y168.996
N17090 Z1. F500.
N17095 Z0.
N17100 S10000
N17105 X474. Z-0.121
N17110 Y170.996 Z-0.546
N17115 X476. Z-0.971
N17120 Y168.996 Z-1.396
N17125 X474. Z-1.821
N17130 Y170.996 Z-2.247
N17135 X476. Z-2.672
N17140 Y168.996 Z-3.097
N17145 X474. Z-3.522
N17150 Y170.996 Z-3.947
N17155 X476. Z-4.372
N17160 Y168.996 Z-4.797
N17165 X474. Z-5.222
N17170 Y170.996 Z-5.648
N17175 X476. Z-6.073
N17180 Y168.996 Z-6.498
N17185 X474. Z-6.923
N17190 Y170.996 Z-7.348
N17195 X476. Z-7.773
N17200 Y168.996 Z-8.198
N17205 X474. Z-8.623
N17210 Y170.996 Z-9.048
N17215 X476. Z-9.474
N17220 Y168.996 Z-9.899
N17225 X474. Z-10.324
N17230 Y170.996 Z-10.749
N17235 X476. Z-11.174
N17240 Y168.996 Z-11.599
N17245 X474. Z-12.024
N17250 Y170.996 Z-12.449
N17255 X476. Z-12.874
N17260 Y168.996 Z-13.3
N17265 X474. Z-13.725
N17270 Y170.996 Z-14.15
N17275 X476. Z-14.575
N17280 Y168.996 Z-15.
N17285 S10001
N17290 X474. F1000.
N17295 Y170.996
N17300 X476.
N17305 Y168.996
N17310 Z5.
N17315 X474.569 Y202.329
N17320 Z1. F500.
N17325 Z0.
N17330 S10000
N17335 X474. Z-0.121
N17340 Y204.329 Z-0.546
N17345 X476. Z-0.971
N17350 Y202.329 Z-1.396
N17355 X474. Z-1.821
N17360 Y204.329 Z-2.247
N17365 X476. Z-2.672
N17370 Y202.329 Z-3.097
N17375 X474. Z-3.522
N17380 Y204.329 Z-3.947
N17385 X476. Z-4.372
N17390 Y202.329 Z-4.797
N17395 X474. Z-5.222
N17400 Y204.329 Z-5.648
N17405 X476. Z-6.073
N17410 Y202.329 Z-6.498
N17415 X474. Z-6.923
N17420 Y204.329 Z-7.348
N17425 X476. Z-7.773
N17430 Y202.329 Z-8.198
N17435 X474. Z-8.623
N17440 Y204.329 Z-9.048
N17445 X476. Z-9.474
N17450 Y202.329 Z-9.899
N17455 X474. Z-10.324
N17460 Y204.329 Z-10.749
N17465 X476. Z-11.174
N17470 Y202.329 Z-11.599
N17475 X474. Z-12.024
N17480 Y204.329 Z-12.449
N17485 X476. Z-12.874
N17490 Y202.329 Z-13.3
N17495 X474. Z-13.725
N17500 Y204.329 Z-14.15
N17505 X476. Z-14.575
N17510 Y202.329 Z-15.
N17515 S10001
N17520 X474. F1000.
N17525 Y204.329
N17530 X476.
N17535 Y202.329
N17540 Z5.
N17545 X475.431 Y237.662
N17550 Z1. F500.
N17555 Z0.
N17560 S10000
N17565 X476. Z-0.121
N17570 Y235.662 Z-0.546
N17575 X474. Z-0.971
N17580 Y237.662 Z-1.396
N17585 X476. Z-1.821
N17590 Y235.662 Z-2.247
N17595 X474. Z-2.672
N17600 Y237.662 Z-3.097
N17605 X476. Z-3.522
N17610 Y235.662 Z-3.947
N17615 X474. Z-4.372
N17620 Y237.662 Z-4.797
N17625 X476. Z-5.222
N17630 Y235.662 Z-5.648
N17635 X474. Z-6.073
N17640 Y237.662 Z-6.498
N17645 X476. Z-6.923
N17650 Y235.662 Z-7.348
N17655 X474. Z-7.773
N17660 Y237.662 Z-8.198
N17665 X476. Z-8.623
N17670 Y235.662 Z-9.048
N17675 X474. Z-9.474
N17680 Y237.662 Z-9.899
N17685 X476. Z-10.324
N17690 Y235.662 Z-10.749
N17695 X474. Z-11.174
N17700 Y237.662 Z-11.599
N17705 X476. Z-12.024
N17710 Y235.662 Z-12.449
N17715 X474. Z-12.874
N17720 Y237.662 Z-13.3
N17725 X476. Z-13.725
N17730 Y235.662 Z-14.15
N17735 X474. Z-14.575
N17740 Y237.662 Z-15.
N17745 S10001
N17750 X476. F1000.
N17755 Y235.662
N17760 X474.
N17765 Y237.662
N17770 Z5.
N17775 X442.098
N17780 Z1. F500.
N17785 Z0.
N17790 S10000
N17795 X442.667 Z-0.121
N17800 Y235.662 Z-0.546
N17805 X440.667 Z-0.971
N17810 Y237.662 Z-1.396
N17815 X442.667 Z-1.821
N17820 Y235.662 Z-2.247
N17825 X440.667 Z-2.672
N17830 Y237.662 Z-3.097
N17835 X442.667 Z-3.522
N17840 Y235.662 Z-3.947
N17845 X440.667 Z-4.372
N17850 Y237.662 Z-4.797
N17855 X442.667 Z-5.222
N17860 Y235.662 Z-5.648
N17865 X440.667 Z-6.073
N17870 Y237.662 Z-6.498
N17875 X442.667 Z-6.923
N17880 Y235.662 Z-7.348
N17885 X440.667 Z-7.773
N17890 Y237.662 Z-8.198
N17895 X442.667 Z-8.623
N17900 Y235.662 Z-9.048
N17905 X440.667 Z-9.474
N17910 Y237.662 Z-9.899
N17915 X442.667 Z-10.324
N17920 Y235.662 Z-10.749
N17925 X440.667 Z-11.174
N17930 Y237.662 Z-11.599
N17935 X442.667 Z-12.024
N17940 Y235.662 Z-12.449
N17945 X440.667 Z-12.874
N17950 Y237.662 Z-13.3
N17955 X442.667 Z-13.725
N17960 Y235.662 Z-14.15
N17965 X440.667 Z-14.575
N17970 Y237.662 Z-15.
N17975 S10001
N17980 X442.667 F1000.
N17985 Y235.662
N17990 X440.667
N17995 Y237.662
N18000 Z5.
N18005 X408.764
N18010 Z1. F500.
N18015 Z0.
N18020 S10000
N18025 X409.333 Z-0.121
N18030 Y235.662 Z-0.546
N18035 X407.333 Z-0.971
N18040 Y237.662 Z-1.396
N18045 X409.333 Z-1.821
N18050 Y235.662 Z-2.247
N18055 X407.333 Z-2.672
N18060 Y237.662 Z-3.097
N18065 X409.333 Z-3.522
N18070 Y235.662 Z-3.947
N18075 X407.333 Z-4.372
N18080 Y237.662 Z-4.797
N18085 X409.333 Z-5.222
N18090 Y235.662 Z-5.648
N18095 X407.333 Z-6.073
N18100 Y237.662 Z-6.498
N18105 X409.333 Z-6.923
N18110 Y235.662 Z-7.348
N18115 X407.333 Z-7.773
N18120 Y237.662 Z-8.198
N18125 X409.333 Z-8.623
N18130 Y235.662 Z-9.048
N18135 X407.333 Z-9.474
N18140 Y237.662 Z-9.899
N18145 X409.333 Z-10.324
N18150 Y235.662 Z-10.749
N18155 X407.333 Z-11.174
N18160 Y237.662 Z-11.599
N18165 X409.333 Z-12.024
N18170 Y235.662 Z-12.449
N18175 X407.333 Z-12.874
N18180 Y237.662 Z-13.3
N18185 X409.333 Z-13.725
N18190 Y235.662 Z-14.15
N18195 X407.333 Z-14.575
N18200 Y237.662 Z-15.
N18205 S10001
N18210 X409.333 F1000.
N18215 Y235.662
N18220 X407.333
N18225 Y237.662
N18230 Z5.
N18235 X375.431
N18240 Z1. F500.
N18245 Z0.
N18250 S10000
N18255 X376. Z-0.121
N18260 Y235.662 Z-0.546
N18265 X374. Z-0.971
N18270 Y237.662 Z-1.396
N18275 X376. Z-1.821
N18280 Y235.662 Z-2.247
N18285 X374. Z-2.672
N18290 Y237.662 Z-3.097
N18295 X376. Z-3.522
N18300 Y235.662 Z-3.947
N18305 X374. Z-4.372
N18310 Y237.662 Z-4.797
N18315 X376. Z-5.222
N18320 Y235.662 Z-5.648
N18325 X374. Z-6.073
N18330 Y237.662 Z-6.498
N18335 X376. Z-6.923
N18340 Y235.662 Z-7.348
N18345 X374. Z-7.773
N18350 Y237.662 Z-8.198
N18355 X376. Z-8.623
N18360 Y235.662 Z-9.048
N18365 X374. Z-9.474
N18370 Y237.662 Z-9.899
N18375 X376. Z-10.324
N18380 Y235.662 Z-10.749
N18385 X374. Z-11.174
N18390 Y237.662 Z-11.599
N18395 X376. Z-12.024
N18400 Y235.662 Z-12.449
N18405 X374. Z-12.874
N18410 Y237.662 Z-13.3
N18415 X376. Z-13.725
N18420 Y235.662 Z-14.15
N18425 X374. Z-14.575
N18430 Y237.662 Z-15.
N18435 S10001
N18440 X376. F1000.
N18445 Y235.662
N18450 X374.
N18455 Y237.662
N18460 Z5.
N18465 X342.098
N18470 Z1. F500.
N18475 Z0.
N18480 S10000
N18485 X342.667 Z-0.121
N18490 Y235.662 Z-0.546
N18495 X340.667 Z-0.971
N18500 Y237.662 Z-1.396
N18505 X342.667 Z-1.821
N18510 Y235.662 Z-2.247
N18515 X340.667 Z-2.672
N18520 Y237.662 Z-3.097
N18525 X342.667 Z-3.522
N18530 Y235.662 Z-3.947
N18535 X340.667 Z-4.372
N18540 Y237.662 Z-4.797
N18545 X342.667 Z-5.222
N18550 Y235.662 Z-5.648
N18555 X340.667 Z-6.073
N18560 Y237.662 Z-6.498
N18565 X342.667 Z-6.923
N18570 Y235.662 Z-7.348
N18575 X340.667 Z-7.773
N18580 Y237.662 Z-8.198
N18585 X342.667 Z-8.623
N18590 Y235.662 Z-9.048
N18595 X340.667 Z-9.474
N18600 Y237.662 Z-9.899
N18605 X342.667 Z-10.324
N18610 Y235.662 Z-10.749
N18615 X340.667 Z-11.174
N18620 Y237.662 Z-11.599
N18625 X342.667 Z-12.024
N18630 Y235.662 Z-12.449
N18635 X340.667 Z-12.874
N18640 Y237.662 Z-13.3
N18645 X342.667 Z-13.725
N18650 Y235.662 Z-14.15
N18655 X340.667 Z-14.575
N18660 Y237.662 Z-15.
N18665 S10001
N18670 X342.667 F1000.
N18675 Y235.662
N18680 X340.667
N18685 Y237.662
N18690 Z5.
N18695 Y203.76
N18700 Z1. F500.
N18705 Z0.
N18710 S10000
N18715 Y204.329 Z-0.121
N18720 X342.667 Z-0.546
N18725 Y202.329 Z-0.971
N18730 X340.667 Z-1.396
N18735 Y204.329 Z-1.821
N18740 X342.667 Z-2.247
N18745 Y202.329 Z-2.672
N18750 X340.667 Z-3.097
N18755 Y204.329 Z-3.522
N18760 X342.667 Z-3.947
N18765 Y202.329 Z-4.372
N18770 X340.667 Z-4.797
N18775 Y204.329 Z-5.222
N18780 X342.667 Z-5.648
N18785 Y202.329 Z-6.073
N18790 X340.667 Z-6.498
N18795 Y204.329 Z-6.923
N18800 X342.667 Z-7.348
N18805 Y202.329 Z-7.773
N18810 X340.667 Z-8.198
N18815 Y204.329 Z-8.623
N18820 X342.667 Z-9.048
N18825 Y202.329 Z-9.474
N18830 X340.667 Z-9.899
N18835 Y204.329 Z-10.324
N18840 X342.667 Z-10.749
N18845 Y202.329 Z-11.174
N18850 X340.667 Z-11.599
N18855 Y204.329 Z-12.024
N18860 X342.667 Z-12.449
N18865 Y202.329 Z-12.874
N18870 X340.667 Z-13.3
N18875 Y204.329 Z-13.725
N18880 X342.667 Z-14.15
N18885 Y202.329 Z-14.575
N18890 X340.667 Z-15.
N18895 S10001
N18900 Y204.329 F1000.
N18905 X342.667
N18910 Y202.329
N18915 X340.667
N18920 Z5.
N18925 X374. Y203.76
N18930 Z1. F500.
N18935 Z0.
N18940 S10000
N18945 Y204.329 Z-0.121
N18950 X376. Z-0.546
N18955 Y202.329 Z-0.971
N18960 X374. Z-1.396
N18965 Y204.329 Z-1.821
N18970 X376. Z-2.247
N18975 Y202.329 Z-2.672
N18980 X374. Z-3.097
N18985 Y204.329 Z-3.522
N18990 X376. Z-3.947
N18995 Y202.329 Z-4.372
N19000 X374. Z-4.797
N19005 Y204.329 Z-5.222
N19010 X376. Z-5.648
N19015 Y202.329 Z-6.073
N19020 X374. Z-6.498
N19025 Y204.329 Z-6.923
N19030 X376. Z-7.348
N19035 Y202.329 Z-7.773
N19040 X374. Z-8.198
N19045 Y204.329 Z-8.623
N19050 X376. Z-9.048
N19055 Y202.329 Z-9.474
N19060 X374. Z-9.899
N19065 Y204.329 Z-10.324
N19070 X376. Z-10.749
N19075 Y202.329 Z-11.174
N19080 X374. Z-11.599
N19085 Y204.329 Z-12.024
N19090 X376. Z-12.449
N19095 Y202.329 Z-12.874
N19100 X374. Z-13.3
N19105 Y204.329 Z-13.725
N19110 X376. Z-14.15
N19115 Y202.329 Z-14.575
N19120 X374. Z-15.
N19125 S10001
N19130 Y204.329 F1000.
N19135 X376.
N19140 Y202.329
N19145 X374.
N19150 Z5.
N19155 Y170.427
N19160 Z1. F500.
N19165 Z0.
N19170 S10000
N19175 Y170.996 Z-0.121
N19180 X376. Z-0.546
N19185 Y168.996 Z-0.971
N19190 X374. Z-1.396
N19195 Y170.996 Z-1.821
N19200 X376. Z-2.247
N19205 Y168.996 Z-2.672
N19210 X374. Z-3.097
N19215 Y170.996 Z-3.522
N19220 X376. Z-3.947
N19225 Y168.996 Z-4.372
N19230 X374. Z-4.797
N19235 Y170.996 Z-5.222
N19240 X376. Z-5.648
N19245 Y168.996 Z-6.073
N19250 X374. Z-6.498
N19255 Y170.996 Z-6.923
N19260 X376. Z-7.348
N19265 Y168.996 Z-7.773
N19270 X374. Z-8.198
N19275 Y170.996 Z-8.623
N19280 X376. Z-9.048
N19285 Y168.996 Z-9.474
N19290 X374. Z-9.899
N19295 Y170.996 Z-10.324
N19300 X376. Z-10.749
N19305 Y168.996 Z-11.174
N19310 X374. Z-11.599
N19315 Y170.996 Z-12.024
N19320 X376. Z-12.449
N19325 Y168.996 Z-12.874
N19330 X374. Z-13.3
N19335 Y170.996 Z-13.725
N19340 X376. Z-14.15
N19345 Y168.996 Z-14.575
N19350 X374. Z-15.
N19355 S10001
N19360 Y170.996 F1000.
N19365 X376.
N19370 Y168.996
N19375 X374.
N19380 Z5.
N19385 X375.431 Y137.662
N19390 Z1. F500.
N19395 Z0.
N19400 S10000
N19405 X376. Z-0.121
N19410 Y135.662 Z-0.546
N19415 X374. Z-0.971
N19420 Y137.662 Z-1.396
N19425 X376. Z-1.821
N19430 Y135.662 Z-2.247
N19435 X374. Z-2.672
N19440 Y137.662 Z-3.097
N19445 X376. Z-3.522
N19450 Y135.662 Z-3.947
N19455 X374. Z-4.372
N19460 Y137.662 Z-4.797
N19465 X376. Z-5.222
N19470 Y135.662 Z-5.648
N19475 X374. Z-6.073
N19480 Y137.662 Z-6.498
N19485 X376. Z-6.923
N19490 Y135.662 Z-7.348
N19495 X374. Z-7.773
N19500 Y137.662 Z-8.198
N19505 X376. Z-8.623
N19510 Y135.662 Z-9.048
N19515 X374. Z-9.474
N19520 Y137.662 Z-9.899
N19525 X376. Z-10.324
N19530 Y135.662 Z-10.749
N19535 X374. Z-11.174
N19540 Y137.662 Z-11.599
N19545 X376. Z-12.024
N19550 Y135.662 Z-12.449
N19555 X374. Z-12.874
N19560 Y137.662 Z-13.3
N19565 X376. Z-13.725
N19570 Y135.662 Z-14.15
N19575 X374. Z-14.575
N19580 Y137.662 Z-15.
N19585 S10001
N19590 X376. F1000.
N19595 Y135.662
N19600 X374.
N19605 Y137.662
N19610 Z5.
N19615 X409.333 Y136.231
N19620 Z1. F500.
N19625 Z0.
N19630 S10000
N19635 Y135.662 Z-0.121
N19640 X407.333 Z-0.546
N19645 Y137.662 Z-0.971
N19650 X409.333 Z-1.396
N19655 Y135.662 Z-1.821
N19660 X407.333 Z-2.247
N19665 Y137.662 Z-2.672
N19670 X409.333 Z-3.097
N19675 Y135.662 Z-3.522
N19680 X407.333 Z-3.947
N19685 Y137.662 Z-4.372
N19690 X409.333 Z-4.797
N19695 Y135.662 Z-5.222
N19700 X407.333 Z-5.648
N19705 Y137.662 Z-6.073
N19710 X409.333 Z-6.498
N19715 Y135.662 Z-6.923
N19720 X407.333 Z-7.348
N19725 Y137.662 Z-7.773
N19730 X409.333 Z-8.198
N19735 Y135.662 Z-8.623
N19740 X407.333 Z-9.048
N19745 Y137.662 Z-9.474
N19750 X409.333 Z-9.899
N19755 Y135.662 Z-10.324
N19760 X407.333 Z-10.749
N19765 Y137.662 Z-11.174
N19770 X409.333 Z-11.599
N19775 Y135.662 Z-12.024
N19780 X407.333 Z-12.449
N19785 Y137.662 Z-12.874
N19790 X409.333 Z-13.3
N19795 Y135.662 Z-13.725
N19800 X407.333 Z-14.15
N19805 Y137.662 Z-14.575
N19810 X409.333 Z-15.
N19815 S10001
N19820 Y135.662 F1000.
N19825 X407.333
N19830 Y137.662
N19835 X409.333
N19840 Z5.
N19845 X407.902 Y168.996
N19850 Z1. F500.
N19855 Z0.
N19860 S10000
N19865 X407.333 Z-0.121
N19870 Y170.996 Z-0.546
N19875 X409.333 Z-0.971
N19880 Y168.996 Z-1.396
N19885 X407.333 Z-1.821
N19890 Y170.996 Z-2.247
N19895 X409.333 Z-2.672
N19900 Y168.996 Z-3.097
N19905 X407.333 Z-3.522
N19910 Y170.996 Z-3.947
N19915 X409.333 Z-4.372
N19920 Y168.996 Z-4.797
N19925 X407.333 Z-5.222
N19930 Y170.996 Z-5.648
N19935 X409.333 Z-6.073
N19940 Y168.996 Z-6.498
N19945 X407.333 Z-6.923
N19950 Y170.996 Z-7.348
N19955 X409.333 Z-7.773
N19960 Y168.996 Z-8.198
N19965 X407.333 Z-8.623
N19970 Y170.996 Z-9.048
N19975 X409.333 Z-9.474
N19980 Y168.996 Z-9.899
N19985 X407.333 Z-10.324
N19990 Y170.996 Z-10.749
N19995 X409.333 Z-11.174
N20000 Y168.996 Z-11.599
N20005 X407.333 Z-12.024
N20010 Y170.996 Z-12.449
N20015 X409.333 Z-12.874
N20020 Y168.996 Z-13.3
N20025 X407.333 Z-13.725
N20030 Y170.996 Z-14.15
N20035 X409.333 Z-14.575
N20040 Y168.996 Z-15.
N20045 S10001
N20050 X407.333 F1000.
N20055 Y170.996
N20060 X409.333
N20065 Y168.996
N20070 Z5.
N20075 X440.667 Y170.427
N20080 Z1. F500.
N20085 Z0.
N20090 S10000
N20095 Y170.996 Z-0.121
N20100 X442.667 Z-0.546
N20105 Y168.996 Z-0.971
N20110 X440.667 Z-1.396
N20115 Y170.996 Z-1.821
N20120 X442.667 Z-2.247
N20125 Y168.996 Z-2.672
N20130 X440.667 Z-3.097
N20135 Y170.996 Z-3.522
N20140 X442.667 Z-3.947
N20145 Y168.996 Z-4.372
N20150 X440.667 Z-4.797
N20155 Y170.996 Z-5.222
N20160 X442.667 Z-5.648
N20165 Y168.996 Z-6.073
N20170 X440.667 Z-6.498
N20175 Y170.996 Z-6.923
N20180 X442.667 Z-7.348
N20185 Y168.996 Z-7.773
N20190 X440.667 Z-8.198
N20195 Y170.996 Z-8.623
N20200 X442.667 Z-9.048
N20205 Y168.996 Z-9.474
N20210 X440.667 Z-9.899
N20215 Y170.996 Z-10.324
N20220 X442.667 Z-10.749
N20225 Y168.996 Z-11.174
N20230 X440.667 Z-11.599
N20235 Y170.996 Z-12.024
N20240 X442.667 Z-12.449
N20245 Y168.996 Z-12.874
N20250 X440.667 Z-13.3
N20255 Y170.996 Z-13.725
N20260 X442.667 Z-14.15
N20265 Y168.996 Z-14.575
N20270 X440.667 Z-15.
N20275 S10001
N20280 Y170.996 F1000.
N20285 X442.667
N20290 Y168.996
N20295 X440.667
N20300 Z5.
N20305 X442.098 Y137.662
N20310 Z1. F500.
N20315 Z0.
N20320 S10000
N20325 X442.667 Z-0.121
N20330 Y135.662 Z-0.546
N20335 X440.667 Z-0.971
N20340 Y137.662 Z-1.396
N20345 X442.667 Z-1.821
N20350 Y135.662 Z-2.247
N20355 X440.667 Z-2.672
N20360 Y137.662 Z-3.097
N20365 X442.667 Z-3.522
N20370 Y135.662 Z-3.947
N20375 X440.667 Z-4.372
N20380 Y137.662 Z-4.797
N20385 X442.667 Z-5.222
N20390 Y135.662 Z-5.648
N20395 X440.667 Z-6.073
N20400 Y137.662 Z-6.498
N20405 X442.667 Z-6.923
N20410 Y135.662 Z-7.348
N20415 X440.667 Z-7.773
N20420 Y137.662 Z-8.198
N20425 X442.667 Z-8.623
N20430 Y135.662 Z-9.048
N20435 X440.667 Z-9.474
N20440 Y137.662 Z-9.899
N20445 X442.667 Z-10.324
N20450 Y135.662 Z-10.749
N20455 X440.667 Z-11.174
N20460 Y137.662 Z-11.599
N20465 X442.667 Z-12.024
N20470 Y135.662 Z-12.449
N20475 X440.667 Z-12.874
N20480 Y137.662 Z-13.3
N20485 X442.667 Z-13.725
N20490 Y135.662 Z-14.15
N20495 X440.667 Z-14.575
N20500 Y137.662 Z-15.
N20505 S10001
N20510 X442.667 F1000.
N20515 Y135.662
N20520 X440.667
N20525 Y137.662
N20530 Z5.
N20535 Y203.76
N20540 Z1. F500.
N20545 Z0.
N20550 S10000
N20555 Y204.329 Z-0.121
N20560 X442.667 Z-0.546
N20565 Y202.329 Z-0.971
N20570 X440.667 Z-1.396
N20575 Y204.329 Z-1.821
N20580 X442.667 Z-2.247
N20585 Y202.329 Z-2.672
N20590 X440.667 Z-3.097
N20595 Y204.329 Z-3.522
N20600 X442.667 Z-3.947
N20605 Y202.329 Z-4.372
N20610 X440.667 Z-4.797
N20615 Y204.329 Z-5.222
N20620 X442.667 Z-5.648
N20625 Y202.329 Z-6.073
N20630 X440.667 Z-6.498
N20635 Y204.329 Z-6.923
N20640 X442.667 Z-7.348
N20645 Y202.329 Z-7.773
N20650 X440.667 Z-8.198
N20655 Y204.329 Z-8.623
N20660 X442.667 Z-9.048
N20665 Y202.329 Z-9.474
N20670 X440.667 Z-9.899
N20675 Y204.329 Z-10.324
N20680 X442.667 Z-10.749
N20685 Y202.329 Z-11.174
N20690 X440.667 Z-11.599
N20695 Y204.329 Z-12.024
N20700 X442.667 Z-12.449
N20705 Y202.329 Z-12.874
N20710 X440.667 Z-13.3
N20715 Y204.329 Z-13.725
N20720 X442.667 Z-14.15
N20725 Y202.329 Z-14.575
N20730 X440.667 Z-15.
N20735 S10001
N20740 Y204.329 F1000.
N20745 X442.667
N20750 Y202.329
N20755 X440.667
N20760 Z5.
N20765 X409.333 Y202.898
N20770 Z1. F500.
N20775 Z0.
N20780 S10000
N20785 Y202.329 Z-0.121
N20790 X407.333 Z-0.546
N20795 Y204.329 Z-0.971
N20800 X409.333 Z-1.396
N20805 Y202.329 Z-1.821
N20810 X407.333 Z-2.247
N20815 Y204.329 Z-2.672
N20820 X409.333 Z-3.097
N20825 Y202.329 Z-3.522
N20830 X407.333 Z-3.947
N20835 Y204.329 Z-4.372
N20840 X409.333 Z-4.797
N20845 Y202.329 Z-5.222
N20850 X407.333 Z-5.648
N20855 Y204.329 Z-6.073
N20860 X409.333 Z-6.498
N20865 Y202.329 Z-6.923
N20870 X407.333 Z-7.348
N20875 Y204.329 Z-7.773
N20880 X409.333 Z-8.198
N20885 Y202.329 Z-8.623
N20890 X407.333 Z-9.048
N20895 Y204.329 Z-9.474
N20900 X409.333 Z-9.899
N20905 Y202.329 Z-10.324
N20910 X407.333 Z-10.749
N20915 Y204.329 Z-11.174
N20920 X409.333 Z-11.599
N20925 Y202.329 Z-12.024
N20930 X407.333 Z-12.449
N20935 Y204.329 Z-12.874
N20940 X409.333 Z-13.3
N20945 Y202.329 Z-13.725
N20950 X407.333 Z-14.15
N20955 Y204.329 Z-14.575
N20960 X409.333 Z-15.
N20965 S10001
N20970 Y202.329 F1000.
N20975 X407.333
N20980 Y204.329
N20985 X409.333
N20990 Z15.
N20995 M30
%
