%
(13X13_V2_RIGHT_BACK_2MM)
(T2  D=2. CR=0. - ZMIN=-15. - FLAT END MILL)
N10 G90 G94 G17 G91.1
N15 G21
(DRILL1)
N20 M8
N25 S12000 M3
N30 G54
N35 G0 X425. Y153.33
N45 G0 Z5.
N50 G98 G83 X425. Y153.33 Z-15. R5. Q3. F500.
N55 X491.667 Y153.333
N60 X516.778 Y212.966
N65 X491.667 Y219.995
N70 X425. Y220.
N75 X325.
N80 X225.
N85 X125.
N90 X58.333 Y219.995
N95 Y153.333
N100 X125. Y153.33
N105 X58.333 Y53.333
N110 X125.
N115 X225. Y53.332
N120 Y120.
N125 X325.
N130 Y53.332
N135 X425. Y53.333
N140 X491.667
N145 X502.778 Y5.333
N150 G80
N155 G0 Z15.
N160 M30
%
