%
(13X13_V2_RIGHT_FRONT_6MM)
(T2  D=6. CR=0. - ZMIN=-15. - FLAT END MILL)
N10 G90 G94 G17 G91.1
N15 G21
(WHEN USING FUSION 360 FOR PERSONAL USE, THE FEEDRATE OF)
(RAPID MOVES IS REDUCED TO MATCH THE FEEDRATE OF CUTTING)
(MOVES, WHICH CAN INCREASE MACHINING TIME. UNRESTRICTED RAPID)
(MOVES ARE AVAILABLE WITH A FUSION 360 SUBSCRIPTION.)
(POCKET2)
N20 M8
N25 S12000 M3
N30 G54
N35 G0 X267.402 Y137.213
N45 G1 Z3. F2700.
N50 Z1.598 F1800.
N55 X267.399 Y137.195 Z1.451 F2700.
N60 X267.392 Y137.141 Z1.312
N65 X267.383 Y137.055 Z1.191
N70 X267.373 Y136.942 Z1.095
N75 X267.366 Y136.808 Z1.03
N80 X267.363 Y136.662 Z1.
N85 G3 X275.363 Z0. I4. J0.
N90 X267.363 Z-1. I-4. J0.
N95 X275.363 Z-2. I4. J0.
N100 X274.637 I-0.363 J0.
N105 X278.963 I2.163 J0.
N110 X271.037 I-3.963 J0.
N115 X282.563 I5.763 J0.
N120 X267.437 I-7.563 J0.
N125 X282.563 I7.563 J0.
N130 G2 X283.961 Y139.018 I2.684 J0.
N135 G3 X284.833 Y141.615 I-0.966 J1.769
N140 G1 X284.816 Y141.654
N145 X284.53 Y142.182
N150 X284.066 Y142.929
N155 X283.822 Y143.28
N160 X283.405 Y143.823
N165 X282.919 Y144.363
N170 X282.72 Y144.561
N175 X281.761 Y145.383
N180 X280.818 Y146.002
N185 X280.27 Y146.334
N190 X279.75 Y146.599
N195 X279.211 Y146.828
N200 X278.598 Y147.058
N205 X278.122 Y147.21
N210 X277.572 Y147.349
N215 X277.028 Y147.468
N220 X276.48 Y147.55
N225 X276.097 Y147.598
N230 X275.397 Y147.646
N235 X274.852
N240 X274.304 Y147.632
N245 X273.768 Y147.583
N250 X273.212 Y147.507
N255 X272.678 Y147.415
N260 X272.14 Y147.278
N265 X271.586 Y147.119
N270 X271.051 Y146.933
N275 X270.492 Y146.699
N280 X270.073 Y146.513
N285 X269.409 Y146.154
N290 X269.109 Y145.973
N295 X268.884 Y145.827
N300 X268.3 Y145.42
N305 X267.778 Y145.014
N310 X267.241 Y144.529
N315 X267.106 Y144.389
N320 X266.275 Y143.418
N325 X265.462 Y142.175
N330 X265.081 Y141.446
N335 X264.932 Y141.113
N340 X264.708 Y140.567
N345 X264.53 Y140.028
N350 X264.37 Y139.477
N355 X264.246 Y138.942
N360 X264.149 Y138.389
N365 X264.071 Y137.85
N370 X264.034 Y137.314
N375 X264.013 Y136.758
N380 X264.019 Y136.223
N385 X264.057 Y135.672
N390 X264.11 Y135.133
N395 X264.203 Y134.6
N400 X264.32 Y134.045
N405 X264.462 Y133.502
N410 X264.536 Y133.27
N415 X264.637 Y132.979
N420 X264.846 Y132.419
N425 X265.083 Y131.882
N430 X265.367 Y131.333
N435 X265.631 Y130.861
N440 X266.026 Y130.252
N445 X266.442 Y129.701
N450 X266.713 Y129.369
N455 X267.252 Y128.787
N460 X267.379 Y128.672
N465 X268.25 Y127.932
N470 X269.449 Y127.149
N475 X269.68 Y127.016
N480 X269.945 Y126.88
N485 X270.508 Y126.612
N490 X271.041 Y126.392
N495 X271.587 Y126.208
N500 X272.134 Y126.044
N505 X272.669 Y125.92
N510 X273.227 Y125.818
N515 X273.764 Y125.738
N520 X274.303 Y125.699
N525 X274.858 Y125.675
N530 X275.394 Y125.681
N535 X275.951 Y125.716
N540 X276.483 Y125.764
N545 X277.424 Y125.932
N550 X278.111 Y126.111
N555 X278.658 Y126.291
N560 X279.205 Y126.492
N565 X279.74 Y126.728
N570 X280.309 Y127.019
N575 X280.84 Y127.319
N580 X281.376 Y127.666
N585 X281.958 Y128.103
N590 X282.484 Y128.545
N595 X282.581 Y128.633
N600 X282.982 Y129.034
N605 X283.726 Y129.907
N610 X284.317 Y130.811
N615 X284.654 Y131.358
N620 X284.919 Y131.876
N625 X285.164 Y132.446
N630 X285.365 Y132.967
N635 X285.534 Y133.498
N640 X285.711 Y134.194
N645 X285.8 Y134.591
N650 X285.88 Y135.128
N655 X285.943 Y135.684
N660 X285.98 Y136.22
N665 X285.985 Y136.769
N670 X285.974 Y137.311
N675 X285.925 Y137.846
N680 X285.854 Y138.401
N685 X285.759 Y138.948
N690 X285.714 Y139.146
N695 X285.474 Y140.028
N700 X285.285 Y140.571
N705 X285.169 Y140.87
N710 X284.833 Y141.615
N715 G3 X284.405 Y141.749 I-0.274 J-0.123
N720 G1 X282.674 Y140.709
N725 X282.629 Y140.687
N730 X276.477 Y138.275
N735 X276.349 Y138.295
N740 X276.33 Y138.292
N745 X276.317 Y138.278
N750 G3 X283.634 Y135.045 Z-3.766 I3.659 J-1.617
N755 X283.975 Y136.662 Z-4. I-3.659 J1.617
N760 X276.636 I-3.67 J0.
N765 X276.964 I0.164 J0.
N770 X273.036 I-1.964 J0.
N775 X280.564 I3.764 J0.
N780 X269.436 I-5.564 J0.
N785 X280.564 I5.564 J0.
N790 G2 X281.809 Y139.327 I3.477 J0.
N795 G3 X282.144 Y142.25 I-1.372 J1.638
N800 G1 X281.882 Y142.598
N805 X281.445 Y143.088
N810 X280.571 Y143.824
N815 X279.625 Y144.432
N820 X279.108 Y144.707
N825 X278.576 Y144.946
N830 X278.041 Y145.15
N835 X277.52 Y145.314
N840 X276.993 Y145.437
N845 X276.449 Y145.537
N850 X275.916 Y145.608
N855 X275.393 Y145.644
N860 X274.856 Y145.648
N865 X274.312 Y145.627
N870 X273.791 Y145.58
N875 X273.269 Y145.492
N880 X272.732 Y145.374
N885 X272.109 Y145.197
N890 X271.669 Y145.046
N895 X271.127 Y144.815
N900 X270.819 Y144.671
N905 X270.622 Y144.566
N910 X270.067 Y144.249
N915 X269.533 Y143.897
N920 X269.003 Y143.493
N925 X268.584 Y143.118
N930 X267.849 Y142.246
N935 X267.385 Y141.529
N940 X267.064 Y140.989
N945 X266.812 Y140.475
N950 X266.601 Y139.955
N955 X266.401 Y139.348
N960 X266.277 Y138.886
N965 X266.161 Y138.355
N970 X266.084 Y137.833
N975 X266.035 Y137.293
N980 X266.011 Y136.754
N985 X266.017 Y136.232
N990 X266.06 Y135.705
N995 X266.13 Y135.163
N1000 X266.225 Y134.638
N1005 X266.401 Y133.96
N1010 X266.526 Y133.596
N1015 X266.74 Y133.036
N1020 X266.932 Y132.592
N1025 X267.253 Y131.988
N1030 X267.583 Y131.461
N1035 X267.995 Y130.892
N1040 X268.54 Y130.249
N1045 X269.406 Y129.519
N1050 X270.094 Y129.072
N1055 X270.46 Y128.838
N1060 X270.59 Y128.768
N1065 X271.133 Y128.496
N1070 X271.655 Y128.284
N1075 X272.193 Y128.101
N1080 X272.735 Y127.949
N1085 X273.258 Y127.83
N1090 X273.781 Y127.753
N1095 X274.327 Y127.7
N1100 X274.863 Y127.673
N1105 X275.385 Y127.678
N1110 X275.914 Y127.718
N1115 X276.522 Y127.796
N1120 X276.984 Y127.877
N1125 X277.505 Y128.011
N1130 X278.056 Y128.184
N1135 X278.444 Y128.323
N1140 X279.113 Y128.618
N1145 X279.637 Y128.896
N1150 X280.191 Y129.239
N1155 X280.41 Y129.384
N1160 X280.698 Y129.601
N1165 X281.097 Y129.921
N1170 X281.416 Y130.206
N1175 X282.145 Y131.071
N1180 X282.79 Y132.068
N1185 X283.023 Y132.51
N1190 X283.316 Y133.167
N1195 X283.474 Y133.579
N1200 X283.639 Y134.102
N1205 X283.77 Y134.647
N1210 X283.841 Y134.984
N1215 X283.943 Y135.704
N1220 X283.979 Y136.225
N1225 X283.986 Y136.765
N1230 X283.969 Y137.303
N1235 X283.922 Y137.823
N1240 X283.837 Y138.349
N1245 X283.722 Y138.89
N1250 X283.581 Y139.419
N1255 X283.397 Y139.954
N1260 X283.316 Y140.16
N1265 X283.185 Y140.462
N1270 X282.912 Y141.025
N1275 X282.777 Y141.28
N1280 X282.632 Y141.526
N1285 X282.241 Y142.121
N1290 X282.144 Y142.25
N1295 G3 X281.694 Y142.283 I-0.24 J-0.18
N1300 G1 X278.368 Y139.01
N1305 X278.317 Y138.971
N1310 X278.259 Y138.942
N1315 X278.197 Y138.927
N1320 X274.539 Y138.453
N1325 G3 X274.303 Y138.277 I0.039 J-0.298
N1330 X281.62 Y135.043 Z-5.766 I3.659 J-1.617
N1335 X281.962 Y136.66 Z-6. I-3.659 J1.617
N1340 X275.033 I-3.464 J0.
N1345 X278.565 I1.766 J0.
N1350 X271.433 I-3.566 J0.
N1355 X278.565 I3.566 J0.
N1360 G2 X279.736 Y139.201 I3.342 J0.
N1365 G3 X279.708 Y141.999 I-1.185 J1.387
N1370 G1 X279.393 Y142.258
N1375 X278.99 Y142.51
N1380 X278.434 Y142.837
N1385 X277.95 Y143.062
N1390 X277.435 Y143.258
N1395 X276.921 Y143.412
N1400 X276.41 Y143.526
N1405 X275.897 Y143.601
N1410 X275.379 Y143.643
N1415 X274.86 Y143.65
N1420 X274.342 Y143.624
N1425 X273.826 Y143.563
N1430 X273.312 Y143.466
N1435 X272.798 Y143.331
N1440 X272.283 Y143.156
N1445 X271.769 Y142.938
N1450 X271.256 Y142.673
N1455 X270.744 Y142.355
N1460 X270.225 Y141.967
N1465 X269.963 Y141.737
N1470 X269.411 Y141.064
N1475 X268.96 Y140.345
N1480 X268.7 Y139.84
N1485 X268.491 Y139.337
N1490 X268.262 Y138.629
N1495 X268.193 Y138.325
N1500 X268.095 Y137.789
N1505 X268.035 Y137.271
N1510 X268.009 Y136.753
N1515 X268.017 Y136.24
N1520 X268.062 Y135.732
N1525 X268.144 Y135.221
N1530 X268.263 Y134.71
N1535 X268.422 Y134.192
N1540 X268.626 Y133.665
N1545 X268.781 Y133.322
N1550 X268.851 Y133.186
N1555 X269.175 Y132.619
N1560 X269.293 Y132.426
N1565 X269.497 Y132.148
N1570 X269.819 Y131.744
N1575 X269.915 Y131.633
N1580 X270.593 Y131.077
N1585 X271.265 Y130.655
N1590 X271.776 Y130.385
N1595 X272.283 Y130.17
N1600 X272.797 Y129.996
N1605 X273.312 Y129.861
N1610 X273.83 Y129.763
N1615 X274.349 Y129.7
N1620 X274.867 Y129.671
N1625 X275.377 Y129.676
N1630 X275.887 Y129.72
N1635 X276.403 Y129.8
N1640 X276.918 Y129.917
N1645 X277.454 Y130.078
N1650 X277.733 Y130.175
N1655 X277.923 Y130.256
N1660 X278.48 Y130.516
N1665 X278.808 Y130.691
N1670 X278.949 Y130.779
N1675 X279.577 Y131.207
N1680 X280.041 Y131.591
N1685 X280.595 Y132.268
N1690 X280.952 Y132.839
N1695 X281.146 Y133.171
N1700 X281.386 Y133.677
N1705 X281.585 Y134.191
N1710 X281.74 Y134.7
N1715 X281.854 Y135.209
N1720 X281.933 Y135.725
N1725 X281.978 Y136.243
N1730 X281.988 Y136.761
N1735 X281.965 Y137.278
N1740 X281.908 Y137.793
N1745 X281.815 Y138.306
N1750 X281.685 Y138.817
N1755 X281.514 Y139.327
N1760 X281.298 Y139.84
N1765 X281.035 Y140.357
N1770 X280.721 Y140.872
N1775 X280.348 Y141.387
N1780 X280.091 Y141.685
N1785 X279.708 Y141.999
N1790 G3 X279.232 Y141.858 I-0.19 J-0.232
N1795 G1 X277.147 Y135.256
N1800 G3 X277.707 Y135.044 I0.286 J-0.09
N1805 X270.39 Y138.278 Z-7.766 I-3.659 J1.617
N1810 X270.048 Y136.661 Z-8. I3.659 J-1.617
N1815 X276.565 I3.259 J0.
N1820 X273.432 I-1.567 J0.
N1825 X276.565 I1.567 J0.
N1830 G2 X277.715 Y138.668 I2.327 J0.
N1835 G3 X277.729 Y140.981 I-0.681 J1.161
N1840 G1 X277.699 Y140.999
N1845 X277.326 Y141.179
N1850 X276.826 Y141.367
N1855 X276.453 Y141.475
N1860 X275.849 Y141.591
N1865 X275.357 Y141.641
N1870 X274.863 Y141.652
N1875 X274.371 Y141.621
N1880 X273.883 Y141.551
N1885 X273.397 Y141.432
N1890 X272.909 Y141.27
N1895 X272.391 Y141.039
N1900 X272.303 Y140.995
N1905 X271.929 Y140.784
N1910 X271.423 Y140.433
N1915 X271.362 Y140.382
N1920 X271.173 Y140.15
N1925 X271.036 Y139.977
N1930 X270.871 Y139.706
N1935 X270.622 Y139.276
N1940 X270.375 Y138.709
N1945 X270.217 Y138.224
N1950 X270.104 Y137.735
N1955 X270.035 Y137.247
N1960 X270.007 Y136.757
N1965 X270.022 Y136.265
N1970 X270.076 Y135.758
N1975 X270.133 Y135.437
N1980 X270.161 Y135.321
N1985 X270.317 Y134.794
N1990 X270.503 Y134.3
N1995 X270.739 Y133.824
N2000 X271.063 Y133.319
N2005 X271.26 Y133.05
N2010 X271.304 Y133.
N2015 X271.682 Y132.701
N2020 X271.964 Y132.529
N2025 X272.42 Y132.268
N2030 X272.979 Y132.027
N2035 X273.389 Y131.894
N2040 X273.887 Y131.775
N2045 X274.378 Y131.701
N2050 X274.864 Y131.669
N2055 X275.356 Y131.68
N2060 X275.849 Y131.73
N2065 X276.334 Y131.823
N2070 X276.863 Y131.976
N2075 X277.04 Y132.033
N2080 X277.305 Y132.141
N2085 X277.824 Y132.394
N2090 X278.024 Y132.511
N2095 X278.282 Y132.682
N2100 X278.664 Y132.973
N2105 X278.951 Y133.332
N2110 X279.25 Y133.821
N2115 X279.506 Y134.317
N2120 X279.691 Y134.793
N2125 X279.828 Y135.279
N2130 X279.923 Y135.77
N2135 X279.976 Y136.264
N2140 X279.99 Y136.757
N2145 X279.962 Y137.249
N2150 X279.895 Y137.74
N2155 X279.784 Y138.226
N2160 X279.627 Y138.707
N2165 X279.413 Y139.195
N2170 X279.106 Y139.758
N2175 X278.809 Y140.187
N2180 X278.708 Y140.312
N2185 X278.294 Y140.64
N2190 X277.729 Y140.981
N2195 G3 X277.291 Y140.624 I-0.155 J-0.257
N2200 G1 X277.989 Y138.639
N2205 G2 X277.459 Y138.369 I-0.283 J-0.1
N2210 G3 X272.536 Y134.951 Z-9.323 I-2.462 J-1.709
N2215 X276.796 Y134.263 Z-10. I2.462 J1.709
N2220 X274.513 Y137.307 I-1.142 J1.522
N2225 X275.483 Y136.013 I0.485 J-0.647
N2230 X274.513 Y137.307 I-0.485 J0.647
N2235 G2 X273.111 Y136.99 I-1.055 J1.406
N2240 G3 X272.049 Y136.022 I-0.176 J-0.874
N2245 G1 X272.061 Y135.908
N2250 X272.065 Y135.884
N2255 X272.277 Y135.158
N2260 X272.53 Y134.622
N2265 X272.706 Y134.357
N2270 X273.073 Y134.128
N2275 X273.559 Y133.909
N2280 X273.598 Y133.894
N2285 X273.951 Y133.795
N2290 X274.424 Y133.699
N2295 X274.904 Y133.662
N2300 X275.096 Y133.659
N2305 X275.305 Y133.674
N2310 X275.774 Y133.73
N2315 X276.402 Y133.906
N2320 X276.516 Y133.942
N2325 X277.04 Y134.191
N2330 X277.095 Y134.225
N2335 X277.308 Y134.37
N2340 X277.53 Y134.728
N2345 X277.629 Y134.935
N2350 X277.75 Y135.216
N2355 X277.798 Y135.36
N2360 X277.927 Y135.861
N2365 X277.959 Y136.051
N2370 X277.979 Y136.266
N2375 X278.002 Y136.752
N2380 X277.962 Y137.232
N2385 X277.936 Y137.43
N2390 X277.89 Y137.625
N2395 X277.734 Y138.151
N2400 X277.719 Y138.188
N2405 X277.535 Y138.57
N2410 X277.437 Y138.758
N2415 X277.297 Y138.967
N2420 X276.969 Y139.172
N2425 X276.855 Y139.232
N2430 X276.451 Y139.41
N2435 X276.268 Y139.471
N2440 X275.708 Y139.607
N2445 X275.341 Y139.645
N2450 X274.87 Y139.664
N2455 X274.382 Y139.62
N2460 X274.282 Y139.607
N2465 X274.173 Y139.586
N2470 X273.512 Y139.393
N2475 X272.97 Y139.141
N2480 X272.94 Y139.123
N2485 X272.696 Y138.959
N2490 X272.461 Y138.58
N2495 X272.252 Y138.108
N2500 X272.111 Y137.629
N2505 X272.063 Y137.421
N2510 X272.034 Y137.227
N2515 X271.997 Y136.719
N2520 X271.996 Y136.57
N2525 X272.009 Y136.395
N2530 X272.049 Y136.022
N2535 G3 X272.456 Y135.774 I0.298 J0.032
N2540 G1 X274.016 Y136.38
N2545 X274.048 Y136.39
N2550 X274.091 Y136.405
N2555 X274.131 Y136.427
N2560 X274.532 Y136.679
N2565 G3 X274.212 Y137.187 I-0.16 J0.254
N2570 X274.096 Y137.051 I0.16 J-0.254
N2575 X275.906 Y136.278 Z-10.434 I0.905 J-0.386
N2580 X274.096 Y137.051 Z-10.869 I-0.905 J0.386
N2585 X275.906 Y136.278 Z-11.303 I0.905 J-0.386
N2590 X274.096 Y137.051 Z-11.738 I-0.905 J0.386
N2595 X274.923 Y135.684 Z-12. I0.905 J-0.386
N2600 G1 X275.049 Y135.674
N2605 X275.469 Y135.715
N2610 X275.844 Y135.818
N2615 X275.957 Y136.258
N2620 X275.991 Y136.688
N2625 X275.949 Y137.122
N2630 X275.844 Y137.506
N2635 X275.815 Y137.518
N2640 X275.432 Y137.617
N2645 X274.996 Y137.652
N2650 X274.56 Y137.613
N2655 X274.155 Y137.502
N2660 X274.043 Y137.068
N2665 X274.009 Y136.638
N2670 X274.051 Y136.204
N2675 X274.157 Y135.816
N2680 X274.172 Y135.81
N2685 X274.542 Y135.714
N2690 X274.923 Y135.684
N2695 X274.966 Y135.688
N2700 X275.005 Y135.707
N2705 X275.036 Y135.738
N2710 X275.053 Y135.778
N2715 X275.056 Y135.821
N2720 X274.989 Y136.395
N2725 Y136.423
N2730 X274.995 Y136.45
N2735 X275.186 Y136.991
N2740 X275.193 Y137.033
N2745 X275.186 Y137.074
N2750 X275.165 Y137.111
N2755 X275.133 Y137.139
N2760 X275.093 Y137.153
N2765 G3 X274.907 Y136.171 Z-12.221 I-0.093 J-0.491
N2770 X275.093 Y137.153 Z-12.442 I0.093 J0.491
N2775 X274.907 Y136.171 Z-12.662 I-0.093 J-0.491
N2780 X275.093 Y137.153 Z-12.883 I0.093 J0.491
N2785 X274.907 Y136.171 Z-13.104 I-0.093 J-0.491
N2790 X275.093 Y137.153 Z-13.325 I0.093 J0.491
N2795 X274.907 Y136.171 Z-13.545 I-0.093 J-0.491
N2800 X275.093 Y137.153 Z-13.766 I0.093 J0.491
N2805 X274.502 Y136.709 Z-13.883 I-0.093 J-0.491
N2810 X275. Y136.162 Z-14. I0.498 J-0.047
N2815 G1 X275.5
N2820 Y137.162
N2825 X274.5
N2830 Y136.162
N2835 X275.
N2840 X275.031 Y136.169
N2845 X275.055 Y136.189
N2850 X275.069 Y136.217
N2855 Y136.248
N2860 X275.056 Y136.277
N2865 X274.857 Y136.532
N2870 X274.621 Y136.754
N2875 X274.594 Y136.77
N2880 X274.563 Y136.772
N2885 X274.534 Y136.761
N2890 X274.512 Y136.739
N2895 X274.502 Y136.709
N2900 G3 X275.498 Y136.615 Z-14.221 I0.498 J-0.047
N2905 X274.502 Y136.709 Z-14.442 I-0.498 J0.047
N2910 X275.498 Y136.615 Z-14.662 I0.498 J-0.047
N2915 X274.502 Y136.709 Z-14.883 I-0.498 J0.047
N2920 X275. Y136.162 Z-15. I0.498 J-0.047
N2925 G1 X275.5
N2930 Y137.162
N2935 X274.5
N2940 Y136.162
N2945 X275.
N2950 G18 G2 X275.5 Z-14.732 I0. K0.6
N2955 G19 G3 Y136.262 Z-14.4 J-0.5 K0.332
N2960 G1 Z5.
N2965 X300.735 Y137.213
N2970 Z1.598
N2975 X300.732 Y137.195 Z1.451
N2980 X300.725 Y137.141 Z1.312
N2985 X300.716 Y137.055 Z1.191
N2990 X300.707 Y136.942 Z1.095
N2995 X300.699 Y136.808 Z1.03
N3000 X300.697 Y136.662 Z1.
N3005 G17 G3 X308.697 Z0. I4. J0.
N3010 X300.697 Z-1. I-4. J0.
N3015 X308.697 Z-2. I4. J0.
N3020 X307.971 I-0.363 J0.
N3025 X312.297 I2.163 J0.
N3030 X304.371 I-3.963 J0.
N3035 X315.897 I5.763 J0.
N3040 X300.771 I-7.563 J0.
N3045 X315.897 I7.563 J0.
N3050 G2 X317.295 Y139.018 I2.683 J0.
N3055 G3 X318.167 Y141.615 I-0.965 J1.769
N3060 G1 X318.149 Y141.654
N3065 X317.862 Y142.186
N3070 X317.516 Y142.751
N3075 X317.386 Y142.951
N3080 X317.156 Y143.278
N3085 X316.738 Y143.823
N3090 X316.254 Y144.362
N3095 X316.043 Y144.571
N3100 X315.09 Y145.387
N3105 X314.131 Y146.015
N3110 X313.583 Y146.344
N3115 X313.062 Y146.61
N3120 X312.524 Y146.837
N3125 X311.932 Y147.058
N3130 X311.434 Y147.217
N3135 X310.887 Y147.353
N3140 X310.341 Y147.471
N3145 X309.792 Y147.553
N3150 X309.431 Y147.597
N3155 X308.71 Y147.647
N3160 X308.166 Y147.646
N3165 X307.616 Y147.63
N3170 X307.081 Y147.581
N3175 X306.524 Y147.504
N3180 X305.99 Y147.411
N3185 X305.455 Y147.274
N3190 X304.899 Y147.112
N3195 X304.364 Y146.925
N3200 X303.804 Y146.689
N3205 X303.406 Y146.513
N3210 X302.73 Y146.148
N3215 X302.186 Y145.806
N3220 X301.633 Y145.42
N3225 X301.09 Y144.995
N3230 X300.556 Y144.512
N3235 X300.443 Y144.393
N3240 X299.608 Y143.418
N3245 X298.796 Y142.175
N3250 X298.393 Y141.406
N3255 X298.268 Y141.118
N3260 X298.041 Y140.568
N3265 X297.856 Y140.004
N3270 X297.703 Y139.478
N3275 X297.579 Y138.942
N3280 X297.482 Y138.389
N3285 X297.404 Y137.85
N3290 X297.367 Y137.314
N3295 X297.347 Y136.758
N3300 X297.352 Y136.223
N3305 X297.391 Y135.672
N3310 X297.443 Y135.133
N3315 X297.536 Y134.6
N3320 X297.654 Y134.045
N3325 X297.797 Y133.496
N3330 X297.848 Y133.331
N3335 X297.97 Y132.979
N3340 X298.18 Y132.419
N3345 X298.415 Y131.885
N3350 X298.702 Y131.33
N3355 X298.943 Y130.894
N3360 X299.359 Y130.252
N3365 X299.777 Y129.699
N3370 X300.027 Y129.39
N3375 X300.564 Y128.806
N3380 X300.713 Y128.672
N3385 X301.567 Y127.945
N3390 X302.763 Y127.162
N3395 X303.016 Y127.015
N3400 X303.258 Y126.891
N3405 X303.82 Y126.621
N3410 X304.353 Y126.401
N3415 X304.902 Y126.214
N3420 X305.446 Y126.049
N3425 X305.982 Y125.924
N3430 X306.54 Y125.821
N3435 X307.076 Y125.741
N3440 X307.617 Y125.701
N3445 X308.17 Y125.675
N3450 X308.707 Y125.68
N3455 X309.264 Y125.714
N3460 X309.795 Y125.762
N3465 X310.758 Y125.933
N3470 X311.423 Y126.106
N3475 X311.972 Y126.284
N3480 X312.518 Y126.483
N3485 X313.052 Y126.718
N3490 X313.646 Y127.02
N3495 X314.152 Y127.305
N3500 X314.688 Y127.652
N3505 X315.294 Y128.105
N3510 X315.795 Y128.525
N3515 X315.916 Y128.634
N3520 X316.294 Y129.011
N3525 X317.059 Y129.907
N3530 X317.657 Y130.82
N3535 X317.942 Y131.269
N3540 X318.252 Y131.876
N3545 X318.487 Y132.421
N3550 X318.698 Y132.968
N3555 X318.868 Y133.5
N3560 X319.022 Y134.098
N3565 X319.133 Y134.592
N3570 X319.213 Y135.128
N3575 X319.277 Y135.684
N3580 X319.314 Y136.22
N3585 X319.318 Y136.769
N3590 X319.307 Y137.311
N3595 X319.259 Y137.846
N3600 X319.187 Y138.401
N3605 X319.094 Y138.934
N3610 X318.961 Y139.476
N3615 X318.809 Y140.023
N3620 X318.619 Y140.566
N3625 X318.481 Y140.918
N3630 X318.167 Y141.615
N3635 G3 X317.739 Y141.749 I-0.273 J-0.123
N3640 G1 X316.009 Y140.709
N3645 X315.964 Y140.687
N3650 X309.807 Y138.275
N3655 X309.681 Y138.294
N3660 X309.663 Y138.292
N3665 X309.65 Y138.278
N3670 G3 X316.967 Y135.044 Z-3.766 I3.659 J-1.617
N3675 X317.309 Y136.661 Z-4. I-3.659 J1.617
N3680 X309.969 I-3.67 J0.
N3685 X310.297 I0.164 J0.
N3690 X306.369 I-1.964 J0.
N3695 X313.897 I3.764 J0.
N3700 X302.769 I-5.564 J0.
N3705 X313.897 I5.564 J0.
N3710 G2 X315.142 Y139.327 I3.477 J0.
N3715 G3 X315.478 Y142.25 I-1.372 J1.638
N3720 G1 X315.215 Y142.598
N3725 X314.779 Y143.087
N3730 X313.883 Y143.84
N3735 X312.939 Y144.445
N3740 X312.423 Y144.717
N3745 X311.891 Y144.953
N3750 X311.354 Y145.156
N3755 X310.833 Y145.32
N3760 X310.308 Y145.442
N3765 X309.763 Y145.54
N3770 X309.228 Y145.61
N3775 X308.705 Y145.645
N3780 X308.171 Y145.648
N3785 X307.625 Y145.625
N3790 X307.103 Y145.578
N3795 X306.583 Y145.489
N3800 X306.046 Y145.369
N3805 X305.443 Y145.197
N3810 X304.981 Y145.039
N3815 X304.44 Y144.807
N3820 X304.153 Y144.671
N3825 X303.934 Y144.555
N3830 X303.381 Y144.237
N3835 X302.847 Y143.882
N3840 X302.315 Y143.474
N3845 X301.917 Y143.118
N3850 X301.172 Y142.234
N3855 X300.719 Y141.53
N3860 X300.398 Y140.989
N3865 X300.145 Y140.475
N3870 X299.935 Y139.956
N3875 X299.713 Y139.281
N3880 X299.612 Y138.891
N3885 X299.494 Y138.355
N3890 X299.417 Y137.833
N3895 X299.368 Y137.293
N3900 X299.344 Y136.753
N3905 X299.35 Y136.232
N3910 X299.393 Y135.705
N3915 X299.464 Y135.163
N3920 X299.559 Y134.636
N3925 X299.713 Y134.034
N3930 X299.861 Y133.59
N3935 X300.073 Y133.036
N3940 X300.244 Y132.641
N3945 X300.588 Y131.985
N3950 X300.917 Y131.46
N3955 X301.307 Y130.92
N3960 X301.856 Y130.268
N3965 X302.789 Y129.481
N3970 X303.796 Y128.836
N3975 X303.903 Y128.778
N3980 X304.445 Y128.506
N3985 X304.969 Y128.292
N3990 X305.508 Y128.107
N3995 X306.048 Y127.954
N4000 X306.57 Y127.834
N4005 X307.095 Y127.756
N4010 X307.641 Y127.701
N4015 X308.175 Y127.673
N4020 X308.698 Y127.678
N4025 X309.228 Y127.716
N4030 X309.859 Y127.797
N4035 X310.297 Y127.872
N4040 X310.817 Y128.005
N4045 X311.368 Y128.177
N4050 X311.779 Y128.324
N4055 X312.425 Y128.606
N4060 X312.949 Y128.884
N4065 X313.504 Y129.226
N4070 X313.744 Y129.385
N4075 X314.009 Y129.585
N4080 X314.433 Y129.923
N4085 X314.742 Y130.198
N4090 X315.483 Y131.076
N4095 X315.534 Y131.148
N4100 X316.101 Y132.033
N4105 X316.359 Y132.516
N4110 X316.628 Y133.113
N4115 X316.808 Y133.58
N4120 X316.971 Y134.099
N4125 X317.155 Y134.873
N4130 X317.277 Y135.707
N4135 X317.312 Y136.225
N4140 X317.32 Y136.765
N4145 X317.302 Y137.303
N4150 X317.256 Y137.822
N4155 X317.156 Y138.438
N4160 X317.057 Y138.885
N4165 X316.914 Y139.419
N4170 X316.735 Y139.94
N4175 X316.513 Y140.472
N4180 X316.246 Y141.025
N4185 X316.09 Y141.319
N4190 X315.966 Y141.525
N4195 X315.609 Y142.075
N4200 X315.478 Y142.25
N4205 G3 X315.028 Y142.283 I-0.24 J-0.18
N4210 G1 X311.701 Y139.01
N4215 X311.651 Y138.97
N4220 X311.593 Y138.942
N4225 X311.53 Y138.927
N4230 X307.872 Y138.452
N4235 G3 X307.636 Y138.276 I0.039 J-0.298
N4240 X314.954 Y135.043 Z-5.766 I3.659 J-1.617
N4245 X315.295 Y136.659 Z-6. I-3.659 J1.617
N4250 X308.367 I-3.464 J0.
N4255 X311.898 I1.766 J0.
N4260 X304.767 I-3.566 J0.
N4265 X311.898 I3.566 J0.
N4270 G2 X313.072 Y139.2 I3.337 J0.
N4275 G3 X313.042 Y141.998 I-1.181 J1.387
N4280 G1 X312.716 Y142.264
N4285 X312.301 Y142.524
N4290 X311.765 Y142.837
N4295 X311.264 Y143.07
N4300 X310.749 Y143.264
N4305 X310.233 Y143.417
N4310 X309.723 Y143.53
N4315 X309.212 Y143.604
N4320 X308.694 Y143.644
N4325 X308.175 Y143.65
N4330 X307.657 Y143.622
N4335 X307.141 Y143.559
N4340 X306.626 Y143.461
N4345 X306.112 Y143.324
N4350 X305.598 Y143.148
N4355 X305.084 Y142.928
N4360 X304.573 Y142.663
N4365 X304.024 Y142.315
N4370 X303.54 Y141.951
N4375 X303.291 Y141.731
N4380 X302.739 Y141.058
N4385 X302.294 Y140.345
N4390 X302.033 Y139.84
N4395 X301.823 Y139.333
N4400 X301.647 Y138.801
N4405 X301.578 Y138.56
N4410 X301.526 Y138.327
N4415 X301.428 Y137.789
N4420 X301.368 Y137.271
N4425 X301.342 Y136.753
N4430 X301.35 Y136.24
N4435 X301.395 Y135.732
N4440 X301.478 Y135.219
N4445 X301.575 Y134.795
N4450 X301.757 Y134.187
N4455 X301.961 Y133.66
N4460 X302.093 Y133.363
N4465 X302.185 Y133.186
N4470 X302.508 Y132.62
N4475 X302.606 Y132.461
N4480 X302.835 Y132.141
N4485 X303.131 Y131.768
N4490 X303.246 Y131.635
N4495 X303.916 Y131.086
N4500 X304.579 Y130.667
N4505 X305.091 Y130.394
N4510 X305.601 Y130.177
N4515 X306.111 Y130.002
N4520 X306.627 Y129.865
N4525 X307.144 Y129.766
N4530 X307.663 Y129.701
N4535 X308.18 Y129.671
N4540 X308.689 Y129.676
N4545 X309.201 Y129.719
N4550 X309.717 Y129.797
N4555 X310.232 Y129.912
N4560 X310.766 Y130.071
N4565 X311.067 Y130.176
N4570 X311.236 Y130.247
N4575 X311.793 Y130.505
N4580 X312.142 Y130.692
N4585 X312.265 Y130.768
N4590 X312.833 Y131.148
N4595 X312.89 Y131.19
N4600 X313.365 Y131.582
N4605 X313.929 Y132.269
N4610 X314.263 Y132.803
N4615 X314.48 Y133.172
N4620 X314.719 Y133.677
N4625 X314.918 Y134.191
N4630 X315.074 Y134.7
N4635 X315.187 Y135.207
N4640 X315.286 Y135.866
N4645 X315.311 Y136.228
N4650 X315.322 Y136.761
N4655 X315.299 Y137.278
N4660 X315.241 Y137.793
N4665 X315.148 Y138.306
N4670 X315.018 Y138.817
N4675 X314.848 Y139.327
N4680 X314.632 Y139.84
N4685 X314.368 Y140.357
N4690 X314.055 Y140.872
N4695 X313.683 Y141.385
N4700 X313.413 Y141.696
N4705 X313.042 Y141.998
N4710 G3 X312.566 Y141.856 I-0.19 J-0.232
N4715 G1 X310.48 Y135.256
N4720 G3 X311.04 Y135.045 I0.286 J-0.09
N4725 X303.723 Y138.278 Z-7.766 I-3.659 J1.617
N4730 X303.382 Y136.661 Z-8. I3.659 J-1.617
N4735 X309.899 I3.259 J0.
N4740 X306.766 I-1.567 J0.
N4745 X309.899 I1.567 J0.
N4750 G2 X311.048 Y138.668 I2.327 J0.
N4755 G3 X311.062 Y140.981 I-0.681 J1.161
N4760 G1 X311.033 Y140.998
N4765 X310.64 Y141.187
N4770 X310.14 Y141.372
N4775 X309.788 Y141.475
N4780 X309.163 Y141.594
N4785 X308.672 Y141.642
N4790 X308.178 Y141.652
N4795 X307.685 Y141.619
N4800 X307.2 Y141.548
N4805 X306.713 Y141.427
N4810 X306.229 Y141.264
N4815 X305.615 Y140.982
N4820 X305.244 Y140.773
N4825 X304.738 Y140.417
N4830 X304.68 Y140.369
N4835 X304.357 Y139.958
N4840 X304.211 Y139.716
N4845 X303.915 Y139.191
N4850 X303.71 Y138.713
N4855 X303.551 Y138.224
N4860 X303.438 Y137.735
N4865 X303.369 Y137.247
N4870 X303.341 Y136.757
N4875 X303.355 Y136.265
N4880 X303.411 Y135.748
N4885 X303.447 Y135.527
N4890 X303.496 Y135.315
N4895 X303.65 Y134.794
N4900 X303.836 Y134.3
N4905 X304.071 Y133.828
N4910 X304.443 Y133.252
N4915 X304.582 Y133.064
N4920 X304.637 Y133.
N4925 X304.997 Y132.716
N4930 X305.304 Y132.525
N4935 X305.733 Y132.278
N4940 X306.314 Y132.027
N4945 X306.702 Y131.9
N4950 X307.201 Y131.78
N4955 X307.693 Y131.703
N4960 X308.181 Y131.67
N4965 X308.672 Y131.679
N4970 X309.164 Y131.727
N4975 X309.648 Y131.819
N4980 X310.175 Y131.969
N4985 X310.374 Y132.033
N4990 X310.617 Y132.132
N4995 X311.139 Y132.385
N5000 X311.362 Y132.515
N5005 X311.597 Y132.669
N5010 X312.001 Y132.973
N5015 X312.282 Y133.329
N5020 X312.584 Y133.821
N5025 X312.846 Y134.33
N5030 X312.915 Y134.499
N5035 X313.022 Y134.784
N5040 X313.161 Y135.279
N5045 X313.257 Y135.77
N5050 X313.309 Y136.264
N5055 X313.324 Y136.757
N5060 X313.295 Y137.249
N5065 X313.228 Y137.74
N5070 X313.117 Y138.226
N5075 X312.961 Y138.707
N5080 X312.747 Y139.193
N5085 X312.419 Y139.792
N5090 X312.149 Y140.178
N5095 X312.028 Y140.325
N5100 X311.609 Y140.65
N5105 X311.062 Y140.981
N5110 X311.024 Y140.996
N5115 X310.983 Y141.
N5120 X310.942 Y140.99
N5125 X310.907 Y140.968
N5130 X310.88 Y140.937
N5135 X310.864 Y140.899
N5140 X310.708 Y140.269
N5145 X308.398 Y134.494
N5150 X308.099 Y133.871
N5155 X308.086 Y133.825
N5160 X308.088 Y133.778
N5165 X308.105 Y133.735
N5170 X308.136 Y133.699
N5175 X308.177 Y133.675
N5180 X308.223 Y133.666
N5185 G3 X308.439 Y139.656 Z-9.323 I0.108 J2.995
N5190 X305.334 Y136.661 Z-10. I-0.108 J-2.995
N5195 X309.14 I1.903 J0.
N5200 X307.522 I-0.809 J0.
N5205 X309.14 I0.809 J0.
N5210 G2 X309.919 Y137.899 I1.373 J0.
N5215 G3 X309.893 Y139.361 I-0.348 J0.725
N5220 G1 X309.767 Y139.416
N5225 X309.584 Y139.476
N5230 X309.044 Y139.606
N5235 X308.631 Y139.649
N5240 X308.399 Y139.665
N5245 X308.211
N5250 X307.698 Y139.618
N5255 X307.621 Y139.608
N5260 X307.499 Y139.584
N5265 X306.826 Y139.385
N5270 X306.305 Y139.141
N5275 X306.268 Y139.12
N5280 X306.027 Y138.957
N5285 X305.907 Y138.77
N5290 X305.781 Y138.552
N5295 X305.586 Y138.109
N5300 X305.445 Y137.629
N5305 X305.397 Y137.421
N5310 X305.368 Y137.227
N5315 X305.33 Y136.723
N5320 Y136.539
N5325 X305.376 Y136.039
N5330 X305.402 Y135.873
N5335 X305.611 Y135.156
N5340 X305.799 Y134.754
N5345 X305.851 Y134.643
N5350 X306.044 Y134.351
N5355 X306.395 Y134.135
N5360 X306.609 Y134.032
N5365 X306.863 Y133.921
N5370 X306.932 Y133.894
N5375 X307.265 Y133.8
N5380 X307.74 Y133.702
N5385 X308.22 Y133.663
N5390 X308.415 Y133.659
N5395 X308.621 Y133.673
N5400 X309.088 Y133.727
N5405 X309.741 Y133.908
N5410 X309.843 Y133.94
N5415 X310.362 Y134.183
N5420 X310.416 Y134.216
N5425 X310.638 Y134.366
N5430 X310.864 Y134.729
N5435 X310.965 Y134.941
N5440 X311.064 Y135.166
N5445 X311.133 Y135.365
N5450 X311.26 Y135.861
N5455 X311.293 Y136.051
N5460 X311.313 Y136.266
N5465 X311.335 Y136.752
N5470 X311.296 Y137.232
N5475 X311.269 Y137.43
N5480 X311.225 Y137.619
N5485 X311.057 Y138.167
N5490 X310.812 Y138.691
N5495 X310.783 Y138.741
N5500 X310.634 Y138.961
N5505 X310.428 Y139.096
N5510 X310.314 Y139.165
N5515 X310.181 Y139.236
N5520 X309.893 Y139.361
N5525 G3 X309.491 Y139.19 I-0.12 J-0.275
N5530 G1 X308.911 Y137.611
N5535 X308.895 Y137.576
N5540 X308.875 Y137.543
N5545 X308.843 Y137.483
N5550 X308.825 Y137.418
N5555 X308.676 Y136.46
N5560 G3 X309.252 Y136.305 I0.296 J-0.046
N5565 X307.414 Y137.02 Z-10.435 I-0.919 J0.358
N5570 X309.252 Y136.305 Z-10.871 I0.919 J-0.358
N5575 X307.414 Y137.02 Z-11.306 I-0.919 J0.358
N5580 X309.252 Y136.305 Z-11.742 I0.919 J-0.358
N5585 X308.411 Y137.646 Z-12. I-0.919 J0.358
N5590 G1 X308.31 Y137.654
N5595 X307.875 Y137.612
N5600 X307.489 Y137.506
N5605 X307.376 Y137.068
N5610 X307.342 Y136.638
N5615 X307.384 Y136.204
N5620 X307.49 Y135.816
N5625 X307.925 Y135.705
N5630 X308.36 Y135.671
N5635 X308.793 Y135.713
N5640 X309.178 Y135.819
N5645 X309.186 Y135.836
N5650 X309.29 Y136.252
N5655 X309.325 Y136.688
N5660 X309.283 Y137.122
N5665 X309.177 Y137.507
N5670 X308.767 Y137.616
N5675 X308.748 Y137.619
N5680 X308.411 Y137.646
N5685 X308.376 Y137.643
N5690 X308.343 Y137.628
N5695 X308.316 Y137.604
N5700 X308.299 Y137.573
N5705 X308.292 Y137.538
N5710 X308.282 Y137.039
N5715 X308.276 Y137.006
N5720 X308.261 Y136.977
N5725 X308.237 Y136.953
N5730 X308.207 Y136.937
N5735 X307.915 Y136.839
N5740 X307.881 Y136.82
N5745 X307.856 Y136.791
N5750 X307.842 Y136.755
N5755 G3 X308.825 Y136.569 Z-12.221 I0.491 J-0.093
N5760 X307.842 Y136.755 Z-12.442 I-0.491 J0.093
N5765 X308.825 Y136.569 Z-12.662 I0.491 J-0.093
N5770 X307.842 Y136.755 Z-12.883 I-0.491 J0.093
N5775 X308.825 Y136.569 Z-13.104 I0.491 J-0.093
N5780 X307.842 Y136.755 Z-13.325 I-0.491 J0.093
N5785 X308.825 Y136.569 Z-13.545 I0.491 J-0.093
N5790 X307.842 Y136.755 Z-13.766 I-0.491 J0.093
N5795 X308.287 Y136.164 Z-13.883 I0.491 J-0.093
N5800 X308.833 Y136.662 Z-14. I0.047 J0.498
N5805 G1 Y137.162
N5810 X307.833
N5815 Y136.162
N5820 X308.833
N5825 Y136.662
N5830 X308.826 Y136.693
N5835 X308.807 Y136.717
N5840 X308.779 Y136.731
N5845 X308.747
N5850 X308.719 Y136.718
N5855 X308.464 Y136.519
N5860 X308.242 Y136.283
N5865 X308.226 Y136.256
N5870 X308.223 Y136.225
N5875 X308.234 Y136.196
N5880 X308.257 Y136.174
N5885 X308.287 Y136.164
N5890 G3 X308.38 Y137.16 Z-14.221 I0.047 J0.498
N5895 X308.287 Y136.164 Z-14.442 I-0.047 J-0.498
N5900 X308.38 Y137.16 Z-14.662 I0.047 J0.498
N5905 X308.287 Y136.164 Z-14.883 I-0.047 J-0.498
N5910 X308.833 Y136.662 Z-15. I0.047 J0.498
N5915 G1 Y137.162
N5920 X307.833
N5925 Y136.162
N5930 X308.833
N5935 Y136.662
N5940 G19 G3 Y137.162 Z-14.732 J0. K0.6
N5945 G18 G3 X308.733 Z-14.4 I0.5 K0.332
N5950 G1 Z5.
N5955 X334.068 Y137.213
N5960 Z1.598
N5965 X334.066 Y137.194 Z1.451
N5970 X334.059 Y137.141 Z1.312
N5975 X334.049 Y137.055 Z1.191
N5980 X334.04 Y136.941 Z1.095
N5985 X334.033 Y136.808 Z1.03
N5990 X334.03 Y136.662 Z1.
N5995 G17 G3 X342.03 Z0. I4. J0.
N6000 X334.03 Z-1. I-4. J0.
N6005 X342.03 Z-2. I4. J0.
N6010 X341.304 I-0.363 J0.
N6015 X345.63 I2.163 J0.
N6020 X337.704 I-3.963 J0.
N6025 X349.23 I5.763 J0.
N6030 X334.104 I-7.563 J0.
N6035 X349.23 I7.563 J0.
N6040 G2 X350.63 Y139.017 I2.68 J0.
N6045 G3 X351.5 Y141.615 I-0.96 J1.766
N6050 G1 X351.483 Y141.652
N6055 X351.195 Y142.186
N6060 X350.849 Y142.751
N6065 X350.698 Y142.984
N6070 X350.491 Y143.275
N6075 X350.071 Y143.823
N6080 X349.588 Y144.361
N6085 X349.366 Y144.58
N6090 X348.418 Y145.391
N6095 X347.444 Y146.028
N6100 X346.896 Y146.355
N6105 X346.374 Y146.621
N6110 X345.837 Y146.845
N6115 X345.267 Y147.057
N6120 X344.747 Y147.223
N6125 X344.202 Y147.357
N6130 X343.653 Y147.474
N6135 X343.103 Y147.557
N6140 X342.766 Y147.597
N6145 X342.022 Y147.649
N6150 X341.481 Y147.646
N6155 X340.929 Y147.628
N6160 X340.393 Y147.579
N6165 X339.837 Y147.5
N6170 X339.303 Y147.407
N6175 X338.769 Y147.269
N6180 X338.211 Y147.105
N6185 X337.681 Y146.92
N6190 X336.733 Y146.509
N6195 X336.042 Y146.136
N6200 X335.5 Y145.794
N6205 X334.947 Y145.405
N6210 X334.402 Y144.976
N6215 X333.872 Y144.496
N6220 X333.781 Y144.398
N6225 X332.941 Y143.418
N6230 X332.129 Y142.176
N6235 X331.71 Y141.372
N6240 X331.374 Y140.565
N6245 X331.167 Y139.935
N6250 X331.037 Y139.48
N6255 X330.912 Y138.942
N6260 X330.816 Y138.389
N6265 X330.738 Y137.85
N6270 X330.701 Y137.314
N6275 X330.68 Y136.758
N6280 X330.686 Y136.223
N6285 X330.724 Y135.672
N6290 X330.777 Y135.133
N6295 X330.869 Y134.6
N6300 X330.986 Y134.05
N6305 X331.168 Y133.369
N6310 X331.304 Y132.979
N6315 X331.513 Y132.419
N6320 X331.749 Y131.885
N6325 X332.037 Y131.326
N6330 X332.256 Y130.926
N6335 X332.692 Y130.252
N6340 X333.113 Y129.697
N6345 X333.341 Y129.412
N6350 X333.877 Y128.825
N6355 X334.047 Y128.671
N6360 X334.885 Y127.958
N6365 X336.076 Y127.175
N6370 X336.342 Y127.019
N6375 X337.136 Y126.627
N6380 X337.666 Y126.409
N6385 X338.216 Y126.22
N6390 X338.759 Y126.054
N6395 X339.294 Y125.929
N6400 X339.852 Y125.824
N6405 X340.388 Y125.744
N6410 X340.932 Y125.702
N6415 X341.483 Y125.674
N6420 X342.019 Y125.68
N6425 X342.576 Y125.712
N6430 X343.106 Y125.76
N6435 X344.093 Y125.933
N6440 X344.736 Y126.1
N6445 X345.286 Y126.277
N6450 X345.833 Y126.475
N6455 X346.363 Y126.709
N6460 X346.982 Y127.022
N6465 X347.464 Y127.291
N6470 X347.999 Y127.638
N6475 X348.629 Y128.106
N6480 X349.106 Y128.505
N6485 X349.251 Y128.635
N6490 X349.606 Y128.987
N6495 X350.392 Y129.907
N6500 X351.257 Y131.232
N6505 X351.585 Y131.876
N6510 X351.82 Y132.421
N6515 X352.032 Y132.968
N6520 X352.202 Y133.501
N6525 X352.345 Y134.054
N6530 X352.466 Y134.592
N6535 X352.546 Y135.128
N6540 X352.61 Y135.684
N6545 X352.647 Y136.22
N6550 X352.651 Y136.769
N6555 X352.641 Y137.311
N6560 X352.592 Y137.846
N6565 X352.52 Y138.401
N6570 X352.428 Y138.934
N6575 X352.295 Y139.476
N6580 X352.142 Y140.023
N6585 X351.956 Y140.557
N6590 X351.73 Y141.109
N6595 X351.5 Y141.615
N6600 G3 X351.072 Y141.748 I-0.273 J-0.124
N6605 G1 X349.365 Y140.716
N6610 X349.319 Y140.693
N6615 X343.136 Y138.274
N6620 X343.014 Y138.294
N6625 X342.996 Y138.291
N6630 X342.983 Y138.278
N6635 G3 X350.301 Y135.044 Z-3.766 I3.659 J-1.617
N6640 X350.642 Y136.661 Z-4. I-3.659 J1.617
N6645 X343.302 I-3.67 J0.
N6650 X343.631 I0.164 J0.
N6655 X339.702 I-1.964 J0.
N6660 X347.231 I3.764 J0.
N6665 X336.102 I-5.564 J0.
N6670 X347.231 I5.564 J0.
N6675 G2 X348.607 Y138.952 I2.595 J0.
N6680 G3 X349.286 Y141.538 I-0.854 J1.606
N6685 G1 X348.94 Y142.079
N6690 X348.549 Y142.598
N6695 X348.112 Y143.088
N6700 X347.256 Y143.81
N6705 X347.106 Y143.911
N6710 X346.252 Y144.458
N6715 X345.738 Y144.726
N6720 X345.205 Y144.961
N6725 X344.666 Y145.163
N6730 X344.145 Y145.327
N6735 X343.622 Y145.446
N6740 X343.078 Y145.543
N6745 X342.541 Y145.611
N6750 X342.018 Y145.647
N6755 X341.485 Y145.648
N6760 X340.939 Y145.623
N6765 X340.416 Y145.575
N6770 X339.896 Y145.486
N6775 X339.359 Y145.364
N6780 X338.777 Y145.197
N6785 X338.294 Y145.032
N6790 X337.754 Y144.798
N6795 X337.488 Y144.672
N6800 X337.246 Y144.544
N6805 X336.695 Y144.225
N6810 X336.154 Y143.862
N6815 X335.805 Y143.6
N6820 X335.64 Y143.466
N6825 X335.251 Y143.118
N6830 X334.495 Y142.221
N6835 X334.053 Y141.531
N6840 X333.731 Y140.989
N6845 X333.478 Y140.475
N6850 X333.268 Y139.957
N6855 X333.026 Y139.215
N6860 X332.947 Y138.898
N6865 X332.827 Y138.355
N6870 X332.75 Y137.833
N6875 X332.701 Y137.293
N6880 X332.678 Y136.753
N6885 X332.683 Y136.232
N6890 X332.726 Y135.705
N6895 X332.797 Y135.163
N6900 X332.892 Y134.636
N6905 X333.025 Y134.117
N6910 X333.197 Y133.583
N6915 X333.406 Y133.036
N6920 X333.565 Y132.67
N6925 X333.633 Y132.529
N6930 X333.92 Y131.988
N6935 X334.251 Y131.46
N6940 X334.633 Y130.929
N6945 X335.168 Y130.293
N6950 X335.223 Y130.236
N6955 X336.1 Y129.497
N6960 X337.133 Y128.834
N6965 X337.217 Y128.788
N6970 X337.758 Y128.516
N6975 X338.284 Y128.3
N6980 X338.822 Y128.113
N6985 X339.361 Y127.958
N6990 X339.883 Y127.839
N6995 X340.41 Y127.759
N7000 X340.956 Y127.702
N7005 X341.488 Y127.672
N7010 X342.01 Y127.678
N7015 X342.541 Y127.715
N7020 X343.193 Y127.797
N7025 X343.609 Y127.868
N7030 X344.131 Y128.
N7035 X344.681 Y128.17
N7040 X345.115 Y128.325
N7045 X345.737 Y128.595
N7050 X346.261 Y128.873
N7055 X346.817 Y129.213
N7060 X347.078 Y129.386
N7065 X347.32 Y129.568
N7070 X347.767 Y129.924
N7075 X348.064 Y130.188
N7080 X348.836 Y131.101
N7085 X349.414 Y132.001
N7090 X349.695 Y132.521
N7095 X349.94 Y133.06
N7100 X350.142 Y133.581
N7105 X350.305 Y134.1
N7110 X350.47 Y134.792
N7115 X350.535 Y135.164
N7120 X350.61 Y135.702
N7125 X350.645 Y136.225
N7130 X350.653 Y136.765
N7135 X350.636 Y137.303
N7140 X350.589 Y137.821
N7145 X350.468 Y138.56
N7150 X350.393 Y138.873
N7155 X350.247 Y139.419
N7160 X350.068 Y139.94
N7165 X349.847 Y140.472
N7170 X349.579 Y141.025
N7175 X349.41 Y141.344
N7180 X349.286 Y141.538
N7185 G3 X348.847 Y141.612 I-0.253 J-0.162
N7190 G1 X345.217 Y138.742
N7195 X345.168 Y138.713
N7200 X345.114 Y138.693
N7205 X345.057 Y138.684
N7210 X341.226 Y138.454
N7215 G3 X340.97 Y138.275 I0.018 J-0.299
N7220 X348.287 Y135.042 Z-5.766 I3.659 J-1.617
N7225 X348.628 Y136.659 Z-6. I-3.659 J1.617
N7230 X341.7 I-3.464 J0.
N7235 X345.231 I1.766 J0.
N7240 X338.1 I-3.566 J0.
N7245 X345.231 I3.566 J0.
N7250 G2 X346.406 Y139.199 I3.335 J0.
N7255 G3 X346.375 Y141.997 I-1.179 J1.386
N7260 G1 X346.039 Y142.271
N7265 X345.614 Y142.537
N7270 X345.08 Y142.846
N7275 X344.578 Y143.077
N7280 X344.063 Y143.269
N7285 X343.548 Y143.421
N7290 X343.035 Y143.534
N7295 X342.524 Y143.607
N7300 X342.008 Y143.645
N7305 X341.489 Y143.65
N7310 X340.972 Y143.62
N7315 X340.455 Y143.556
N7320 X339.933 Y143.455
N7325 X339.505 Y143.344
N7330 X338.911 Y143.139
N7335 X338.398 Y142.918
N7340 X337.886 Y142.65
N7345 X337.359 Y142.317
N7350 X336.845 Y141.927
N7355 X336.651 Y141.76
N7360 X336.618 Y141.723
N7365 X336.073 Y141.058
N7370 X335.627 Y140.345
N7375 X335.367 Y139.84
N7380 X335.156 Y139.333
N7385 X334.983 Y138.811
N7390 X334.891 Y138.467
N7395 X334.86 Y138.327
N7400 X334.761 Y137.789
N7405 X334.702 Y137.271
N7410 X334.676 Y136.753
N7415 X334.684 Y136.24
N7420 X334.728 Y135.732
N7425 X334.811 Y135.216
N7430 X334.894 Y134.851
N7435 X334.926 Y134.719
N7440 X335.089 Y134.192
N7445 X335.297 Y133.654
N7450 X335.406 Y133.402
N7455 X335.518 Y133.186
N7460 X335.84 Y132.621
N7465 X335.918 Y132.496
N7470 X336.173 Y132.136
N7475 X336.442 Y131.794
N7480 X336.577 Y131.638
N7485 X337.24 Y131.094
N7490 X337.893 Y130.679
N7495 X338.405 Y130.404
N7500 X338.936 Y130.176
N7505 X339.424 Y130.008
N7510 X339.941 Y129.87
N7515 X340.459 Y129.768
N7520 X340.978 Y129.702
N7525 X341.492 Y129.67
N7530 X342.002 Y129.676
N7535 X342.516 Y129.717
N7540 X343.032 Y129.794
N7545 X343.547 Y129.907
N7550 X344.079 Y130.064
N7555 X344.401 Y130.176
N7560 X344.548 Y130.238
N7565 X345.105 Y130.494
N7570 X345.459 Y130.683
N7575 X346.149 Y131.135
N7580 X346.224 Y131.191
N7585 X346.695 Y131.578
N7590 X346.712 Y131.598
N7595 X347.262 Y132.268
N7600 X347.574 Y132.768
N7605 X347.814 Y133.174
N7610 X348.053 Y133.677
N7615 X348.251 Y134.191
N7620 X348.407 Y134.7
N7625 X348.521 Y135.209
N7630 X348.6 Y135.725
N7635 X348.644 Y136.243
N7640 X348.655 Y136.761
N7645 X348.631 Y137.294
N7650 X348.601 Y137.636
N7655 X348.481 Y138.309
N7660 X348.351 Y138.817
N7665 X348.181 Y139.327
N7670 X347.965 Y139.84
N7675 X347.702 Y140.357
N7680 X347.388 Y140.872
N7685 X347.019 Y141.381
N7690 X346.734 Y141.705
N7695 X346.375 Y141.997
N7700 G3 X345.9 Y141.855 I-0.189 J-0.233
N7705 G1 X343.813 Y135.257
N7710 G3 X344.374 Y135.045 I0.286 J-0.09
N7715 X337.056 Y138.278 Z-7.766 I-3.659 J1.617
N7720 X336.715 Y136.662 Z-8. I3.659 J-1.617
N7725 X343.232 I3.259 J0.
N7730 X340.099 I-1.566 J0.
N7735 X343.232 I1.566 J0.
N7740 G2 X344.381 Y138.668 I2.327 J0.
N7745 G3 X344.396 Y140.98 I-0.682 J1.161
N7750 G1 X344.367 Y140.998
N7755 X343.955 Y141.195
N7760 X343.454 Y141.378
N7765 X343.122 Y141.474
N7770 X342.476 Y141.597
N7775 X341.986 Y141.643
N7780 X341.492 Y141.652
N7785 X340.999 Y141.618
N7790 X340.506 Y141.544
N7795 X340.248 Y141.482
N7800 X340.042 Y141.426
N7805 X339.542 Y141.256
N7810 X338.95 Y140.983
N7815 X338.552 Y140.758
N7820 X338.18 Y140.499
N7825 X338.01 Y140.364
N7830 X337.679 Y139.939
N7835 X337.544 Y139.716
N7840 X337.248 Y139.191
N7845 X337.043 Y138.713
N7850 X336.884 Y138.224
N7855 X336.762 Y137.693
N7860 X336.702 Y137.251
N7865 X336.674 Y136.757
N7870 X336.688 Y136.265
N7875 X336.744 Y135.748
N7880 X336.759 Y135.654
N7885 X336.834 Y135.299
N7890 X336.983 Y134.794
N7895 X337.17 Y134.3
N7900 X337.405 Y133.826
N7905 X337.756 Y133.28
N7910 X337.906 Y133.075
N7915 X337.968 Y133.003
N7920 X338.369 Y132.688
N7925 X339.057 Y132.282
N7930 X339.559 Y132.059
N7935 X339.618 Y132.036
N7940 X340.015 Y131.906
N7945 X340.516 Y131.784
N7950 X341.007 Y131.706
N7955 X341.497 Y131.671
N7960 X341.989 Y131.677
N7965 X342.478 Y131.724
N7970 X342.962 Y131.814
N7975 X343.487 Y131.962
N7980 X343.707 Y132.033
N7985 X343.929 Y132.123
N7990 X344.454 Y132.376
N7995 X344.7 Y132.517
N8000 X344.908 Y132.653
N8005 X345.328 Y132.971
N8010 X345.655 Y133.387
N8015 X345.915 Y133.816
N8020 X346.181 Y134.335
N8025 X346.228 Y134.444
N8030 X346.355 Y134.784
N8035 X346.495 Y135.279
N8040 X346.59 Y135.77
N8045 X346.643 Y136.264
N8050 X346.657 Y136.757
N8055 X346.629 Y137.249
N8060 X346.561 Y137.74
N8065 X346.45 Y138.226
N8070 X346.294 Y138.707
N8075 X346.079 Y139.198
N8080 X345.791 Y139.73
N8085 X345.747 Y139.804
N8090 X345.48 Y140.182
N8095 X345.369 Y140.32
N8100 X344.981 Y140.626
N8105 X344.396 Y140.98
N8110 G3 X343.958 Y140.624 I-0.155 J-0.257
N8115 G1 X344.654 Y138.642
N8120 G2 X344.125 Y138.371 I-0.283 J-0.099
N8125 G3 X339.203 Y134.95 Z-9.323 I-2.461 J-1.711
N8130 X343.462 Y134.263 Z-10. I2.461 J1.711
N8135 X341.179 Y137.308 I-1.142 J1.522
N8140 X342.15 Y136.013 I0.485 J-0.647
N8145 X341.179 Y137.308 I-0.485 J0.647
N8150 G2 X339.728 Y136.741 I-1.744 J2.325
N8155 G3 X338.858 Y135.45 I0.102 J-1.008
N8160 G1 X338.944 Y135.156
N8165 X339.109 Y134.806
N8170 X339.115 Y134.793
N8175 X339.181 Y134.65
N8180 X339.264 Y134.518
N8185 X339.372 Y134.356
N8190 X339.399 Y134.337
N8195 X339.711 Y134.145
N8200 X339.929 Y134.038
N8205 X340.176 Y133.928
N8210 X340.267 Y133.894
N8215 X340.579 Y133.805
N8220 X341.055 Y133.704
N8225 X341.537 Y133.664
N8230 X341.733 Y133.658
N8235 X341.938 Y133.672
N8240 X342.439 Y133.728
N8245 X342.6 Y133.764
N8250 X342.842 Y133.842
N8255 X342.882 Y133.855
N8260 X343.187 Y133.944
N8265 X343.276 Y133.984
N8270 X343.778 Y134.235
N8275 X343.976 Y134.37
N8280 X344.057 Y134.495
N8285 X344.189 Y134.713
N8290 X344.391 Y135.15
N8295 X344.431 Y135.251
N8300 X344.462 Y135.349
N8305 X344.594 Y135.861
N8310 X344.626 Y136.051
N8315 X344.646 Y136.266
N8320 X344.669 Y136.752
N8325 X344.629 Y137.232
N8330 X344.602 Y137.43
N8335 X344.557 Y137.625
N8340 X344.403 Y138.142
N8345 X344.391 Y138.173
N8350 X344.148 Y138.688
N8355 X344.114 Y138.744
N8360 X343.964 Y138.967
N8365 X343.639 Y139.17
N8370 X343.505 Y139.24
N8375 X343.083 Y139.423
N8380 X342.899 Y139.482
N8385 X342.379 Y139.606
N8390 X341.943 Y139.651
N8395 X341.719 Y139.666
N8400 X341.53 Y139.664
N8405 X341.038 Y139.619
N8410 X340.813 Y139.579
N8415 X340.14 Y139.377
N8420 X339.64 Y139.142
N8425 X339.596 Y139.117
N8430 X339.36 Y138.958
N8435 X339.245 Y138.777
N8440 X339.095 Y138.512
N8445 X338.92 Y138.111
N8450 X338.778 Y137.629
N8455 X338.73 Y137.421
N8460 X338.701 Y137.227
N8465 X338.664 Y136.723
N8470 X338.663 Y136.539
N8475 X338.709 Y136.039
N8480 X338.735 Y135.873
N8485 X338.858 Y135.45
N8490 G3 X339.306 Y135.28 I0.288 J0.084
N8495 G1 X340.717 Y136.169
N8500 X340.744 Y136.184
N8505 X340.775 Y136.201
N8510 X342.081 Y137.048
N8515 G3 X342.028 Y137.579 I-0.163 J0.252
N8520 X341.305 Y135.744 Z-10.435 I-0.361 J-0.917
N8525 X342.028 Y137.579 Z-10.871 I0.361 J0.917
N8530 X341.305 Y135.744 Z-11.306 I-0.361 J-0.917
N8535 X342.028 Y137.579 Z-11.741 I0.361 J0.917
N8540 X340.683 Y136.739 Z-12. I-0.361 J-0.917
N8545 G1 X340.675 Y136.638
N8550 X340.717 Y136.204
N8555 X340.823 Y135.819
N8560 X340.853 Y135.806
N8565 X341.239 Y135.707
N8570 X341.675 Y135.672
N8575 X342.113 Y135.712
N8580 X342.511 Y135.819
N8585 X342.52 Y135.84
N8590 X342.624 Y136.252
N8595 X342.658 Y136.688
N8600 X342.616 Y137.122
N8605 X342.51 Y137.508
N8610 X342.497 Y137.513
N8615 X342.122 Y137.611
N8620 X341.655 Y137.653
N8625 X341.644
N8630 X341.19 Y137.607
N8635 X340.823 Y137.506
N8640 X340.709 Y137.068
N8645 X340.683 Y136.739
N8650 X340.686 Y136.704
N8655 X340.701 Y136.671
N8660 X340.724 Y136.645
N8665 X340.756 Y136.627
N8670 X340.791 Y136.621
N8675 X341.29 Y136.61
N8680 X341.323 Y136.605
N8685 X341.352 Y136.589
N8690 X341.376 Y136.565
N8695 X341.391 Y136.536
N8700 X341.49 Y136.244
N8705 X341.508 Y136.21
N8710 X341.538 Y136.185
N8715 X341.574 Y136.171
N8720 G3 X341.76 Y137.153 Z-12.221 I0.093 J0.491
N8725 X341.574 Y136.171 Z-12.442 I-0.093 J-0.491
N8730 X341.76 Y137.153 Z-12.662 I0.093 J0.491
N8735 X341.574 Y136.171 Z-12.883 I-0.093 J-0.491
N8740 X341.76 Y137.153 Z-13.104 I0.093 J0.491
N8745 X341.574 Y136.171 Z-13.325 I-0.093 J-0.491
N8750 X341.76 Y137.153 Z-13.545 I0.093 J0.491
N8755 X341.574 Y136.171 Z-13.766 I-0.093 J-0.491
N8760 X342.164 Y136.616 Z-13.883 I0.093 J0.491
N8765 X341.667 Y137.162 Z-14. I-0.498 J0.047
N8770 G1 X341.167
N8775 Y136.162
N8780 X342.167
N8785 Y137.162
N8790 X341.667
N8795 X341.636 Y137.155
N8800 X341.611 Y137.136
N8805 X341.598 Y137.108
N8810 X341.597 Y137.076
N8815 X341.611 Y137.048
N8820 X341.81 Y136.793
N8825 X342.045 Y136.571
N8830 X342.072 Y136.555
N8835 X342.104 Y136.552
N8840 X342.133 Y136.563
N8845 X342.155 Y136.586
N8850 X342.164 Y136.616
N8855 G3 X341.169 Y136.709 Z-14.221 I-0.498 J0.047
N8860 X342.164 Y136.616 Z-14.442 I0.498 J-0.047
N8865 X341.169 Y136.709 Z-14.662 I-0.498 J0.047
N8870 X342.164 Y136.616 Z-14.883 I0.498 J-0.047
N8875 X341.667 Y137.162 Z-15. I-0.498 J0.047
N8880 G1 X341.167
N8885 Y136.162
N8890 X342.167
N8895 Y137.162
N8900 X341.667
N8905 G18 G3 X341.167 Z-14.732 I0. K0.6
N8910 G19 G2 Y137.062 Z-14.4 J0.5 K0.332
N8915 G1 Z5.
N8920 X367.402 Y137.213
N8925 Z1.598
N8930 X367.399 Y137.194 Z1.451
N8935 X367.392 Y137.141 Z1.312
N8940 X367.383 Y137.054 Z1.191
N8945 X367.373 Y136.941 Z1.095
N8950 X367.366 Y136.808 Z1.03
N8955 X367.363 Y136.662 Z1.
N8960 G17 G3 X375.363 Z0. I4. J0.
N8965 X367.363 Z-1. I-4. J0.
N8970 X375.363 Z-2. I4. J0.
N8975 X374.637 I-0.363 J0.
N8980 X378.963 I2.163 J0.
N8985 X371.037 I-3.963 J0.
N8990 X382.563 I5.763 J0.
N8995 X367.437 I-7.563 J0.
N9000 X382.563 I7.563 J0.
N9005 G2 X383.964 Y139.017 I2.68 J0.
N9010 G3 X384.834 Y141.615 I-0.96 J1.766
N9015 G1 X384.817 Y141.652
N9020 X384.528 Y142.186
N9025 X384.182 Y142.751
N9030 X384.01 Y143.017
N9035 X383.827 Y143.273
N9040 X383.405 Y143.823
N9045 X382.922 Y144.36
N9050 X382.688 Y144.59
N9055 X381.759 Y145.386
N9060 X381.748 Y145.395
N9065 X380.757 Y146.041
N9070 X380.209 Y146.365
N9075 X379.687 Y146.631
N9080 X379.151 Y146.853
N9085 X378.593 Y147.06
N9090 X378.059 Y147.23
N9095 X377.516 Y147.362
N9100 X376.965 Y147.478
N9105 X376.414 Y147.56
N9110 X376.1 Y147.597
N9115 X375.335 Y147.65
N9120 X374.796 Y147.646
N9125 X374.241 Y147.626
N9130 X373.706 Y147.577
N9135 X373.151 Y147.497
N9140 X372.615 Y147.402
N9145 X372.082 Y147.264
N9150 X371.523 Y147.097
N9155 X370.992 Y146.912
N9160 X370.068 Y146.51
N9165 X369.354 Y146.125
N9170 X368.814 Y145.781
N9175 X368.261 Y145.39
N9180 X367.715 Y144.957
N9185 X367.202 Y144.492
N9190 X366.343 Y143.501
N9195 X366.279 Y143.425
N9200 X365.463 Y142.176
N9205 X365.021 Y141.329
N9210 X364.708 Y140.569
N9215 X364.479 Y139.866
N9220 X364.371 Y139.484
N9225 X364.246 Y138.942
N9230 X364.149 Y138.389
N9235 X364.071 Y137.85
N9240 X364.034 Y137.314
N9245 X364.013 Y136.758
N9250 X364.019 Y136.223
N9255 X364.057 Y135.672
N9260 X364.11 Y135.133
N9265 X364.203 Y134.6
N9270 X364.32 Y134.045
N9275 X364.48 Y133.432
N9280 X364.637 Y132.978
N9285 X364.846 Y132.419
N9290 X365.082 Y131.885
N9295 X365.373 Y131.322
N9300 X365.569 Y130.958
N9305 X366.026 Y130.252
N9310 X366.448 Y129.694
N9315 X366.655 Y129.433
N9320 X367.189 Y128.844
N9325 X367.379 Y128.672
N9330 X368.26 Y127.925
N9335 X369.386 Y127.19
N9340 X369.679 Y127.017
N9345 X370.448 Y126.637
N9350 X370.978 Y126.418
N9355 X371.531 Y126.226
N9360 X372.071 Y126.058
N9365 X372.608 Y125.934
N9370 X373.164 Y125.828
N9375 X373.701 Y125.747
N9380 X374.247 Y125.703
N9385 X374.795 Y125.674
N9390 X375.332 Y125.68
N9395 X375.888 Y125.71
N9400 X376.424 Y125.759
N9405 X376.973 Y125.849
N9410 X377.42 Y125.931
N9415 X378.048 Y126.095
N9420 X378.599 Y126.27
N9425 X379.166 Y126.475
N9430 X379.675 Y126.699
N9435 X380.318 Y127.023
N9440 X380.776 Y127.277
N9445 X381.311 Y127.624
N9450 X381.965 Y128.108
N9455 X382.417 Y128.486
N9460 X382.586 Y128.637
N9465 X382.918 Y128.964
N9470 X383.726 Y129.908
N9475 X384.569 Y131.197
N9480 X384.92 Y131.879
N9485 X385.154 Y132.421
N9490 X385.365 Y132.968
N9495 X385.535 Y133.501
N9500 X385.678 Y134.054
N9505 X385.8 Y134.592
N9510 X385.88 Y135.128
N9515 X385.943 Y135.684
N9520 X385.98 Y136.22
N9525 X385.985 Y136.769
N9530 X385.974 Y137.311
N9535 X385.925 Y137.846
N9540 X385.854 Y138.401
N9545 X385.761 Y138.934
N9550 X385.628 Y139.476
N9555 X385.475 Y140.023
N9560 X385.289 Y140.557
N9565 X385.063 Y141.109
N9570 X384.834 Y141.615
N9575 G3 X384.405 Y141.747 I-0.273 J-0.124
N9580 G1 X382.687 Y140.711
N9585 X382.642 Y140.688
N9590 X376.477 Y138.274
N9595 X376.348 Y138.294
N9600 X376.33 Y138.292
N9605 X376.317 Y138.278
N9610 G3 X383.634 Y135.044 Z-3.766 I3.659 J-1.617
N9615 X383.975 Y136.661 Z-4. I-3.659 J1.617
N9620 X376.636 I-3.67 J0.
N9625 X376.964 I0.164 J0.
N9630 X373.036 I-1.964 J0.
N9635 X380.564 I3.764 J0.
N9640 X369.436 I-5.564 J0.
N9645 X380.564 I5.564 J0.
N9650 G2 X381.945 Y138.952 I2.591 J0.
N9655 G3 X382.621 Y141.539 I-0.847 J1.604
N9660 G1 X382.275 Y142.076
N9665 X381.882 Y142.598
N9670 X381.445 Y143.088
N9675 X380.579 Y143.818
N9680 X379.563 Y144.472
N9685 X379.053 Y144.735
N9690 X378.519 Y144.969
N9695 X377.98 Y145.169
N9700 X377.457 Y145.332
N9705 X376.935 Y145.451
N9710 X376.392 Y145.545
N9715 X375.853 Y145.613
N9720 X375.33 Y145.648
N9725 X374.8
N9730 X374.254 Y145.622
N9735 X373.728 Y145.571
N9740 X373.208 Y145.482
N9745 X372.672 Y145.359
N9750 X372.112 Y145.198
N9755 X371.606 Y145.023
N9760 X371.067 Y144.789
N9765 X370.823 Y144.673
N9770 X370.558 Y144.532
N9775 X370.009 Y144.212
N9780 X369.466 Y143.846
N9785 X369.141 Y143.602
N9790 X368.953 Y143.448
N9795 X368.585 Y143.119
N9800 X367.82 Y142.209
N9805 X367.386 Y141.532
N9810 X367.064 Y140.989
N9815 X366.812 Y140.475
N9820 X366.602 Y139.958
N9825 X366.342 Y139.158
N9830 X366.16 Y138.351
N9835 X366.084 Y137.833
N9840 X366.035 Y137.293
N9845 X366.011 Y136.753
N9850 X366.017 Y136.232
N9855 X366.06 Y135.705
N9860 X366.13 Y135.163
N9865 X366.226 Y134.636
N9870 X366.337 Y134.202
N9875 X366.533 Y133.577
N9880 X366.737 Y133.044
N9885 X366.975 Y132.512
N9890 X367.253 Y131.988
N9895 X367.584 Y131.46
N9900 X367.967 Y130.928
N9905 X368.487 Y130.309
N9910 X368.549 Y130.242
N9915 X369.411 Y129.515
N9920 X370.472 Y128.83
N9925 X370.531 Y128.797
N9930 X371.07 Y128.527
N9935 X371.598 Y128.308
N9940 X372.137 Y128.119
N9945 X372.673 Y127.963
N9950 X373.195 Y127.844
N9955 X373.724 Y127.762
N9960 X374.27 Y127.704
N9965 X374.8 Y127.672
N9970 X375.323 Y127.678
N9975 X375.862 Y127.713
N9980 X376.402 Y127.776
N9985 X376.922 Y127.865
N9990 X377.446 Y127.996
N9995 X377.994 Y128.163
N10000 X378.449 Y128.325
N10005 X379.049 Y128.585
N10010 X379.575 Y128.863
N10015 X380.129 Y129.2
N10020 X380.412 Y129.386
N10025 X380.631 Y129.551
N10030 X381.101 Y129.924
N10035 X381.387 Y130.179
N10040 X382.15 Y131.077
N10045 X382.748 Y132.003
N10050 X383.029 Y132.522
N10055 X383.27 Y133.051
N10060 X383.475 Y133.581
N10065 X383.638 Y134.101
N10070 X383.782 Y134.699
N10075 X383.869 Y135.172
N10080 X383.943 Y135.702
N10085 X383.979 Y136.225
N10090 X383.986 Y136.765
N10095 X383.969 Y137.303
N10100 X383.923 Y137.818
N10105 X383.782 Y138.656
N10110 X383.58 Y139.421
N10115 X383.402 Y139.94
N10120 X383.18 Y140.472
N10125 X382.912 Y141.025
N10130 X382.721 Y141.385
N10135 X382.621 Y141.539
N10140 G3 X382.244 Y141.649 I-0.252 J-0.163
N10145 G1 X374.861 Y138.257
N10150 X374.803 Y138.237
N10155 X374.772 Y138.23
N10160 X374.751 Y138.228
N10165 X374.731 Y138.231
N10170 X374.4 Y138.321
N10175 X374.371 Y138.324
N10180 X374.343 Y138.316
N10185 X374.319 Y138.299
N10190 X374.303 Y138.275
N10195 G3 X381.62 Y135.041 Z-5.766 I3.659 J-1.617
N10200 X381.962 Y136.658 Z-6. I-3.659 J1.617
N10205 X375.033 I-3.464 J0.
N10210 X378.565 I1.766 J0.
N10215 X371.433 I-3.566 J0.
N10220 X378.565 I3.566 J0.
N10225 G2 X379.737 Y139.2 I3.341 J0.
N10230 G3 X379.71 Y141.998 I-1.184 J1.388
N10235 G1 X379.418 Y142.238
N10240 X379.337 Y142.293
N10245 X378.926 Y142.55
N10250 X378.395 Y142.855
N10255 X377.892 Y143.085
N10260 X377.378 Y143.275
N10265 X376.862 Y143.425
N10270 X376.348 Y143.537
N10275 X375.837 Y143.61
N10280 X375.322 Y143.647
N10285 X374.804 Y143.65
N10290 X374.286 Y143.619
N10295 X373.77 Y143.553
N10300 X373.246 Y143.45
N10305 X372.84 Y143.345
N10310 X372.225 Y143.131
N10315 X371.712 Y142.908
N10320 X371.199 Y142.637
N10325 X370.686 Y142.312
N10330 X370.157 Y141.909
N10335 X369.982 Y141.758
N10340 X369.405 Y141.057
N10345 X368.96 Y140.345
N10350 X368.7 Y139.84
N10355 X368.489 Y139.333
N10360 X368.32 Y138.82
N10365 X368.189 Y138.306
N10370 X368.095 Y137.789
N10375 X368.035 Y137.271
N10380 X368.009 Y136.753
N10385 X368.017 Y136.24
N10390 X368.062 Y135.732
N10395 X368.146 Y135.211
N10400 X368.205 Y134.938
N10405 X368.26 Y134.719
N10410 X368.422 Y134.192
N10415 X368.633 Y133.646
N10420 X368.72 Y133.439
N10425 X368.852 Y133.186
N10430 X369.174 Y132.621
N10435 X369.23 Y132.53
N10440 X369.51 Y132.131
N10445 X369.754 Y131.818
N10450 X369.9 Y131.65
N10455 X370.631 Y131.052
N10460 X371.213 Y130.688
N10465 X371.718 Y130.414
N10470 X372.272 Y130.175
N10475 X372.737 Y130.014
N10480 X373.255 Y129.874
N10485 X373.773 Y129.771
N10490 X374.292 Y129.703
N10495 X374.804 Y129.67
N10500 X375.314 Y129.675
N10505 X375.83 Y129.716
N10510 X376.346 Y129.791
N10515 X376.861 Y129.902
N10520 X377.392 Y130.057
N10525 X377.72 Y130.171
N10530 X378.422 Y130.486
N10535 X378.794 Y130.684
N10540 X379.46 Y131.119
N10545 X379.558 Y131.191
N10550 X380.033 Y131.582
N10555 X380.595 Y132.268
N10560 X380.885 Y132.732
N10565 X381.147 Y133.172
N10570 X381.402 Y133.717
N10575 X381.584 Y134.19
N10580 X381.74 Y134.7
N10585 X381.854 Y135.209
N10590 X381.933 Y135.725
N10595 X381.978 Y136.243
N10600 X381.988 Y136.761
N10605 X381.965 Y137.278
N10610 X381.908 Y137.793
N10615 X381.815 Y138.306
N10620 X381.685 Y138.817
N10625 X381.514 Y139.327
N10630 X381.298 Y139.84
N10635 X381.035 Y140.357
N10640 X380.721 Y140.872
N10645 X380.348 Y141.387
N10650 X380.089 Y141.687
N10655 X379.71 Y141.998
N10660 G3 X379.385 Y142.034 I-0.19 J-0.232
N10665 G1 X374.803 Y139.731
N10670 X374.77 Y139.717
N10675 X374.736 Y139.707
N10680 G3 X376.539 Y131.913 Z-7.766 I0.902 J-3.897
N10685 X378.038 Y132.61 Z-8. I-0.902 J3.897
N10690 X374.059 Y137.915 I-1.989 J2.652
N10695 X375.939 Y135.409 I0.94 J-1.253
N10700 X374.059 Y137.915 I-0.94 J1.253
N10705 G2 X371.803 Y137.502 I-1.543 J2.057
N10710 G3 X370.048 Y136.025 I-0.383 J-1.326
N10715 G1 X370.079 Y135.749
N10720 X370.17 Y135.291
N10725 X370.317 Y134.794
N10730 X370.503 Y134.3
N10735 X370.739 Y133.824
N10740 X371.07 Y133.308
N10745 X371.23 Y133.086
N10750 X371.301 Y133.002
N10755 X371.683 Y132.7
N10760 X372.371 Y132.291
N10765 X372.871 Y132.067
N10770 X372.953 Y132.036
N10775 X373.328 Y131.912
N10780 X373.83 Y131.788
N10785 X374.322 Y131.709
N10790 X374.814 Y131.672
N10795 X375.305 Y131.676
N10800 X375.793 Y131.721
N10805 X376.277 Y131.809
N10810 X376.799 Y131.955
N10815 X377.04 Y132.033
N10820 X377.242 Y132.115
N10825 X377.769 Y132.366
N10830 X378.038 Y132.52
N10835 X378.222 Y132.639
N10840 X378.671 Y132.977
N10845 X378.981 Y133.375
N10850 X379.248 Y133.816
N10855 X379.52 Y134.344
N10860 X379.542 Y134.394
N10865 X379.689 Y134.785
N10870 X379.828 Y135.279
N10875 X379.923 Y135.77
N10880 X379.976 Y136.264
N10885 X379.99 Y136.757
N10890 X379.962 Y137.249
N10895 X379.895 Y137.74
N10900 X379.784 Y138.226
N10905 X379.622 Y138.724
N10910 X379.555 Y138.886
N10915 X379.417 Y139.188
N10920 X379.129 Y139.722
N10925 X379.063 Y139.83
N10930 X378.819 Y140.175
N10935 X378.693 Y140.327
N10940 X378.299 Y140.637
N10945 X377.703 Y140.996
N10950 X377.269 Y141.202
N10955 X376.766 Y141.384
N10960 X376.437 Y141.48
N10965 X376.323 Y141.505
N10970 X375.796 Y141.599
N10975 X375.3 Y141.645
N10980 X374.807 Y141.652
N10985 X374.315 Y141.616
N10990 X373.821 Y141.54
N10995 X373.586 Y141.483
N11000 X373.357 Y141.419
N11005 X372.855 Y141.248
N11010 X372.285 Y140.984
N11015 X371.865 Y140.745
N11020 X371.516 Y140.501
N11025 X371.34 Y140.361
N11030 X371.027 Y139.963
N11035 X370.88 Y139.72
N11040 X370.561 Y139.147
N11045 X370.377 Y138.715
N11050 X370.217 Y138.224
N11055 X370.104 Y137.735
N11060 X370.035 Y137.246
N11065 X370.007 Y136.757
N11070 X370.022 Y136.267
N11075 X370.048 Y136.025
N11080 G3 X370.221 Y135.785 I0.298 J0.033
N11085 G1 X374.775 Y133.693
N11090 X374.831 Y133.674
N11095 X374.889 Y133.666
N11100 G3 X375.106 Y139.656 Z-9.323 I0.108 J2.995
N11105 X372.001 Y136.661 Z-10. I-0.108 J-2.995
N11110 X375.806 I1.903 J0.
N11115 X374.189 I-0.809 J0.
N11120 X375.806 I0.809 J0.
N11125 G2 X376.587 Y137.897 I1.37 J0.
N11130 G3 X376.56 Y139.36 I-0.345 J0.725
N11135 G1 X376.4 Y139.429
N11140 X376.216 Y139.486
N11145 X375.714 Y139.606
N11150 X375.254 Y139.653
N11155 X375.038 Y139.667
N11160 X374.848 Y139.663
N11165 X374.354 Y139.617
N11170 X374.142 Y139.578
N11175 X373.453 Y139.369
N11180 X372.975 Y139.143
N11185 X372.925 Y139.114
N11190 X372.693 Y138.957
N11195 X372.573 Y138.769
N11200 X372.451 Y138.559
N11205 X372.253 Y138.109
N11210 X372.111 Y137.629
N11215 X372.063 Y137.421
N11220 X372.034 Y137.227
N11225 X371.997 Y136.723
N11230 Y136.539
N11235 X372.043 Y136.039
N11240 X372.068 Y135.873
N11245 X372.277 Y135.157
N11250 X372.418 Y134.858
N11255 X372.425 Y134.843
N11260 X372.52 Y134.638
N11265 X372.534 Y134.613
N11270 X372.705 Y134.356
N11275 X372.727 Y134.341
N11280 X373.028 Y134.155
N11285 X373.247 Y134.045
N11290 X373.49 Y133.936
N11295 X373.602 Y133.893
N11300 X373.894 Y133.81
N11305 X374.371 Y133.707
N11310 X374.853 Y133.665
N11315 X375.052 Y133.658
N11320 X375.254 Y133.67
N11325 X375.756 Y133.725
N11330 X375.917 Y133.76
N11335 X376.157 Y133.837
N11340 X376.196 Y133.849
N11345 X376.516 Y133.941
N11350 X376.592 Y133.976
N11355 X377.092 Y134.224
N11360 X377.308 Y134.369
N11365 X377.392 Y134.498
N11370 X377.523 Y134.714
N11375 X377.706 Y135.108
N11380 X377.759 Y135.238
N11385 X377.797 Y135.354
N11390 X377.927 Y135.861
N11395 X377.959 Y136.051
N11400 X377.979 Y136.266
N11405 X378.002 Y136.752
N11410 X377.962 Y137.232
N11415 X377.936 Y137.43
N11420 X377.89 Y137.625
N11425 X377.738 Y138.137
N11430 X377.705 Y138.221
N11435 X377.483 Y138.685
N11440 X377.447 Y138.744
N11445 X377.296 Y138.968
N11450 X376.974 Y139.169
N11455 X376.83 Y139.244
N11460 X376.56 Y139.36
N11465 G3 X376.16 Y139.188 I-0.119 J-0.276
N11470 G1 X375.577 Y137.604
N11475 X375.561 Y137.569
N11480 X375.541 Y137.536
N11485 X375.517 Y137.495
N11490 X375.499 Y137.45
N11495 X375.489 Y137.404
N11500 X375.373 Y136.557
N11505 G3 X375.964 Y136.452 I0.297 J-0.041
N11510 X374.038 Y136.872 Z-10.435 I-0.963 J0.21
N11515 X375.964 Y136.452 Z-10.87 I0.963 J-0.21
N11520 X374.038 Y136.872 Z-11.305 I-0.963 J0.21
N11525 X375.964 Y136.452 Z-11.74 I0.963 J-0.21
N11530 X374.913 Y137.644 Z-12. I-0.963 J0.21
N11535 G1 X374.559 Y137.612
N11540 X374.232 Y137.527
N11545 X374.156 Y137.505
N11550 X374.043 Y137.068
N11555 X374.009 Y136.638
N11560 X374.051 Y136.204
N11565 X374.157 Y135.816
N11570 X374.174 Y135.809
N11575 X374.553 Y135.711
N11580 X375.026 Y135.671
N11585 X375.452 Y135.712
N11590 X375.477 Y135.718
N11595 X375.845 Y135.821
N11600 X375.957 Y136.257
N11605 X375.991 Y136.688
N11610 X375.949 Y137.122
N11615 X375.844 Y137.507
N11620 X375.821 Y137.517
N11625 X375.438 Y137.616
N11630 X375. Y137.651
N11635 X374.913 Y137.644
N11640 X374.884 Y137.635
N11645 X374.859 Y137.617
N11650 X374.843 Y137.591
N11655 X374.838 Y137.561
N11660 X374.843 Y137.53
N11665 X374.991 Y137.152
N11670 X374.994 Y137.07
N11675 X375.002 Y137.037
N11680 X375.022 Y137.01
N11685 X375.051 Y136.993
N11690 X375.085 Y136.989
N11695 X375.117 Y136.999
N11700 X375.143 Y137.02
N11705 X375.158 Y137.051
N11710 X375.16 Y137.085
N11715 X375.148 Y137.116
N11720 X375.124 Y137.141
N11725 X375.093 Y137.153
N11730 G3 X374.907 Y136.171 Z-12.221 I-0.093 J-0.491
N11735 X375.093 Y137.153 Z-12.442 I0.093 J0.491
N11740 X374.907 Y136.171 Z-12.662 I-0.093 J-0.491
N11745 X375.093 Y137.153 Z-12.883 I0.093 J0.491
N11750 X374.907 Y136.171 Z-13.104 I-0.093 J-0.491
N11755 X375.093 Y137.153 Z-13.325 I0.093 J0.491
N11760 X374.907 Y136.171 Z-13.545 I-0.093 J-0.491
N11765 X375.093 Y137.153 Z-13.766 I0.093 J0.491
N11770 X374.502 Y136.709 Z-13.883 I-0.093 J-0.491
N11775 X375. Y136.162 Z-14. I0.498 J-0.047
N11780 G1 X375.5
N11785 Y137.162
N11790 X374.5
N11795 Y136.162
N11800 X375.
N11805 X375.031 Y136.169
N11810 X375.055 Y136.189
N11815 X375.069 Y136.217
N11820 Y136.248
N11825 X375.056 Y136.277
N11830 X374.857 Y136.532
N11835 X374.621 Y136.754
N11840 X374.594 Y136.77
N11845 X374.563 Y136.772
N11850 X374.534 Y136.761
N11855 X374.512 Y136.739
N11860 X374.502 Y136.709
N11865 G3 X375.498 Y136.615 Z-14.221 I0.498 J-0.047
N11870 X374.502 Y136.709 Z-14.442 I-0.498 J0.047
N11875 X375.498 Y136.615 Z-14.662 I0.498 J-0.047
N11880 X374.502 Y136.709 Z-14.883 I-0.498 J0.047
N11885 X375. Y136.162 Z-15. I0.498 J-0.047
N11890 G1 X375.5
N11895 Y137.162
N11900 X374.5
N11905 Y136.162
N11910 X375.
N11915 G18 G2 X375.5 Z-14.732 I0. K0.6
N11920 G19 G3 Y136.262 Z-14.4 J-0.5 K0.332
N11925 G1 Z5.
N11930 X400.735 Y137.212
N11935 Z1.598
N11940 X400.732 Y137.194 Z1.451
N11945 X400.725 Y137.14 Z1.312
N11950 X400.716 Y137.054 Z1.191
N11955 X400.707 Y136.941 Z1.095
N11960 X400.699 Y136.807 Z1.03
N11965 X400.697 Y136.662 Z1.
N11970 G17 G3 X408.697 Z0. I4. J0.
N11975 X400.697 Z-1. I-4. J0.
N11980 X408.697 Z-2. I4. J0.
N11985 X407.971 I-0.363 J0.
N11990 X412.297 I2.163 J0.
N11995 X404.371 I-3.963 J0.
N12000 X415.897 I5.763 J0.
N12005 X400.771 I-7.563 J0.
N12010 X415.897 I7.563 J0.
N12015 G2 X417.297 Y139.017 I2.68 J0.
N12020 G3 X418.167 Y141.615 I-0.96 J1.766
N12025 G1 X418.15 Y141.652
N12030 X417.862 Y142.186
N12035 X417.516 Y142.751
N12040 X417.323 Y143.049
N12045 X417.163 Y143.269
N12050 X416.738 Y143.823
N12055 X416.244 Y144.373
N12060 X416.006 Y144.604
N12065 X415.111 Y145.37
N12070 X414.067 Y146.056
N12075 X413.523 Y146.375
N12080 X412.999 Y146.641
N12085 X412.465 Y146.861
N12090 X411.905 Y147.066
N12095 X411.371 Y147.237
N12100 X410.831 Y147.366
N12105 X410.278 Y147.481
N12110 X409.726 Y147.563
N12115 X409.435 Y147.597
N12120 X408.647 Y147.651
N12125 X408.11 Y147.646
N12130 X407.554 Y147.624
N12135 X407.018 Y147.576
N12140 X406.466 Y147.493
N12145 X405.928 Y147.397
N12150 X405.399 Y147.259
N12155 X404.722 Y147.05
N12160 X404.304 Y146.904
N12165 X403.402 Y146.51
N12170 X402.667 Y146.113
N12175 X402.128 Y145.769
N12180 X401.574 Y145.375
N12185 X401.029 Y144.94
N12190 X400.514 Y144.47
N12195 X399.677 Y143.502
N12200 X399.613 Y143.425
N12205 X398.794 Y142.173
N12210 X398.51 Y141.636
N12215 X398.337 Y141.286
N12220 X398.042 Y140.569
N12225 X397.791 Y139.799
N12230 X397.706 Y139.489
N12235 X397.579 Y138.942
N12240 X397.482 Y138.389
N12245 X397.404 Y137.85
N12250 X397.367 Y137.314
N12255 X397.346 Y136.758
N12260 X397.352 Y136.223
N12265 X397.391 Y135.672
N12270 X397.443 Y135.133
N12275 X397.536 Y134.6
N12280 X397.654 Y134.045
N12285 X397.792 Y133.513
N12290 X397.974 Y132.97
N12295 X398.18 Y132.419
N12300 X398.413 Y131.89
N12305 X398.883 Y130.995
N12310 X399.429 Y130.154
N12315 X399.972 Y129.451
N12320 X400.503 Y128.865
N12325 X400.716 Y128.669
N12330 X401.572 Y127.942
N12335 X402.699 Y127.203
N12340 X403.015 Y127.015
N12345 X403.759 Y126.646
N12350 X404.29 Y126.427
N12355 X404.845 Y126.232
N12360 X405.383 Y126.063
N12365 X405.942 Y125.934
N12370 X406.476 Y125.831
N12375 X407.013 Y125.75
N12380 X407.561 Y125.705
N12385 X408.108 Y125.674
N12390 X408.644 Y125.68
N12395 X409.201 Y125.708
N12400 X409.736 Y125.757
N12405 X410.286 Y125.846
N12410 X410.754 Y125.932
N12415 X411.36 Y126.089
N12420 X411.912 Y126.263
N12425 X412.5 Y126.475
N12430 X412.986 Y126.689
N12435 X413.655 Y127.025
N12440 X414.088 Y127.264
N12445 X414.622 Y127.609
N12450 X415.3 Y128.11
N12455 X415.729 Y128.466
N12460 X415.922 Y128.639
N12465 X416.231 Y128.941
N12470 X417.06 Y129.908
N12475 X417.89 Y131.179
N12480 X417.971 Y131.325
N12485 X418.252 Y131.876
N12490 X418.487 Y132.421
N12495 X418.698 Y132.968
N12500 X418.872 Y133.513
N12505 X418.956 Y133.814
N12510 X419.133 Y134.594
N12515 X419.213 Y135.128
N12520 X419.277 Y135.684
N12525 X419.314 Y136.22
N12530 X419.318 Y136.769
N12535 X419.307 Y137.311
N12540 X419.259 Y137.846
N12545 X419.187 Y138.401
N12550 X419.094 Y138.934
N12555 X418.96 Y139.484
N12560 X418.809 Y140.023
N12565 X418.623 Y140.557
N12570 X418.397 Y141.109
N12575 X418.167 Y141.615
N12580 G3 X417.739 Y141.747 I-0.273 J-0.124
N12585 G1 X416.008 Y140.703
N12590 X415.963 Y140.681
N12595 X409.846 Y138.273
N12600 X409.689 Y138.298
N12605 X409.666 Y138.295
N12610 X409.65 Y138.277
N12615 G3 X416.967 Y135.044 Z-3.766 I3.659 J-1.617
N12620 X417.309 Y136.661 Z-4. I-3.659 J1.617
N12625 X409.969 I-3.67 J0.
N12630 X410.297 I0.164 J0.
N12635 X406.369 I-1.964 J0.
N12640 X413.897 I3.764 J0.
N12645 X402.769 I-5.564 J0.
N12650 X413.897 I5.564 J0.
N12655 G2 X415.278 Y138.952 I2.591 J0.
N12660 G3 X415.955 Y141.54 I-0.847 J1.604
N12665 G1 X415.608 Y142.076
N12670 X415.215 Y142.598
N12675 X414.779 Y143.087
N12680 X413.891 Y143.835
N12685 X412.877 Y144.484
N12690 X412.367 Y144.745
N12695 X411.838 Y144.974
N12700 X411.198 Y145.205
N12705 X410.77 Y145.336
N12710 X410.247 Y145.456
N12715 X409.707 Y145.548
N12720 X409.166 Y145.614
N12725 X408.642 Y145.65
N12730 X408.115 Y145.648
N12735 X407.569 Y145.62
N12740 X407.041 Y145.568
N12745 X406.52 Y145.478
N12750 X405.985 Y145.353
N12755 X405.444 Y145.197
N12760 X404.918 Y145.014
N12765 X404.379 Y144.78
N12770 X404.158 Y144.674
N12775 X403.874 Y144.523
N12780 X403.218 Y144.133
N12785 X402.782 Y143.833
N12790 X402.477 Y143.603
N12795 X402.265 Y143.429
N12800 X401.919 Y143.12
N12805 X401.145 Y142.196
N12810 X400.715 Y141.524
N12815 X400.398 Y140.989
N12820 X400.145 Y140.475
N12825 X399.934 Y139.954
N12830 X399.752 Y139.406
N12835 X399.656 Y139.085
N12840 X399.494 Y138.353
N12845 X399.417 Y137.833
N12850 X399.368 Y137.293
N12855 X399.344 Y136.753
N12860 X399.35 Y136.232
N12865 X399.393 Y135.705
N12870 X399.464 Y135.163
N12875 X399.559 Y134.636
N12880 X399.657 Y134.254
N12885 X399.692 Y134.117
N12890 X399.864 Y133.583
N12895 X400.07 Y133.044
N12900 X400.308 Y132.512
N12905 X400.586 Y131.988
N12910 X400.917 Y131.46
N12915 X401.299 Y130.93
N12920 X401.871 Y130.252
N12925 X402.795 Y129.477
N12930 X403.809 Y128.828
N12935 X403.848 Y128.806
N12940 X404.382 Y128.537
N12945 X404.912 Y128.316
N12950 X405.451 Y128.125
N12955 X405.985 Y127.968
N12960 X406.508 Y127.848
N12965 X407.039 Y127.765
N12970 X407.585 Y127.705
N12975 X408.112 Y127.672
N12980 X408.635 Y127.677
N12985 X409.176 Y127.712
N12990 X409.714 Y127.772
N12995 X410.234 Y127.861
N13000 X410.761 Y127.991
N13005 X411.302 Y128.155
N13010 X411.837 Y128.349
N13015 X412.361 Y128.576
N13020 X412.889 Y128.853
N13025 X413.442 Y129.187
N13030 X413.746 Y129.387
N13035 X413.937 Y129.531
N13040 X414.504 Y129.986
N13045 X414.752 Y130.209
N13050 X415.5 Y131.097
N13055 X416.08 Y132.001
N13060 X416.362 Y132.522
N13065 X416.603 Y133.051
N13070 X416.809 Y133.581
N13075 X416.972 Y134.102
N13080 X417.1 Y134.632
N13085 X417.203 Y135.175
N13090 X417.277 Y135.702
N13095 X417.312 Y136.225
N13100 X417.32 Y136.765
N13105 X417.302 Y137.303
N13110 X417.256 Y137.823
N13115 X417.169 Y138.362
N13120 X417.098 Y138.726
N13125 X416.913 Y139.421
N13130 X416.735 Y139.94
N13135 X416.513 Y140.472
N13140 X416.248 Y141.021
N13145 X416.034 Y141.417
N13150 X415.955 Y141.54
N13155 G3 X415.574 Y141.648 I-0.252 J-0.163
N13160 G1 X409.363 Y138.695
N13165 X409.305 Y138.675
N13170 X407.663 Y138.273
N13175 X407.636 Y138.275
N13180 G3 X414.954 Y135.042 Z-5.766 I3.659 J-1.617
N13185 X415.295 Y136.659 Z-6. I-3.659 J1.617
N13190 X408.366 I-3.464 J0.
N13195 X411.898 I1.766 J0.
N13200 X404.766 I-3.566 J0.
N13205 X411.898 I3.566 J0.
N13210 G2 X413.07 Y139.2 I3.341 J0.
N13215 G3 X413.043 Y141.999 I-1.185 J1.388
N13220 G1 X412.746 Y142.243
N13225 X412.231 Y142.567
N13230 X411.775 Y142.832
N13235 X411.204 Y143.093
N13240 X410.692 Y143.281
N13245 X410.176 Y143.429
N13250 X409.66 Y143.54
N13255 X409.149 Y143.613
N13260 X408.637 Y143.648
N13265 X408.118 Y143.65
N13270 X407.601 Y143.617
N13275 X407.085 Y143.55
N13280 X406.559 Y143.444
N13285 X406.175 Y143.345
N13290 X405.539 Y143.122
N13295 X405.026 Y142.898
N13300 X404.513 Y142.625
N13305 X404. Y142.297
N13310 X403.469 Y141.89
N13315 X403.308 Y141.752
N13320 X402.739 Y141.058
N13325 X402.294 Y140.345
N13330 X402.033 Y139.839
N13335 X401.823 Y139.333
N13340 X401.653 Y138.82
N13345 X401.521 Y138.299
N13350 X401.428 Y137.789
N13355 X401.368 Y137.271
N13360 X401.342 Y136.753
N13365 X401.35 Y136.24
N13370 X401.395 Y135.732
N13375 X401.48 Y135.202
N13380 X401.517 Y135.022
N13385 X401.593 Y134.719
N13390 X401.755 Y134.192
N13395 X401.966 Y133.648
N13400 X402.034 Y133.488
N13405 X402.187 Y133.182
N13410 X402.556 Y132.545
N13415 X402.847 Y132.126
N13420 X403.066 Y131.843
N13425 X403.232 Y131.651
N13430 X403.949 Y131.062
N13435 X404.548 Y130.687
N13440 X405.031 Y130.424
N13445 X405.607 Y130.174
N13450 X406.05 Y130.02
N13455 X406.57 Y129.878
N13460 X407.088 Y129.774
N13465 X407.606 Y129.704
N13470 X408.117 Y129.671
N13475 X408.628 Y129.675
N13480 X409.145 Y129.714
N13485 X409.661 Y129.788
N13490 X410.176 Y129.898
N13495 X410.704 Y130.05
N13500 X411.055 Y130.172
N13505 X411.733 Y130.475
N13510 X412.129 Y130.685
N13515 X412.771 Y131.103
N13520 X412.892 Y131.191
N13525 X413.366 Y131.581
N13530 X413.928 Y132.268
N13535 X414.196 Y132.696
N13540 X414.482 Y133.176
N13545 X414.719 Y133.677
N13550 X414.918 Y134.191
N13555 X415.074 Y134.7
N13560 X415.188 Y135.209
N13565 X415.266 Y135.725
N13570 X415.311 Y136.243
N13575 X415.322 Y136.761
N13580 X415.299 Y137.272
N13585 X415.226 Y137.885
N13590 X415.149 Y138.305
N13595 X415.018 Y138.817
N13600 X414.848 Y139.327
N13605 X414.632 Y139.84
N13610 X414.368 Y140.357
N13615 X414.055 Y140.872
N13620 X413.682 Y141.387
N13625 X413.423 Y141.687
N13630 X413.043 Y141.999
N13635 G3 X412.567 Y141.857 I-0.19 J-0.232
N13640 G1 X410.48 Y135.257
N13645 G3 X411.04 Y135.046 I0.286 J-0.09
N13650 X403.723 Y138.279 Z-7.766 I-3.659 J1.617
N13655 X403.382 Y136.662 Z-8. I3.659 J-1.617
N13660 X409.899 I3.259 J0.
N13665 X406.766 I-1.567 J0.
N13670 X409.899 I1.567 J0.
N13675 G2 X411.048 Y138.669 I2.326 J0.
N13680 G3 X411.062 Y140.981 I-0.681 J1.16
N13685 G1 X411.038 Y140.995
N13690 X410.583 Y141.21
N13695 X410.079 Y141.391
N13700 X409.771 Y141.48
N13705 X409.635 Y141.509
N13710 X409.11 Y141.602
N13715 X408.615 Y141.646
N13720 X408.121 Y141.652
N13725 X407.631 Y141.615
N13730 X407.136 Y141.536
N13735 X406.921 Y141.484
N13740 X406.672 Y141.413
N13745 X406.168 Y141.239
N13750 X405.62 Y140.985
N13755 X405.178 Y140.733
N13760 X404.852 Y140.503
N13765 X404.673 Y140.361
N13770 X404.347 Y139.941
N13775 X404.211 Y139.716
N13780 X403.915 Y139.191
N13785 X403.71 Y138.713
N13790 X403.551 Y138.224
N13795 X403.438 Y137.735
N13800 X403.369 Y137.247
N13805 X403.341 Y136.757
N13810 X403.355 Y136.256
N13815 X403.392 Y135.876
N13820 X403.505 Y135.286
N13825 X403.65 Y134.794
N13830 X403.836 Y134.3
N13835 X404.073 Y133.824
N13840 X404.4 Y133.312
N13845 X404.562 Y133.087
N13850 X404.635 Y133.002
N13855 X404.997 Y132.716
N13860 X405.688 Y132.299
N13865 X406.184 Y132.075
N13870 X406.287 Y132.035
N13875 X406.641 Y131.918
N13880 X407.144 Y131.792
N13885 X407.636 Y131.712
N13890 X408.13 Y131.673
N13895 X408.622 Y131.674
N13900 X409.107 Y131.718
N13905 X409.591 Y131.805
N13910 X410.111 Y131.948
N13915 X410.374 Y132.033
N13920 X410.554 Y132.106
N13925 X411.083 Y132.357
N13930 X411.376 Y132.523
N13935 X411.536 Y132.626
N13940 X412.002 Y132.974
N13945 X412.282 Y133.329
N13950 X412.582 Y133.818
N13955 X412.869 Y134.38
N13960 X413.023 Y134.786
N13965 X413.161 Y135.279
N13970 X413.257 Y135.77
N13975 X413.309 Y136.264
N13980 X413.324 Y136.757
N13985 X413.295 Y137.249
N13990 X413.228 Y137.74
N13995 X413.117 Y138.226
N14000 X412.955 Y138.724
N14005 X412.867 Y138.937
N14010 X412.753 Y139.184
N14015 X412.466 Y139.716
N14020 X412.377 Y139.856
N14025 X412.148 Y140.181
N14030 X412.035 Y140.319
N14035 X411.617 Y140.646
N14040 X411.062 Y140.981
N14045 X411.028 Y140.994
N14050 X410.991
N14055 X410.957 Y140.98
N14060 X410.929 Y140.956
N14065 X410.913 Y140.923
N14070 X410.772 Y140.449
N14075 X409.022 Y136.863
N14080 X409.012 Y136.839
N14085 X407.953 Y134.073
N14090 G3 X408.223 Y133.665 I0.28 J-0.107
N14095 X408.439 Y139.655 Z-9.323 I0.108 J2.995
N14100 X405.334 Y136.66 Z-10. I-0.108 J-2.995
N14105 X409.14 I1.903 J0.
N14110 X407.522 I-0.809 J0.
N14115 X409.14 I0.809 J0.
N14120 G2 X409.921 Y137.897 I1.369 J0.
N14125 G3 X409.892 Y139.36 I-0.344 J0.725
N14130 G1 X409.718 Y139.434
N14135 X409.533 Y139.491
N14140 X409.049 Y139.606
N14145 X408.568 Y139.654
N14150 X408.357 Y139.667
N14155 X408.172 Y139.662
N14160 X407.599 Y139.603
N14165 X407.476 Y139.578
N14170 X406.767 Y139.361
N14175 X406.309 Y139.144
N14180 X406.253 Y139.111
N14185 X406.034 Y138.963
N14190 X405.901 Y138.76
N14195 X405.784 Y138.559
N14200 X405.586 Y138.109
N14205 X405.445 Y137.629
N14210 X405.397 Y137.421
N14215 X405.368 Y137.227
N14220 X405.33 Y136.723
N14225 Y136.539
N14230 X405.376 Y136.039
N14235 X405.402 Y135.873
N14240 X405.61 Y135.157
N14245 X405.729 Y134.905
N14250 X405.734 Y134.895
N14255 X405.846 Y134.653
N14260 X405.866 Y134.614
N14265 X406.039 Y134.356
N14270 X406.064 Y134.338
N14275 X406.366 Y134.151
N14280 X406.436 Y134.112
N14285 X406.808 Y133.944
N14290 X406.941 Y133.891
N14295 X407.208 Y133.815
N14300 X407.686 Y133.71
N14305 X408.17 Y133.666
N14310 X408.371 Y133.658
N14315 X408.571 Y133.669
N14320 X409.073 Y133.722
N14325 X409.246 Y133.759
N14330 X409.837 Y133.936
N14335 X409.91 Y133.967
N14340 X410.407 Y134.212
N14345 X410.638 Y134.367
N14350 X410.729 Y134.503
N14355 X410.857 Y134.715
N14360 X411.019 Y135.064
N14365 X411.086 Y135.223
N14370 X411.131 Y135.358
N14375 X411.26 Y135.861
N14380 X411.293 Y136.051
N14385 X411.313 Y136.266
N14390 X411.335 Y136.752
N14395 X411.296 Y137.232
N14400 X411.269 Y137.43
N14405 X411.223 Y137.625
N14410 X411.075 Y138.124
N14415 X411.02 Y138.256
N14420 X410.815 Y138.686
N14425 X410.781 Y138.743
N14430 X410.633 Y138.962
N14435 X410.364 Y139.135
N14440 X410.317 Y139.163
N14445 X410.155 Y139.248
N14450 X409.892 Y139.36
N14455 G3 X409.493 Y139.187 I-0.118 J-0.276
N14460 G1 X408.915 Y137.611
N14465 X408.899 Y137.575
N14470 X408.879 Y137.541
N14475 X408.846 Y137.482
N14480 X408.828 Y137.416
N14485 X408.674 Y136.458
N14490 G3 X409.249 Y136.3 I0.296 J-0.047
N14495 X407.416 Y137.026 Z-10.435 I-0.917 J0.363
N14500 X409.249 Y136.3 Z-10.871 I0.917 J-0.363
N14505 X407.416 Y137.026 Z-11.306 I-0.917 J0.363
N14510 X409.249 Y136.3 Z-11.741 I0.917 J-0.363
N14515 X408.411 Y137.646 Z-12. I-0.917 J0.363
N14520 G1 X408.316 Y137.653
N14525 X407.88 Y137.612
N14530 X407.489 Y137.506
N14535 X407.376 Y137.068
N14540 X407.342 Y136.638
N14545 X407.384 Y136.209
N14550 X407.494 Y135.815
N14555 X407.506 Y135.81
N14560 X407.896 Y135.709
N14565 X407.918 Y135.706
N14570 X408.364 Y135.672
N14575 X408.801 Y135.715
N14580 X409.176 Y135.818
N14585 X409.189 Y135.849
N14590 X409.29 Y136.252
N14595 X409.325 Y136.688
N14600 X409.283 Y137.116
N14605 X409.171 Y137.511
N14610 X409.166 Y137.513
N14615 X408.753 Y137.619
N14620 X408.411 Y137.646
N14625 X408.375 Y137.643
N14630 X408.342 Y137.628
N14635 X408.316 Y137.605
N14640 X408.299 Y137.573
N14645 X408.292 Y137.538
N14650 X408.282 Y137.039
N14655 X408.276 Y137.006
N14660 X408.26 Y136.977
N14665 X408.237 Y136.953
N14670 X408.207 Y136.937
N14675 X407.915 Y136.839
N14680 X407.881 Y136.82
N14685 X407.856 Y136.791
N14690 X407.842 Y136.755
N14695 G3 X408.825 Y136.569 Z-12.221 I0.491 J-0.093
N14700 X407.842 Y136.755 Z-12.442 I-0.491 J0.093
N14705 X408.825 Y136.569 Z-12.662 I0.491 J-0.093
N14710 X407.842 Y136.755 Z-12.883 I-0.491 J0.093
N14715 X408.825 Y136.569 Z-13.104 I0.491 J-0.093
N14720 X407.842 Y136.755 Z-13.325 I-0.491 J0.093
N14725 X408.825 Y136.569 Z-13.545 I0.491 J-0.093
N14730 X407.842 Y136.755 Z-13.766 I-0.491 J0.093
N14735 X408.287 Y136.164 Z-13.883 I0.491 J-0.093
N14740 X408.833 Y136.662 Z-14. I0.047 J0.498
N14745 G1 Y137.162
N14750 X407.833
N14755 Y136.162
N14760 X408.833
N14765 Y136.662
N14770 X408.826 Y136.693
N14775 X408.807 Y136.717
N14780 X408.779 Y136.731
N14785 X408.747
N14790 X408.719 Y136.718
N14795 X408.464 Y136.519
N14800 X408.242 Y136.283
N14805 X408.226 Y136.256
N14810 X408.223 Y136.225
N14815 X408.234 Y136.196
N14820 X408.257 Y136.174
N14825 X408.287 Y136.164
N14830 G3 X408.38 Y137.16 Z-14.221 I0.047 J0.498
N14835 X408.287 Y136.164 Z-14.442 I-0.047 J-0.498
N14840 X408.38 Y137.16 Z-14.662 I0.047 J0.498
N14845 X408.287 Y136.164 Z-14.883 I-0.047 J-0.498
N14850 X408.833 Y136.662 Z-15. I0.047 J0.498
N14855 G1 Y137.162
N14860 X407.833
N14865 Y136.162
N14870 X408.833
N14875 Y136.662
N14880 G19 G3 Y137.162 Z-14.732 J0. K0.6
N14885 G18 G3 X408.733 Z-14.4 I0.5 K0.332
N14890 G1 Z5.
N14895 X434.068 Y137.212
N14900 Z1.598
N14905 X434.066 Y137.194 Z1.451
N14910 X434.059 Y137.14 Z1.312
N14915 X434.049 Y137.054 Z1.191
N14920 X434.04 Y136.941 Z1.095
N14925 X434.033 Y136.807 Z1.03
N14930 X434.03 Y136.662 Z1.
N14935 G17 G3 X442.03 Z0. I4. J0.
N14940 X434.03 Z-1. I-4. J0.
N14945 X442.03 Z-2. I4. J0.
N14950 X441.304 I-0.363 J0.
N14955 X445.63 I2.163 J0.
N14960 X437.704 I-3.963 J0.
N14965 X449.23 I5.763 J0.
N14970 X434.104 I-7.563 J0.
N14975 X449.23 I7.563 J0.
N14980 G2 X450.63 Y139.017 I2.68 J0.
N14985 G3 X451.5 Y141.615 I-0.96 J1.766
N14990 G1 X451.483 Y141.652
N14995 X451.187 Y142.201
N15000 X450.849 Y142.75
N15005 X450.642 Y143.071
N15010 X450.069 Y143.825
N15015 X449.558 Y144.394
N15020 X449.321 Y144.621
N15025 X448.434 Y145.378
N15030 X447.381 Y146.069
N15035 X446.837 Y146.384
N15040 X446.311 Y146.65
N15045 X445.777 Y146.87
N15050 X445.218 Y147.073
N15055 X444.684 Y147.243
N15060 X444.145 Y147.37
N15065 X443.59 Y147.484
N15070 X443.038 Y147.566
N15075 X442.772 Y147.597
N15080 X441.959 Y147.651
N15085 X441.423 Y147.645
N15090 X440.866 Y147.622
N15095 X440.331 Y147.574
N15100 X439.781 Y147.49
N15105 X439.24 Y147.391
N15110 X438.711 Y147.254
N15115 X438.056 Y147.051
N15120 X437.615 Y146.897
N15125 X436.736 Y146.511
N15130 X435.979 Y146.102
N15135 X435.442 Y145.756
N15140 X434.891 Y145.361
N15145 X434.294 Y144.878
N15150 X433.829 Y144.449
N15155 X432.941 Y143.416
N15160 X432.127 Y142.173
N15165 X431.847 Y141.641
N15170 X431.65 Y141.236
N15175 X431.375 Y140.569
N15180 X431.103 Y139.734
N15185 X431.041 Y139.496
N15190 X430.912 Y138.942
N15195 X430.816 Y138.389
N15200 X430.738 Y137.85
N15205 X430.701 Y137.314
N15210 X430.68 Y136.758
N15215 X430.686 Y136.223
N15220 X430.724 Y135.672
N15225 X430.777 Y135.133
N15230 X430.869 Y134.6
N15235 X430.987 Y134.045
N15240 X431.115 Y133.552
N15245 X431.126 Y133.512
N15250 X431.307 Y132.97
N15255 X431.513 Y132.419
N15260 X431.747 Y131.89
N15265 X432.203 Y131.02
N15270 X432.333 Y130.807
N15275 X432.739 Y130.183
N15280 X433.284 Y129.475
N15285 X433.817 Y128.886
N15290 X434.054 Y128.665
N15295 X434.883 Y127.959
N15300 X436.012 Y127.217
N15305 X436.352 Y127.014
N15310 X437.071 Y126.655
N15315 X437.603 Y126.435
N15320 X438.16 Y126.237
N15325 X438.696 Y126.068
N15330 X439.277 Y125.933
N15335 X439.787 Y125.834
N15340 X440.326 Y125.754
N15345 X440.876 Y125.706
N15350 X441.42 Y125.674
N15355 X441.957 Y125.68
N15360 X442.513 Y125.706
N15365 X443.049 Y125.755
N15370 X443.594 Y125.841
N15375 X444.139 Y125.945
N15380 X444.673 Y126.084
N15385 X445.23 Y126.258
N15390 X445.767 Y126.446
N15395 X446.297 Y126.68
N15400 X446.992 Y127.027
N15405 X447.401 Y127.25
N15410 X447.933 Y127.595
N15415 X448.636 Y128.112
N15420 X449.04 Y128.446
N15425 X449.257 Y128.641
N15430 X449.545 Y128.92
N15435 X450.259 Y129.748
N15440 X450.39 Y129.903
N15445 X451.205 Y131.149
N15450 X451.308 Y131.332
N15455 X451.585 Y131.876
N15460 X451.82 Y132.421
N15465 X452.03 Y132.963
N15470 X452.271 Y133.738
N15475 X452.467 Y134.594
N15480 X452.546 Y135.128
N15485 X452.61 Y135.684
N15490 X452.647 Y136.22
N15495 X452.651 Y136.769
N15500 X452.641 Y137.311
N15505 X452.592 Y137.846
N15510 X452.52 Y138.401
N15515 X452.428 Y138.932
N15520 X452.271 Y139.569
N15525 X452.143 Y140.021
N15530 X451.956 Y140.557
N15535 X451.727 Y141.117
N15540 X451.5 Y141.615
N15545 G3 X451.072 Y141.747 I-0.273 J-0.124
N15550 G1 X449.34 Y140.703
N15555 X449.295 Y140.681
N15560 X443.172 Y138.274
N15565 X443.021 Y138.297
N15570 X442.999 Y138.294
N15575 X442.983 Y138.278
N15580 G3 X450.301 Y135.044 Z-3.766 I3.659 J-1.617
N15585 X450.642 Y136.661 Z-4. I-3.659 J1.617
N15590 X443.302 I-3.67 J0.
N15595 X443.631 I0.164 J0.
N15600 X439.702 I-1.964 J0.
N15605 X447.231 I3.764 J0.
N15610 X436.102 I-5.564 J0.
N15615 X447.231 I5.564 J0.
N15620 G2 X448.612 Y138.952 I2.591 J0.
N15625 G3 X449.288 Y141.54 I-0.847 J1.604
N15630 G1 X448.942 Y142.076
N15635 X448.549 Y142.598
N15640 X448.112 Y143.088
N15645 X447.274 Y143.794
N15650 X446.186 Y144.499
N15655 X445.682 Y144.754
N15660 X445.152 Y144.983
N15665 X444.535 Y145.204
N15670 X444.083 Y145.341
N15675 X443.56 Y145.461
N15680 X443.021 Y145.551
N15685 X442.478 Y145.616
N15690 X441.955 Y145.651
N15695 X441.429 Y145.648
N15700 X440.883 Y145.618
N15705 X440.353 Y145.564
N15710 X439.833 Y145.475
N15715 X439.3 Y145.349
N15720 X438.759 Y145.191
N15725 X438.231 Y145.005
N15730 X437.692 Y144.771
N15735 X437.494 Y144.675
N15740 X437.185 Y144.511
N15745 X436.554 Y144.135
N15750 X436.093 Y143.817
N15755 X435.812 Y143.605
N15760 X435.577 Y143.41
N15765 X435.251 Y143.118
N15770 X434.516 Y142.246
N15775 X434.024 Y141.486
N15780 X433.732 Y140.991
N15785 X433.478 Y140.475
N15790 X433.267 Y139.954
N15795 X433.089 Y139.415
N15800 X432.969 Y138.994
N15805 X432.827 Y138.354
N15810 X432.75 Y137.833
N15815 X432.701 Y137.293
N15820 X432.678 Y136.753
N15825 X432.683 Y136.232
N15830 X432.726 Y135.705
N15835 X432.797 Y135.163
N15840 X432.892 Y134.636
N15845 X432.967 Y134.344
N15850 X433.025 Y134.117
N15855 X433.197 Y133.583
N15860 X433.403 Y133.044
N15865 X433.641 Y132.512
N15870 X433.92 Y131.989
N15875 X434.251 Y131.46
N15880 X434.635 Y130.927
N15885 X435.118 Y130.348
N15890 X435.185 Y130.273
N15895 X435.275 Y130.192
N15900 X436.105 Y129.492
N15905 X437.19 Y128.801
N15910 X437.694 Y128.548
N15915 X438.227 Y128.323
N15920 X438.766 Y128.131
N15925 X439.298 Y127.973
N15930 X439.82 Y127.853
N15935 X440.353 Y127.767
N15940 X440.899 Y127.706
N15945 X441.425 Y127.672
N15950 X441.947 Y127.677
N15955 X442.491 Y127.71
N15960 X443.026 Y127.768
N15965 X443.547 Y127.857
N15970 X444.075 Y127.986
N15975 X444.616 Y128.148
N15980 X445.149 Y128.34
N15985 X445.673 Y128.567
N15990 X446.223 Y128.853
N15995 X446.754 Y129.173
N16000 X447.07 Y129.38
N16005 X447.771 Y129.928
N16010 X448.081 Y130.203
N16015 X448.812 Y131.071
N16020 X449.415 Y132.003
N16025 X449.701 Y132.531
N16030 X449.875 Y132.901
N16035 X450.143 Y133.584
N16040 X450.305 Y134.102
N16045 X450.433 Y134.632
N16050 X450.536 Y135.175
N16055 X450.61 Y135.702
N16060 X450.645 Y136.225
N16065 X450.653 Y136.765
N16070 X450.636 Y137.303
N16075 X450.589 Y137.823
N16080 X450.504 Y138.35
N16085 X450.389 Y138.89
N16090 X450.247 Y139.419
N16095 X450.068 Y139.94
N16100 X449.847 Y140.472
N16105 X449.583 Y141.017
N16110 X449.347 Y141.45
N16115 X449.288 Y141.54
N16120 G3 X448.899 Y141.644 I-0.252 J-0.163
N16125 G1 X444.15 Y139.193
N16130 X444.096 Y139.171
N16135 X441. Y138.274
N16140 X440.97 Y138.276
N16145 G3 X448.287 Y135.043 Z-5.766 I3.659 J-1.617
N16150 X448.628 Y136.659 Z-6. I-3.659 J1.617
N16155 X441.7 I-3.464 J0.
N16160 X445.231 I1.766 J0.
N16165 X438.1 I-3.566 J0.
N16170 X445.231 I3.566 J0.
N16175 G2 X446.404 Y139.2 I3.34 J0.
N16180 G3 X446.376 Y141.999 I-1.184 J1.387
N16185 G1 X446.059 Y142.258
N16190 X445.545 Y142.58
N16195 X445.111 Y142.831
N16200 X444.517 Y143.101
N16205 X444.006 Y143.287
N16210 X443.491 Y143.433
N16215 X442.973 Y143.542
N16220 X442.461 Y143.615
N16225 X441.951 Y143.65
N16230 X441.433
N16235 X440.915 Y143.616
N16240 X440.399 Y143.547
N16245 X439.871 Y143.439
N16250 X439.51 Y143.346
N16255 X438.853 Y143.114
N16260 X438.341 Y142.888
N16265 X437.827 Y142.613
N16270 X437.314 Y142.283
N16275 X436.782 Y141.873
N16280 X436.636 Y141.746
N16285 X436.073 Y141.058
N16290 X435.628 Y140.346
N16295 X435.345 Y139.797
N16300 X435.157 Y139.337
N16305 X434.987 Y138.823
N16310 X434.833 Y138.205
N16315 X434.762 Y137.795
N16320 X434.702 Y137.271
N16325 X434.676 Y136.753
N16330 X434.684 Y136.24
N16335 X434.728 Y135.735
N16340 X434.835 Y135.085
N16345 X434.926 Y134.719
N16350 X435.087 Y134.197
N16355 X435.354 Y133.521
N16360 X435.524 Y133.175
N16365 X435.868 Y132.579
N16370 X436.184 Y132.121
N16375 X436.379 Y131.867
N16380 X436.565 Y131.652
N16385 X437.266 Y131.072
N16390 X437.883 Y130.686
N16395 X438.343 Y130.434
N16400 X438.943 Y130.173
N16405 X439.364 Y130.027
N16410 X439.884 Y129.882
N16415 X440.402 Y129.776
N16420 X440.918 Y129.706
N16425 X441.429 Y129.672
N16430 X441.942 Y129.675
N16435 X442.46 Y129.712
N16440 X442.975 Y129.785
N16445 X443.49 Y129.893
N16450 X444.017 Y130.043
N16455 X444.39 Y130.172
N16460 X445.045 Y130.463
N16465 X445.464 Y130.685
N16470 X446.083 Y131.087
N16475 X446.225 Y131.191
N16480 X446.698 Y131.58
N16485 X447.262 Y132.268
N16490 X447.506 Y132.66
N16495 X447.819 Y133.182
N16500 X448.026 Y133.61
N16505 X448.251 Y134.191
N16510 X448.406 Y134.695
N16515 X448.543 Y135.326
N16520 X448.599 Y135.719
N16525 X448.644 Y136.243
N16530 X448.655 Y136.761
N16535 X448.632 Y137.278
N16540 X448.575 Y137.793
N16545 X448.482 Y138.306
N16550 X448.351 Y138.817
N16555 X448.181 Y139.327
N16560 X447.965 Y139.84
N16565 X447.702 Y140.357
N16570 X447.39 Y140.87
N16575 X446.994 Y141.412
N16580 X446.756 Y141.687
N16585 X446.376 Y141.999
N16590 G3 X445.9 Y141.857 I-0.19 J-0.232
N16595 G1 X443.813 Y135.258
N16600 G3 X444.374 Y135.046 I0.286 J-0.09
N16605 X437.056 Y138.279 Z-7.766 I-3.659 J1.617
N16610 X436.715 Y136.663 Z-8. I3.659 J-1.617
N16615 X443.232 I3.259 J0.
N16620 X440.099 I-1.567 J0.
N16625 X443.232 I1.567 J0.
N16630 G2 X444.381 Y138.669 I2.327 J0.
N16635 G3 X444.395 Y140.981 I-0.681 J1.16
N16640 G1 X444.363 Y141.
N16645 X444.139 Y141.11
N16650 X443.909 Y141.213
N16655 X443.392 Y141.397
N16660 X443.104 Y141.48
N16665 X442.947 Y141.514
N16670 X442.424 Y141.604
N16675 X441.929 Y141.647
N16680 X441.435 Y141.652
N16685 X440.948 Y141.614
N16690 X440.45 Y141.531
N16695 X440.257 Y141.484
N16700 X439.986 Y141.407
N16705 X439.481 Y141.231
N16710 X438.94 Y140.979
N16715 X438.721 Y140.86
N16720 X438.505 Y140.73
N16725 X438.188 Y140.505
N16730 X438.006 Y140.359
N16735 X437.686 Y139.951
N16740 X437.544 Y139.716
N16745 X437.234 Y139.166
N16750 X437.203 Y139.101
N16755 X437.046 Y138.721
N16760 X436.884 Y138.224
N16765 X436.771 Y137.735
N16770 X436.702 Y137.247
N16775 X436.674 Y136.757
N16780 X436.689 Y136.249
N16785 X436.707 Y136.035
N16790 X436.739 Y135.788
N16795 X436.837 Y135.29
N16800 X436.983 Y134.794
N16805 X437.17 Y134.3
N16810 X437.406 Y133.824
N16815 X437.733 Y133.312
N16820 X437.895 Y133.087
N16825 X437.966 Y133.005
N16830 X438.38 Y132.681
N16835 X438.998 Y132.309
N16840 X439.496 Y132.083
N16845 X439.621 Y132.035
N16850 X439.955 Y131.924
N16855 X440.459 Y131.796
N16860 X440.951 Y131.714
N16865 X441.446 Y131.674
N16870 X441.938 Y131.673
N16875 X442.422 Y131.715
N16880 X442.906 Y131.8
N16885 X443.423 Y131.941
N16890 X443.708 Y132.033
N16895 X443.867 Y132.097
N16900 X444.397 Y132.347
N16905 X444.715 Y132.526
N16910 X444.85 Y132.612
N16915 X445.332 Y132.972
N16920 X445.656 Y133.388
N16925 X445.914 Y133.816
N16930 X446.182 Y134.336
N16935 X446.357 Y134.791
N16940 X446.495 Y135.279
N16945 X446.59 Y135.77
N16950 X446.643 Y136.264
N16955 X446.657 Y136.757
N16960 X446.629 Y137.249
N16965 X446.561 Y137.74
N16970 X446.45 Y138.226
N16975 X446.289 Y138.724
N16980 X446.18 Y138.987
N16985 X446.09 Y139.178
N16990 X445.802 Y139.711
N16995 X445.691 Y139.885
N17000 X445.484 Y140.177
N17005 X445.362 Y140.325
N17010 X444.995 Y140.615
N17015 X444.906 Y140.673
N17020 X444.395 Y140.981
N17025 X444.355 Y140.996
N17030 X444.313
N17035 X444.274 Y140.98
N17040 X444.243 Y140.951
N17045 X444.224 Y140.913
N17050 X444.074 Y140.371
N17055 X442.124 Y136.079
N17060 X441.29 Y134.081
N17065 G3 X441.556 Y133.665 I0.277 J-0.116
N17070 X441.772 Y139.655 Z-9.323 I0.108 J2.995
N17075 X438.667 Y136.66 Z-10. I-0.108 J-2.995
N17080 X442.473 I1.903 J0.
N17085 X440.855 I-0.809 J0.
N17090 X442.473 I0.809 J0.
N17095 G2 X443.263 Y137.897 I1.362 J0.
N17100 G3 X443.228 Y139.364 I-0.336 J0.726
N17105 G1 X443.048 Y139.437
N17110 X442.851 Y139.495
N17115 X442.371 Y139.607
N17120 X441.884 Y139.655
N17125 X441.676 Y139.667
N17130 X441.487 Y139.66
N17135 X440.934 Y139.603
N17140 X440.801 Y139.576
N17145 X440.081 Y139.353
N17150 X439.656 Y139.15
N17155 X439.356 Y138.952
N17160 X439.24 Y138.769
N17165 X439.118 Y138.559
N17170 X438.919 Y138.109
N17175 X438.778 Y137.629
N17180 X438.73 Y137.421
N17185 X438.701 Y137.227
N17190 X438.664 Y136.723
N17195 X438.663 Y136.539
N17200 X438.709 Y136.039
N17205 X438.735 Y135.873
N17210 X438.944 Y135.154
N17215 X439.037 Y134.957
N17220 X439.21 Y134.6
N17225 X439.373 Y134.356
N17230 X439.395 Y134.34
N17235 X439.773 Y134.111
N17240 X440.122 Y133.952
N17245 X440.278 Y133.89
N17250 X440.523 Y133.819
N17255 X441.001 Y133.712
N17260 X441.486 Y133.667
N17265 X441.689 Y133.658
N17270 X441.887 Y133.667
N17275 X442.389 Y133.72
N17280 X442.562 Y133.755
N17285 X443.167 Y133.934
N17290 X443.228 Y133.96
N17295 X443.72 Y134.2
N17300 X443.975 Y134.37
N17305 X444.194 Y134.724
N17310 X444.333 Y135.018
N17315 X444.412 Y135.206
N17320 X444.465 Y135.361
N17325 X444.594 Y135.861
N17330 X444.626 Y136.051
N17335 X444.646 Y136.266
N17340 X444.669 Y136.752
N17345 X444.629 Y137.232
N17350 X444.602 Y137.43
N17355 X444.557 Y137.625
N17360 X444.403 Y138.142
N17365 X444.389 Y138.178
N17370 X444.148 Y138.688
N17375 X444.114 Y138.743
N17380 X443.966 Y138.963
N17385 X443.639 Y139.169
N17390 X443.466 Y139.259
N17395 X443.263 Y139.35
N17400 X443.228 Y139.364
N17405 G3 X442.833 Y139.188 I-0.113 J-0.278
N17410 G1 X442.258 Y137.61
N17415 X442.242 Y137.573
N17420 X442.22 Y137.538
N17425 X442.187 Y137.478
N17430 X442.168 Y137.412
N17435 X442.009 Y136.459
N17440 G3 X442.584 Y136.299 I0.296 J-0.049
N17445 X440.751 Y137.024 Z-10.435 I-0.917 J0.362
N17450 X442.584 Y136.299 Z-10.87 I0.917 J-0.362
N17455 X440.751 Y137.024 Z-11.306 I-0.917 J0.362
N17460 X442.584 Y136.299 Z-11.741 I0.917 J-0.362
N17465 X441.741 Y137.644 Z-12. I-0.917 J0.362
N17470 G1 X441.633 Y137.652
N17475 X441.196 Y137.609
N17480 X440.823 Y137.506
N17485 X440.709 Y137.068
N17490 X440.675 Y136.638
N17495 X440.717 Y136.204
N17500 X440.823 Y135.817
N17505 X441.248 Y135.706
N17510 X441.681 Y135.672
N17515 X442.118 Y135.713
N17520 X442.513 Y135.82
N17525 X442.517 Y135.83
N17530 X442.624 Y136.252
N17535 X442.658 Y136.688
N17540 X442.616 Y137.119
N17545 X442.508 Y137.509
N17550 X442.098 Y137.617
N17555 X441.741 Y137.644
N17560 X441.698 Y137.64
N17565 X441.659 Y137.621
N17570 X441.629 Y137.589
N17575 X441.612 Y137.55
N17580 X441.609 Y137.506
N17585 X441.678 Y136.931
N17590 Y136.903
N17595 X441.672 Y136.875
N17600 X441.48 Y136.334
N17605 X441.473 Y136.292
N17610 X441.48 Y136.25
N17615 X441.502 Y136.213
N17620 X441.534 Y136.186
N17625 X441.574 Y136.171
N17630 G3 X441.76 Y137.153 Z-12.221 I0.093 J0.491
N17635 X441.574 Y136.171 Z-12.442 I-0.093 J-0.491
N17640 X441.76 Y137.153 Z-12.662 I0.093 J0.491
N17645 X441.574 Y136.171 Z-12.883 I-0.093 J-0.491
N17650 X441.76 Y137.153 Z-13.104 I0.093 J0.491
N17655 X441.574 Y136.171 Z-13.325 I-0.093 J-0.491
N17660 X441.76 Y137.153 Z-13.545 I0.093 J0.491
N17665 X441.574 Y136.171 Z-13.766 I-0.093 J-0.491
N17670 X442.164 Y136.616 Z-13.883 I0.093 J0.491
N17675 X441.667 Y137.162 Z-14. I-0.498 J0.047
N17680 G1 X441.167
N17685 Y136.162
N17690 X442.167
N17695 Y137.162
N17700 X441.667
N17705 X441.636 Y137.155
N17710 X441.611 Y137.136
N17715 X441.598 Y137.108
N17720 X441.597 Y137.076
N17725 X441.611 Y137.048
N17730 X441.81 Y136.793
N17735 X442.045 Y136.571
N17740 X442.072 Y136.555
N17745 X442.104 Y136.552
N17750 X442.133 Y136.563
N17755 X442.155 Y136.586
N17760 X442.164 Y136.616
N17765 G3 X441.169 Y136.709 Z-14.221 I-0.498 J0.047
N17770 X442.164 Y136.616 Z-14.442 I0.498 J-0.047
N17775 X441.169 Y136.709 Z-14.662 I-0.498 J0.047
N17780 X442.164 Y136.616 Z-14.883 I0.498 J-0.047
N17785 X441.667 Y137.162 Z-15. I-0.498 J0.047
N17790 G1 X441.167
N17795 Y136.162
N17800 X442.167
N17805 Y137.162
N17810 X441.667
N17815 G18 G3 X441.167 Z-14.732 I0. K0.6
N17820 G19 G2 Y137.062 Z-14.4 J0.5 K0.332
N17825 G1 Z5.
N17830 X467.402 Y137.212
N17835 Z1.598
N17840 X467.399 Y137.194 Z1.451
N17845 X467.392 Y137.14 Z1.312
N17850 X467.383 Y137.054 Z1.191
N17855 X467.373 Y136.941 Z1.095
N17860 X467.366 Y136.807 Z1.03
N17865 X467.363 Y136.662 Z1.
N17870 G17 G3 X475.363 Z0. I4. J0.
N17875 X467.363 Z-1. I-4. J0.
N17880 X475.363 Z-2. I4. J0.
N17885 X474.637 I-0.363 J0.
N17890 X478.963 I2.163 J0.
N17895 X471.037 I-3.963 J0.
N17900 X482.563 I5.763 J0.
N17905 X467.437 I-7.563 J0.
N17910 X482.563 I7.563 J0.
N17915 G2 X483.964 Y139.016 I2.679 J0.
N17920 G3 X484.834 Y141.615 I-0.958 J1.765
N17925 G1 X484.817 Y141.651
N17930 X484.499 Y142.241
N17935 X484.184 Y142.748
N17940 X483.953 Y143.105
N17945 X483.404 Y143.823
N17950 X482.872 Y144.415
N17955 X482.64 Y144.635
N17960 X481.757 Y145.387
N17965 X480.694 Y146.082
N17970 X480.152 Y146.394
N17975 X479.623 Y146.659
N17980 X479.089 Y146.879
N17985 X478.53 Y147.08
N17990 X477.996 Y147.25
N17995 X477.46 Y147.375
N18000 X476.903 Y147.487
N18005 X476.35 Y147.569
N18010 X476.108 Y147.597
N18015 X475.27 Y147.651
N18020 X474.735 Y147.645
N18025 X474.178 Y147.62
N18030 X473.643 Y147.572
N18035 X473.095 Y147.487
N18040 X472.553 Y147.386
N18045 X472.022 Y147.248
N18050 X471.391 Y147.051
N18055 X470.926 Y146.889
N18060 X470.071 Y146.512
N18065 X469.291 Y146.09
N18070 X468.755 Y145.744
N18075 X468.204 Y145.345
N18080 X467.63 Y144.88
N18085 X467.141 Y144.426
N18090 X466.269 Y143.411
N18095 X465.461 Y142.173
N18100 X465.185 Y141.651
N18105 X464.927 Y141.1
N18110 X464.709 Y140.57
N18115 X464.419 Y139.68
N18120 X464.245 Y138.94
N18125 X464.149 Y138.389
N18130 X464.071 Y137.85
N18135 X464.034 Y137.314
N18140 X464.013 Y136.758
N18145 X464.019 Y136.223
N18150 X464.057 Y135.672
N18155 X464.11 Y135.133
N18160 X464.203 Y134.6
N18165 X464.32 Y134.045
N18170 X464.425 Y133.641
N18175 X464.459 Y133.512
N18180 X464.64 Y132.97
N18185 X464.846 Y132.419
N18190 X465.08 Y131.889
N18195 X465.515 Y131.058
N18200 X465.67 Y130.801
N18205 X466.051 Y130.212
N18210 X466.596 Y129.501
N18215 X467.131 Y128.906
N18220 X467.389 Y128.663
N18225 X468.267 Y127.92
N18230 X469.321 Y127.232
N18235 X469.688 Y127.012
N18240 X470.382 Y126.663
N18245 X470.915 Y126.444
N18250 X471.474 Y126.244
N18255 X472.008 Y126.073
N18260 X472.612 Y125.933
N18265 X473.099 Y125.837
N18270 X473.638 Y125.757
N18275 X474.19 Y125.707
N18280 X474.732 Y125.674
N18285 X475.269 Y125.679
N18290 X475.826 Y125.704
N18295 X476.361 Y125.753
N18300 X476.908 Y125.838
N18305 X477.452 Y125.94
N18310 X477.985 Y126.078
N18315 X478.544 Y126.251
N18320 X479.079 Y126.437
N18325 X479.615 Y126.673
N18330 X480.177 Y126.947
N18335 X480.714 Y127.237
N18340 X481.249 Y127.584
N18345 X481.817 Y127.994
N18350 X481.958 Y128.103
N18355 X482.351 Y128.426
N18360 X482.593 Y128.644
N18365 X482.859 Y128.898
N18370 X483.424 Y129.551
N18375 X483.724 Y129.904
N18380 X484.518 Y131.119
N18385 X484.644 Y131.337
N18390 X484.924 Y131.887
N18395 X485.032 Y132.126
N18400 X485.367 Y132.973
N18405 X485.583 Y133.652
N18410 X485.8 Y134.595
N18415 X485.88 Y135.128
N18420 X485.943 Y135.684
N18425 X485.98 Y136.22
N18430 X485.985 Y136.769
N18435 X485.974 Y137.311
N18440 X485.925 Y137.846
N18445 X485.854 Y138.401
N18450 X485.761 Y138.931
N18455 X485.582 Y139.654
N18460 X485.477 Y140.018
N18465 X485.29 Y140.555
N18470 X485.038 Y141.167
N18475 X484.834 Y141.615
N18480 G3 X484.406 Y141.747 I-0.273 J-0.124
N18485 G1 X482.689 Y140.709
N18490 X482.643 Y140.686
N18495 X476.498 Y138.274
N18500 X476.353 Y138.297
N18505 X476.331 Y138.294
N18510 X476.317 Y138.278
N18515 G3 X483.634 Y135.044 Z-3.766 I3.659 J-1.617
N18520 X483.975 Y136.661 Z-4. I-3.659 J1.617
N18525 X476.636 I-3.67 J0.
N18530 X476.964 I0.164 J0.
N18535 X473.036 I-1.964 J0.
N18540 X480.564 I3.764 J0.
N18545 X469.436 I-5.564 J0.
N18550 X480.564 I5.564 J0.
N18555 G2 X481.906 Y138.969 I2.655 J0.
N18560 G3 X482.622 Y141.541 I-0.936 J1.646
N18565 G1 X482.62 Y141.544
N18570 X482.276 Y142.075
N18575 X481.882 Y142.598
N18580 X481.445 Y143.088
N18585 X480.586 Y143.812
N18590 X479.501 Y144.511
N18595 X478.997 Y144.764
N18600 X478.465 Y144.991
N18605 X477.871 Y145.203
N18610 X477.395 Y145.346
N18615 X476.872 Y145.465
N18620 X476.336 Y145.554
N18625 X475.79 Y145.617
N18630 X475.267 Y145.653
N18635 X474.744 Y145.647
N18640 X474.198 Y145.616
N18645 X473.665 Y145.56
N18650 X473.145 Y145.471
N18655 X472.614 Y145.344
N18660 X472.073 Y145.184
N18665 X471.543 Y144.996
N18670 X471.005 Y144.762
N18675 X470.83 Y144.677
N18680 X470.497 Y144.5
N18685 X469.889 Y144.136
N18690 X469.404 Y143.8
N18695 X469.147 Y143.606
N18700 X468.889 Y143.391
N18705 X468.584 Y143.119
N18710 X467.834 Y142.228
N18715 X467.336 Y141.454
N18720 X467.066 Y140.993
N18725 X466.811 Y140.473
N18730 X466.601 Y139.954
N18735 X466.424 Y139.423
N18740 X466.277 Y138.882
N18745 X466.161 Y138.355
N18750 X466.084 Y137.833
N18755 X466.035 Y137.293
N18760 X466.011 Y136.753
N18765 X466.017 Y136.232
N18770 X466.06 Y135.705
N18775 X466.13 Y135.163
N18780 X466.226 Y134.636
N18785 X466.359 Y134.117
N18790 X466.531 Y133.583
N18795 X466.737 Y133.044
N18800 X466.975 Y132.512
N18805 X467.253 Y131.988
N18810 X467.584 Y131.46
N18815 X467.969 Y130.926
N18820 X468.424 Y130.38
N18825 X468.557 Y130.235
N18830 X469.418 Y129.509
N18835 X470.503 Y128.811
N18840 X471.006 Y128.559
N18845 X471.555 Y128.326
N18850 X472.08 Y128.137
N18855 X472.61 Y127.977
N18860 X473.132 Y127.858
N18865 X473.668 Y127.77
N18870 X474.214 Y127.707
N18875 X474.737 Y127.672
N18880 X475.26 Y127.677
N18885 X475.806 Y127.708
N18890 X476.339 Y127.765
N18895 X476.859 Y127.854
N18900 X477.39 Y127.981
N18905 X477.93 Y128.142
N18910 X478.461 Y128.33
N18915 X478.985 Y128.558
N18920 X479.559 Y128.854
N18925 X480.065 Y129.159
N18930 X480.402 Y129.379
N18935 X481.134 Y129.954
N18940 X481.408 Y130.197
N18945 X482.169 Y131.1
N18950 X482.747 Y132.001
N18955 X483.037 Y132.536
N18960 X483.188 Y132.85
N18965 X483.476 Y133.584
N18970 X483.639 Y134.102
N18975 X483.767 Y134.632
N18980 X483.869 Y135.175
N18985 X483.943 Y135.702
N18990 X483.979 Y136.225
N18995 X483.986 Y136.765
N19000 X483.969 Y137.303
N19005 X483.922 Y137.823
N19010 X483.837 Y138.349
N19015 X483.722 Y138.893
N19020 X483.581 Y139.419
N19025 X483.402 Y139.94
N19030 X483.18 Y140.472
N19035 X482.92 Y141.009
N19040 X482.622 Y141.541
N19045 X482.608 Y141.555
N19050 X482.589 Y141.559
N19055 X482.57 Y141.552
N19060 X482.431 Y141.45
N19065 X474.338 Y138.276
N19070 X474.303 Y138.277
N19075 G3 X481.62 Y135.043 Z-5.766 I3.659 J-1.617
N19080 X481.962 Y136.66 Z-6. I-3.659 J1.617
N19085 X475.033 I-3.464 J0.
N19090 X478.565 I1.766 J0.
N19095 X471.433 I-3.566 J0.
N19100 X478.565 I3.566 J0.
N19105 G2 X479.739 Y139.2 I3.335 J0.
N19110 G3 X479.707 Y141.998 I-1.179 J1.386
N19115 G1 X479.372 Y142.271
N19120 X478.856 Y142.594
N19125 X478.446 Y142.83
N19130 X477.831 Y143.109
N19135 X477.321 Y143.292
N19140 X476.805 Y143.437
N19145 X476.287 Y143.545
N19150 X475.774 Y143.617
N19155 X475.263 Y143.651
N19160 X474.747 Y143.649
N19165 X474.23 Y143.614
N19170 X473.714 Y143.544
N19175 X473.184 Y143.434
N19180 X472.845 Y143.346
N19185 X472.166 Y143.105
N19190 X471.655 Y142.878
N19195 X471.135 Y142.597
N19200 X470.699 Y142.321
N19205 X470.095 Y141.855
N19210 X469.966 Y141.742
N19215 X469.406 Y141.058
N19220 X468.962 Y140.347
N19225 X468.658 Y139.753
N19230 X468.492 Y139.341
N19235 X468.322 Y138.825
N19240 X468.146 Y138.113
N19245 X468.096 Y137.805
N19250 X468.035 Y137.271
N19255 X468.009 Y136.753
N19260 X468.017 Y136.24
N19265 X468.062 Y135.733
N19270 X468.147 Y135.202
N19275 X468.263 Y134.708
N19280 X468.421 Y134.196
N19285 X468.667 Y133.57
N19290 X468.861 Y133.17
N19295 X469.18 Y132.613
