%
(13X13_V2_LEFT_FRONT_VBIT)
(T50  D=32. CR=0. TAPER=45DEG - ZMIN=-15. - CHAMFER MILL)
N10 G90 G94 G17 G91.1
N15 G21
(WHEN USING FUSION 360 FOR PERSONAL USE, THE FEEDRATE OF)
(RAPID MOVES IS REDUCED TO MATCH THE FEEDRATE OF CUTTING)
(MOVES, WHICH CAN INCREASE MACHINING TIME. UNRESTRICTED RAPID)
(MOVES ARE AVAILABLE WITH A FUSION 360 SUBSCRIPTION.)
(2D CONTOUR2 4)
N20 M8
N25 S10000 M3
N30 G54
N35 G0 X275.977 Y102.329
N45 G1 Z5. F1000.
N50 Z2. F500.
N55 X274. Z1.58
N60 Y104.329 Z1.155
N65 X276. Z0.73
N70 Y102.329 Z0.304
N75 X274. Z-0.121
N80 Y104.329 Z-0.546
N85 X276. Z-0.971
N90 Y102.329 Z-1.396
N95 X274. Z-1.821
N100 Y104.329 Z-2.246
N105 X276. Z-2.671
N110 Y102.329 Z-3.097
N115 X274. Z-3.522
N120 Y104.329 Z-3.947
N125 X276. Z-4.372
N130 Y102.329 Z-4.797
N135 X274. Z-5.222
N140 Y104.329 Z-5.647
N145 X276. Z-6.072
N150 Y102.329 Z-6.498
N155 X274. Z-6.923
N160 Y104.329 Z-7.348
N165 X276. Z-7.773
N170 Y102.329 Z-8.198
N175 X274. Z-8.623
N180 Y104.329 Z-9.048
N185 X276. Z-9.473
N190 Y102.329 Z-9.899
N195 X274. Z-10.324
N200 Y104.329 Z-10.749
N205 X276. Z-11.174
N210 Y102.329 Z-11.599
N215 X274. Z-12.024
N220 Y104.329 Z-12.449
N225 X276. Z-12.874
N230 Y102.329 Z-13.3
N235 X274. Z-13.725
N240 Y104.329 Z-14.15
N245 X276. Z-14.575
N250 Y102.329 Z-15.
N255 X274. F1000.
N260 Y104.329
N265 X276.
N270 Y102.329
N275 Z5.
N280 X309.31
N285 Z2. F500.
N290 X307.333 Z1.58
N295 Y104.329 Z1.155
N300 X309.333 Z0.73
N305 Y102.329 Z0.304
N310 X307.333 Z-0.121
N315 Y104.329 Z-0.546
N320 X309.333 Z-0.971
N325 Y102.329 Z-1.396
N330 X307.333 Z-1.821
N335 Y104.329 Z-2.246
N340 X309.333 Z-2.671
N345 Y102.329 Z-3.097
N350 X307.333 Z-3.522
N355 Y104.329 Z-3.947
N360 X309.333 Z-4.372
N365 Y102.329 Z-4.797
N370 X307.333 Z-5.222
N375 Y104.329 Z-5.647
N380 X309.333 Z-6.072
N385 Y102.329 Z-6.498
N390 X307.333 Z-6.923
N395 Y104.329 Z-7.348
N400 X309.333 Z-7.773
N405 Y102.329 Z-8.198
N410 X307.333 Z-8.623
N415 Y104.329 Z-9.048
N420 X309.333 Z-9.473
N425 Y102.329 Z-9.899
N430 X307.333 Z-10.324
N435 Y104.329 Z-10.749
N440 X309.333 Z-11.174
N445 Y102.329 Z-11.599
N450 X307.333 Z-12.024
N455 Y104.329 Z-12.449
N460 X309.333 Z-12.874
N465 Y102.329 Z-13.3
N470 X307.333 Z-13.725
N475 Y104.329 Z-14.15
N480 X309.333 Z-14.575
N485 Y102.329 Z-15.
N490 X307.333 F1000.
N495 Y104.329
N500 X309.333
N505 Y102.329
N510 Z5.
N515 X309.312 Y68.996
N520 Z2. F500.
N525 X307.333 Z1.579
N530 Y70.996 Z1.154
N535 X309.333 Z0.729
N540 Y68.996 Z0.304
N545 X307.333 Z-0.121
N550 Y70.996 Z-0.546
N555 X309.333 Z-0.971
N560 Y68.996 Z-1.396
N565 X307.333 Z-1.821
N570 Y70.996 Z-2.247
N575 X309.333 Z-2.672
N580 Y68.996 Z-3.097
N585 X307.333 Z-3.522
N590 Y70.996 Z-3.947
N595 X309.333 Z-4.372
N600 Y68.996 Z-4.797
N605 X307.333 Z-5.222
N610 Y70.996 Z-5.648
N615 X309.333 Z-6.073
N620 Y68.996 Z-6.498
N625 X307.333 Z-6.923
N630 Y70.996 Z-7.348
N635 X309.333 Z-7.773
N640 Y68.996 Z-8.198
N645 X307.333 Z-8.623
N650 Y70.996 Z-9.048
N655 X309.333 Z-9.474
N660 Y68.996 Z-9.899
N665 X307.333 Z-10.324
N670 Y70.996 Z-10.749
N675 X309.333 Z-11.174
N680 Y68.996 Z-11.599
N685 X307.333 Z-12.024
N690 Y70.996 Z-12.449
N695 X309.333 Z-12.874
N700 Y68.996 Z-13.3
N705 X307.333 Z-13.725
N710 Y70.996 Z-14.15
N715 X309.333 Z-14.575
N720 Y68.996 Z-15.
N725 X307.333 F1000.
N730 Y70.996
N735 X309.333
N740 Y68.996
N745 Z5.
N750 Y37.641
N755 Z2. F500.
N760 Y35.662 Z1.579
N765 X307.333 Z1.154
N770 Y37.662 Z0.729
N775 X309.333 Z0.304
N780 Y35.662 Z-0.121
N785 X307.333 Z-0.546
N790 Y37.662 Z-0.971
N795 X309.333 Z-1.396
N800 Y35.662 Z-1.821
N805 X307.333 Z-2.247
N810 Y37.662 Z-2.672
N815 X309.333 Z-3.097
N820 Y35.662 Z-3.522
N825 X307.333 Z-3.947
N830 Y37.662 Z-4.372
N835 X309.333 Z-4.797
N840 Y35.662 Z-5.222
N845 X307.333 Z-5.648
N850 Y37.662 Z-6.073
N855 X309.333 Z-6.498
N860 Y35.662 Z-6.923
N865 X307.333 Z-7.348
N870 Y37.662 Z-7.773
N875 X309.333 Z-8.198
N880 Y35.662 Z-8.623
N885 X307.333 Z-9.048
N890 Y37.662 Z-9.474
N895 X309.333 Z-9.899
N900 Y35.662 Z-10.324
N905 X307.333 Z-10.749
N910 Y37.662 Z-11.174
N915 X309.333 Z-11.599
N920 Y35.662 Z-12.024
N925 X307.333 Z-12.449
N930 Y37.662 Z-12.874
N935 X309.333 Z-13.3
N940 Y35.662 Z-13.725
N945 X307.333 Z-14.15
N950 Y37.662 Z-14.575
N955 X309.333 Z-15.
N960 Y35.662 F1000.
N965 X307.333
N970 Y37.662
N975 X309.333
N980 Z5.
N985 X340.688
N990 Z2. F500.
N995 X342.667 Z1.579
N1000 Y35.662 Z1.154
N1005 X340.667 Z0.729
N1010 Y37.662 Z0.304
N1015 X342.667 Z-0.121
N1020 Y35.662 Z-0.546
N1025 X340.667 Z-0.971
N1030 Y37.662 Z-1.396
N1035 X342.667 Z-1.821
N1040 Y35.662 Z-2.247
N1045 X340.667 Z-2.672
N1050 Y37.662 Z-3.097
N1055 X342.667 Z-3.522
N1060 Y35.662 Z-3.947
N1065 X340.667 Z-4.372
N1070 Y37.662 Z-4.797
N1075 X342.667 Z-5.222
N1080 Y35.662 Z-5.648
N1085 X340.667 Z-6.073
N1090 Y37.662 Z-6.498
N1095 X342.667 Z-6.923
N1100 Y35.662 Z-7.348
N1105 X340.667 Z-7.773
N1110 Y37.662 Z-8.198
N1115 X342.667 Z-8.623
N1120 Y35.662 Z-9.048
N1125 X340.667 Z-9.474
N1130 Y37.662 Z-9.899
N1135 X342.667 Z-10.324
N1140 Y35.662 Z-10.749
N1145 X340.667 Z-11.174
N1150 Y37.662 Z-11.599
N1155 X342.667 Z-12.024
N1160 Y35.662 Z-12.449
N1165 X340.667 Z-12.874
N1170 Y37.662 Z-13.3
N1175 X342.667 Z-13.725
N1180 Y35.662 Z-14.15
N1185 X340.667 Z-14.575
N1190 Y37.662 Z-15.
N1195 X342.667 F1000.
N1200 Y35.662
N1205 X340.667
N1210 Y37.662
N1215 Z5.
N1220 Y69.017
N1225 Z2. F500.
N1230 Y70.996 Z1.579
N1235 X342.667 Z1.154
N1240 Y68.996 Z0.729
N1245 X340.667 Z0.304
N1250 Y70.996 Z-0.121
N1255 X342.667 Z-0.546
N1260 Y68.996 Z-0.971
N1265 X340.667 Z-1.396
N1270 Y70.996 Z-1.821
N1275 X342.667 Z-2.247
N1280 Y68.996 Z-2.672
N1285 X340.667 Z-3.097
N1290 Y70.996 Z-3.522
N1295 X342.667 Z-3.947
N1300 Y68.996 Z-4.372
N1305 X340.667 Z-4.797
N1310 Y70.996 Z-5.222
N1315 X342.667 Z-5.648
N1320 Y68.996 Z-6.073
N1325 X340.667 Z-6.498
N1330 Y70.996 Z-6.923
N1335 X342.667 Z-7.348
N1340 Y68.996 Z-7.773
N1345 X340.667 Z-8.198
N1350 Y70.996 Z-8.623
N1355 X342.667 Z-9.048
N1360 Y68.996 Z-9.474
N1365 X340.667 Z-9.899
N1370 Y70.996 Z-10.324
N1375 X342.667 Z-10.749
N1380 Y68.996 Z-11.174
N1385 X340.667 Z-11.599
N1390 Y70.996 Z-12.024
N1395 X342.667 Z-12.449
N1400 Y68.996 Z-12.874
N1405 X340.667 Z-13.3
N1410 Y70.996 Z-13.725
N1415 X342.667 Z-14.15
N1420 Y68.996 Z-14.575
N1425 X340.667 Z-15.
N1430 Y70.996 F1000.
N1435 X342.667
N1440 Y68.996
N1445 X340.667
N1450 Z5.
N1455 X375.979
N1460 Z2. F500.
N1465 X374. Z1.579
N1470 Y70.996 Z1.154
N1475 X376. Z0.729
N1480 Y68.996 Z0.304
N1485 X374. Z-0.121
N1490 Y70.996 Z-0.546
N1495 X376. Z-0.971
N1500 Y68.996 Z-1.396
N1505 X374. Z-1.821
N1510 Y70.996 Z-2.247
N1515 X376. Z-2.672
N1520 Y68.996 Z-3.097
N1525 X374. Z-3.522
N1530 Y70.996 Z-3.947
N1535 X376. Z-4.372
N1540 Y68.996 Z-4.797
N1545 X374. Z-5.222
N1550 Y70.996 Z-5.648
N1555 X376. Z-6.073
N1560 Y68.996 Z-6.498
N1565 X374. Z-6.923
N1570 Y70.996 Z-7.348
N1575 X376. Z-7.773
N1580 Y68.996 Z-8.198
N1585 X374. Z-8.623
N1590 Y70.996 Z-9.048
N1595 X376. Z-9.474
N1600 Y68.996 Z-9.899
N1605 X374. Z-10.324
N1610 Y70.996 Z-10.749
N1615 X376. Z-11.174
N1620 Y68.996 Z-11.599
N1625 X374. Z-12.024
N1630 Y70.996 Z-12.449
N1635 X376. Z-12.874
N1640 Y68.996 Z-13.3
N1645 X374. Z-13.725
N1650 Y70.996 Z-14.15
N1655 X376. Z-14.575
N1660 Y68.996 Z-15.
N1665 X374. F1000.
N1670 Y70.996
N1675 X376.
N1680 Y68.996
N1685 Z5.
N1690 X409.312
N1695 Z2. F500.
N1700 X407.333 Z1.579
N1705 Y70.996 Z1.154
N1710 X409.333 Z0.729
N1715 Y68.996 Z0.304
N1720 X407.333 Z-0.121
N1725 Y70.996 Z-0.546
N1730 X409.333 Z-0.971
N1735 Y68.996 Z-1.396
N1740 X407.333 Z-1.821
N1745 Y70.996 Z-2.247
N1750 X409.333 Z-2.672
N1755 Y68.996 Z-3.097
N1760 X407.333 Z-3.522
N1765 Y70.996 Z-3.947
N1770 X409.333 Z-4.372
N1775 Y68.996 Z-4.797
N1780 X407.333 Z-5.222
N1785 Y70.996 Z-5.648
N1790 X409.333 Z-6.073
N1795 Y68.996 Z-6.498
N1800 X407.333 Z-6.923
N1805 Y70.996 Z-7.348
N1810 X409.333 Z-7.773
N1815 Y68.996 Z-8.198
N1820 X407.333 Z-8.623
N1825 Y70.996 Z-9.048
N1830 X409.333 Z-9.474
N1835 Y68.996 Z-9.899
N1840 X407.333 Z-10.324
N1845 Y70.996 Z-10.749
N1850 X409.333 Z-11.174
N1855 Y68.996 Z-11.599
N1860 X407.333 Z-12.024
N1865 Y70.996 Z-12.449
N1870 X409.333 Z-12.874
N1875 Y68.996 Z-13.3
N1880 X407.333 Z-13.725
N1885 Y70.996 Z-14.15
N1890 X409.333 Z-14.575
N1895 Y68.996 Z-15.
N1900 X407.333 F1000.
N1905 Y70.996
N1910 X409.333
N1915 Y68.996
N1920 Z5.
N1925 Y37.641
N1930 Z2. F500.
N1935 Y35.662 Z1.579
N1940 X407.333 Z1.154
N1945 Y37.662 Z0.729
N1950 X409.333 Z0.304
N1955 Y35.662 Z-0.121
N1960 X407.333 Z-0.546
N1965 Y37.662 Z-0.971
N1970 X409.333 Z-1.396
N1975 Y35.662 Z-1.821
N1980 X407.333 Z-2.247
N1985 Y37.662 Z-2.672
N1990 X409.333 Z-3.097
N1995 Y35.662 Z-3.522
N2000 X407.333 Z-3.947
N2005 Y37.662 Z-4.372
N2010 X409.333 Z-4.797
N2015 Y35.662 Z-5.222
N2020 X407.333 Z-5.648
N2025 Y37.662 Z-6.073
N2030 X409.333 Z-6.498
N2035 Y35.662 Z-6.923
N2040 X407.333 Z-7.348
N2045 Y37.662 Z-7.773
N2050 X409.333 Z-8.198
N2055 Y35.662 Z-8.623
N2060 X407.333 Z-9.048
N2065 Y37.662 Z-9.474
N2070 X409.333 Z-9.899
N2075 Y35.662 Z-10.324
N2080 X407.333 Z-10.749
N2085 Y37.662 Z-11.174
N2090 X409.333 Z-11.599
N2095 Y35.662 Z-12.024
N2100 X407.333 Z-12.449
N2105 Y37.662 Z-12.874
N2110 X409.333 Z-13.3
N2115 Y35.662 Z-13.725
N2120 X407.333 Z-14.15
N2125 Y37.662 Z-14.575
N2130 X409.333 Z-15.
N2135 Y35.662 F1000.
N2140 X407.333
N2145 Y37.662
N2150 X409.333
N2155 Z5.
N2160 X440.688
N2165 Z2. F500.
N2170 X442.667 Z1.579
N2175 Y35.662 Z1.154
N2180 X440.667 Z0.729
N2185 Y37.662 Z0.304
N2190 X442.667 Z-0.121
N2195 Y35.662 Z-0.546
N2200 X440.667 Z-0.971
N2205 Y37.662 Z-1.396
N2210 X442.667 Z-1.821
N2215 Y35.662 Z-2.247
N2220 X440.667 Z-2.672
N2225 Y37.662 Z-3.097
N2230 X442.667 Z-3.522
N2235 Y35.662 Z-3.947
N2240 X440.667 Z-4.372
N2245 Y37.662 Z-4.797
N2250 X442.667 Z-5.222
N2255 Y35.662 Z-5.648
N2260 X440.667 Z-6.073
N2265 Y37.662 Z-6.498
N2270 X442.667 Z-6.923
N2275 Y35.662 Z-7.348
N2280 X440.667 Z-7.773
N2285 Y37.662 Z-8.198
N2290 X442.667 Z-8.623
N2295 Y35.662 Z-9.048
N2300 X440.667 Z-9.474
N2305 Y37.662 Z-9.899
N2310 X442.667 Z-10.324
N2315 Y35.662 Z-10.749
N2320 X440.667 Z-11.174
N2325 Y37.662 Z-11.599
N2330 X442.667 Z-12.024
N2335 Y35.662 Z-12.449
N2340 X440.667 Z-12.874
N2345 Y37.662 Z-13.3
N2350 X442.667 Z-13.725
N2355 Y35.662 Z-14.15
N2360 X440.667 Z-14.575
N2365 Y37.662 Z-15.
N2370 X442.667 F1000.
N2375 Y35.662
N2380 X440.667
N2385 Y37.662
N2390 Z5.
N2395 Y69.017
N2400 Z2. F500.
N2405 Y70.996 Z1.579
N2410 X442.667 Z1.154
N2415 Y68.996 Z0.729
N2420 X440.667 Z0.304
N2425 Y70.996 Z-0.121
N2430 X442.667 Z-0.546
N2435 Y68.996 Z-0.971
N2440 X440.667 Z-1.396
N2445 Y70.996 Z-1.821
N2450 X442.667 Z-2.247
N2455 Y68.996 Z-2.672
N2460 X440.667 Z-3.097
N2465 Y70.996 Z-3.522
N2470 X442.667 Z-3.947
N2475 Y68.996 Z-4.372
N2480 X440.667 Z-4.797
N2485 Y70.996 Z-5.222
N2490 X442.667 Z-5.648
N2495 Y68.996 Z-6.073
N2500 X440.667 Z-6.498
N2505 Y70.996 Z-6.923
N2510 X442.667 Z-7.348
N2515 Y68.996 Z-7.773
N2520 X440.667 Z-8.198
N2525 Y70.996 Z-8.623
N2530 X442.667 Z-9.048
N2535 Y68.996 Z-9.474
N2540 X440.667 Z-9.899
N2545 Y70.996 Z-10.324
N2550 X442.667 Z-10.749
N2555 Y68.996 Z-11.174
N2560 X440.667 Z-11.599
N2565 Y70.996 Z-12.024
N2570 X442.667 Z-12.449
N2575 Y68.996 Z-12.874
N2580 X440.667 Z-13.3
N2585 Y70.996 Z-13.725
N2590 X442.667 Z-14.15
N2595 Y68.996 Z-14.575
N2600 X440.667 Z-15.
N2605 Y70.996 F1000.
N2610 X442.667
N2615 Y68.996
N2620 X440.667
N2625 Z5.
N2630 X476. Y70.974
N2635 Z2. F500.
N2640 Y68.996 Z1.579
N2645 X474. Z1.154
N2650 Y70.996 Z0.729
N2655 X476. Z0.304
N2660 Y68.996 Z-0.121
N2665 X474. Z-0.546
N2670 Y70.996 Z-0.971
N2675 X476. Z-1.396
N2680 Y68.996 Z-1.821
N2685 X474. Z-2.247
N2690 Y70.996 Z-2.672
N2695 X476. Z-3.097
N2700 Y68.996 Z-3.522
N2705 X474. Z-3.947
N2710 Y70.996 Z-4.372
N2715 X476. Z-4.797
N2720 Y68.996 Z-5.222
N2725 X474. Z-5.648
N2730 Y70.996 Z-6.073
N2735 X476. Z-6.498
N2740 Y68.996 Z-6.923
N2745 X474. Z-7.348
N2750 Y70.996 Z-7.773
N2755 X476. Z-8.198
N2760 Y68.996 Z-8.623
N2765 X474. Z-9.048
N2770 Y70.996 Z-9.474
N2775 X476. Z-9.899
N2780 Y68.996 Z-10.324
N2785 X474. Z-10.749
N2790 Y70.996 Z-11.174
N2795 X476. Z-11.599
N2800 Y68.996 Z-12.024
N2805 X474. Z-12.449
N2810 Y70.996 Z-12.874
N2815 X476. Z-13.3
N2820 Y68.996 Z-13.725
N2825 X474. Z-14.15
N2830 Y70.996 Z-14.575
N2835 X476. Z-15.
N2840 Y68.996 F1000.
N2845 X474.
N2850 Y70.996
N2855 X476.
N2860 Z5.
N2865 Y103.305
N2870 Z2. F500.
N2875 Y102.329 Z1.792
N2880 X474. Z1.367
N2885 Y104.329 Z0.942
N2890 X476. Z0.517
N2895 Y102.329 Z0.092
N2900 X474. Z-0.333
N2905 Y104.329 Z-0.758
N2910 X476. Z-1.183
N2915 Y102.329 Z-1.609
N2920 X474. Z-2.034
N2925 Y104.329 Z-2.459
N2930 X476. Z-2.884
N2935 Y102.329 Z-3.309
N2940 X474. Z-3.734
N2945 Y104.329 Z-4.159
N2950 X476. Z-4.584
N2955 Y102.329 Z-5.01
N2960 X474. Z-5.435
N2965 Y104.329 Z-5.86
N2970 X476. Z-6.285
N2975 Y102.329 Z-6.71
N2980 X474. Z-7.135
N2985 Y104.329 Z-7.56
N2990 X476. Z-7.985
N2995 Y102.329 Z-8.411
N3000 X474. Z-8.836
N3005 Y104.329 Z-9.261
N3010 X476. Z-9.686
N3015 Y102.329 Z-10.111
N3020 X474. Z-10.536
N3025 Y104.329 Z-10.961
N3030 X476. Z-11.386
N3035 Y102.329 Z-11.812
N3040 X474. Z-12.237
N3045 Y104.329 Z-12.662
N3050 X476. Z-13.087
N3055 Y102.329 Z-13.512
N3060 X474. Z-13.937
N3065 Y104.329 Z-14.362
N3070 X476. Z-14.787
N3075 Y103.329 Z-15.
N3080 Y102.329 F1000.
N3085 X474.
N3090 Y104.329
N3095 X476.
N3100 Y103.329
N3105 Z5.
N3110 X475.979 Y135.662
N3115 Z2. F500.
N3120 X474. Z1.579
N3125 Y137.662 Z1.154
N3130 X476. Z0.729
N3135 Y135.662 Z0.304
N3140 X474. Z-0.121
N3145 Y137.662 Z-0.546
N3150 X476. Z-0.971
N3155 Y135.662 Z-1.396
N3160 X474. Z-1.821
N3165 Y137.662 Z-2.247
N3170 X476. Z-2.672
N3175 Y135.662 Z-3.097
N3180 X474. Z-3.522
N3185 Y137.662 Z-3.947
N3190 X476. Z-4.372
N3195 Y135.662 Z-4.797
N3200 X474. Z-5.222
N3205 Y137.662 Z-5.648
N3210 X476. Z-6.073
N3215 Y135.662 Z-6.498
N3220 X474. Z-6.923
N3225 Y137.662 Z-7.348
N3230 X476. Z-7.773
N3235 Y135.662 Z-8.198
N3240 X474. Z-8.623
N3245 Y137.662 Z-9.048
N3250 X476. Z-9.474
N3255 Y135.662 Z-9.899
N3260 X474. Z-10.324
N3265 Y137.662 Z-10.749
N3270 X476. Z-11.174
N3275 Y135.662 Z-11.599
N3280 X474. Z-12.024
N3285 Y137.662 Z-12.449
N3290 X476. Z-12.874
N3295 Y135.662 Z-13.3
N3300 X474. Z-13.725
N3305 Y137.662 Z-14.15
N3310 X476. Z-14.575
N3315 Y135.662 Z-15.
N3320 X474. F1000.
N3325 Y137.662
N3330 X476.
N3335 Y135.662
N3340 Z5.
N3345 X440.688 Y137.662
N3350 Z2. F500.
N3355 X442.667 Z1.579
N3360 Y135.662 Z1.154
N3365 X440.667 Z0.729
N3370 Y137.662 Z0.304
N3375 X442.667 Z-0.121
N3380 Y135.662 Z-0.546
N3385 X440.667 Z-0.971
N3390 Y137.662 Z-1.396
N3395 X442.667 Z-1.821
N3400 Y135.662 Z-2.247
N3405 X440.667 Z-2.672
N3410 Y137.662 Z-3.097
N3415 X442.667 Z-3.522
N3420 Y135.662 Z-3.947
N3425 X440.667 Z-4.372
N3430 Y137.662 Z-4.797
N3435 X442.667 Z-5.222
N3440 Y135.662 Z-5.648
N3445 X440.667 Z-6.073
N3450 Y137.662 Z-6.498
N3455 X442.667 Z-6.923
N3460 Y135.662 Z-7.348
N3465 X440.667 Z-7.773
N3470 Y137.662 Z-8.198
N3475 X442.667 Z-8.623
N3480 Y135.662 Z-9.048
N3485 X440.667 Z-9.474
N3490 Y137.662 Z-9.899
N3495 X442.667 Z-10.324
N3500 Y135.662 Z-10.749
N3505 X440.667 Z-11.174
N3510 Y137.662 Z-11.599
N3515 X442.667 Z-12.024
N3520 Y135.662 Z-12.449
N3525 X440.667 Z-12.874
N3530 Y137.662 Z-13.3
N3535 X442.667 Z-13.725
N3540 Y135.662 Z-14.15
N3545 X440.667 Z-14.575
N3550 Y137.662 Z-15.
N3555 X442.667 F1000.
N3560 Y135.662
N3565 X440.667
N3570 Y137.662
N3575 Z5.
N3580 X409.333 Y137.641
N3585 Z2. F500.
N3590 Y135.662 Z1.579
N3595 X407.333 Z1.154
N3600 Y137.662 Z0.729
N3605 X409.333 Z0.304
N3610 Y135.662 Z-0.121
N3615 X407.333 Z-0.546
N3620 Y137.662 Z-0.971
N3625 X409.333 Z-1.396
N3630 Y135.662 Z-1.821
N3635 X407.333 Z-2.247
N3640 Y137.662 Z-2.672
N3645 X409.333 Z-3.097
N3650 Y135.662 Z-3.522
N3655 X407.333 Z-3.947
N3660 Y137.662 Z-4.372
N3665 X409.333 Z-4.797
N3670 Y135.662 Z-5.222
N3675 X407.333 Z-5.648
N3680 Y137.662 Z-6.073
N3685 X409.333 Z-6.498
N3690 Y135.662 Z-6.923
N3695 X407.333 Z-7.348
N3700 Y137.662 Z-7.773
N3705 X409.333 Z-8.198
N3710 Y135.662 Z-8.623
N3715 X407.333 Z-9.048
N3720 Y137.662 Z-9.474
N3725 X409.333 Z-9.899
N3730 Y135.662 Z-10.324
N3735 X407.333 Z-10.749
N3740 Y137.662 Z-11.174
N3745 X409.333 Z-11.599
N3750 Y135.662 Z-12.024
N3755 X407.333 Z-12.449
N3760 Y137.662 Z-12.874
N3765 X409.333 Z-13.3
N3770 Y135.662 Z-13.725
N3775 X407.333 Z-14.15
N3780 Y137.662 Z-14.575
N3785 X409.333 Z-15.
N3790 Y135.662 F1000.
N3795 X407.333
N3800 Y137.662
N3805 X409.333
N3810 Z5.
N3815 X409.312 Y168.996
N3820 Z2. F500.
N3825 X407.333 Z1.579
N3830 Y170.996 Z1.154
N3835 X409.333 Z0.729
N3840 Y168.996 Z0.304
N3845 X407.333 Z-0.121
N3850 Y170.996 Z-0.546
N3855 X409.333 Z-0.971
N3860 Y168.996 Z-1.396
N3865 X407.333 Z-1.821
N3870 Y170.996 Z-2.247
N3875 X409.333 Z-2.672
N3880 Y168.996 Z-3.097
N3885 X407.333 Z-3.522
N3890 Y170.996 Z-3.947
N3895 X409.333 Z-4.372
N3900 Y168.996 Z-4.797
N3905 X407.333 Z-5.222
N3910 Y170.996 Z-5.648
N3915 X409.333 Z-6.073
N3920 Y168.996 Z-6.498
N3925 X407.333 Z-6.923
N3930 Y170.996 Z-7.348
N3935 X409.333 Z-7.773
N3940 Y168.996 Z-8.198
N3945 X407.333 Z-8.623
N3950 Y170.996 Z-9.048
N3955 X409.333 Z-9.474
N3960 Y168.996 Z-9.899
N3965 X407.333 Z-10.324
N3970 Y170.996 Z-10.749
N3975 X409.333 Z-11.174
N3980 Y168.996 Z-11.599
N3985 X407.333 Z-12.024
N3990 Y170.996 Z-12.449
N3995 X409.333 Z-12.874
N4000 Y168.996 Z-13.3
N4005 X407.333 Z-13.725
N4010 Y170.996 Z-14.15
N4015 X409.333 Z-14.575
N4020 Y168.996 Z-15.
N4025 X407.333 F1000.
N4030 Y170.996
N4035 X409.333
N4040 Y168.996
N4045 Z5.
N4050 X440.667 Y169.017
N4055 Z2. F500.
N4060 Y170.996 Z1.579
N4065 X442.667 Z1.154
N4070 Y168.996 Z0.729
N4075 X440.667 Z0.304
N4080 Y170.996 Z-0.121
N4085 X442.667 Z-0.546
N4090 Y168.996 Z-0.971
N4095 X440.667 Z-1.396
N4100 Y170.996 Z-1.821
N4105 X442.667 Z-2.247
N4110 Y168.996 Z-2.672
N4115 X440.667 Z-3.097
N4120 Y170.996 Z-3.522
N4125 X442.667 Z-3.947
N4130 Y168.996 Z-4.372
N4135 X440.667 Z-4.797
N4140 Y170.996 Z-5.222
N4145 X442.667 Z-5.648
N4150 Y168.996 Z-6.073
N4155 X440.667 Z-6.498
N4160 Y170.996 Z-6.923
N4165 X442.667 Z-7.348
N4170 Y168.996 Z-7.773
N4175 X440.667 Z-8.198
N4180 Y170.996 Z-8.623
N4185 X442.667 Z-9.048
N4190 Y168.996 Z-9.474
N4195 X440.667 Z-9.899
N4200 Y170.996 Z-10.324
N4205 X442.667 Z-10.749
N4210 Y168.996 Z-11.174
N4215 X440.667 Z-11.599
N4220 Y170.996 Z-12.024
N4225 X442.667 Z-12.449
N4230 Y168.996 Z-12.874
N4235 X440.667 Z-13.3
N4240 Y170.996 Z-13.725
N4245 X442.667 Z-14.15
N4250 Y168.996 Z-14.575
N4255 X440.667 Z-15.
N4260 Y170.996 F1000.
N4265 X442.667
N4270 Y168.996
N4275 X440.667
N4280 Z5.
N4285 X475.979
N4290 Z2. F500.
N4295 X474. Z1.579
N4300 Y170.996 Z1.154
N4305 X476. Z0.729
N4310 Y168.996 Z0.304
N4315 X474. Z-0.121
N4320 Y170.996 Z-0.546
N4325 X476. Z-0.971
N4330 Y168.996 Z-1.396
N4335 X474. Z-1.821
N4340 Y170.996 Z-2.247
N4345 X476. Z-2.672
N4350 Y168.996 Z-3.097
N4355 X474. Z-3.522
N4360 Y170.996 Z-3.947
N4365 X476. Z-4.372
N4370 Y168.996 Z-4.797
N4375 X474. Z-5.222
N4380 Y170.996 Z-5.648
N4385 X476. Z-6.073
N4390 Y168.996 Z-6.498
N4395 X474. Z-6.923
N4400 Y170.996 Z-7.348
N4405 X476. Z-7.773
N4410 Y168.996 Z-8.198
N4415 X474. Z-8.623
N4420 Y170.996 Z-9.048
N4425 X476. Z-9.474
N4430 Y168.996 Z-9.899
N4435 X474. Z-10.324
N4440 Y170.996 Z-10.749
N4445 X476. Z-11.174
N4450 Y168.996 Z-11.599
N4455 X474. Z-12.024
N4460 Y170.996 Z-12.449
N4465 X476. Z-12.874
N4470 Y168.996 Z-13.3
N4475 X474. Z-13.725
N4480 Y170.996 Z-14.15
N4485 X476. Z-14.575
N4490 Y168.996 Z-15.
N4495 X474. F1000.
N4500 Y170.996
N4505 X476.
N4510 Y168.996
N4515 Z5.
N4520 X474.021 Y204.329
N4525 Z2. F500.
N4530 X476. Z1.579
N4535 Y202.329 Z1.154
N4540 X474. Z0.729
N4545 Y204.329 Z0.304
N4550 X476. Z-0.121
N4555 Y202.329 Z-0.546
N4560 X474. Z-0.971
N4565 Y204.329 Z-1.396
N4570 X476. Z-1.821
N4575 Y202.329 Z-2.247
N4580 X474. Z-2.672
N4585 Y204.329 Z-3.097
N4590 X476. Z-3.522
N4595 Y202.329 Z-3.947
N4600 X474. Z-4.372
N4605 Y204.329 Z-4.797
N4610 X476. Z-5.222
N4615 Y202.329 Z-5.648
N4620 X474. Z-6.073
N4625 Y204.329 Z-6.498
N4630 X476. Z-6.923
N4635 Y202.329 Z-7.348
N4640 X474. Z-7.773
N4645 Y204.329 Z-8.198
N4650 X476. Z-8.623
N4655 Y202.329 Z-9.048
N4660 X474. Z-9.474
N4665 Y204.329 Z-9.899
N4670 X476. Z-10.324
N4675 Y202.329 Z-10.749
N4680 X474. Z-11.174
N4685 Y204.329 Z-11.599
N4690 X476. Z-12.024
N4695 Y202.329 Z-12.449
N4700 X474. Z-12.874
N4705 Y204.329 Z-13.3
N4710 X476. Z-13.725
N4715 Y202.329 Z-14.15
N4720 X474. Z-14.575
N4725 Y204.329 Z-15.
N4730 X476. F1000.
N4735 Y202.329
N4740 X474.
N4745 Y204.329
N4750 Z5.
N4755 X440.688
N4760 Z2. F500.
N4765 X442.667 Z1.579
N4770 Y202.329 Z1.154
N4775 X440.667 Z0.729
N4780 Y204.329 Z0.304
N4785 X442.667 Z-0.121
N4790 Y202.329 Z-0.546
N4795 X440.667 Z-0.971
N4800 Y204.329 Z-1.396
N4805 X442.667 Z-1.821
N4810 Y202.329 Z-2.247
N4815 X440.667 Z-2.672
N4820 Y204.329 Z-3.097
N4825 X442.667 Z-3.522
N4830 Y202.329 Z-3.947
N4835 X440.667 Z-4.372
N4840 Y204.329 Z-4.797
N4845 X442.667 Z-5.222
N4850 Y202.329 Z-5.648
N4855 X440.667 Z-6.073
N4860 Y204.329 Z-6.498
N4865 X442.667 Z-6.923
N4870 Y202.329 Z-7.348
N4875 X440.667 Z-7.773
N4880 Y204.329 Z-8.198
N4885 X442.667 Z-8.623
N4890 Y202.329 Z-9.048
N4895 X440.667 Z-9.474
N4900 Y204.329 Z-9.899
N4905 X442.667 Z-10.324
N4910 Y202.329 Z-10.749
N4915 X440.667 Z-11.174
N4920 Y204.329 Z-11.599
N4925 X442.667 Z-12.024
N4930 Y202.329 Z-12.449
N4935 X440.667 Z-12.874
N4940 Y204.329 Z-13.3
N4945 X442.667 Z-13.725
N4950 Y202.329 Z-14.15
N4955 X440.667 Z-14.575
N4960 Y204.329 Z-15.
N4965 X442.667 F1000.
N4970 Y202.329
N4975 X440.667
N4980 Y204.329
N4985 Z5.
N4990 X407.354
N4995 Z2. F500.
N5000 X409.333 Z1.579
N5005 Y202.329 Z1.154
N5010 X407.333 Z0.729
N5015 Y204.329 Z0.304
N5020 X409.333 Z-0.121
N5025 Y202.329 Z-0.546
N5030 X407.333 Z-0.971
N5035 Y204.329 Z-1.396
N5040 X409.333 Z-1.821
N5045 Y202.329 Z-2.247
N5050 X407.333 Z-2.672
N5055 Y204.329 Z-3.097
N5060 X409.333 Z-3.522
N5065 Y202.329 Z-3.947
N5070 X407.333 Z-4.372
N5075 Y204.329 Z-4.797
N5080 X409.333 Z-5.222
N5085 Y202.329 Z-5.648
N5090 X407.333 Z-6.073
N5095 Y204.329 Z-6.498
N5100 X409.333 Z-6.923
N5105 Y202.329 Z-7.348
N5110 X407.333 Z-7.773
N5115 Y204.329 Z-8.198
N5120 X409.333 Z-8.623
N5125 Y202.329 Z-9.048
N5130 X407.333 Z-9.474
N5135 Y204.329 Z-9.899
N5140 X409.333 Z-10.324
N5145 Y202.329 Z-10.749
N5150 X407.333 Z-11.174
N5155 Y204.329 Z-11.599
N5160 X409.333 Z-12.024
N5165 Y202.329 Z-12.449
N5170 X407.333 Z-12.874
N5175 Y204.329 Z-13.3
N5180 X409.333 Z-13.725
N5185 Y202.329 Z-14.15
N5190 X407.333 Z-14.575
N5195 Y204.329 Z-15.
N5200 X409.333 F1000.
N5205 Y202.329
N5210 X407.333
N5215 Y204.329
N5220 Z5.
N5225 X374.021
N5230 Z2. F500.
N5235 X376. Z1.579
N5240 Y202.329 Z1.154
N5245 X374. Z0.729
N5250 Y204.329 Z0.304
N5255 X376. Z-0.121
N5260 Y202.329 Z-0.546
N5265 X374. Z-0.971
N5270 Y204.329 Z-1.396
N5275 X376. Z-1.821
N5280 Y202.329 Z-2.247
N5285 X374. Z-2.672
N5290 Y204.329 Z-3.097
N5295 X376. Z-3.522
N5300 Y202.329 Z-3.947
N5305 X374. Z-4.372
N5310 Y204.329 Z-4.797
N5315 X376. Z-5.222
N5320 Y202.329 Z-5.648
N5325 X374. Z-6.073
N5330 Y204.329 Z-6.498
N5335 X376. Z-6.923
N5340 Y202.329 Z-7.348
N5345 X374. Z-7.773
N5350 Y204.329 Z-8.198
N5355 X376. Z-8.623
N5360 Y202.329 Z-9.048
N5365 X374. Z-9.474
N5370 Y204.329 Z-9.899
N5375 X376. Z-10.324
N5380 Y202.329 Z-10.749
N5385 X374. Z-11.174
N5390 Y204.329 Z-11.599
N5395 X376. Z-12.024
N5400 Y202.329 Z-12.449
N5405 X374. Z-12.874
N5410 Y204.329 Z-13.3
N5415 X376. Z-13.725
N5420 Y202.329 Z-14.15
N5425 X374. Z-14.575
N5430 Y204.329 Z-15.
N5435 X376. F1000.
N5440 Y202.329
N5445 X374.
N5450 Y204.329
N5455 Z5.
N5460 X340.688
N5465 Z2. F500.
N5470 X342.667 Z1.579
N5475 Y202.329 Z1.154
N5480 X340.667 Z0.729
N5485 Y204.329 Z0.304
N5490 X342.667 Z-0.121
N5495 Y202.329 Z-0.546
N5500 X340.667 Z-0.971
N5505 Y204.329 Z-1.396
N5510 X342.667 Z-1.821
N5515 Y202.329 Z-2.247
N5520 X340.667 Z-2.672
N5525 Y204.329 Z-3.097
N5530 X342.667 Z-3.522
N5535 Y202.329 Z-3.947
N5540 X340.667 Z-4.372
N5545 Y204.329 Z-4.797
N5550 X342.667 Z-5.222
N5555 Y202.329 Z-5.648
N5560 X340.667 Z-6.073
N5565 Y204.329 Z-6.498
N5570 X342.667 Z-6.923
N5575 Y202.329 Z-7.348
N5580 X340.667 Z-7.773
N5585 Y204.329 Z-8.198
N5590 X342.667 Z-8.623
N5595 Y202.329 Z-9.048
N5600 X340.667 Z-9.474
N5605 Y204.329 Z-9.899
N5610 X342.667 Z-10.324
N5615 Y202.329 Z-10.749
N5620 X340.667 Z-11.174
N5625 Y204.329 Z-11.599
N5630 X342.667 Z-12.024
N5635 Y202.329 Z-12.449
N5640 X340.667 Z-12.874
N5645 Y204.329 Z-13.3
N5650 X342.667 Z-13.725
N5655 Y202.329 Z-14.15
N5660 X340.667 Z-14.575
N5665 Y204.329 Z-15.
N5670 X342.667 F1000.
N5675 Y202.329
N5680 X340.667
N5685 Y204.329
N5690 Z5.
N5695 X307.354
N5700 Z2. F500.
N5705 X309.333 Z1.579
N5710 Y202.329 Z1.154
N5715 X307.333 Z0.729
N5720 Y204.329 Z0.304
N5725 X309.333 Z-0.121
N5730 Y202.329 Z-0.546
N5735 X307.333 Z-0.971
N5740 Y204.329 Z-1.396
N5745 X309.333 Z-1.821
N5750 Y202.329 Z-2.247
N5755 X307.333 Z-2.672
N5760 Y204.329 Z-3.097
N5765 X309.333 Z-3.522
N5770 Y202.329 Z-3.947
N5775 X307.333 Z-4.372
N5780 Y204.329 Z-4.797
N5785 X309.333 Z-5.222
N5790 Y202.329 Z-5.648
N5795 X307.333 Z-6.073
N5800 Y204.329 Z-6.498
N5805 X309.333 Z-6.923
N5810 Y202.329 Z-7.348
N5815 X307.333 Z-7.773
N5820 Y204.329 Z-8.198
N5825 X309.333 Z-8.623
N5830 Y202.329 Z-9.048
N5835 X307.333 Z-9.474
N5840 Y204.329 Z-9.899
N5845 X309.333 Z-10.324
N5850 Y202.329 Z-10.749
N5855 X307.333 Z-11.174
N5860 Y204.329 Z-11.599
N5865 X309.333 Z-12.024
N5870 Y202.329 Z-12.449
N5875 X307.333 Z-12.874
N5880 Y204.329 Z-13.3
N5885 X309.333 Z-13.725
N5890 Y202.329 Z-14.15
N5895 X307.333 Z-14.575
N5900 Y204.329 Z-15.
N5905 X309.333 F1000.
N5910 Y202.329
N5915 X307.333
N5920 Y204.329
N5925 Z5.
N5930 X275.022
N5935 Z2. F500.
N5940 X276. Z1.792
N5945 Y202.329 Z1.367
N5950 X274. Z0.942
N5955 Y204.329 Z0.517
N5960 X276. Z0.092
N5965 Y202.329 Z-0.333
N5970 X274. Z-0.759
N5975 Y204.329 Z-1.184
N5980 X276. Z-1.609
N5985 Y202.329 Z-2.034
N5990 X274. Z-2.459
N5995 Y204.329 Z-2.884
N6000 X276. Z-3.309
N6005 Y202.329 Z-3.734
N6010 X274. Z-4.16
N6015 Y204.329 Z-4.585
N6020 X276. Z-5.01
N6025 Y202.329 Z-5.435
N6030 X274. Z-5.86
N6035 Y204.329 Z-6.285
N6040 X276. Z-6.71
N6045 Y202.329 Z-7.135
N6050 X274. Z-7.56
N6055 Y204.329 Z-7.986
N6060 X276. Z-8.411
N6065 Y202.329 Z-8.836
N6070 X274. Z-9.261
N6075 Y204.329 Z-9.686
N6080 X276. Z-10.111
N6085 Y202.329 Z-10.536
N6090 X274. Z-10.961
N6095 Y204.329 Z-11.386
N6100 X276. Z-11.812
N6105 Y202.329 Z-12.237
N6110 X274. Z-12.662
N6115 Y204.329 Z-13.087
N6120 X276. Z-13.512
N6125 Y202.329 Z-13.937
N6130 X274. Z-14.362
N6135 Y204.329 Z-14.787
N6140 X275. Z-15.
N6145 X276. F1000.
N6150 Y202.329
N6155 X274.
N6160 Y204.329
N6165 X275.
N6170 Z5.
N6175 X242.667 Y204.308
N6180 Z2. F500.
N6185 Y202.329 Z1.579
N6190 X240.667 Z1.154
N6195 Y204.329 Z0.729
N6200 X242.667 Z0.304
N6205 Y202.329 Z-0.121
N6210 X240.667 Z-0.546
N6215 Y204.329 Z-0.971
N6220 X242.667 Z-1.396
N6225 Y202.329 Z-1.821
N6230 X240.667 Z-2.247
N6235 Y204.329 Z-2.672
N6240 X242.667 Z-3.097
N6245 Y202.329 Z-3.522
N6250 X240.667 Z-3.947
N6255 Y204.329 Z-4.372
N6260 X242.667 Z-4.797
N6265 Y202.329 Z-5.222
N6270 X240.667 Z-5.648
N6275 Y204.329 Z-6.073
N6280 X242.667 Z-6.498
N6285 Y202.329 Z-6.923
N6290 X240.667 Z-7.348
N6295 Y204.329 Z-7.773
N6300 X242.667 Z-8.198
N6305 Y202.329 Z-8.623
N6310 X240.667 Z-9.048
N6315 Y204.329 Z-9.474
N6320 X242.667 Z-9.899
N6325 Y202.329 Z-10.324
N6330 X240.667 Z-10.749
N6335 Y204.329 Z-11.174
N6340 X242.667 Z-11.599
N6345 Y202.329 Z-12.024
N6350 X240.667 Z-12.449
N6355 Y204.329 Z-12.874
N6360 X242.667 Z-13.3
N6365 Y202.329 Z-13.725
N6370 X240.667 Z-14.15
N6375 Y204.329 Z-14.575
N6380 X242.667 Z-15.
N6385 Y202.329 F1000.
N6390 X240.667
N6395 Y204.329
N6400 X242.667
N6405 Z5.
N6410 X240.667 Y169.017
N6415 Z2. F500.
N6420 Y170.996 Z1.579
N6425 X242.667 Z1.154
N6430 Y168.996 Z0.729
N6435 X240.667 Z0.304
N6440 Y170.996 Z-0.121
N6445 X242.667 Z-0.546
N6450 Y168.996 Z-0.971
N6455 X240.667 Z-1.396
N6460 Y170.996 Z-1.821
N6465 X242.667 Z-2.247
N6470 Y168.996 Z-2.672
N6475 X240.667 Z-3.097
N6480 Y170.996 Z-3.522
N6485 X242.667 Z-3.947
N6490 Y168.996 Z-4.372
N6495 X240.667 Z-4.797
N6500 Y170.996 Z-5.222
N6505 X242.667 Z-5.648
N6510 Y168.996 Z-6.073
N6515 X240.667 Z-6.498
N6520 Y170.996 Z-6.923
N6525 X242.667 Z-7.348
N6530 Y168.996 Z-7.773
N6535 X240.667 Z-8.198
N6540 Y170.996 Z-8.623
N6545 X242.667 Z-9.048
N6550 Y168.996 Z-9.474
N6555 X240.667 Z-9.899
N6560 Y170.996 Z-10.324
N6565 X242.667 Z-10.749
N6570 Y168.996 Z-11.174
N6575 X240.667 Z-11.599
N6580 Y170.996 Z-12.024
N6585 X242.667 Z-12.449
N6590 Y168.996 Z-12.874
N6595 X240.667 Z-13.3
N6600 Y170.996 Z-13.725
N6605 X242.667 Z-14.15
N6610 Y168.996 Z-14.575
N6615 X240.667 Z-15.
N6620 Y170.996 F1000.
N6625 X242.667
N6630 Y168.996
N6635 X240.667
N6640 Z5.
N6645 X240.688 Y137.662
N6650 Z2. F500.
N6655 X242.667 Z1.579
N6660 Y135.662 Z1.154
N6665 X240.667 Z0.729
N6670 Y137.662 Z0.304
N6675 X242.667 Z-0.121
N6680 Y135.662 Z-0.546
N6685 X240.667 Z-0.971
N6690 Y137.662 Z-1.396
N6695 X242.667 Z-1.821
N6700 Y135.662 Z-2.247
N6705 X240.667 Z-2.672
N6710 Y137.662 Z-3.097
N6715 X242.667 Z-3.522
N6720 Y135.662 Z-3.947
N6725 X240.667 Z-4.372
N6730 Y137.662 Z-4.797
N6735 X242.667 Z-5.222
N6740 Y135.662 Z-5.648
N6745 X240.667 Z-6.073
N6750 Y137.662 Z-6.498
N6755 X242.667 Z-6.923
N6760 Y135.662 Z-7.348
N6765 X240.667 Z-7.773
N6770 Y137.662 Z-8.198
N6775 X242.667 Z-8.623
N6780 Y135.662 Z-9.048
N6785 X240.667 Z-9.474
N6790 Y137.662 Z-9.899
N6795 X242.667 Z-10.324
N6800 Y135.662 Z-10.749
N6805 X240.667 Z-11.174
N6810 Y137.662 Z-11.599
N6815 X242.667 Z-12.024
N6820 Y135.662 Z-12.449
N6825 X240.667 Z-12.874
N6830 Y137.662 Z-13.3
N6835 X242.667 Z-13.725
N6840 Y135.662 Z-14.15
N6845 X240.667 Z-14.575
N6850 Y137.662 Z-15.
N6855 X242.667 F1000.
N6860 Y135.662
N6865 X240.667
N6870 Y137.662
N6875 Z5.
N6880 X209.333 Y137.641
N6885 Z2. F500.
N6890 Y135.662 Z1.579
N6895 X207.333 Z1.154
N6900 Y137.662 Z0.729
N6905 X209.333 Z0.304
N6910 Y135.662 Z-0.121
N6915 X207.333 Z-0.546
N6920 Y137.662 Z-0.971
N6925 X209.333 Z-1.396
N6930 Y135.662 Z-1.821
N6935 X207.333 Z-2.247
N6940 Y137.662 Z-2.672
N6945 X209.333 Z-3.097
N6950 Y135.662 Z-3.522
N6955 X207.333 Z-3.947
N6960 Y137.662 Z-4.372
N6965 X209.333 Z-4.797
N6970 Y135.662 Z-5.222
N6975 X207.333 Z-5.648
N6980 Y137.662 Z-6.073
N6985 X209.333 Z-6.498
N6990 Y135.662 Z-6.923
N6995 X207.333 Z-7.348
N7000 Y137.662 Z-7.773
N7005 X209.333 Z-8.198
N7010 Y135.662 Z-8.623
N7015 X207.333 Z-9.048
N7020 Y137.662 Z-9.474
N7025 X209.333 Z-9.899
N7030 Y135.662 Z-10.324
N7035 X207.333 Z-10.749
N7040 Y137.662 Z-11.174
N7045 X209.333 Z-11.599
N7050 Y135.662 Z-12.024
N7055 X207.333 Z-12.449
N7060 Y137.662 Z-12.874
N7065 X209.333 Z-13.3
N7070 Y135.662 Z-13.725
N7075 X207.333 Z-14.15
N7080 Y137.662 Z-14.575
N7085 X209.333 Z-15.
N7090 Y135.662 F1000.
N7095 X207.333
N7100 Y137.662
N7105 X209.333
N7110 Z5.
N7115 X209.312 Y168.996
N7120 Z2. F500.
N7125 X207.333 Z1.579
N7130 Y170.996 Z1.154
N7135 X209.333 Z0.729
N7140 Y168.996 Z0.304
N7145 X207.333 Z-0.121
N7150 Y170.996 Z-0.546
N7155 X209.333 Z-0.971
N7160 Y168.996 Z-1.396
N7165 X207.333 Z-1.821
N7170 Y170.996 Z-2.247
N7175 X209.333 Z-2.672
N7180 Y168.996 Z-3.097
N7185 X207.333 Z-3.522
N7190 Y170.996 Z-3.947
N7195 X209.333 Z-4.372
N7200 Y168.996 Z-4.797
N7205 X207.333 Z-5.222
N7210 Y170.996 Z-5.648
N7215 X209.333 Z-6.073
N7220 Y168.996 Z-6.498
N7225 X207.333 Z-6.923
N7230 Y170.996 Z-7.348
N7235 X209.333 Z-7.773
N7240 Y168.996 Z-8.198
N7245 X207.333 Z-8.623
N7250 Y170.996 Z-9.048
N7255 X209.333 Z-9.474
N7260 Y168.996 Z-9.899
N7265 X207.333 Z-10.324
N7270 Y170.996 Z-10.749
N7275 X209.333 Z-11.174
N7280 Y168.996 Z-11.599
N7285 X207.333 Z-12.024
N7290 Y170.996 Z-12.449
N7295 X209.333 Z-12.874
N7300 Y168.996 Z-13.3
N7305 X207.333 Z-13.725
N7310 Y170.996 Z-14.15
N7315 X209.333 Z-14.575
N7320 Y168.996 Z-15.
N7325 X207.333 F1000.
N7330 Y170.996
N7335 X209.333
N7340 Y168.996
N7345 Z5.
N7350 Y204.308
N7355 Z2. F500.
N7360 Y202.329 Z1.579
N7365 X207.333 Z1.154
N7370 Y204.329 Z0.729
N7375 X209.333 Z0.304
N7380 Y202.329 Z-0.121
N7385 X207.333 Z-0.546
N7390 Y204.329 Z-0.971
N7395 X209.333 Z-1.396
N7400 Y202.329 Z-1.821
N7405 X207.333 Z-2.247
N7410 Y204.329 Z-2.672
N7415 X209.333 Z-3.097
N7420 Y202.329 Z-3.522
N7425 X207.333 Z-3.947
N7430 Y204.329 Z-4.372
N7435 X209.333 Z-4.797
N7440 Y202.329 Z-5.222
N7445 X207.333 Z-5.648
N7450 Y204.329 Z-6.073
N7455 X209.333 Z-6.498
N7460 Y202.329 Z-6.923
N7465 X207.333 Z-7.348
N7470 Y204.329 Z-7.773
N7475 X209.333 Z-8.198
N7480 Y202.329 Z-8.623
N7485 X207.333 Z-9.048
N7490 Y204.329 Z-9.474
N7495 X209.333 Z-9.899
N7500 Y202.329 Z-10.324
N7505 X207.333 Z-10.749
N7510 Y204.329 Z-11.174
N7515 X209.333 Z-11.599
N7520 Y202.329 Z-12.024
N7525 X207.333 Z-12.449
N7530 Y204.329 Z-12.874
N7535 X209.333 Z-13.3
N7540 Y202.329 Z-13.725
N7545 X207.333 Z-14.15
N7550 Y204.329 Z-14.575
N7555 X209.333 Z-15.
N7560 Y202.329 F1000.
N7565 X207.333
N7570 Y204.329
N7575 X209.333
N7580 Z5.
N7585 X176. Y204.308
N7590 Z2. F500.
N7595 Y202.329 Z1.579
N7600 X174. Z1.154
N7605 Y204.329 Z0.729
N7610 X176. Z0.304
N7615 Y202.329 Z-0.121
N7620 X174. Z-0.546
N7625 Y204.329 Z-0.971
N7630 X176. Z-1.396
N7635 Y202.329 Z-1.821
N7640 X174. Z-2.247
N7645 Y204.329 Z-2.672
N7650 X176. Z-3.097
N7655 Y202.329 Z-3.522
N7660 X174. Z-3.947
N7665 Y204.329 Z-4.372
N7670 X176. Z-4.797
N7675 Y202.329 Z-5.222
N7680 X174. Z-5.648
N7685 Y204.329 Z-6.073
N7690 X176. Z-6.498
N7695 Y202.329 Z-6.923
N7700 X174. Z-7.348
N7705 Y204.329 Z-7.773
N7710 X176. Z-8.198
N7715 Y202.329 Z-8.623
N7720 X174. Z-9.048
N7725 Y204.329 Z-9.474
N7730 X176. Z-9.899
N7735 Y202.329 Z-10.324
N7740 X174. Z-10.749
N7745 Y204.329 Z-11.174
N7750 X176. Z-11.599
N7755 Y202.329 Z-12.024
N7760 X174. Z-12.449
N7765 Y204.329 Z-12.874
N7770 X176. Z-13.3
N7775 Y202.329 Z-13.725
N7780 X174. Z-14.15
N7785 Y204.329 Z-14.575
N7790 X176. Z-15.
N7795 Y202.329 F1000.
N7800 X174.
N7805 Y204.329
N7810 X176.
N7815 Z5.
N7820 X142.667 Y204.308
N7825 Z2. F500.
N7830 Y202.329 Z1.579
N7835 X140.667 Z1.154
N7840 Y204.329 Z0.729
N7845 X142.667 Z0.304
N7850 Y202.329 Z-0.121
N7855 X140.667 Z-0.546
N7860 Y204.329 Z-0.971
N7865 X142.667 Z-1.396
N7870 Y202.329 Z-1.821
N7875 X140.667 Z-2.247
N7880 Y204.329 Z-2.672
N7885 X142.667 Z-3.097
N7890 Y202.329 Z-3.522
N7895 X140.667 Z-3.947
N7900 Y204.329 Z-4.372
N7905 X142.667 Z-4.797
N7910 Y202.329 Z-5.222
N7915 X140.667 Z-5.648
N7920 Y204.329 Z-6.073
N7925 X142.667 Z-6.498
N7930 Y202.329 Z-6.923
N7935 X140.667 Z-7.348
N7940 Y204.329 Z-7.773
N7945 X142.667 Z-8.198
N7950 Y202.329 Z-8.623
N7955 X140.667 Z-9.048
N7960 Y204.329 Z-9.474
N7965 X142.667 Z-9.899
N7970 Y202.329 Z-10.324
N7975 X140.667 Z-10.749
N7980 Y204.329 Z-11.174
N7985 X142.667 Z-11.599
N7990 Y202.329 Z-12.024
N7995 X140.667 Z-12.449
N8000 Y204.329 Z-12.874
N8005 X142.667 Z-13.3
N8010 Y202.329 Z-13.725
N8015 X140.667 Z-14.15
N8020 Y204.329 Z-14.575
N8025 X142.667 Z-15.
N8030 Y202.329 F1000.
N8035 X140.667
N8040 Y204.329
N8045 X142.667
N8050 Z5.
N8055 X140.667 Y169.017
N8060 Z2. F500.
N8065 Y170.996 Z1.579
N8070 X142.667 Z1.154
N8075 Y168.996 Z0.729
N8080 X140.667 Z0.304
N8085 Y170.996 Z-0.121
N8090 X142.667 Z-0.546
N8095 Y168.996 Z-0.971
N8100 X140.667 Z-1.396
N8105 Y170.996 Z-1.821
N8110 X142.667 Z-2.247
N8115 Y168.996 Z-2.672
N8120 X140.667 Z-3.097
N8125 Y170.996 Z-3.522
N8130 X142.667 Z-3.947
N8135 Y168.996 Z-4.372
N8140 X140.667 Z-4.797
N8145 Y170.996 Z-5.222
N8150 X142.667 Z-5.648
N8155 Y168.996 Z-6.073
N8160 X140.667 Z-6.498
N8165 Y170.996 Z-6.923
N8170 X142.667 Z-7.348
N8175 Y168.996 Z-7.773
N8180 X140.667 Z-8.198
N8185 Y170.996 Z-8.623
N8190 X142.667 Z-9.048
N8195 Y168.996 Z-9.474
N8200 X140.667 Z-9.899
N8205 Y170.996 Z-10.324
N8210 X142.667 Z-10.749
N8215 Y168.996 Z-11.174
N8220 X140.667 Z-11.599
N8225 Y170.996 Z-12.024
N8230 X142.667 Z-12.449
N8235 Y168.996 Z-12.874
N8240 X140.667 Z-13.3
N8245 Y170.996 Z-13.725
N8250 X142.667 Z-14.15
N8255 Y168.996 Z-14.575
N8260 X140.667 Z-15.
N8265 Y170.996 F1000.
N8270 X142.667
N8275 Y168.996
N8280 X140.667
N8285 Z5.
N8290 X140.688 Y137.662
N8295 Z2. F500.
N8300 X142.667 Z1.579
N8305 Y135.662 Z1.154
N8310 X140.667 Z0.729
N8315 Y137.662 Z0.304
N8320 X142.667 Z-0.121
N8325 Y135.662 Z-0.546
N8330 X140.667 Z-0.971
N8335 Y137.662 Z-1.396
N8340 X142.667 Z-1.821
N8345 Y135.662 Z-2.247
N8350 X140.667 Z-2.672
N8355 Y137.662 Z-3.097
N8360 X142.667 Z-3.522
N8365 Y135.662 Z-3.947
N8370 X140.667 Z-4.372
N8375 Y137.662 Z-4.797
N8380 X142.667 Z-5.222
N8385 Y135.662 Z-5.648
N8390 X140.667 Z-6.073
N8395 Y137.662 Z-6.498
N8400 X142.667 Z-6.923
N8405 Y135.662 Z-7.348
N8410 X140.667 Z-7.773
N8415 Y137.662 Z-8.198
N8420 X142.667 Z-8.623
N8425 Y135.662 Z-9.048
N8430 X140.667 Z-9.474
N8435 Y137.662 Z-9.899
N8440 X142.667 Z-10.324
N8445 Y135.662 Z-10.749
N8450 X140.667 Z-11.174
N8455 Y137.662 Z-11.599
N8460 X142.667 Z-12.024
N8465 Y135.662 Z-12.449
N8470 X140.667 Z-12.874
N8475 Y137.662 Z-13.3
N8480 X142.667 Z-13.725
N8485 Y135.662 Z-14.15
N8490 X140.667 Z-14.575
N8495 Y137.662 Z-15.
N8500 X142.667 F1000.
N8505 Y135.662
N8510 X140.667
N8515 Y137.662
N8520 Z5.
N8525 X109.333 Y137.641
N8530 Z2. F500.
N8535 Y135.662 Z1.579
N8540 X107.333 Z1.154
N8545 Y137.662 Z0.729
N8550 X109.333 Z0.304
N8555 Y135.662 Z-0.121
N8560 X107.333 Z-0.546
N8565 Y137.662 Z-0.971
N8570 X109.333 Z-1.396
N8575 Y135.662 Z-1.821
N8580 X107.333 Z-2.247
N8585 Y137.662 Z-2.672
N8590 X109.333 Z-3.097
N8595 Y135.662 Z-3.522
N8600 X107.333 Z-3.947
N8605 Y137.662 Z-4.372
N8610 X109.333 Z-4.797
N8615 Y135.662 Z-5.222
N8620 X107.333 Z-5.648
N8625 Y137.662 Z-6.073
N8630 X109.333 Z-6.498
N8635 Y135.662 Z-6.923
N8640 X107.333 Z-7.348
N8645 Y137.662 Z-7.773
N8650 X109.333 Z-8.198
N8655 Y135.662 Z-8.623
N8660 X107.333 Z-9.048
N8665 Y137.662 Z-9.474
N8670 X109.333 Z-9.899
N8675 Y135.662 Z-10.324
N8680 X107.333 Z-10.749
N8685 Y137.662 Z-11.174
N8690 X109.333 Z-11.599
N8695 Y135.662 Z-12.024
N8700 X107.333 Z-12.449
N8705 Y137.662 Z-12.874
N8710 X109.333 Z-13.3
N8715 Y135.662 Z-13.725
N8720 X107.333 Z-14.15
N8725 Y137.662 Z-14.575
N8730 X109.333 Z-15.
N8735 Y135.662 F1000.
N8740 X107.333
N8745 Y137.662
N8750 X109.333
N8755 Z5.
N8760 X109.312 Y168.996
N8765 Z2. F500.
N8770 X107.333 Z1.579
N8775 Y170.996 Z1.154
N8780 X109.333 Z0.729
N8785 Y168.996 Z0.304
N8790 X107.333 Z-0.121
N8795 Y170.996 Z-0.546
N8800 X109.333 Z-0.971
N8805 Y168.996 Z-1.396
N8810 X107.333 Z-1.821
N8815 Y170.996 Z-2.247
N8820 X109.333 Z-2.672
N8825 Y168.996 Z-3.097
N8830 X107.333 Z-3.522
N8835 Y170.996 Z-3.947
N8840 X109.333 Z-4.372
N8845 Y168.996 Z-4.797
N8850 X107.333 Z-5.222
N8855 Y170.996 Z-5.648
N8860 X109.333 Z-6.073
N8865 Y168.996 Z-6.498
N8870 X107.333 Z-6.923
N8875 Y170.996 Z-7.348
N8880 X109.333 Z-7.773
N8885 Y168.996 Z-8.198
N8890 X107.333 Z-8.623
N8895 Y170.996 Z-9.048
N8900 X109.333 Z-9.474
N8905 Y168.996 Z-9.899
N8910 X107.333 Z-10.324
N8915 Y170.996 Z-10.749
N8920 X109.333 Z-11.174
N8925 Y168.996 Z-11.599
N8930 X107.333 Z-12.024
N8935 Y170.996 Z-12.449
N8940 X109.333 Z-12.874
N8945 Y168.996 Z-13.3
N8950 X107.333 Z-13.725
N8955 Y170.996 Z-14.15
N8960 X109.333 Z-14.575
N8965 Y168.996 Z-15.
N8970 X107.333 F1000.
N8975 Y170.996
N8980 X109.333
N8985 Y168.996
N8990 Z5.
N8995 Y204.308
N9000 Z2. F500.
N9005 Y202.329 Z1.579
N9010 X107.333 Z1.154
N9015 Y204.329 Z0.729
N9020 X109.333 Z0.304
N9025 Y202.329 Z-0.121
N9030 X107.333 Z-0.546
N9035 Y204.329 Z-0.971
N9040 X109.333 Z-1.396
N9045 Y202.329 Z-1.821
N9050 X107.333 Z-2.247
N9055 Y204.329 Z-2.672
N9060 X109.333 Z-3.097
N9065 Y202.329 Z-3.522
N9070 X107.333 Z-3.947
N9075 Y204.329 Z-4.372
N9080 X109.333 Z-4.797
N9085 Y202.329 Z-5.222
N9090 X107.333 Z-5.648
N9095 Y204.329 Z-6.073
N9100 X109.333 Z-6.498
N9105 Y202.329 Z-6.923
N9110 X107.333 Z-7.348
N9115 Y204.329 Z-7.773
N9120 X109.333 Z-8.198
N9125 Y202.329 Z-8.623
N9130 X107.333 Z-9.048
N9135 Y204.329 Z-9.474
N9140 X109.333 Z-9.899
N9145 Y202.329 Z-10.324
N9150 X107.333 Z-10.749
N9155 Y204.329 Z-11.174
N9160 X109.333 Z-11.599
N9165 Y202.329 Z-12.024
N9170 X107.333 Z-12.449
N9175 Y204.329 Z-12.874
N9180 X109.333 Z-13.3
N9185 Y202.329 Z-13.725
N9190 X107.333 Z-14.15
N9195 Y204.329 Z-14.575
N9200 X109.333 Z-15.
N9205 Y202.329 F1000.
N9210 X107.333
N9215 Y204.329
N9220 X109.333
N9225 Z5.
N9230 X76. Y204.308
N9235 Z2. F500.
N9240 Y202.329 Z1.579
N9245 X74. Z1.154
N9250 Y204.329 Z0.729
N9255 X76. Z0.304
N9260 Y202.329 Z-0.121
N9265 X74. Z-0.546
N9270 Y204.329 Z-0.971
N9275 X76. Z-1.396
N9280 Y202.329 Z-1.821
N9285 X74. Z-2.247
N9290 Y204.329 Z-2.672
N9295 X76. Z-3.097
N9300 Y202.329 Z-3.522
N9305 X74. Z-3.947
N9310 Y204.329 Z-4.372
N9315 X76. Z-4.797
N9320 Y202.329 Z-5.222
N9325 X74. Z-5.648
N9330 Y204.329 Z-6.073
N9335 X76. Z-6.498
N9340 Y202.329 Z-6.923
N9345 X74. Z-7.348
N9350 Y204.329 Z-7.773
N9355 X76. Z-8.198
N9360 Y202.329 Z-8.623
N9365 X74. Z-9.048
N9370 Y204.329 Z-9.474
N9375 X76. Z-9.899
N9380 Y202.329 Z-10.324
N9385 X74. Z-10.749
N9390 Y204.329 Z-11.174
N9395 X76. Z-11.599
N9400 Y202.329 Z-12.024
N9405 X74. Z-12.449
N9410 Y204.329 Z-12.874
N9415 X76. Z-13.3
N9420 Y202.329 Z-13.725
N9425 X74. Z-14.15
N9430 Y204.329 Z-14.575
N9435 X76. Z-15.
N9440 Y202.329 F1000.
N9445 X74.
N9450 Y204.329
N9455 X76.
N9460 Z5.
N9465 X74. Y169.017
N9470 Z2. F500.
N9475 Y170.996 Z1.579
N9480 X76. Z1.154
N9485 Y168.996 Z0.729
N9490 X74. Z0.304
N9495 Y170.996 Z-0.121
N9500 X76. Z-0.546
N9505 Y168.996 Z-0.971
N9510 X74. Z-1.396
N9515 Y170.996 Z-1.821
N9520 X76. Z-2.247
N9525 Y168.996 Z-2.672
N9530 X74. Z-3.097
N9535 Y170.996 Z-3.522
N9540 X76. Z-3.947
N9545 Y168.996 Z-4.372
N9550 X74. Z-4.797
N9555 Y170.996 Z-5.222
N9560 X76. Z-5.648
N9565 Y168.996 Z-6.073
N9570 X74. Z-6.498
N9575 Y170.996 Z-6.923
N9580 X76. Z-7.348
N9585 Y168.996 Z-7.773
N9590 X74. Z-8.198
N9595 Y170.996 Z-8.623
N9600 X76. Z-9.048
N9605 Y168.996 Z-9.474
N9610 X74. Z-9.899
N9615 Y170.996 Z-10.324
N9620 X76. Z-10.749
N9625 Y168.996 Z-11.174
N9630 X74. Z-11.599
N9635 Y170.996 Z-12.024
N9640 X76. Z-12.449
N9645 Y168.996 Z-12.874
N9650 X74. Z-13.3
N9655 Y170.996 Z-13.725
N9660 X76. Z-14.15
N9665 Y168.996 Z-14.575
N9670 X74. Z-15.
N9675 Y170.996 F1000.
N9680 X76.
N9685 Y168.996
N9690 X74.
N9695 Z5.
N9700 Y135.683
N9705 Z2. F500.
N9710 Y137.662 Z1.579
N9715 X76. Z1.154
N9720 Y135.662 Z0.729
N9725 X74. Z0.304
N9730 Y137.662 Z-0.121
N9735 X76. Z-0.546
N9740 Y135.662 Z-0.971
N9745 X74. Z-1.396
N9750 Y137.662 Z-1.821
N9755 X76. Z-2.247
N9760 Y135.662 Z-2.672
N9765 X74. Z-3.097
N9770 Y137.662 Z-3.522
N9775 X76. Z-3.947
N9780 Y135.662 Z-4.372
N9785 X74. Z-4.797
N9790 Y137.662 Z-5.222
N9795 X76. Z-5.648
N9800 Y135.662 Z-6.073
N9805 X74. Z-6.498
N9810 Y137.662 Z-6.923
N9815 X76. Z-7.348
N9820 Y135.662 Z-7.773
N9825 X74. Z-8.198
N9830 Y137.662 Z-8.623
N9835 X76. Z-9.048
N9840 Y135.662 Z-9.474
N9845 X74. Z-9.899
N9850 Y137.662 Z-10.324
N9855 X76. Z-10.749
N9860 Y135.662 Z-11.174
N9865 X74. Z-11.599
N9870 Y137.662 Z-12.024
N9875 X76. Z-12.449
N9880 Y135.662 Z-12.874
N9885 X74. Z-13.3
N9890 Y137.662 Z-13.725
N9895 X76. Z-14.15
N9900 Y135.662 Z-14.575
N9905 X74. Z-15.
N9910 Y137.662 F1000.
N9915 X76.
N9920 Y135.662
N9925 X74.
N9930 Z5.
N9935 Y103.352
N9940 Z2. F500.
N9945 Y104.329 Z1.792
N9950 X76. Z1.367
N9955 Y102.329 Z0.942
N9960 X74. Z0.517
N9965 Y104.329 Z0.092
N9970 X76. Z-0.333
N9975 Y102.329 Z-0.758
N9980 X74. Z-1.183
N9985 Y104.329 Z-1.609
N9990 X76. Z-2.034
N9995 Y102.329 Z-2.459
N10000 X74. Z-2.884
N10005 Y104.329 Z-3.309
N10010 X76. Z-3.734
N10015 Y102.329 Z-4.159
N10020 X74. Z-4.584
N10025 Y104.329 Z-5.01
N10030 X76. Z-5.435
N10035 Y102.329 Z-5.86
N10040 X74. Z-6.285
N10045 Y104.329 Z-6.71
N10050 X76. Z-7.135
N10055 Y102.329 Z-7.56
N10060 X74. Z-7.985
N10065 Y104.329 Z-8.411
N10070 X76. Z-8.836
N10075 Y102.329 Z-9.261
N10080 X74. Z-9.686
N10085 Y104.329 Z-10.111
N10090 X76. Z-10.536
N10095 Y102.329 Z-10.961
N10100 X74. Z-11.386
N10105 Y104.329 Z-11.812
N10110 X76. Z-12.237
N10115 Y102.329 Z-12.662
N10120 X74. Z-13.087
N10125 Y104.329 Z-13.512
N10130 X76. Z-13.937
N10135 Y102.329 Z-14.362
N10140 X74. Z-14.787
N10145 Y103.329 Z-15.
N10150 Y104.329 F1000.
N10155 X76.
N10160 Y102.329
N10165 X74.
N10170 Y103.329
N10175 Z5.
N10180 X74.021 Y70.996
N10185 Z2. F500.
N10190 X76. Z1.579
N10195 Y68.996 Z1.154
N10200 X74. Z0.729
N10205 Y70.996 Z0.304
N10210 X76. Z-0.121
N10215 Y68.996 Z-0.546
N10220 X74. Z-0.971
N10225 Y70.996 Z-1.396
N10230 X76. Z-1.821
N10235 Y68.996 Z-2.247
N10240 X74. Z-2.672
N10245 Y70.996 Z-3.097
N10250 X76. Z-3.522
N10255 Y68.996 Z-3.947
N10260 X74. Z-4.372
N10265 Y70.996 Z-4.797
N10270 X76. Z-5.222
N10275 Y68.996 Z-5.648
N10280 X74. Z-6.073
N10285 Y70.996 Z-6.498
N10290 X76. Z-6.923
N10295 Y68.996 Z-7.348
N10300 X74. Z-7.773
N10305 Y70.996 Z-8.198
N10310 X76. Z-8.623
N10315 Y68.996 Z-9.048
N10320 X74. Z-9.474
N10325 Y70.996 Z-9.899
N10330 X76. Z-10.324
N10335 Y68.996 Z-10.749
N10340 X74. Z-11.174
N10345 Y70.996 Z-11.599
N10350 X76. Z-12.024
N10355 Y68.996 Z-12.449
N10360 X74. Z-12.874
N10365 Y70.996 Z-13.3
N10370 X76. Z-13.725
N10375 Y68.996 Z-14.15
N10380 X74. Z-14.575
N10385 Y70.996 Z-15.
N10390 X76. F1000.
N10395 Y68.996
N10400 X74.
N10405 Y70.996
N10410 Z5.
N10415 X109.312 Y68.996
N10420 Z2. F500.
N10425 X107.333 Z1.579
N10430 Y70.996 Z1.154
N10435 X109.333 Z0.729
N10440 Y68.996 Z0.304
N10445 X107.333 Z-0.121
N10450 Y70.996 Z-0.546
N10455 X109.333 Z-0.971
N10460 Y68.996 Z-1.396
N10465 X107.333 Z-1.821
N10470 Y70.996 Z-2.247
N10475 X109.333 Z-2.672
N10480 Y68.996 Z-3.097
N10485 X107.333 Z-3.522
N10490 Y70.996 Z-3.947
N10495 X109.333 Z-4.372
N10500 Y68.996 Z-4.797
N10505 X107.333 Z-5.222
N10510 Y70.996 Z-5.648
N10515 X109.333 Z-6.073
N10520 Y68.996 Z-6.498
N10525 X107.333 Z-6.923
N10530 Y70.996 Z-7.348
N10535 X109.333 Z-7.773
N10540 Y68.996 Z-8.198
N10545 X107.333 Z-8.623
N10550 Y70.996 Z-9.048
N10555 X109.333 Z-9.474
N10560 Y68.996 Z-9.899
N10565 X107.333 Z-10.324
N10570 Y70.996 Z-10.749
N10575 X109.333 Z-11.174
N10580 Y68.996 Z-11.599
N10585 X107.333 Z-12.024
N10590 Y70.996 Z-12.449
N10595 X109.333 Z-12.874
N10600 Y68.996 Z-13.3
N10605 X107.333 Z-13.725
N10610 Y70.996 Z-14.15
N10615 X109.333 Z-14.575
N10620 Y68.996 Z-15.
N10625 X107.333 F1000.
N10630 Y70.996
N10635 X109.333
N10640 Y68.996
N10645 Z5.
N10650 Y37.641
N10655 Z2. F500.
N10660 Y35.662 Z1.579
N10665 X107.333 Z1.154
N10670 Y37.662 Z0.729
N10675 X109.333 Z0.304
N10680 Y35.662 Z-0.121
N10685 X107.333 Z-0.546
N10690 Y37.662 Z-0.971
N10695 X109.333 Z-1.396
N10700 Y35.662 Z-1.821
N10705 X107.333 Z-2.247
N10710 Y37.662 Z-2.672
N10715 X109.333 Z-3.097
N10720 Y35.662 Z-3.522
N10725 X107.333 Z-3.947
N10730 Y37.662 Z-4.372
N10735 X109.333 Z-4.797
N10740 Y35.662 Z-5.222
N10745 X107.333 Z-5.648
N10750 Y37.662 Z-6.073
N10755 X109.333 Z-6.498
N10760 Y35.662 Z-6.923
N10765 X107.333 Z-7.348
N10770 Y37.662 Z-7.773
N10775 X109.333 Z-8.198
N10780 Y35.662 Z-8.623
N10785 X107.333 Z-9.048
N10790 Y37.662 Z-9.474
N10795 X109.333 Z-9.899
N10800 Y35.662 Z-10.324
N10805 X107.333 Z-10.749
N10810 Y37.662 Z-11.174
N10815 X109.333 Z-11.599
N10820 Y35.662 Z-12.024
N10825 X107.333 Z-12.449
N10830 Y37.662 Z-12.874
N10835 X109.333 Z-13.3
N10840 Y35.662 Z-13.725
N10845 X107.333 Z-14.15
N10850 Y37.662 Z-14.575
N10855 X109.333 Z-15.
N10860 Y35.662 F1000.
N10865 X107.333
N10870 Y37.662
N10875 X109.333
N10880 Z5.
N10885 X140.688
N10890 Z2. F500.
N10895 X142.667 Z1.579
N10900 Y35.662 Z1.154
N10905 X140.667 Z0.729
N10910 Y37.662 Z0.304
N10915 X142.667 Z-0.121
N10920 Y35.662 Z-0.546
N10925 X140.667 Z-0.971
N10930 Y37.662 Z-1.396
N10935 X142.667 Z-1.821
N10940 Y35.662 Z-2.247
N10945 X140.667 Z-2.672
N10950 Y37.662 Z-3.097
N10955 X142.667 Z-3.522
N10960 Y35.662 Z-3.947
N10965 X140.667 Z-4.372
N10970 Y37.662 Z-4.797
N10975 X142.667 Z-5.222
N10980 Y35.662 Z-5.648
N10985 X140.667 Z-6.073
N10990 Y37.662 Z-6.498
N10995 X142.667 Z-6.923
N11000 Y35.662 Z-7.348
N11005 X140.667 Z-7.773
N11010 Y37.662 Z-8.198
N11015 X142.667 Z-8.623
N11020 Y35.662 Z-9.048
N11025 X140.667 Z-9.474
N11030 Y37.662 Z-9.899
N11035 X142.667 Z-10.324
N11040 Y35.662 Z-10.749
N11045 X140.667 Z-11.174
N11050 Y37.662 Z-11.599
N11055 X142.667 Z-12.024
N11060 Y35.662 Z-12.449
N11065 X140.667 Z-12.874
N11070 Y37.662 Z-13.3
N11075 X142.667 Z-13.725
N11080 Y35.662 Z-14.15
N11085 X140.667 Z-14.575
N11090 Y37.662 Z-15.
N11095 X142.667 F1000.
N11100 Y35.662
N11105 X140.667
N11110 Y37.662
N11115 Z5.
N11120 Y69.017
N11125 Z2. F500.
N11130 Y70.996 Z1.579
N11135 X142.667 Z1.154
N11140 Y68.996 Z0.729
N11145 X140.667 Z0.304
N11150 Y70.996 Z-0.121
N11155 X142.667 Z-0.546
N11160 Y68.996 Z-0.971
N11165 X140.667 Z-1.396
N11170 Y70.996 Z-1.821
N11175 X142.667 Z-2.247
N11180 Y68.996 Z-2.672
N11185 X140.667 Z-3.097
N11190 Y70.996 Z-3.522
N11195 X142.667 Z-3.947
N11200 Y68.996 Z-4.372
N11205 X140.667 Z-4.797
N11210 Y70.996 Z-5.222
N11215 X142.667 Z-5.648
N11220 Y68.996 Z-6.073
N11225 X140.667 Z-6.498
N11230 Y70.996 Z-6.923
N11235 X142.667 Z-7.348
N11240 Y68.996 Z-7.773
N11245 X140.667 Z-8.198
N11250 Y70.996 Z-8.623
N11255 X142.667 Z-9.048
N11260 Y68.996 Z-9.474
N11265 X140.667 Z-9.899
N11270 Y70.996 Z-10.324
N11275 X142.667 Z-10.749
N11280 Y68.996 Z-11.174
N11285 X140.667 Z-11.599
N11290 Y70.996 Z-12.024
N11295 X142.667 Z-12.449
N11300 Y68.996 Z-12.874
N11305 X140.667 Z-13.3
N11310 Y70.996 Z-13.725
N11315 X142.667 Z-14.15
N11320 Y68.996 Z-14.575
N11325 X140.667 Z-15.
N11330 Y70.996 F1000.
N11335 X142.667
N11340 Y68.996
N11345 X140.667
N11350 Z5.
N11355 X175.979
N11360 Z2. F500.
N11365 X174. Z1.579
N11370 Y70.996 Z1.154
N11375 X176. Z0.729
N11380 Y68.996 Z0.304
N11385 X174. Z-0.121
N11390 Y70.996 Z-0.546
N11395 X176. Z-0.971
N11400 Y68.996 Z-1.396
N11405 X174. Z-1.821
N11410 Y70.996 Z-2.247
N11415 X176. Z-2.672
N11420 Y68.996 Z-3.097
N11425 X174. Z-3.522
N11430 Y70.996 Z-3.947
N11435 X176. Z-4.372
N11440 Y68.996 Z-4.797
N11445 X174. Z-5.222
N11450 Y70.996 Z-5.648
N11455 X176. Z-6.073
N11460 Y68.996 Z-6.498
N11465 X174. Z-6.923
N11470 Y70.996 Z-7.348
N11475 X176. Z-7.773
N11480 Y68.996 Z-8.198
N11485 X174. Z-8.623
N11490 Y70.996 Z-9.048
N11495 X176. Z-9.474
N11500 Y68.996 Z-9.899
N11505 X174. Z-10.324
N11510 Y70.996 Z-10.749
N11515 X176. Z-11.174
N11520 Y68.996 Z-11.599
N11525 X174. Z-12.024
N11530 Y70.996 Z-12.449
N11535 X176. Z-12.874
N11540 Y68.996 Z-13.3
N11545 X174. Z-13.725
N11550 Y70.996 Z-14.15
N11555 X176. Z-14.575
N11560 Y68.996 Z-15.
N11565 X174. F1000.
N11570 Y70.996
N11575 X176.
N11580 Y68.996
N11585 Z5.
N11590 X209.312
N11595 Z2. F500.
N11600 X207.333 Z1.579
N11605 Y70.996 Z1.154
N11610 X209.333 Z0.729
N11615 Y68.996 Z0.304
N11620 X207.333 Z-0.121
N11625 Y70.996 Z-0.546
N11630 X209.333 Z-0.971
N11635 Y68.996 Z-1.396
N11640 X207.333 Z-1.821
N11645 Y70.996 Z-2.247
N11650 X209.333 Z-2.672
N11655 Y68.996 Z-3.097
N11660 X207.333 Z-3.522
N11665 Y70.996 Z-3.947
N11670 X209.333 Z-4.372
N11675 Y68.996 Z-4.797
N11680 X207.333 Z-5.222
N11685 Y70.996 Z-5.648
N11690 X209.333 Z-6.073
N11695 Y68.996 Z-6.498
N11700 X207.333 Z-6.923
N11705 Y70.996 Z-7.348
N11710 X209.333 Z-7.773
N11715 Y68.996 Z-8.198
N11720 X207.333 Z-8.623
N11725 Y70.996 Z-9.048
N11730 X209.333 Z-9.474
N11735 Y68.996 Z-9.899
N11740 X207.333 Z-10.324
N11745 Y70.996 Z-10.749
N11750 X209.333 Z-11.174
N11755 Y68.996 Z-11.599
N11760 X207.333 Z-12.024
N11765 Y70.996 Z-12.449
N11770 X209.333 Z-12.874
N11775 Y68.996 Z-13.3
N11780 X207.333 Z-13.725
N11785 Y70.996 Z-14.15
N11790 X209.333 Z-14.575
N11795 Y68.996 Z-15.
N11800 X207.333 F1000.
N11805 Y70.996
N11810 X209.333
N11815 Y68.996
N11820 Z5.
N11825 Y37.641
N11830 Z2. F500.
N11835 Y35.662 Z1.579
N11840 X207.333 Z1.154
N11845 Y37.662 Z0.729
N11850 X209.333 Z0.304
N11855 Y35.662 Z-0.121
N11860 X207.333 Z-0.546
N11865 Y37.662 Z-0.971
N11870 X209.333 Z-1.396
N11875 Y35.662 Z-1.821
N11880 X207.333 Z-2.247
N11885 Y37.662 Z-2.672
N11890 X209.333 Z-3.097
N11895 Y35.662 Z-3.522
N11900 X207.333 Z-3.947
N11905 Y37.662 Z-4.372
N11910 X209.333 Z-4.797
N11915 Y35.662 Z-5.222
N11920 X207.333 Z-5.648
N11925 Y37.662 Z-6.073
N11930 X209.333 Z-6.498
N11935 Y35.662 Z-6.923
N11940 X207.333 Z-7.348
N11945 Y37.662 Z-7.773
N11950 X209.333 Z-8.198
N11955 Y35.662 Z-8.623
N11960 X207.333 Z-9.048
N11965 Y37.662 Z-9.474
N11970 X209.333 Z-9.899
N11975 Y35.662 Z-10.324
N11980 X207.333 Z-10.749
N11985 Y37.662 Z-11.174
N11990 X209.333 Z-11.599
N11995 Y35.662 Z-12.024
N12000 X207.333 Z-12.449
N12005 Y37.662 Z-12.874
N12010 X209.333 Z-13.3
N12015 Y35.662 Z-13.725
N12020 X207.333 Z-14.15
N12025 Y37.662 Z-14.575
N12030 X209.333 Z-15.
N12035 Y35.662 F1000.
N12040 X207.333
N12045 Y37.662
N12050 X209.333
N12055 Z5.
N12060 X240.688
N12065 Z2. F500.
N12070 X242.667 Z1.579
N12075 Y35.662 Z1.154
N12080 X240.667 Z0.729
N12085 Y37.662 Z0.304
N12090 X242.667 Z-0.121
N12095 Y35.662 Z-0.546
N12100 X240.667 Z-0.971
N12105 Y37.662 Z-1.396
N12110 X242.667 Z-1.821
N12115 Y35.662 Z-2.247
N12120 X240.667 Z-2.672
N12125 Y37.662 Z-3.097
N12130 X242.667 Z-3.522
N12135 Y35.662 Z-3.947
N12140 X240.667 Z-4.372
N12145 Y37.662 Z-4.797
N12150 X242.667 Z-5.222
N12155 Y35.662 Z-5.648
N12160 X240.667 Z-6.073
N12165 Y37.662 Z-6.498
N12170 X242.667 Z-6.923
N12175 Y35.662 Z-7.348
N12180 X240.667 Z-7.773
N12185 Y37.662 Z-8.198
N12190 X242.667 Z-8.623
N12195 Y35.662 Z-9.048
N12200 X240.667 Z-9.474
N12205 Y37.662 Z-9.899
N12210 X242.667 Z-10.324
N12215 Y35.662 Z-10.749
N12220 X240.667 Z-11.174
N12225 Y37.662 Z-11.599
N12230 X242.667 Z-12.024
N12235 Y35.662 Z-12.449
N12240 X240.667 Z-12.874
N12245 Y37.662 Z-13.3
N12250 X242.667 Z-13.725
N12255 Y35.662 Z-14.15
N12260 X240.667 Z-14.575
N12265 Y37.662 Z-15.
N12270 X242.667 F1000.
N12275 Y35.662
N12280 X240.667
N12285 Y37.662
N12290 Z5.
N12295 Y69.017
N12300 Z2. F500.
N12305 Y70.996 Z1.579
N12310 X242.667 Z1.154
N12315 Y68.996 Z0.729
N12320 X240.667 Z0.304
N12325 Y70.996 Z-0.121
N12330 X242.667 Z-0.546
N12335 Y68.996 Z-0.971
N12340 X240.667 Z-1.396
N12345 Y70.996 Z-1.821
N12350 X242.667 Z-2.247
N12355 Y68.996 Z-2.672
N12360 X240.667 Z-3.097
N12365 Y70.996 Z-3.522
N12370 X242.667 Z-3.947
N12375 Y68.996 Z-4.372
N12380 X240.667 Z-4.797
N12385 Y70.996 Z-5.222
N12390 X242.667 Z-5.648
N12395 Y68.996 Z-6.073
N12400 X240.667 Z-6.498
N12405 Y70.996 Z-6.923
N12410 X242.667 Z-7.348
N12415 Y68.996 Z-7.773
N12420 X240.667 Z-8.198
N12425 Y70.996 Z-8.623
N12430 X242.667 Z-9.048
N12435 Y68.996 Z-9.474
N12440 X240.667 Z-9.899
N12445 Y70.996 Z-10.324
N12450 X242.667 Z-10.749
N12455 Y68.996 Z-11.174
N12460 X240.667 Z-11.599
N12465 Y70.996 Z-12.024
N12470 X242.667 Z-12.449
N12475 Y68.996 Z-12.874
N12480 X240.667 Z-13.3
N12485 Y70.996 Z-13.725
N12490 X242.667 Z-14.15
N12495 Y68.996 Z-14.575
N12500 X240.667 Z-15.
N12505 Y70.996 F1000.
N12510 X242.667
N12515 Y68.996
N12520 X240.667
N12525 Z5.
N12530 X275.979
N12535 Z2. F500.
N12540 X274. Z1.579
N12545 Y70.996 Z1.154
N12550 X276. Z0.729
N12555 Y68.996 Z0.304
N12560 X274. Z-0.121
N12565 Y70.996 Z-0.546
N12570 X276. Z-0.971
N12575 Y68.996 Z-1.396
N12580 X274. Z-1.821
N12585 Y70.996 Z-2.247
N12590 X276. Z-2.672
N12595 Y68.996 Z-3.097
N12600 X274. Z-3.522
N12605 Y70.996 Z-3.947
N12610 X276. Z-4.372
N12615 Y68.996 Z-4.797
N12620 X274. Z-5.222
N12625 Y70.996 Z-5.648
N12630 X276. Z-6.073
N12635 Y68.996 Z-6.498
N12640 X274. Z-6.923
N12645 Y70.996 Z-7.348
N12650 X276. Z-7.773
N12655 Y68.996 Z-8.198
N12660 X274. Z-8.623
N12665 Y70.996 Z-9.048
N12670 X276. Z-9.474
N12675 Y68.996 Z-9.899
N12680 X274. Z-10.324
N12685 Y70.996 Z-10.749
N12690 X276. Z-11.174
N12695 Y68.996 Z-11.599
N12700 X274. Z-12.024
N12705 Y70.996 Z-12.449
N12710 X276. Z-12.874
N12715 Y68.996 Z-13.3
N12720 X274. Z-13.725
N12725 Y70.996 Z-14.15
N12730 X276. Z-14.575
N12735 Y68.996 Z-15.
N12740 X274. F1000.
N12745 Y70.996
N12750 X276.
N12755 Y68.996
N12760 Z5.
N12765 Y37.641
N12770 Z2. F500.
N12775 Y35.662 Z1.579
N12780 X274. Z1.154
N12785 Y37.662 Z0.729
N12790 X276. Z0.304
N12795 Y35.662 Z-0.121
N12800 X274. Z-0.546
N12805 Y37.662 Z-0.971
N12810 X276. Z-1.396
N12815 Y35.662 Z-1.821
N12820 X274. Z-2.247
N12825 Y37.662 Z-2.672
N12830 X276. Z-3.097
N12835 Y35.662 Z-3.522
N12840 X274. Z-3.947
N12845 Y37.662 Z-4.372
N12850 X276. Z-4.797
N12855 Y35.662 Z-5.222
N12860 X274. Z-5.648
N12865 Y37.662 Z-6.073
N12870 X276. Z-6.498
N12875 Y35.662 Z-6.923
N12880 X274. Z-7.348
N12885 Y37.662 Z-7.773
N12890 X276. Z-8.198
N12895 Y35.662 Z-8.623
N12900 X274. Z-9.048
N12905 Y37.662 Z-9.474
N12910 X276. Z-9.899
N12915 Y35.662 Z-10.324
N12920 X274. Z-10.749
N12925 Y37.662 Z-11.174
N12930 X276. Z-11.599
N12935 Y35.662 Z-12.024
N12940 X274. Z-12.449
N12945 Y37.662 Z-12.874
N12950 X276. Z-13.3
N12955 Y35.662 Z-13.725
N12960 X274. Z-14.15
N12965 Y37.662 Z-14.575
N12970 X276. Z-15.
N12975 Y35.662 F1000.
N12980 X274.
N12985 Y37.662
N12990 X276.
N12995 Z5.
N13000 X274.978 Y2.329
N13005 Z2. F500.
N13010 X274. Z1.792
N13015 Y4.329 Z1.367
N13020 X276. Z0.942
N13025 Y2.329 Z0.517
N13030 X274. Z0.092
N13035 Y4.329 Z-0.333
N13040 X276. Z-0.759
N13045 Y2.329 Z-1.184
N13050 X274. Z-1.609
N13055 Y4.329 Z-2.034
N13060 X276. Z-2.459
N13065 Y2.329 Z-2.884
N13070 X274. Z-3.309
N13075 Y4.329 Z-3.734
N13080 X276. Z-4.159
N13085 Y2.329 Z-4.585
N13090 X274. Z-5.01
N13095 Y4.329 Z-5.435
N13100 X276. Z-5.86
N13105 Y2.329 Z-6.285
N13110 X274. Z-6.71
N13115 Y4.329 Z-7.135
N13120 X276. Z-7.56
N13125 Y2.329 Z-7.986
N13130 X274. Z-8.411
N13135 Y4.329 Z-8.836
N13140 X276. Z-9.261
N13145 Y2.329 Z-9.686
N13150 X274. Z-10.111
N13155 Y4.329 Z-10.536
N13160 X276. Z-10.961
N13165 Y2.329 Z-11.386
N13170 X274. Z-11.812
N13175 Y4.329 Z-12.237
N13180 X276. Z-12.662
N13185 Y2.329 Z-13.087
N13190 X274. Z-13.512
N13195 Y4.329 Z-13.937
N13200 X276. Z-14.362
N13205 Y2.329 Z-14.787
N13210 X275. Z-15.
N13215 X274. F1000.
N13220 Y4.329
N13225 X276.
N13230 Y2.329
N13235 X275.
N13240 Z5.
N13245 X242.646
N13250 Z2. F500.
N13255 X240.667 Z1.579
N13260 Y4.329 Z1.154
N13265 X242.667 Z0.729
N13270 Y2.329 Z0.304
N13275 X240.667 Z-0.121
N13280 Y4.329 Z-0.546
N13285 X242.667 Z-0.971
N13290 Y2.329 Z-1.396
N13295 X240.667 Z-1.821
N13300 Y4.329 Z-2.247
N13305 X242.667 Z-2.672
N13310 Y2.329 Z-3.097
N13315 X240.667 Z-3.522
N13320 Y4.329 Z-3.947
N13325 X242.667 Z-4.372
N13330 Y2.329 Z-4.797
N13335 X240.667 Z-5.222
N13340 Y4.329 Z-5.647
N13345 X242.667 Z-6.073
N13350 Y2.329 Z-6.498
N13355 X240.667 Z-6.923
N13360 Y4.329 Z-7.348
N13365 X242.667 Z-7.773
N13370 Y2.329 Z-8.198
N13375 X240.667 Z-8.623
N13380 Y4.329 Z-9.048
N13385 X242.667 Z-9.474
N13390 Y2.329 Z-9.899
N13395 X240.667 Z-10.324
N13400 Y4.329 Z-10.749
N13405 X242.667 Z-11.174
N13410 Y2.329 Z-11.599
N13415 X240.667 Z-12.024
N13420 Y4.329 Z-12.449
N13425 X242.667 Z-12.874
N13430 Y2.329 Z-13.3
N13435 X240.667 Z-13.725
N13440 Y4.329 Z-14.15
N13445 X242.667 Z-14.575
N13450 Y2.329 Z-15.
N13455 X240.667 F1000.
N13460 Y4.329
N13465 X242.667
N13470 Y2.329
N13475 Z5.
N13480 X209.312
N13485 Z2. F500.
N13490 X207.333 Z1.579
N13495 Y4.329 Z1.154
N13500 X209.333 Z0.729
N13505 Y2.329 Z0.304
N13510 X207.333 Z-0.121
N13515 Y4.329 Z-0.546
N13520 X209.333 Z-0.971
N13525 Y2.329 Z-1.396
N13530 X207.333 Z-1.821
N13535 Y4.329 Z-2.247
N13540 X209.333 Z-2.672
N13545 Y2.329 Z-3.097
N13550 X207.333 Z-3.522
N13555 Y4.329 Z-3.947
N13560 X209.333 Z-4.372
N13565 Y2.329 Z-4.797
N13570 X207.333 Z-5.222
N13575 Y4.329 Z-5.647
N13580 X209.333 Z-6.073
N13585 Y2.329 Z-6.498
N13590 X207.333 Z-6.923
N13595 Y4.329 Z-7.348
N13600 X209.333 Z-7.773
N13605 Y2.329 Z-8.198
N13610 X207.333 Z-8.623
N13615 Y4.329 Z-9.048
N13620 X209.333 Z-9.474
N13625 Y2.329 Z-9.899
N13630 X207.333 Z-10.324
N13635 Y4.329 Z-10.749
N13640 X209.333 Z-11.174
N13645 Y2.329 Z-11.599
N13650 X207.333 Z-12.024
N13655 Y4.329 Z-12.449
N13660 X209.333 Z-12.874
N13665 Y2.329 Z-13.3
N13670 X207.333 Z-13.725
N13675 Y4.329 Z-14.15
N13680 X209.333 Z-14.575
N13685 Y2.329 Z-15.
N13690 X207.333 F1000.
N13695 Y4.329
N13700 X209.333
N13705 Y2.329
N13710 Z5.
N13715 X175.979
N13720 Z2. F500.
N13725 X174. Z1.579
N13730 Y4.329 Z1.154
N13735 X176. Z0.729
N13740 Y2.329 Z0.304
N13745 X174. Z-0.121
N13750 Y4.329 Z-0.546
N13755 X176. Z-0.971
N13760 Y2.329 Z-1.396
N13765 X174. Z-1.821
N13770 Y4.329 Z-2.247
N13775 X176. Z-2.672
N13780 Y2.329 Z-3.097
N13785 X174. Z-3.522
N13790 Y4.329 Z-3.947
N13795 X176. Z-4.372
N13800 Y2.329 Z-4.797
N13805 X174. Z-5.222
N13810 Y4.329 Z-5.647
N13815 X176. Z-6.073
N13820 Y2.329 Z-6.498
N13825 X174. Z-6.923
N13830 Y4.329 Z-7.348
N13835 X176. Z-7.773
N13840 Y2.329 Z-8.198
N13845 X174. Z-8.623
N13850 Y4.329 Z-9.048
N13855 X176. Z-9.474
N13860 Y2.329 Z-9.899
N13865 X174. Z-10.324
N13870 Y4.329 Z-10.749
N13875 X176. Z-11.174
N13880 Y2.329 Z-11.599
N13885 X174. Z-12.024
N13890 Y4.329 Z-12.449
N13895 X176. Z-12.874
N13900 Y2.329 Z-13.3
N13905 X174. Z-13.725
N13910 Y4.329 Z-14.15
N13915 X176. Z-14.575
N13920 Y2.329 Z-15.
N13925 X174. F1000.
N13930 Y4.329
N13935 X176.
N13940 Y2.329
N13945 Z5.
N13950 X142.646
N13955 Z2. F500.
N13960 X140.667 Z1.579
N13965 Y4.329 Z1.154
N13970 X142.667 Z0.729
N13975 Y2.329 Z0.304
N13980 X140.667 Z-0.121
N13985 Y4.329 Z-0.546
N13990 X142.667 Z-0.971
N13995 Y2.329 Z-1.396
N14000 X140.667 Z-1.821
N14005 Y4.329 Z-2.247
N14010 X142.667 Z-2.672
N14015 Y2.329 Z-3.097
N14020 X140.667 Z-3.522
N14025 Y4.329 Z-3.947
N14030 X142.667 Z-4.372
N14035 Y2.329 Z-4.797
N14040 X140.667 Z-5.222
N14045 Y4.329 Z-5.647
N14050 X142.667 Z-6.073
N14055 Y2.329 Z-6.498
N14060 X140.667 Z-6.923
N14065 Y4.329 Z-7.348
N14070 X142.667 Z-7.773
N14075 Y2.329 Z-8.198
N14080 X140.667 Z-8.623
N14085 Y4.329 Z-9.048
N14090 X142.667 Z-9.474
N14095 Y2.329 Z-9.899
N14100 X140.667 Z-10.324
N14105 Y4.329 Z-10.749
N14110 X142.667 Z-11.174
N14115 Y2.329 Z-11.599
N14120 X140.667 Z-12.024
N14125 Y4.329 Z-12.449
N14130 X142.667 Z-12.874
N14135 Y2.329 Z-13.3
N14140 X140.667 Z-13.725
N14145 Y4.329 Z-14.15
N14150 X142.667 Z-14.575
N14155 Y2.329 Z-15.
N14160 X140.667 F1000.
N14165 Y4.329
N14170 X142.667
N14175 Y2.329
N14180 Z5.
N14185 X109.312
N14190 Z2. F500.
N14195 X107.333 Z1.579
N14200 Y4.329 Z1.154
N14205 X109.333 Z0.729
N14210 Y2.329 Z0.304
N14215 X107.333 Z-0.121
N14220 Y4.329 Z-0.546
N14225 X109.333 Z-0.971
N14230 Y2.329 Z-1.396
N14235 X107.333 Z-1.821
N14240 Y4.329 Z-2.247
N14245 X109.333 Z-2.672
N14250 Y2.329 Z-3.097
N14255 X107.333 Z-3.522
N14260 Y4.329 Z-3.947
N14265 X109.333 Z-4.372
N14270 Y2.329 Z-4.797
N14275 X107.333 Z-5.222
N14280 Y4.329 Z-5.647
N14285 X109.333 Z-6.073
N14290 Y2.329 Z-6.498
N14295 X107.333 Z-6.923
N14300 Y4.329 Z-7.348
N14305 X109.333 Z-7.773
N14310 Y2.329 Z-8.198
N14315 X107.333 Z-8.623
N14320 Y4.329 Z-9.048
N14325 X109.333 Z-9.474
N14330 Y2.329 Z-9.899
N14335 X107.333 Z-10.324
N14340 Y4.329 Z-10.749
N14345 X109.333 Z-11.174
N14350 Y2.329 Z-11.599
N14355 X107.333 Z-12.024
N14360 Y4.329 Z-12.449
N14365 X109.333 Z-12.874
N14370 Y2.329 Z-13.3
N14375 X107.333 Z-13.725
N14380 Y4.329 Z-14.15
N14385 X109.333 Z-14.575
N14390 Y2.329 Z-15.
N14395 X107.333 F1000.
N14400 Y4.329
N14405 X109.333
N14410 Y2.329
N14415 Z5.
N14420 X75.979
N14425 Z2. F500.
N14430 X74. Z1.579
N14435 Y4.329 Z1.154
N14440 X76. Z0.729
N14445 Y2.329 Z0.304
N14450 X74. Z-0.121
N14455 Y4.329 Z-0.546
N14460 X76. Z-0.971
N14465 Y2.329 Z-1.396
N14470 X74. Z-1.821
N14475 Y4.329 Z-2.247
N14480 X76. Z-2.672
N14485 Y2.329 Z-3.097
N14490 X74. Z-3.522
N14495 Y4.329 Z-3.947
N14500 X76. Z-4.372
N14505 Y2.329 Z-4.797
N14510 X74. Z-5.222
N14515 Y4.329 Z-5.647
N14520 X76. Z-6.073
N14525 Y2.329 Z-6.498
N14530 X74. Z-6.923
N14535 Y4.329 Z-7.348
N14540 X76. Z-7.773
N14545 Y2.329 Z-8.198
N14550 X74. Z-8.623
N14555 Y4.329 Z-9.048
N14560 X76. Z-9.474
N14565 Y2.329 Z-9.899
N14570 X74. Z-10.324
N14575 Y4.329 Z-10.749
N14580 X76. Z-11.174
N14585 Y2.329 Z-11.599
N14590 X74. Z-12.024
N14595 Y4.329 Z-12.449
N14600 X76. Z-12.874
N14605 Y2.329 Z-13.3
N14610 X74. Z-13.725
N14615 Y4.329 Z-14.15
N14620 X76. Z-14.575
N14625 Y2.329 Z-15.
N14630 X74. F1000.
N14635 Y4.329
N14640 X76.
N14645 Y2.329
N14650 Z5.
N14655 X74.021 Y37.662
N14660 Z2. F500.
N14665 X76. Z1.579
N14670 Y35.662 Z1.154
N14675 X74. Z0.729
N14680 Y37.662 Z0.304
N14685 X76. Z-0.121
N14690 Y35.662 Z-0.546
N14695 X74. Z-0.971
N14700 Y37.662 Z-1.396
N14705 X76. Z-1.821
N14710 Y35.662 Z-2.247
N14715 X74. Z-2.672
N14720 Y37.662 Z-3.097
N14725 X76. Z-3.522
N14730 Y35.662 Z-3.947
N14735 X74. Z-4.372
N14740 Y37.662 Z-4.797
N14745 X76. Z-5.222
N14750 Y35.662 Z-5.648
N14755 X74. Z-6.073
N14760 Y37.662 Z-6.498
N14765 X76. Z-6.923
N14770 Y35.662 Z-7.348
N14775 X74. Z-7.773
N14780 Y37.662 Z-8.198
N14785 X76. Z-8.623
N14790 Y35.662 Z-9.048
N14795 X74. Z-9.474
N14800 Y37.662 Z-9.899
N14805 X76. Z-10.324
N14810 Y35.662 Z-10.749
N14815 X74. Z-11.174
N14820 Y37.662 Z-11.599
N14825 X76. Z-12.024
N14830 Y35.662 Z-12.449
N14835 X74. Z-12.874
N14840 Y37.662 Z-13.3
N14845 X76. Z-13.725
N14850 Y35.662 Z-14.15
N14855 X74. Z-14.575
N14860 Y37.662 Z-15.
N14865 X76. F1000.
N14870 Y35.662
N14875 X74.
N14880 Y37.662
N14885 Z5.
N14890 X109.31 Y102.329
N14895 Z2. F500.
N14900 X107.333 Z1.58
N14905 Y104.329 Z1.155
N14910 X109.333 Z0.73
N14915 Y102.329 Z0.304
N14920 X107.333 Z-0.121
N14925 Y104.329 Z-0.546
N14930 X109.333 Z-0.971
N14935 Y102.329 Z-1.396
N14940 X107.333 Z-1.821
N14945 Y104.329 Z-2.246
N14950 X109.333 Z-2.671
N14955 Y102.329 Z-3.097
N14960 X107.333 Z-3.522
N14965 Y104.329 Z-3.947
N14970 X109.333 Z-4.372
N14975 Y102.329 Z-4.797
N14980 X107.333 Z-5.222
N14985 Y104.329 Z-5.647
N14990 X109.333 Z-6.072
N14995 Y102.329 Z-6.498
N15000 X107.333 Z-6.923
N15005 Y104.329 Z-7.348
N15010 X109.333 Z-7.773
N15015 Y102.329 Z-8.198
N15020 X107.333 Z-8.623
N15025 Y104.329 Z-9.048
N15030 X109.333 Z-9.473
N15035 Y102.329 Z-9.899
N15040 X107.333 Z-10.324
N15045 Y104.329 Z-10.749
N15050 X109.333 Z-11.174
N15055 Y102.329 Z-11.599
N15060 X107.333 Z-12.024
N15065 Y104.329 Z-12.449
N15070 X109.333 Z-12.874
N15075 Y102.329 Z-13.3
N15080 X107.333 Z-13.725
N15085 Y104.329 Z-14.15
N15090 X109.333 Z-14.575
N15095 Y102.329 Z-15.
N15100 X107.333 F1000.
N15105 Y104.329
N15110 X109.333
N15115 Y102.329
N15120 Z5.
N15125 X140.667 Y102.352
N15130 Z2. F500.
N15135 Y104.329 Z1.58
N15140 X142.667 Z1.155
N15145 Y102.329 Z0.73
N15150 X140.667 Z0.304
N15155 Y104.329 Z-0.121
N15160 X142.667 Z-0.546
N15165 Y102.329 Z-0.971
N15170 X140.667 Z-1.396
N15175 Y104.329 Z-1.821
N15180 X142.667 Z-2.246
N15185 Y102.329 Z-2.671
N15190 X140.667 Z-3.097
N15195 Y104.329 Z-3.522
N15200 X142.667 Z-3.947
N15205 Y102.329 Z-4.372
N15210 X140.667 Z-4.797
N15215 Y104.329 Z-5.222
N15220 X142.667 Z-5.647
N15225 Y102.329 Z-6.072
N15230 X140.667 Z-6.498
N15235 Y104.329 Z-6.923
N15240 X142.667 Z-7.348
N15245 Y102.329 Z-7.773
N15250 X140.667 Z-8.198
N15255 Y104.329 Z-8.623
N15260 X142.667 Z-9.048
N15265 Y102.329 Z-9.473
N15270 X140.667 Z-9.899
N15275 Y104.329 Z-10.324
N15280 X142.667 Z-10.749
N15285 Y102.329 Z-11.174
N15290 X140.667 Z-11.599
N15295 Y104.329 Z-12.024
N15300 X142.667 Z-12.449
N15305 Y102.329 Z-12.874
N15310 X140.667 Z-13.3
N15315 Y104.329 Z-13.725
N15320 X142.667 Z-14.15
N15325 Y102.329 Z-14.575
N15330 X140.667 Z-15.
N15335 Y104.329 F1000.
N15340 X142.667
N15345 Y102.329
N15350 X140.667
N15355 Z5.
N15360 X175.977
N15365 Z2. F500.
N15370 X174. Z1.58
N15375 Y104.329 Z1.155
N15380 X176. Z0.73
N15385 Y102.329 Z0.304
N15390 X174. Z-0.121
N15395 Y104.329 Z-0.546
N15400 X176. Z-0.971
N15405 Y102.329 Z-1.396
N15410 X174. Z-1.821
N15415 Y104.329 Z-2.246
N15420 X176. Z-2.671
N15425 Y102.329 Z-3.097
N15430 X174. Z-3.522
N15435 Y104.329 Z-3.947
N15440 X176. Z-4.372
N15445 Y102.329 Z-4.797
N15450 X174. Z-5.222
N15455 Y104.329 Z-5.647
N15460 X176. Z-6.072
N15465 Y102.329 Z-6.498
N15470 X174. Z-6.923
N15475 Y104.329 Z-7.348
N15480 X176. Z-7.773
N15485 Y102.329 Z-8.198
N15490 X174. Z-8.623
N15495 Y104.329 Z-9.048
N15500 X176. Z-9.473
N15505 Y102.329 Z-9.899
N15510 X174. Z-10.324
N15515 Y104.329 Z-10.749
N15520 X176. Z-11.174
N15525 Y102.329 Z-11.599
N15530 X174. Z-12.024
N15535 Y104.329 Z-12.449
N15540 X176. Z-12.874
N15545 Y102.329 Z-13.3
N15550 X174. Z-13.725
N15555 Y104.329 Z-14.15
N15560 X176. Z-14.575
N15565 Y102.329 Z-15.
N15570 X174. F1000.
N15575 Y104.329
N15580 X176.
N15585 Y102.329
N15590 Z5.
N15595 X209.31
N15600 Z2. F500.
N15605 X207.333 Z1.58
N15610 Y104.329 Z1.155
N15615 X209.333 Z0.73
N15620 Y102.329 Z0.304
N15625 X207.333 Z-0.121
N15630 Y104.329 Z-0.546
N15635 X209.333 Z-0.971
N15640 Y102.329 Z-1.396
N15645 X207.333 Z-1.821
N15650 Y104.329 Z-2.246
N15655 X209.333 Z-2.671
N15660 Y102.329 Z-3.097
N15665 X207.333 Z-3.522
N15670 Y104.329 Z-3.947
N15675 X209.333 Z-4.372
N15680 Y102.329 Z-4.797
N15685 X207.333 Z-5.222
N15690 Y104.329 Z-5.647
N15695 X209.333 Z-6.072
N15700 Y102.329 Z-6.498
N15705 X207.333 Z-6.923
N15710 Y104.329 Z-7.348
N15715 X209.333 Z-7.773
N15720 Y102.329 Z-8.198
N15725 X207.333 Z-8.623
N15730 Y104.329 Z-9.048
N15735 X209.333 Z-9.473
N15740 Y102.329 Z-9.899
N15745 X207.333 Z-10.324
N15750 Y104.329 Z-10.749
N15755 X209.333 Z-11.174
N15760 Y102.329 Z-11.599
N15765 X207.333 Z-12.024
N15770 Y104.329 Z-12.449
N15775 X209.333 Z-12.874
N15780 Y102.329 Z-13.3
N15785 X207.333 Z-13.725
N15790 Y104.329 Z-14.15
N15795 X209.333 Z-14.575
N15800 Y102.329 Z-15.
N15805 X207.333 F1000.
N15810 Y104.329
N15815 X209.333
N15820 Y102.329
N15825 Z5.
N15830 X240.667 Y102.352
N15835 Z2. F500.
N15840 Y104.329 Z1.58
N15845 X242.667 Z1.155
N15850 Y102.329 Z0.73
N15855 X240.667 Z0.304
N15860 Y104.329 Z-0.121
N15865 X242.667 Z-0.546
N15870 Y102.329 Z-0.971
N15875 X240.667 Z-1.396
N15880 Y104.329 Z-1.821
N15885 X242.667 Z-2.246
N15890 Y102.329 Z-2.671
N15895 X240.667 Z-3.097
N15900 Y104.329 Z-3.522
N15905 X242.667 Z-3.947
N15910 Y102.329 Z-4.372
N15915 X240.667 Z-4.797
N15920 Y104.329 Z-5.222
N15925 X242.667 Z-5.647
N15930 Y102.329 Z-6.072
N15935 X240.667 Z-6.498
N15940 Y104.329 Z-6.923
N15945 X242.667 Z-7.348
N15950 Y102.329 Z-7.773
N15955 X240.667 Z-8.198
N15960 Y104.329 Z-8.623
N15965 X242.667 Z-9.048
N15970 Y102.329 Z-9.473
N15975 X240.667 Z-9.899
N15980 Y104.329 Z-10.324
N15985 X242.667 Z-10.749
N15990 Y102.329 Z-11.174
N15995 X240.667 Z-11.599
N16000 Y104.329 Z-12.024
N16005 X242.667 Z-12.449
N16010 Y102.329 Z-12.874
N16015 X240.667 Z-13.3
N16020 Y104.329 Z-13.725
N16025 X242.667 Z-14.15
N16030 Y102.329 Z-14.575
N16035 X240.667 Z-15.
N16040 Y104.329 F1000.
N16045 X242.667
N16050 Y102.329
N16055 X240.667
N16060 Z5.
N16065 X276. Y137.641
N16070 Z2. F500.
N16075 Y135.662 Z1.579
N16080 X274. Z1.154
N16085 Y137.662 Z0.729
N16090 X276. Z0.304
N16095 Y135.662 Z-0.121
N16100 X274. Z-0.546
N16105 Y137.662 Z-0.971
N16110 X276. Z-1.396
N16115 Y135.662 Z-1.821
N16120 X274. Z-2.247
N16125 Y137.662 Z-2.672
N16130 X276. Z-3.097
N16135 Y135.662 Z-3.522
N16140 X274. Z-3.947
N16145 Y137.662 Z-4.372
N16150 X276. Z-4.797
N16155 Y135.662 Z-5.222
N16160 X274. Z-5.648
N16165 Y137.662 Z-6.073
N16170 X276. Z-6.498
N16175 Y135.662 Z-6.923
N16180 X274. Z-7.348
N16185 Y137.662 Z-7.773
N16190 X276. Z-8.198
N16195 Y135.662 Z-8.623
N16200 X274. Z-9.048
N16205 Y137.662 Z-9.474
N16210 X276. Z-9.899
N16215 Y135.662 Z-10.324
N16220 X274. Z-10.749
N16225 Y137.662 Z-11.174
N16230 X276. Z-11.599
N16235 Y135.662 Z-12.024
N16240 X274. Z-12.449
N16245 Y137.662 Z-12.874
N16250 X276. Z-13.3
N16255 Y135.662 Z-13.725
N16260 X274. Z-14.15
N16265 Y137.662 Z-14.575
N16270 X276. Z-15.
N16275 Y135.662 F1000.
N16280 X274.
N16285 Y137.662
N16290 X276.
N16295 Z5.
N16300 X309.333 Y137.641
N16305 Z2. F500.
N16310 Y135.662 Z1.579
N16315 X307.333 Z1.154
N16320 Y137.662 Z0.729
N16325 X309.333 Z0.304
N16330 Y135.662 Z-0.121
N16335 X307.333 Z-0.546
N16340 Y137.662 Z-0.971
N16345 X309.333 Z-1.396
N16350 Y135.662 Z-1.821
N16355 X307.333 Z-2.247
N16360 Y137.662 Z-2.672
N16365 X309.333 Z-3.097
N16370 Y135.662 Z-3.522
N16375 X307.333 Z-3.947
N16380 Y137.662 Z-4.372
N16385 X309.333 Z-4.797
N16390 Y135.662 Z-5.222
N16395 X307.333 Z-5.648
N16400 Y137.662 Z-6.073
N16405 X309.333 Z-6.498
N16410 Y135.662 Z-6.923
N16415 X307.333 Z-7.348
N16420 Y137.662 Z-7.773
N16425 X309.333 Z-8.198
N16430 Y135.662 Z-8.623
N16435 X307.333 Z-9.048
N16440 Y137.662 Z-9.474
N16445 X309.333 Z-9.899
N16450 Y135.662 Z-10.324
N16455 X307.333 Z-10.749
N16460 Y137.662 Z-11.174
N16465 X309.333 Z-11.599
N16470 Y135.662 Z-12.024
N16475 X307.333 Z-12.449
N16480 Y137.662 Z-12.874
N16485 X309.333 Z-13.3
N16490 Y135.662 Z-13.725
N16495 X307.333 Z-14.15
N16500 Y137.662 Z-14.575
N16505 X309.333 Z-15.
N16510 Y135.662 F1000.
N16515 X307.333
N16520 Y137.662
N16525 X309.333
N16530 Z5.
N16535 X309.312 Y168.996
N16540 Z2. F500.
N16545 X307.333 Z1.579
N16550 Y170.996 Z1.154
N16555 X309.333 Z0.729
N16560 Y168.996 Z0.304
N16565 X307.333 Z-0.121
N16570 Y170.996 Z-0.546
N16575 X309.333 Z-0.971
N16580 Y168.996 Z-1.396
N16585 X307.333 Z-1.821
N16590 Y170.996 Z-2.247
N16595 X309.333 Z-2.672
N16600 Y168.996 Z-3.097
N16605 X307.333 Z-3.522
N16610 Y170.996 Z-3.947
N16615 X309.333 Z-4.372
N16620 Y168.996 Z-4.797
N16625 X307.333 Z-5.222
N16630 Y170.996 Z-5.648
N16635 X309.333 Z-6.073
N16640 Y168.996 Z-6.498
N16645 X307.333 Z-6.923
N16650 Y170.996 Z-7.348
N16655 X309.333 Z-7.773
N16660 Y168.996 Z-8.198
N16665 X307.333 Z-8.623
N16670 Y170.996 Z-9.048
N16675 X309.333 Z-9.474
N16680 Y168.996 Z-9.899
N16685 X307.333 Z-10.324
N16690 Y170.996 Z-10.749
N16695 X309.333 Z-11.174
N16700 Y168.996 Z-11.599
N16705 X307.333 Z-12.024
N16710 Y170.996 Z-12.449
N16715 X309.333 Z-12.874
N16720 Y168.996 Z-13.3
N16725 X307.333 Z-13.725
N16730 Y170.996 Z-14.15
N16735 X309.333 Z-14.575
N16740 Y168.996 Z-15.
N16745 X307.333 F1000.
N16750 Y170.996
N16755 X309.333
N16760 Y168.996
N16765 Z5.
N16770 X340.667 Y169.017
N16775 Z2. F500.
N16780 Y170.996 Z1.579
N16785 X342.667 Z1.154
N16790 Y168.996 Z0.729
N16795 X340.667 Z0.304
N16800 Y170.996 Z-0.121
N16805 X342.667 Z-0.546
N16810 Y168.996 Z-0.971
N16815 X340.667 Z-1.396
N16820 Y170.996 Z-1.821
N16825 X342.667 Z-2.247
N16830 Y168.996 Z-2.672
N16835 X340.667 Z-3.097
N16840 Y170.996 Z-3.522
N16845 X342.667 Z-3.947
N16850 Y168.996 Z-4.372
N16855 X340.667 Z-4.797
N16860 Y170.996 Z-5.222
N16865 X342.667 Z-5.648
N16870 Y168.996 Z-6.073
N16875 X340.667 Z-6.498
N16880 Y170.996 Z-6.923
N16885 X342.667 Z-7.348
N16890 Y168.996 Z-7.773
N16895 X340.667 Z-8.198
N16900 Y170.996 Z-8.623
N16905 X342.667 Z-9.048
N16910 Y168.996 Z-9.474
N16915 X340.667 Z-9.899
N16920 Y170.996 Z-10.324
N16925 X342.667 Z-10.749
N16930 Y168.996 Z-11.174
N16935 X340.667 Z-11.599
N16940 Y170.996 Z-12.024
N16945 X342.667 Z-12.449
N16950 Y168.996 Z-12.874
N16955 X340.667 Z-13.3
N16960 Y170.996 Z-13.725
N16965 X342.667 Z-14.15
N16970 Y168.996 Z-14.575
N16975 X340.667 Z-15.
N16980 Y170.996 F1000.
N16985 X342.667
N16990 Y168.996
N16995 X340.667
N17000 Z5.
N17005 X340.688 Y137.662
N17010 Z2. F500.
N17015 X342.667 Z1.579
N17020 Y135.662 Z1.154
N17025 X340.667 Z0.729
N17030 Y137.662 Z0.304
N17035 X342.667 Z-0.121
N17040 Y135.662 Z-0.546
N17045 X340.667 Z-0.971
N17050 Y137.662 Z-1.396
N17055 X342.667 Z-1.821
N17060 Y135.662 Z-2.247
N17065 X340.667 Z-2.672
N17070 Y137.662 Z-3.097
N17075 X342.667 Z-3.522
N17080 Y135.662 Z-3.947
N17085 X340.667 Z-4.372
N17090 Y137.662 Z-4.797
N17095 X342.667 Z-5.222
N17100 Y135.662 Z-5.648
N17105 X340.667 Z-6.073
N17110 Y137.662 Z-6.498
N17115 X342.667 Z-6.923
N17120 Y135.662 Z-7.348
N17125 X340.667 Z-7.773
N17130 Y137.662 Z-8.198
N17135 X342.667 Z-8.623
N17140 Y135.662 Z-9.048
N17145 X340.667 Z-9.474
N17150 Y137.662 Z-9.899
N17155 X342.667 Z-10.324
N17160 Y135.662 Z-10.749
N17165 X340.667 Z-11.174
N17170 Y137.662 Z-11.599
N17175 X342.667 Z-12.024
N17180 Y135.662 Z-12.449
N17185 X340.667 Z-12.874
N17190 Y137.662 Z-13.3
N17195 X342.667 Z-13.725
N17200 Y135.662 Z-14.15
N17205 X340.667 Z-14.575
N17210 Y137.662 Z-15.
N17215 X342.667 F1000.
N17220 Y135.662
N17225 X340.667
N17230 Y137.662
N17235 Z5.
N17240 Y102.352
N17245 Z2. F500.
N17250 Y104.329 Z1.58
N17255 X342.667 Z1.155
N17260 Y102.329 Z0.73
N17265 X340.667 Z0.304
N17270 Y104.329 Z-0.121
N17275 X342.667 Z-0.546
N17280 Y102.329 Z-0.971
N17285 X340.667 Z-1.396
N17290 Y104.329 Z-1.821
N17295 X342.667 Z-2.246
N17300 Y102.329 Z-2.671
N17305 X340.667 Z-3.097
N17310 Y104.329 Z-3.522
N17315 X342.667 Z-3.947
N17320 Y102.329 Z-4.372
N17325 X340.667 Z-4.797
N17330 Y104.329 Z-5.222
N17335 X342.667 Z-5.647
N17340 Y102.329 Z-6.072
N17345 X340.667 Z-6.498
N17350 Y104.329 Z-6.923
N17355 X342.667 Z-7.348
N17360 Y102.329 Z-7.773
N17365 X340.667 Z-8.198
N17370 Y104.329 Z-8.623
N17375 X342.667 Z-9.048
N17380 Y102.329 Z-9.473
N17385 X340.667 Z-9.899
N17390 Y104.329 Z-10.324
N17395 X342.667 Z-10.749
N17400 Y102.329 Z-11.174
N17405 X340.667 Z-11.599
N17410 Y104.329 Z-12.024
N17415 X342.667 Z-12.449
N17420 Y102.329 Z-12.874
N17425 X340.667 Z-13.3
N17430 Y104.329 Z-13.725
N17435 X342.667 Z-14.15
N17440 Y102.329 Z-14.575
N17445 X340.667 Z-15.
N17450 Y104.329 F1000.
N17455 X342.667
N17460 Y102.329
N17465 X340.667
N17470 Z5.
N17475 X374. Y102.352
N17480 Z2. F500.
N17485 Y104.329 Z1.58
N17490 X376. Z1.155
N17495 Y102.329 Z0.73
N17500 X374. Z0.304
N17505 Y104.329 Z-0.121
N17510 X376. Z-0.546
N17515 Y102.329 Z-0.971
N17520 X374. Z-1.396
N17525 Y104.329 Z-1.821
N17530 X376. Z-2.246
N17535 Y102.329 Z-2.671
N17540 X374. Z-3.097
N17545 Y104.329 Z-3.522
N17550 X376. Z-3.947
N17555 Y102.329 Z-4.372
N17560 X374. Z-4.797
N17565 Y104.329 Z-5.222
N17570 X376. Z-5.647
N17575 Y102.329 Z-6.072
N17580 X374. Z-6.498
N17585 Y104.329 Z-6.923
N17590 X376. Z-7.348
N17595 Y102.329 Z-7.773
N17600 X374. Z-8.198
N17605 Y104.329 Z-8.623
N17610 X376. Z-9.048
N17615 Y102.329 Z-9.473
N17620 X374. Z-9.899
N17625 Y104.329 Z-10.324
N17630 X376. Z-10.749
N17635 Y102.329 Z-11.174
N17640 X374. Z-11.599
N17645 Y104.329 Z-12.024
N17650 X376. Z-12.449
N17655 Y102.329 Z-12.874
N17660 X374. Z-13.3
N17665 Y104.329 Z-13.725
N17670 X376. Z-14.15
N17675 Y102.329 Z-14.575
N17680 X374. Z-15.
N17685 Y104.329 F1000.
N17690 X376.
N17695 Y102.329
N17700 X374.
N17705 Z5.
N17710 X409.31
N17715 Z2. F500.
N17720 X407.333 Z1.58
N17725 Y104.329 Z1.155
N17730 X409.333 Z0.73
N17735 Y102.329 Z0.304
N17740 X407.333 Z-0.121
N17745 Y104.329 Z-0.546
N17750 X409.333 Z-0.971
N17755 Y102.329 Z-1.396
N17760 X407.333 Z-1.821
N17765 Y104.329 Z-2.246
N17770 X409.333 Z-2.671
N17775 Y102.329 Z-3.097
N17780 X407.333 Z-3.522
N17785 Y104.329 Z-3.947
N17790 X409.333 Z-4.372
N17795 Y102.329 Z-4.797
N17800 X407.333 Z-5.222
N17805 Y104.329 Z-5.647
N17810 X409.333 Z-6.072
N17815 Y102.329 Z-6.498
N17820 X407.333 Z-6.923
N17825 Y104.329 Z-7.348
N17830 X409.333 Z-7.773
N17835 Y102.329 Z-8.198
N17840 X407.333 Z-8.623
N17845 Y104.329 Z-9.048
N17850 X409.333 Z-9.473
N17855 Y102.329 Z-9.899
N17860 X407.333 Z-10.324
N17865 Y104.329 Z-10.749
N17870 X409.333 Z-11.174
N17875 Y102.329 Z-11.599
N17880 X407.333 Z-12.024
N17885 Y104.329 Z-12.449
N17890 X409.333 Z-12.874
N17895 Y102.329 Z-13.3
N17900 X407.333 Z-13.725
N17905 Y104.329 Z-14.15
N17910 X409.333 Z-14.575
N17915 Y102.329 Z-15.
N17920 X407.333 F1000.
N17925 Y104.329
N17930 X409.333
N17935 Y102.329
N17940 Z5.
N17945 X440.667 Y102.352
N17950 Z2. F500.
N17955 Y104.329 Z1.58
N17960 X442.667 Z1.155
N17965 Y102.329 Z0.73
N17970 X440.667 Z0.304
N17975 Y104.329 Z-0.121
N17980 X442.667 Z-0.546
N17985 Y102.329 Z-0.971
N17990 X440.667 Z-1.396
N17995 Y104.329 Z-1.821
N18000 X442.667 Z-2.246
N18005 Y102.329 Z-2.671
N18010 X440.667 Z-3.097
N18015 Y104.329 Z-3.522
N18020 X442.667 Z-3.947
N18025 Y102.329 Z-4.372
N18030 X440.667 Z-4.797
N18035 Y104.329 Z-5.222
N18040 X442.667 Z-5.647
N18045 Y102.329 Z-6.072
N18050 X440.667 Z-6.498
N18055 Y104.329 Z-6.923
N18060 X442.667 Z-7.348
N18065 Y102.329 Z-7.773
N18070 X440.667 Z-8.198
N18075 Y104.329 Z-8.623
N18080 X442.667 Z-9.048
N18085 Y102.329 Z-9.473
N18090 X440.667 Z-9.899
N18095 Y104.329 Z-10.324
N18100 X442.667 Z-10.749
N18105 Y102.329 Z-11.174
N18110 X440.667 Z-11.599
N18115 Y104.329 Z-12.024
N18120 X442.667 Z-12.449
N18125 Y102.329 Z-12.874
N18130 X440.667 Z-13.3
N18135 Y104.329 Z-13.725
N18140 X442.667 Z-14.15
N18145 Y102.329 Z-14.575
N18150 X440.667 Z-15.
N18155 Y104.329 F1000.
N18160 X442.667
N18165 Y102.329
N18170 X440.667
N18175 Z5.
N18180 X476. Y37.641
N18185 Z2. F500.
N18190 Y35.662 Z1.579
N18195 X474. Z1.154
N18200 Y37.662 Z0.729
N18205 X476. Z0.304
N18210 Y35.662 Z-0.121
N18215 X474. Z-0.546
N18220 Y37.662 Z-0.971
N18225 X476. Z-1.396
N18230 Y35.662 Z-1.821
N18235 X474. Z-2.247
N18240 Y37.662 Z-2.672
N18245 X476. Z-3.097
N18250 Y35.662 Z-3.522
N18255 X474. Z-3.947
N18260 Y37.662 Z-4.372
N18265 X476. Z-4.797
N18270 Y35.662 Z-5.222
N18275 X474. Z-5.648
N18280 Y37.662 Z-6.073
N18285 X476. Z-6.498
N18290 Y35.662 Z-6.923
N18295 X474. Z-7.348
N18300 Y37.662 Z-7.773
N18305 X476. Z-8.198
N18310 Y35.662 Z-8.623
N18315 X474. Z-9.048
N18320 Y37.662 Z-9.474
N18325 X476. Z-9.899
N18330 Y35.662 Z-10.324
N18335 X474. Z-10.749
N18340 Y37.662 Z-11.174
N18345 X476. Z-11.599
N18350 Y35.662 Z-12.024
N18355 X474. Z-12.449
N18360 Y37.662 Z-12.874
N18365 X476. Z-13.3
N18370 Y35.662 Z-13.725
N18375 X474. Z-14.15
N18380 Y37.662 Z-14.575
N18385 X476. Z-15.
N18390 Y35.662 F1000.
N18395 X474.
N18400 Y37.662
N18405 X476.
N18410 Z5.
N18415 X474. Y2.35
N18420 Z2. F500.
N18425 Y4.329 Z1.579
N18430 X476. Z1.154
N18435 Y2.329 Z0.729
N18440 X474. Z0.304
N18445 Y4.329 Z-0.121
N18450 X476. Z-0.546
N18455 Y2.329 Z-0.971
N18460 X474. Z-1.396
N18465 Y4.329 Z-1.821
N18470 X476. Z-2.247
N18475 Y2.329 Z-2.672
N18480 X474. Z-3.097
N18485 Y4.329 Z-3.522
N18490 X476. Z-3.947
N18495 Y2.329 Z-4.372
N18500 X474. Z-4.797
N18505 Y4.329 Z-5.222
N18510 X476. Z-5.647
N18515 Y2.329 Z-6.073
N18520 X474. Z-6.498
N18525 Y4.329 Z-6.923
N18530 X476. Z-7.348
N18535 Y2.329 Z-7.773
N18540 X474. Z-8.198
N18545 Y4.329 Z-8.623
N18550 X476. Z-9.048
N18555 Y2.329 Z-9.474
N18560 X474. Z-9.899
N18565 Y4.329 Z-10.324
N18570 X476. Z-10.749
N18575 Y2.329 Z-11.174
N18580 X474. Z-11.599
N18585 Y4.329 Z-12.024
N18590 X476. Z-12.449
N18595 Y2.329 Z-12.874
N18600 X474. Z-13.3
N18605 Y4.329 Z-13.725
N18610 X476. Z-14.15
N18615 Y2.329 Z-14.575
N18620 X474. Z-15.
N18625 Y4.329 F1000.
N18630 X476.
N18635 Y2.329
N18640 X474.
N18645 Z5.
N18650 X440.667 Y2.35
N18655 Z2. F500.
N18660 Y4.329 Z1.579
N18665 X442.667 Z1.154
N18670 Y2.329 Z0.729
N18675 X440.667 Z0.304
N18680 Y4.329 Z-0.121
N18685 X442.667 Z-0.546
N18690 Y2.329 Z-0.971
N18695 X440.667 Z-1.396
N18700 Y4.329 Z-1.821
N18705 X442.667 Z-2.247
N18710 Y2.329 Z-2.672
N18715 X440.667 Z-3.097
N18720 Y4.329 Z-3.522
N18725 X442.667 Z-3.947
N18730 Y2.329 Z-4.372
N18735 X440.667 Z-4.797
N18740 Y4.329 Z-5.222
N18745 X442.667 Z-5.647
N18750 Y2.329 Z-6.073
N18755 X440.667 Z-6.498
N18760 Y4.329 Z-6.923
N18765 X442.667 Z-7.348
N18770 Y2.329 Z-7.773
N18775 X440.667 Z-8.198
N18780 Y4.329 Z-8.623
N18785 X442.667 Z-9.048
N18790 Y2.329 Z-9.474
N18795 X440.667 Z-9.899
N18800 Y4.329 Z-10.324
N18805 X442.667 Z-10.749
N18810 Y2.329 Z-11.174
N18815 X440.667 Z-11.599
N18820 Y4.329 Z-12.024
N18825 X442.667 Z-12.449
N18830 Y2.329 Z-12.874
N18835 X440.667 Z-13.3
N18840 Y4.329 Z-13.725
N18845 X442.667 Z-14.15
N18850 Y2.329 Z-14.575
N18855 X440.667 Z-15.
N18860 Y4.329 F1000.
N18865 X442.667
N18870 Y2.329
N18875 X440.667
N18880 Z5.
N18885 X407.333 Y2.35
N18890 Z2. F500.
N18895 Y4.329 Z1.579
N18900 X409.333 Z1.154
N18905 Y2.329 Z0.729
N18910 X407.333 Z0.304
N18915 Y4.329 Z-0.121
N18920 X409.333 Z-0.546
N18925 Y2.329 Z-0.971
N18930 X407.333 Z-1.396
N18935 Y4.329 Z-1.821
N18940 X409.333 Z-2.247
N18945 Y2.329 Z-2.672
N18950 X407.333 Z-3.097
N18955 Y4.329 Z-3.522
N18960 X409.333 Z-3.947
N18965 Y2.329 Z-4.372
N18970 X407.333 Z-4.797
N18975 Y4.329 Z-5.222
N18980 X409.333 Z-5.647
N18985 Y2.329 Z-6.073
N18990 X407.333 Z-6.498
N18995 Y4.329 Z-6.923
N19000 X409.333 Z-7.348
N19005 Y2.329 Z-7.773
N19010 X407.333 Z-8.198
N19015 Y4.329 Z-8.623
N19020 X409.333 Z-9.048
N19025 Y2.329 Z-9.474
N19030 X407.333 Z-9.899
N19035 Y4.329 Z-10.324
N19040 X409.333 Z-10.749
N19045 Y2.329 Z-11.174
N19050 X407.333 Z-11.599
N19055 Y4.329 Z-12.024
N19060 X409.333 Z-12.449
N19065 Y2.329 Z-12.874
N19070 X407.333 Z-13.3
N19075 Y4.329 Z-13.725
N19080 X409.333 Z-14.15
N19085 Y2.329 Z-14.575
N19090 X407.333 Z-15.
N19095 Y4.329 F1000.
N19100 X409.333
N19105 Y2.329
N19110 X407.333
N19115 Z5.
N19120 X374. Y2.35
N19125 Z2. F500.
N19130 Y4.329 Z1.579
N19135 X376. Z1.154
N19140 Y2.329 Z0.729
N19145 X374. Z0.304
N19150 Y4.329 Z-0.121
N19155 X376. Z-0.546
N19160 Y2.329 Z-0.971
N19165 X374. Z-1.396
N19170 Y4.329 Z-1.821
N19175 X376. Z-2.247
N19180 Y2.329 Z-2.672
N19185 X374. Z-3.097
N19190 Y4.329 Z-3.522
N19195 X376. Z-3.947
N19200 Y2.329 Z-4.372
N19205 X374. Z-4.797
N19210 Y4.329 Z-5.222
N19215 X376. Z-5.647
N19220 Y2.329 Z-6.073
N19225 X374. Z-6.498
N19230 Y4.329 Z-6.923
N19235 X376. Z-7.348
N19240 Y2.329 Z-7.773
N19245 X374. Z-8.198
N19250 Y4.329 Z-8.623
N19255 X376. Z-9.048
N19260 Y2.329 Z-9.474
N19265 X374. Z-9.899
N19270 Y4.329 Z-10.324
N19275 X376. Z-10.749
N19280 Y2.329 Z-11.174
N19285 X374. Z-11.599
N19290 Y4.329 Z-12.024
N19295 X376. Z-12.449
N19300 Y2.329 Z-12.874
N19305 X374. Z-13.3
N19310 Y4.329 Z-13.725
N19315 X376. Z-14.15
N19320 Y2.329 Z-14.575
N19325 X374. Z-15.
N19330 Y4.329 F1000.
N19335 X376.
N19340 Y2.329
N19345 X374.
N19350 Z5.
N19355 X340.667 Y2.35
N19360 Z2. F500.
N19365 Y4.329 Z1.579
N19370 X342.667 Z1.154
N19375 Y2.329 Z0.729
N19380 X340.667 Z0.304
N19385 Y4.329 Z-0.121
N19390 X342.667 Z-0.546
N19395 Y2.329 Z-0.971
N19400 X340.667 Z-1.396
N19405 Y4.329 Z-1.821
N19410 X342.667 Z-2.247
N19415 Y2.329 Z-2.672
N19420 X340.667 Z-3.097
N19425 Y4.329 Z-3.522
N19430 X342.667 Z-3.947
N19435 Y2.329 Z-4.372
N19440 X340.667 Z-4.797
N19445 Y4.329 Z-5.222
N19450 X342.667 Z-5.647
N19455 Y2.329 Z-6.073
N19460 X340.667 Z-6.498
N19465 Y4.329 Z-6.923
N19470 X342.667 Z-7.348
N19475 Y2.329 Z-7.773
N19480 X340.667 Z-8.198
N19485 Y4.329 Z-8.623
N19490 X342.667 Z-9.048
N19495 Y2.329 Z-9.474
N19500 X340.667 Z-9.899
N19505 Y4.329 Z-10.324
N19510 X342.667 Z-10.749
N19515 Y2.329 Z-11.174
N19520 X340.667 Z-11.599
N19525 Y4.329 Z-12.024
N19530 X342.667 Z-12.449
N19535 Y2.329 Z-12.874
N19540 X340.667 Z-13.3
N19545 Y4.329 Z-13.725
N19550 X342.667 Z-14.15
N19555 Y2.329 Z-14.575
N19560 X340.667 Z-15.
N19565 Y4.329 F1000.
N19570 X342.667
N19575 Y2.329
N19580 X340.667
N19585 Z5.
N19590 X307.333 Y2.35
N19595 Z2. F500.
N19600 Y4.329 Z1.579
N19605 X309.333 Z1.154
N19610 Y2.329 Z0.729
N19615 X307.333 Z0.304
N19620 Y4.329 Z-0.121
N19625 X309.333 Z-0.546
N19630 Y2.329 Z-0.971
N19635 X307.333 Z-1.396
N19640 Y4.329 Z-1.821
N19645 X309.333 Z-2.247
N19650 Y2.329 Z-2.672
N19655 X307.333 Z-3.097
N19660 Y4.329 Z-3.522
N19665 X309.333 Z-3.947
N19670 Y2.329 Z-4.372
N19675 X307.333 Z-4.797
N19680 Y4.329 Z-5.222
N19685 X309.333 Z-5.647
N19690 Y2.329 Z-6.073
N19695 X307.333 Z-6.498
N19700 Y4.329 Z-6.923
N19705 X309.333 Z-7.348
N19710 Y2.329 Z-7.773
N19715 X307.333 Z-8.198
N19720 Y4.329 Z-8.623
N19725 X309.333 Z-9.048
N19730 Y2.329 Z-9.474
N19735 X307.333 Z-9.899
N19740 Y4.329 Z-10.324
N19745 X309.333 Z-10.749
N19750 Y2.329 Z-11.174
N19755 X307.333 Z-11.599
N19760 Y4.329 Z-12.024
N19765 X309.333 Z-12.449
N19770 Y2.329 Z-12.874
N19775 X307.333 Z-13.3
N19780 Y4.329 Z-13.725
N19785 X309.333 Z-14.15
N19790 Y2.329 Z-14.575
N19795 X307.333 Z-15.
N19800 Y4.329 F1000.
N19805 X309.333
N19810 Y2.329
N19815 X307.333
N19820 Z5.
N19825 X374.021 Y37.662
N19830 Z2. F500.
N19835 X376. Z1.579
N19840 Y35.662 Z1.154
N19845 X374. Z0.729
N19850 Y37.662 Z0.304
N19855 X376. Z-0.121
N19860 Y35.662 Z-0.546
N19865 X374. Z-0.971
N19870 Y37.662 Z-1.396
N19875 X376. Z-1.821
N19880 Y35.662 Z-2.247
N19885 X374. Z-2.672
N19890 Y37.662 Z-3.097
N19895 X376. Z-3.522
N19900 Y35.662 Z-3.947
N19905 X374. Z-4.372
N19910 Y37.662 Z-4.797
N19915 X376. Z-5.222
N19920 Y35.662 Z-5.648
N19925 X374. Z-6.073
N19930 Y37.662 Z-6.498
N19935 X376. Z-6.923
N19940 Y35.662 Z-7.348
N19945 X374. Z-7.773
N19950 Y37.662 Z-8.198
N19955 X376. Z-8.623
N19960 Y35.662 Z-9.048
N19965 X374. Z-9.474
N19970 Y37.662 Z-9.899
N19975 X376. Z-10.324
N19980 Y35.662 Z-10.749
N19985 X374. Z-11.174
N19990 Y37.662 Z-11.599
N19995 X376. Z-12.024
N20000 Y35.662 Z-12.449
N20005 X374. Z-12.874
N20010 Y37.662 Z-13.3
N20015 X376. Z-13.725
N20020 Y35.662 Z-14.15
N20025 X374. Z-14.575
N20030 Y37.662 Z-15.
N20035 X376. F1000.
N20040 Y35.662
N20045 X374.
N20050 Y37.662
N20055 Z5.
N20060 X374.021 Y137.662
N20065 Z2. F500.
N20070 X376. Z1.579
N20075 Y135.662 Z1.154
N20080 X374. Z0.729
N20085 Y137.662 Z0.304
N20090 X376. Z-0.121
N20095 Y135.662 Z-0.546
N20100 X374. Z-0.971
N20105 Y137.662 Z-1.396
N20110 X376. Z-1.821
N20115 Y135.662 Z-2.247
N20120 X374. Z-2.672
N20125 Y137.662 Z-3.097
N20130 X376. Z-3.522
N20135 Y135.662 Z-3.947
N20140 X374. Z-4.372
N20145 Y137.662 Z-4.797
N20150 X376. Z-5.222
N20155 Y135.662 Z-5.648
N20160 X374. Z-6.073
N20165 Y137.662 Z-6.498
N20170 X376. Z-6.923
N20175 Y135.662 Z-7.348
N20180 X374. Z-7.773
N20185 Y137.662 Z-8.198
N20190 X376. Z-8.623
N20195 Y135.662 Z-9.048
N20200 X374. Z-9.474
N20205 Y137.662 Z-9.899
N20210 X376. Z-10.324
N20215 Y135.662 Z-10.749
N20220 X374. Z-11.174
N20225 Y137.662 Z-11.599
N20230 X376. Z-12.024
N20235 Y135.662 Z-12.449
N20240 X374. Z-12.874
N20245 Y137.662 Z-13.3
N20250 X376. Z-13.725
N20255 Y135.662 Z-14.15
N20260 X374. Z-14.575
N20265 Y137.662 Z-15.
N20270 X376. F1000.
N20275 Y135.662
N20280 X374.
N20285 Y137.662
N20290 Z5.
N20295 Y169.017
N20300 Z2. F500.
N20305 Y170.996 Z1.579
N20310 X376. Z1.154
N20315 Y168.996 Z0.729
N20320 X374. Z0.304
N20325 Y170.996 Z-0.121
N20330 X376. Z-0.546
N20335 Y168.996 Z-0.971
N20340 X374. Z-1.396
N20345 Y170.996 Z-1.821
N20350 X376. Z-2.247
N20355 Y168.996 Z-2.672
N20360 X374. Z-3.097
N20365 Y170.996 Z-3.522
N20370 X376. Z-3.947
N20375 Y168.996 Z-4.372
N20380 X374. Z-4.797
N20385 Y170.996 Z-5.222
N20390 X376. Z-5.648
N20395 Y168.996 Z-6.073
N20400 X374. Z-6.498
N20405 Y170.996 Z-6.923
N20410 X376. Z-7.348
N20415 Y168.996 Z-7.773
N20420 X374. Z-8.198
N20425 Y170.996 Z-8.623
N20430 X376. Z-9.048
N20435 Y168.996 Z-9.474
N20440 X374. Z-9.899
N20445 Y170.996 Z-10.324
N20450 X376. Z-10.749
N20455 Y168.996 Z-11.174
N20460 X374. Z-11.599
N20465 Y170.996 Z-12.024
N20470 X376. Z-12.449
N20475 Y168.996 Z-12.874
N20480 X374. Z-13.3
N20485 Y170.996 Z-13.725
N20490 X376. Z-14.15
N20495 Y168.996 Z-14.575
N20500 X374. Z-15.
N20505 Y170.996 F1000.
N20510 X376.
N20515 Y168.996
N20520 X374.
N20525 Z5.
N20530 X275.979
N20535 Z2. F500.
N20540 X274. Z1.579
N20545 Y170.996 Z1.154
N20550 X276. Z0.729
N20555 Y168.996 Z0.304
N20560 X274. Z-0.121
N20565 Y170.996 Z-0.546
N20570 X276. Z-0.971
N20575 Y168.996 Z-1.396
N20580 X274. Z-1.821
N20585 Y170.996 Z-2.247
N20590 X276. Z-2.672
N20595 Y168.996 Z-3.097
N20600 X274. Z-3.522
N20605 Y170.996 Z-3.947
N20610 X276. Z-4.372
N20615 Y168.996 Z-4.797
N20620 X274. Z-5.222
N20625 Y170.996 Z-5.648
N20630 X276. Z-6.073
N20635 Y168.996 Z-6.498
N20640 X274. Z-6.923
N20645 Y170.996 Z-7.348
N20650 X276. Z-7.773
N20655 Y168.996 Z-8.198
N20660 X274. Z-8.623
N20665 Y170.996 Z-9.048
N20670 X276. Z-9.474
N20675 Y168.996 Z-9.899
N20680 X274. Z-10.324
N20685 Y170.996 Z-10.749
N20690 X276. Z-11.174
N20695 Y168.996 Z-11.599
N20700 X274. Z-12.024
N20705 Y170.996 Z-12.449
N20710 X276. Z-12.874
N20715 Y168.996 Z-13.3
N20720 X274. Z-13.725
N20725 Y170.996 Z-14.15
N20730 X276. Z-14.575
N20735 Y168.996 Z-15.
N20740 X274. F1000.
N20745 Y170.996
N20750 X276.
N20755 Y168.996
N20760 Z5.
N20765 X174. Y169.017
N20770 Z2. F500.
N20775 Y170.996 Z1.579
N20780 X176. Z1.154
N20785 Y168.996 Z0.729
N20790 X174. Z0.304
N20795 Y170.996 Z-0.121
N20800 X176. Z-0.546
N20805 Y168.996 Z-0.971
N20810 X174. Z-1.396
N20815 Y170.996 Z-1.821
N20820 X176. Z-2.247
N20825 Y168.996 Z-2.672
N20830 X174. Z-3.097
N20835 Y170.996 Z-3.522
N20840 X176. Z-3.947
N20845 Y168.996 Z-4.372
N20850 X174. Z-4.797
N20855 Y170.996 Z-5.222
N20860 X176. Z-5.648
N20865 Y168.996 Z-6.073
N20870 X174. Z-6.498
N20875 Y170.996 Z-6.923
N20880 X176. Z-7.348
N20885 Y168.996 Z-7.773
N20890 X174. Z-8.198
N20895 Y170.996 Z-8.623
N20900 X176. Z-9.048
N20905 Y168.996 Z-9.474
N20910 X174. Z-9.899
N20915 Y170.996 Z-10.324
N20920 X176. Z-10.749
N20925 Y168.996 Z-11.174
N20930 X174. Z-11.599
N20935 Y170.996 Z-12.024
N20940 X176. Z-12.449
N20945 Y168.996 Z-12.874
N20950 X174. Z-13.3
N20955 Y170.996 Z-13.725
N20960 X176. Z-14.15
N20965 Y168.996 Z-14.575
N20970 X174. Z-15.
N20975 Y170.996 F1000.
N20980 X176.
N20985 Y168.996
N20990 X174.
N20995 Z5.
N21000 X174.021 Y137.662
N21005 Z2. F500.
N21010 X176. Z1.579
N21015 Y135.662 Z1.154
N21020 X174. Z0.729
N21025 Y137.662 Z0.304
N21030 X176. Z-0.121
N21035 Y135.662 Z-0.546
N21040 X174. Z-0.971
N21045 Y137.662 Z-1.396
N21050 X176. Z-1.821
N21055 Y135.662 Z-2.247
N21060 X174. Z-2.672
N21065 Y137.662 Z-3.097
N21070 X176. Z-3.522
N21075 Y135.662 Z-3.947
N21080 X174. Z-4.372
N21085 Y137.662 Z-4.797
N21090 X176. Z-5.222
N21095 Y135.662 Z-5.648
N21100 X174. Z-6.073
N21105 Y137.662 Z-6.498
N21110 X176. Z-6.923
N21115 Y135.662 Z-7.348
N21120 X174. Z-7.773
N21125 Y137.662 Z-8.198
N21130 X176. Z-8.623
N21135 Y135.662 Z-9.048
N21140 X174. Z-9.474
N21145 Y137.662 Z-9.899
N21150 X176. Z-10.324
N21155 Y135.662 Z-10.749
N21160 X174. Z-11.174
N21165 Y137.662 Z-11.599
N21170 X176. Z-12.024
N21175 Y135.662 Z-12.449
N21180 X174. Z-12.874
N21185 Y137.662 Z-13.3
N21190 X176. Z-13.725
N21195 Y135.662 Z-14.15
N21200 X174. Z-14.575
N21205 Y137.662 Z-15.
N21210 X176. F1000.
N21215 Y135.662
N21220 X174.
N21225 Y137.662
N21230 Z5.
N21235 X174.021 Y37.662
N21240 Z2. F500.
N21245 X176. Z1.579
N21250 Y35.662 Z1.154
N21255 X174. Z0.729
N21260 Y37.662 Z0.304
N21265 X176. Z-0.121
N21270 Y35.662 Z-0.546
N21275 X174. Z-0.971
N21280 Y37.662 Z-1.396
N21285 X176. Z-1.821
N21290 Y35.662 Z-2.247
N21295 X174. Z-2.672
N21300 Y37.662 Z-3.097
N21305 X176. Z-3.522
N21310 Y35.662 Z-3.947
N21315 X174. Z-4.372
N21320 Y37.662 Z-4.797
N21325 X176. Z-5.222
N21330 Y35.662 Z-5.648
N21335 X174. Z-6.073
N21340 Y37.662 Z-6.498
N21345 X176. Z-6.923
N21350 Y35.662 Z-7.348
N21355 X174. Z-7.773
N21360 Y37.662 Z-8.198
N21365 X176. Z-8.623
N21370 Y35.662 Z-9.048
N21375 X174. Z-9.474
N21380 Y37.662 Z-9.899
N21385 X176. Z-10.324
N21390 Y35.662 Z-10.749
N21395 X174. Z-11.174
N21400 Y37.662 Z-11.599
N21405 X176. Z-12.024
N21410 Y35.662 Z-12.449
N21415 X174. Z-12.874
N21420 Y37.662 Z-13.3
N21425 X176. Z-13.725
N21430 Y35.662 Z-14.15
N21435 X174. Z-14.575
N21440 Y37.662 Z-15.
N21445 X176. F1000.
N21450 Y35.662
N21455 X174.
N21460 Y37.662
N21465 Z15.
N21470 M30
%
