%
(13X13_V2_LEFT_BACK_6MM)
(T2  D=6. CR=0. - ZMIN=-1. - FLAT END MILL)
N10 G90 G94 G17 G91.1
N15 G21
(WHEN USING FUSION 360 FOR PERSONAL USE, THE FEEDRATE OF)
(RAPID MOVES IS REDUCED TO MATCH THE FEEDRATE OF CUTTING)
(MOVES, WHICH CAN INCREASE MACHINING TIME. UNRESTRICTED RAPID)
(MOVES ARE AVAILABLE WITH A FUSION 360 SUBSCRIPTION.)
(2D CONTOUR3 2)
N20 M8
N25 S8000 M3
N30 G54
N35 G0 X273.8 Y237.267
N45 G1 Z5. F2700.
N50 Z1. F1800.
N55 Z-0.4
N60 G18 G3 X273.2 Z-1. I-0.6 K0. F2700.
N65 G1 X272.6
N70 G17 G3 X272. Y236.667 I0. J-0.6
N75 G1 Y18.
N80 X278.
N85 Y236.667
N90 G3 X277.4 Y237.267 I-0.6 J0.
N95 G1 X276.8
N100 G18 G3 X276.2 Z-0.4 I0. K0.6
N105 G1 Z5.
N110 X307.133
N115 Z1. F1800.
N120 Z-0.4
N125 G3 X306.533 Z-1. I-0.6 K0. F2700.
N130 G1 X305.933
N135 G17 G3 X305.333 Y236.667 I0. J-0.6
N140 G1 Y18.
N145 X311.333
N150 Y236.667
N155 G3 X310.733 Y237.267 I-0.6 J0.
N160 G1 X310.133
N165 G18 G3 X309.533 Z-0.4 I0. K0.6
N170 G1 Z5.
N175 X340.467
N180 Z1. F1800.
N185 Z-0.4
N190 G3 X339.867 Z-1. I-0.6 K0. F2700.
N195 G1 X339.267
N200 G17 G3 X338.667 Y236.667 I0. J-0.6
N205 G1 Y18.
N210 X344.667
N215 Y236.667
N220 G3 X344.067 Y237.267 I-0.6 J0.
N225 G1 X343.467
N230 G18 G3 X342.867 Z-0.4 I0. K0.6
N235 G1 Z5.
N240 X373.8
N245 Z1. F1800.
N250 Z-0.4
N255 G3 X373.2 Z-1. I-0.6 K0. F2700.
N260 G1 X372.6
N265 G17 G3 X372. Y236.667 I0. J-0.6
N270 G1 Y18.
N275 X378.
N280 Y236.667
N285 G3 X377.4 Y237.267 I-0.6 J0.
N290 G1 X376.8
N295 G18 G3 X376.2 Z-0.4 I0. K0.6
N300 G1 Z5.
N305 X407.133
N310 Z1. F1800.
N315 Z-0.4
N320 G3 X406.533 Z-1. I-0.6 K0. F2700.
N325 G1 X405.933
N330 G17 G3 X405.333 Y236.667 I0. J-0.6
N335 G1 Y18.
N340 X411.333
N345 Y236.667
N350 G3 X410.733 Y237.267 I-0.6 J0.
N355 G1 X410.133
N360 G18 G3 X409.533 Z-0.4 I0. K0.6
N365 G1 Z5.
N370 X440.467
N375 Z1. F1800.
N380 Z-0.4
N385 G3 X439.867 Z-1. I-0.6 K0. F2700.
N390 G1 X439.267
N395 G17 G3 X438.667 Y236.667 I0. J-0.6
N400 G1 Y18.
N405 X444.667
N410 Y236.667
N415 G3 X444.067 Y237.267 I-0.6 J0.
N420 G1 X443.467
N425 G18 G3 X442.867 Z-0.4 I0. K0.6
N430 G1 Z5.
N435 X473.8
N440 Z1. F1800.
N445 Z-0.4
N450 G3 X473.2 Z-1. I-0.6 K0. F2700.
N455 G1 X472.6
N460 G17 G3 X472. Y236.667 I0. J-0.6
N465 G1 Y18.
N470 X478.
N475 Y236.667
N480 G3 X477.4 Y237.267 I-0.6 J0.
N485 G1 X476.8
N490 G18 G3 X476.2 Z-0.4 I0. K0.6
N495 G1 Z5.
N500 X240.467
N505 Z1. F1800.
N510 Z-0.4
N515 G3 X239.867 Z-1. I-0.6 K0. F2700.
N520 G1 X239.267
N525 G17 G3 X238.667 Y236.667 I0. J-0.6
N530 G1 Y18.
N535 X244.667
N540 Y236.667
N545 G3 X244.067 Y237.267 I-0.6 J0.
N550 G1 X243.467
N555 G18 G3 X242.867 Z-0.4 I0. K0.6
N560 G1 Z5.
N565 X207.133
N570 Z1. F1800.
N575 Z-0.4
N580 G3 X206.533 Z-1. I-0.6 K0. F2700.
N585 G1 X205.933
N590 G17 G3 X205.333 Y236.667 I0. J-0.6
N595 G1 Y18.
N600 X211.333
N605 Y236.667
N610 G3 X210.733 Y237.267 I-0.6 J0.
N615 G1 X210.133
N620 G18 G3 X209.533 Z-0.4 I0. K0.6
N625 G1 Z5.
N630 X173.8
N635 Z1. F1800.
N640 Z-0.4
N645 G3 X173.2 Z-1. I-0.6 K0. F2700.
N650 G1 X172.6
N655 G17 G3 X172. Y236.667 I0. J-0.6
N660 G1 Y18.
N665 X178.
N670 Y236.667
N675 G3 X177.4 Y237.267 I-0.6 J0.
N680 G1 X176.8
N685 G18 G3 X176.2 Z-0.4 I0. K0.6
N690 G1 Z5.
N695 X140.467
N700 Z1. F1800.
N705 Z-0.4
N710 G3 X139.867 Z-1. I-0.6 K0. F2700.
N715 G1 X139.267
N720 G17 G3 X138.667 Y236.667 I0. J-0.6
N725 G1 Y18.
N730 X144.667
N735 Y236.667
N740 G3 X144.067 Y237.267 I-0.6 J0.
N745 G1 X143.467
N750 G18 G3 X142.867 Z-0.4 I0. K0.6
N755 G1 Z5.
N760 X107.133
N765 Z1. F1800.
N770 Z-0.4
N775 G3 X106.533 Z-1. I-0.6 K0. F2700.
N780 G1 X105.933
N785 G17 G3 X105.333 Y236.667 I0. J-0.6
N790 G1 Y18.
N795 X111.333
N800 Y236.667
N805 G3 X110.733 Y237.267 I-0.6 J0.
N810 G1 X110.133
N815 G18 G3 X109.533 Z-0.4 I0. K0.6
N820 G1 Z5.
N825 X73.8
N830 Z1. F1800.
N835 Z-0.4
N840 G3 X73.2 Z-1. I-0.6 K0. F2700.
N845 G1 X72.6
N850 G17 G3 X72. Y236.667 I0. J-0.6
N855 G1 Y18.
N860 X78.
N865 Y236.667
N870 G3 X77.4 Y237.267 I-0.6 J0.
N875 G1 X76.8
N880 G18 G3 X76.2 Z-0.4 I0. K0.6
N885 G1 Z15.
N890 G17
N895 M30
%
