%
(13X13_V2_LEFT_FRONT_M6)
(T2  D=6. CR=0. - ZMIN=-15. - FLAT END MILL)
N10 G90 G94 G17 G91.1
N15 G21
(WHEN USING FUSION 360 FOR PERSONAL USE, THE FEEDRATE OF)
(RAPID MOVES IS REDUCED TO MATCH THE FEEDRATE OF CUTTING)
(MOVES, WHICH CAN INCREASE MACHINING TIME. UNRESTRICTED RAPID)
(MOVES ARE AVAILABLE WITH A FUSION 360 SUBSCRIPTION.)
(POCKET2 2)
N20 M8
N25 S12000 M3
N30 G54
N35 G0 X267.401 Y103.88
N45 G1 Z3. F2700.
N50 Z1.598 F1800.
N55 X267.399 Y103.861 Z1.451 F2700.
N60 X267.392 Y103.808 Z1.312
N65 X267.383 Y103.721 Z1.191
N70 X267.373 Y103.608 Z1.095
N75 X267.366 Y103.475 Z1.03
N80 X267.363 Y103.329 Z1.
N85 G3 X275.363 Z0. I4. J0.
N90 X267.363 Z-1. I-4. J0.
N95 X275.363 Z-2. I4. J0.
N100 X274.637 I-0.363 J0.
N105 X278.963 I2.163 J0.
N110 X271.037 I-3.963 J0.
N115 X282.563 I5.763 J0.
N120 X267.437 I-7.563 J0.
N125 X282.563 I7.563 J0.
N130 G2 X283.961 Y105.685 I2.684 J0.
N135 G3 X284.833 Y108.282 I-0.966 J1.769
N140 G1 X284.818 Y108.316
N145 X284.532 Y108.846
N150 X284.066 Y109.596
N155 X283.822 Y109.945
N160 X283.405 Y110.49
N165 X282.918 Y111.031
N170 X282.72 Y111.228
N175 X281.757 Y112.053
N180 X280.818 Y112.668
N185 X280.27 Y113.
N190 X279.75 Y113.266
N195 X279.212 Y113.494
N200 X278.576 Y113.732
N205 X278.122 Y113.877
N210 X277.572 Y114.015
N215 X277.028 Y114.135
N220 X276.492 Y114.215
N225 X275.934 Y114.275
N230 X275.397 Y114.312
N235 X274.852 Y114.313
N240 X274.304 Y114.299
N245 X273.768 Y114.25
N250 X273.212 Y114.174
N255 X272.678 Y114.081
N260 X272.14 Y113.945
N265 X271.586 Y113.786
N270 X271.051 Y113.599
N275 X270.49 Y113.365
N280 X270.083 Y113.185
N285 X269.409 Y112.821
N290 X269.117 Y112.644
N295 X268.884 Y112.493
N300 X268.305 Y112.091
N305 X267.778 Y111.681
N310 X267.241 Y111.195
N315 X267.107 Y111.056
N320 X266.274 Y110.084
N325 X265.46 Y108.838
N330 X265.081 Y108.113
N335 X264.93 Y107.774
N340 X264.705 Y107.228
N345 X264.528 Y106.688
N350 X264.368 Y106.135
N355 X264.243 Y105.6
N360 X264.148 Y105.046
N365 X264.07 Y104.505
N370 X264.033 Y103.968
N375 X264.013 Y103.411
N380 X264.019 Y102.875
N385 X264.059 Y102.325
N390 X264.113 Y101.783
N395 X264.206 Y101.249
N400 X264.326 Y100.692
N405 X264.467 Y100.149
N410 X264.534 Y99.94
N415 X264.645 Y99.624
N420 X264.856 Y99.063
N425 X265.093 Y98.528
N430 X265.38 Y97.975
N435 X265.631 Y97.528
N440 X266.043 Y96.891
N445 X266.463 Y96.34
N450 X266.719 Y96.027
N455 X266.914 Y95.81
N460 X267.245 Y95.461
N465 X267.416 Y95.307
N470 X268.26 Y94.591
N475 X269.443 Y93.82
N480 X269.746 Y93.649
N485 X269.945 Y93.547
N490 X270.508 Y93.279
N495 X271.041 Y93.059
N500 X271.587 Y92.874
N505 X272.134 Y92.71
N510 X272.765 Y92.564
N515 X273.22 Y92.486
N520 X273.764 Y92.405
N525 X274.303 Y92.366
N530 X274.858 Y92.342
N535 X275.394 Y92.347
N540 X275.951 Y92.382
N545 X276.486 Y92.431
N550 X277.25 Y92.564
N555 X277.562 Y92.635
N560 X278.111 Y92.778
N565 X278.67 Y92.961
N570 X279.087 Y93.106
N575 X279.741 Y93.395
N580 X280.292 Y93.676
N585 X280.841 Y93.986
N590 X281.377 Y94.333
N595 X281.917 Y94.738
N600 X282.562 Y95.283
N605 X282.985 Y95.704
N610 X283.705 Y96.547
N615 X284.061 Y97.085
N620 X284.633 Y97.982
N625 X284.906 Y98.518
N630 X285.165 Y99.116
N635 X285.358 Y99.612
N640 X285.527 Y100.143
N645 X285.712 Y100.865
N650 X285.797 Y101.24
N655 X285.877 Y101.777
N660 X285.942 Y102.335
N665 X285.979 Y102.872
N670 X285.985 Y103.424
N675 X285.975 Y103.965
N680 X285.926 Y104.501
N685 X285.856 Y105.057
N690 X285.76 Y105.605
N695 X285.713 Y105.815
N700 X285.476 Y106.687
N705 X285.287 Y107.231
N710 X285.168 Y107.538
N715 X284.833 Y108.282
N720 G3 X284.399 Y108.412 I-0.274 J-0.123
N725 G1 X282.953 Y107.494
N730 X282.902 Y107.468
N735 X276.472 Y104.942
N740 X276.348 Y104.961
N745 X276.329 Y104.958
N750 X276.317 Y104.945
N755 G3 X283.634 Y101.711 Z-3.766 I3.659 J-1.617
N760 X283.975 Y103.328 Z-4. I-3.659 J1.617
N765 X276.636 I-3.67 J0.
N770 X276.964 I0.164 J0.
N775 X273.036 I-1.964 J0.
N780 X280.564 I3.764 J0.
N785 X269.436 I-5.564 J0.
N790 X280.564 I5.564 J0.
N795 G2 X281.808 Y105.994 I3.478 J0.
N800 G3 X282.144 Y108.917 I-1.372 J1.638
N805 G1 X281.883 Y109.263
N810 X281.446 Y109.754
N815 X280.571 Y110.491
N820 X279.625 Y111.099
N825 X279.108 Y111.374
N830 X278.576 Y111.612
N835 X278.041 Y111.817
N840 X277.52 Y111.98
N845 X276.993 Y112.104
N850 X276.449 Y112.204
N855 X275.916 Y112.275
N860 X275.393 Y112.311
N865 X274.856 Y112.315
N870 X274.312 Y112.294
N875 X273.791 Y112.247
N880 X273.269 Y112.159
N885 X272.732 Y112.041
N890 X272.12 Y111.867
N895 X271.669 Y111.713
N900 X271.126 Y111.482
N905 X270.823 Y111.34
N910 X270.622 Y111.233
N915 X270.067 Y110.916
N920 X269.533 Y110.564
N925 X269.003 Y110.159
N930 X268.583 Y109.784
N935 X267.848 Y108.911
N940 X267.382 Y108.192
N945 X267.062 Y107.651
N950 X266.809 Y107.135
N955 X266.598 Y106.614
N960 X266.401 Y106.016
N965 X266.275 Y105.543
N970 X266.159 Y105.011
N975 X266.082 Y104.488
N980 X266.034 Y103.949
N985 X266.011 Y103.406
N990 X266.017 Y102.883
N995 X266.061 Y102.358
N1000 X266.133 Y101.814
N1005 X266.23 Y101.286
N1010 X266.401 Y100.627
N1015 X266.533 Y100.242
N1020 X266.749 Y99.681
N1025 X266.933 Y99.259
N1030 X267.265 Y98.631
N1035 X267.598 Y98.104
N1040 X267.994 Y97.56
N1045 X268.54 Y96.916
N1050 X269.406 Y96.186
N1055 X270.093 Y95.739
N1060 X270.494 Y95.483
N1065 X271.134 Y95.162
N1070 X271.655 Y94.951
N1075 X272.193 Y94.768
N1080 X272.735 Y94.616
N1085 X273.258 Y94.497
N1090 X273.781 Y94.42
N1095 X274.327 Y94.367
N1100 X274.863 Y94.339
N1105 X275.385 Y94.345
N1110 X275.929 Y94.386
N1115 X276.326 Y94.429
N1120 X276.985 Y94.544
N1125 X277.505 Y94.677
N1130 X278.065 Y94.854
N1135 X278.372 Y94.959
N1140 X279.114 Y95.285
N1145 X279.633 Y95.56
N1150 X280.383 Y96.03
N1155 X280.701 Y96.27
N1160 X281.066 Y96.56
N1165 X281.404 Y96.86
N1170 X282.139 Y97.73
N1175 X282.37 Y98.08
N1180 X282.789 Y98.733
N1185 X283.014 Y99.159
N1190 X283.262 Y99.698
N1195 X283.469 Y100.227
N1200 X283.633 Y100.749
N1205 X283.766 Y101.296
N1210 X283.842 Y101.652
N1215 X283.942 Y102.354
N1220 X283.978 Y102.876
N1225 X283.987 Y103.419
N1230 X283.97 Y103.957
N1235 X283.923 Y104.478
N1240 X283.839 Y105.007
N1245 X283.724 Y105.548
N1250 X283.584 Y106.077
N1255 X283.399 Y106.614
N1260 X283.316 Y106.827
N1265 X283.188 Y107.122
N1270 X282.915 Y107.686
N1275 X282.777 Y107.947
N1280 X282.634 Y108.188
N1285 X282.241 Y108.788
N1290 X282.144 Y108.917
N1295 G3 X281.694 Y108.95 I-0.24 J-0.18
N1300 G1 X278.368 Y105.677
N1305 X278.317 Y105.637
N1310 X278.259 Y105.609
N1315 X278.197 Y105.594
N1320 X274.539 Y105.12
N1325 G3 X274.303 Y104.943 I0.039 J-0.298
N1330 X281.621 Y101.71 Z-5.766 I3.659 J-1.617
N1335 X281.962 Y103.327 Z-6. I-3.659 J1.617
N1340 X275.034 I-3.464 J0.
N1345 X278.565 I1.766 J0.
N1350 X271.434 I-3.566 J0.
N1355 X278.565 I3.566 J0.
N1360 G2 X279.736 Y105.868 I3.343 J0.
N1365 G3 X279.708 Y108.666 I-1.186 J1.387
N1370 G1 X279.394 Y108.924
N1375 X278.99 Y109.177
N1380 X278.435 Y109.502
N1385 X277.95 Y109.729
N1390 X277.435 Y109.924
N1395 X276.921 Y110.079
N1400 X276.41 Y110.192
N1405 X275.898 Y110.268
N1410 X275.379 Y110.309
N1415 X274.86 Y110.317
N1420 X274.342 Y110.29
N1425 X273.826 Y110.229
N1430 X273.312 Y110.132
N1435 X272.798 Y109.998
N1440 X272.283 Y109.823
N1445 X271.77 Y109.605
N1450 X271.256 Y109.34
N1455 X270.744 Y109.021
N1460 X270.226 Y108.634
N1465 X269.961 Y108.403
N1470 X269.41 Y107.729
N1475 X268.956 Y107.005
N1480 X268.697 Y106.5
N1485 X268.488 Y105.996
N1490 X268.262 Y105.296
N1495 X268.19 Y104.981
N1500 X268.093 Y104.445
N1505 X268.034 Y103.926
N1510 X268.009 Y103.407
N1515 X268.018 Y102.891
N1520 X268.063 Y102.383
N1525 X268.147 Y101.872
N1530 X268.262 Y101.378
N1535 X268.428 Y100.84
N1540 X268.634 Y100.312
N1545 X268.78 Y99.99
N1550 X268.863 Y99.831
N1555 X269.19 Y99.262
N1560 X269.294 Y99.093
N1565 X269.515 Y98.79
N1570 X269.81 Y98.421
N1575 X269.927 Y98.29
N1580 X270.609 Y97.732
N1585 X271.264 Y97.322
N1590 X271.775 Y97.053
N1595 X272.337 Y96.816
N1600 X272.793 Y96.664
N1605 X273.312 Y96.528
N1610 X273.83 Y96.43
N1615 X274.349 Y96.366
N1620 X274.867 Y96.337
N1625 X275.377 Y96.343
N1630 X275.887 Y96.387
N1635 X276.403 Y96.467
N1640 X276.918 Y96.583
N1645 X277.463 Y96.748
N1650 X277.668 Y96.816
N1655 X277.926 Y96.924
N1660 X278.486 Y97.186
N1665 X278.766 Y97.332
N1670 X278.95 Y97.446
N1675 X279.542 Y97.848
N1680 X280.019 Y98.239
N1685 X280.578 Y98.915
N1690 X280.955 Y99.511
N1695 X281.137 Y99.818
N1700 X281.379 Y100.325
N1705 X281.579 Y100.838
N1710 X281.735 Y101.348
N1715 X281.851 Y101.86
N1720 X281.931 Y102.377
N1725 X281.977 Y102.896
N1730 X281.988 Y103.415
N1735 X281.966 Y103.933
N1740 X281.91 Y104.449
N1745 X281.817 Y104.963
N1750 X281.688 Y105.474
N1755 X281.517 Y105.985
N1760 X281.301 Y106.5
N1765 X281.038 Y107.018
N1770 X280.724 Y107.535
N1775 X280.352 Y108.05
N1780 X280.092 Y108.351
N1785 X279.708 Y108.666
N1790 G3 X279.232 Y108.525 I-0.19 J-0.232
N1795 G1 X277.147 Y101.923
N1800 G3 X277.707 Y101.711 I0.286 J-0.09
N1805 X270.39 Y104.945 Z-7.766 I-3.659 J1.617
N1810 X270.048 Y103.328 Z-8. I3.659 J-1.617
N1815 X276.565 I3.259 J0.
N1820 X273.433 I-1.566 J0.
N1825 X276.565 I1.566 J0.
N1830 G2 X277.714 Y105.335 I2.327 J0.
N1835 G3 X277.728 Y107.648 I-0.681 J1.161
N1840 G1 X277.706 Y107.661
N1845 X277.325 Y107.846
N1850 X276.825 Y108.034
N1855 X276.467 Y108.139
N1860 X275.849 Y108.258
N1865 X275.357 Y108.307
N1870 X274.863 Y108.319
N1875 X274.371 Y108.287
N1880 X273.883 Y108.217
N1885 X273.397 Y108.099
N1890 X272.909 Y107.937
N1895 X272.391 Y107.705
N1900 X272.295 Y107.657
N1905 X271.93 Y107.451
N1910 X271.423 Y107.099
N1915 X271.362 Y107.049
N1920 X271.071 Y106.687
N1925 X271.035 Y106.642
N1930 X270.867 Y106.365
N1935 X270.622 Y105.943
N1940 X270.372 Y105.366
N1945 X270.214 Y104.88
N1950 X270.102 Y104.392
N1955 X270.035 Y103.903
N1960 X270.008 Y103.412
N1965 X270.023 Y102.918
N1970 X270.079 Y102.409
N1975 X270.133 Y102.104
N1980 X270.166 Y101.97
N1985 X270.322 Y101.444
N1990 X270.51 Y100.951
N1995 X270.748 Y100.477
N2000 X271.128 Y99.894
N2005 X271.277 Y99.694
N2010 X271.287 Y99.683
N2015 X271.324 Y99.651
N2020 X271.682 Y99.368
N2025 X272.006 Y99.17
N2030 X272.422 Y98.933
N2035 X272.935 Y98.709
N2040 X273.016 Y98.678
N2045 X273.383 Y98.563
N2050 X273.887 Y98.442
N2055 X274.378 Y98.367
N2060 X274.864 Y98.336
N2065 X275.357 Y98.347
N2070 X275.849 Y98.397
N2075 X276.328 Y98.489
N2080 X276.98 Y98.682
N2085 X277.315 Y98.812
N2090 X277.825 Y99.061
N2095 X277.984 Y99.154
N2100 X278.286 Y99.351
N2105 X278.668 Y99.641
N2110 X278.987 Y100.051
N2115 X279.236 Y100.463
N2120 X279.499 Y100.969
N2125 X279.687 Y101.445
N2130 X279.825 Y101.929
N2135 X279.921 Y102.422
N2140 X279.975 Y102.917
N2145 X279.99 Y103.411
N2150 X279.963 Y103.904
N2155 X279.896 Y104.397
N2160 X279.786 Y104.884
N2165 X279.631 Y105.365
N2170 X279.418 Y105.853
N2175 X279.105 Y106.425
N2180 X278.814 Y106.848
N2185 X278.707 Y106.98
N2190 X278.294 Y107.306
N2195 X277.728 Y107.648
N2200 X277.691 Y107.661
N2205 X277.652
N2210 X277.615 Y107.646
N2215 X277.587 Y107.619
N2220 X277.57 Y107.583
N2225 X277.441 Y107.079
N2230 X275.16 Y101.579
N2235 X274.702 Y100.643
N2240 G3 X274.888 Y100.332 I0.194 J-0.095
N2245 X275.108 Y106.321 Z-9.323 I0.11 J2.995
N2250 X272.001 Y103.327 Z-10. I-0.11 J-2.995
N2255 X275.807 I1.903 J0.
N2260 X274.189 I-0.809 J0.
N2265 X275.807 I0.809 J0.
N2270 G2 X276.585 Y104.565 I1.375 J0.
N2275 G3 X276.56 Y106.028 I-0.349 J0.726
N2280 G1 X276.451 Y106.076
N2285 X276.265 Y106.138
N2290 X275.721 Y106.273
N2295 X275.564 Y106.295
N2300 X275.361 Y106.311
N2305 X274.87 Y106.331
N2310 X274.386 Y106.287
N2315 X274.251 Y106.268
N2320 X274.16 Y106.25
N2325 X273.513 Y106.06
N2330 X272.962 Y105.803
N2335 X272.936 Y105.788
N2340 X272.696 Y105.626
N2345 X272.462 Y105.247
N2350 X272.248 Y104.765
N2355 X272.109 Y104.285
N2360 X272.062 Y104.08
N2365 X272.033 Y103.885
N2370 X271.996 Y103.373
N2375 Y103.234
N2380 X272.009 Y103.054
N2385 X272.043 Y102.697
N2390 X272.071 Y102.53
N2395 X272.283 Y101.809
N2400 X272.535 Y101.28
N2405 X272.705 Y101.024
N2410 X273.073 Y100.795
N2415 X273.544 Y100.583
N2420 X273.655 Y100.543
N2425 X273.947 Y100.462
N2430 X274.424 Y100.366
N2435 X274.904 Y100.328
N2440 X275.096 Y100.325
N2445 X275.305 Y100.341
N2450 X275.772 Y100.396
N2455 X276.496 Y100.602
N2460 X277.027 Y100.851
N2465 X277.308 Y101.037
N2470 X277.521 Y101.38
N2475 X277.622 Y101.588
N2480 X277.751 Y101.885
N2485 X277.794 Y102.011
N2490 X277.924 Y102.514
N2495 X277.958 Y102.706
N2500 X277.978 Y102.921
N2505 X278.002 Y103.406
N2510 X277.963 Y103.888
N2515 X277.937 Y104.09
N2520 X277.893 Y104.283
N2525 X277.734 Y104.818
N2530 X277.72 Y104.852
N2535 X277.539 Y105.228
N2540 X277.439 Y105.421
N2545 X277.296 Y105.633
N2550 X276.979 Y105.832
N2555 X276.859 Y105.897
N2560 X276.56 Y106.028
N2565 G3 X276.158 Y105.857 I-0.121 J-0.275
N2570 G1 X275.573 Y104.275
N2575 X275.557 Y104.24
N2580 X275.538 Y104.207
N2585 X275.514 Y104.166
N2590 X275.497 Y104.122
N2595 X275.487 Y104.076
N2600 X275.369 Y103.213
N2605 G3 X275.958 Y103.103 I0.297 J-0.04
N2610 X274.044 Y103.559 Z-10.434 I-0.957 J0.228
N2615 X275.958 Y103.103 Z-10.869 I0.957 J-0.228
N2620 X274.044 Y103.559 Z-11.303 I-0.957 J0.228
N2625 X275.958 Y103.103 Z-11.738 I0.957 J-0.228
N2630 X274.912 Y104.311 Z-12. I-0.957 J0.228
N2635 G1 X274.56 Y104.279
N2640 X274.153 Y104.168
N2645 X274.046 Y103.763
N2650 X274.044 Y103.745
N2655 X274.01 Y103.295
N2660 X274.054 Y102.857
N2665 X274.156 Y102.485
N2670 X274.187 Y102.472
N2675 X274.542 Y102.38
N2680 X275.051 Y102.34
N2685 X275.439 Y102.378
N2690 X275.843 Y102.486
N2695 X275.858 Y102.522
N2700 X275.956 Y102.906
N2705 X275.991 Y103.342
N2710 X275.95 Y103.779
N2715 X275.843 Y104.173
N2720 X275.815 Y104.185
N2725 X275.432 Y104.284
N2730 X274.996 Y104.319
N2735 X274.912 Y104.311
N2740 X274.879 Y104.303
N2745 X274.85 Y104.284
N2750 X274.828 Y104.257
N2755 X274.817 Y104.224
N2760 X274.816 Y104.19
N2765 X274.883 Y103.712
N2770 X274.882 Y103.676
N2775 X274.87 Y103.643
N2780 X274.847 Y103.616
N2785 X274.817 Y103.598
N2790 X274.574 Y103.501
N2795 X274.544 Y103.483
N2800 X274.521 Y103.455
N2805 X274.509 Y103.422
N2810 G3 X275.491 Y103.236 Z-12.221 I0.491 J-0.093
N2815 X274.509 Y103.422 Z-12.442 I-0.491 J0.093
N2820 X275.491 Y103.236 Z-12.662 I0.491 J-0.093
N2825 X274.509 Y103.422 Z-12.883 I-0.491 J0.093
N2830 X275.491 Y103.236 Z-13.104 I0.491 J-0.093
N2835 X274.509 Y103.422 Z-13.325 I-0.491 J0.093
N2840 X275.491 Y103.236 Z-13.545 I0.491 J-0.093
N2845 X274.509 Y103.422 Z-13.766 I-0.491 J0.093
N2850 X274.953 Y102.831 Z-13.883 I0.491 J-0.093
N2855 X275.5 Y103.329 Z-14. I0.047 J0.498
N2860 G1 Y103.829
N2865 X274.5
N2870 Y102.829
N2875 X275.5
N2880 Y103.329
N2885 X275.493 Y103.359
N2890 X275.474 Y103.384
N2895 X275.445 Y103.398
N2900 X275.414
N2905 X275.386 Y103.385
N2910 X275.13 Y103.186
N2915 X274.908 Y102.95
N2920 X274.892 Y102.923
N2925 X274.89 Y102.892
N2930 X274.901 Y102.863
N2935 X274.923 Y102.841
N2940 X274.953 Y102.831
N2945 G3 X275.047 Y103.827 Z-14.221 I0.047 J0.498
N2950 X274.953 Y102.831 Z-14.442 I-0.047 J-0.498
N2955 X275.047 Y103.827 Z-14.662 I0.047 J0.498
N2960 X274.953 Y102.831 Z-14.883 I-0.047 J-0.498
N2965 X275.5 Y103.329 Z-15. I0.047 J0.498
N2970 G1 Y103.829
N2975 X274.5
N2980 Y102.829
N2985 X275.5
N2990 Y103.329
N2995 G19 G3 Y103.829 Z-14.732 J0. K0.6
N3000 G18 G3 X275.4 Z-14.4 I0.5 K0.332
N3005 G1 Z5.
N3010 X300.735 Y103.879
N3015 Z1.598
N3020 X300.732 Y103.861 Z1.451
N3025 X300.725 Y103.807 Z1.312
N3030 X300.716 Y103.721 Z1.191
N3035 X300.706 Y103.608 Z1.095
N3040 X300.699 Y103.474 Z1.03
N3045 X300.697 Y103.329 Z1.
N3050 G17 G3 X308.697 Z0. I4. J0.
N3055 X300.697 Z-1. I-4. J0.
N3060 X308.697 Z-2. I4. J0.
N3065 X307.971 I-0.363 J0.
N3070 X312.297 I2.163 J0.
N3075 X304.371 I-3.963 J0.
N3080 X315.897 I5.763 J0.
N3085 X300.771 I-7.563 J0.
N3090 X315.897 I7.563 J0.
N3095 G2 X317.295 Y105.685 I2.684 J0.
N3100 G3 X318.167 Y108.282 I-0.965 J1.769
N3105 G1 X318.151 Y108.316
N3110 X317.863 Y108.85
N3115 X317.517 Y109.416
N3120 X317.386 Y109.618
N3125 X317.157 Y109.943
N3130 X316.738 Y110.49
N3135 X316.253 Y111.03
N3140 X316.043 Y111.238
N3145 X315.086 Y112.057
N3150 X314.131 Y112.681
N3155 X313.583 Y113.011
N3160 X313.062 Y113.277
N3165 X312.525 Y113.503
N3170 X311.91 Y113.731
N3175 X311.434 Y113.883
N3180 X310.887 Y114.02
N3185 X310.341 Y114.138
N3190 X309.804 Y114.218
N3195 X309.246 Y114.277
N3200 X308.71 Y114.314
N3205 X308.167 Y114.313
N3210 X307.616 Y114.297
N3215 X307.081 Y114.248
N3220 X306.524 Y114.17
N3225 X305.99 Y114.078
N3230 X305.455 Y113.94
N3235 X304.899 Y113.778
N3240 X304.369 Y113.594
N3245 X303.41 Y113.181
N3250 X302.721 Y112.81
N3255 X302.452 Y112.646
N3260 X302.195 Y112.479
N3265 X301.633 Y112.086
N3270 X301.09 Y111.662
N3275 X300.556 Y111.178
N3280 X300.444 Y111.061
N3285 X299.608 Y110.084
N3290 X298.793 Y108.839
N3295 X298.394 Y108.073
N3300 X298.266 Y107.779
N3305 X298.038 Y107.228
N3310 X297.856 Y106.672
N3315 X297.701 Y106.135
N3320 X297.577 Y105.6
N3325 X297.481 Y105.046
N3330 X297.404 Y104.505
N3335 X297.366 Y103.968
N3340 X297.347 Y103.411
N3345 X297.352 Y102.875
N3350 X297.392 Y102.325
N3355 X297.446 Y101.783
N3360 X297.539 Y101.249
N3365 X297.659 Y100.692
N3370 X297.801 Y100.144
N3375 X297.846 Y100.001
N3380 X297.978 Y99.624
N3385 X298.19 Y99.063
N3390 X298.426 Y98.528
N3395 X298.715 Y97.972
N3400 X298.943 Y97.561
N3405 X299.377 Y96.891
N3410 X299.798 Y96.338
N3415 X300.026 Y96.058
N3420 X300.563 Y95.475
N3425 X300.75 Y95.307
N3430 X301.577 Y94.604
N3435 X302.756 Y93.833
N3440 X303.071 Y93.654
N3445 X303.824 Y93.285
N3450 X304.353 Y93.067
N3455 X304.902 Y92.88
N3460 X305.446 Y92.715
N3465 X306.099 Y92.564
N3470 X306.531 Y92.489
N3475 X307.076 Y92.408
N3480 X307.617 Y92.367
N3485 X308.17 Y92.341
N3490 X308.707 Y92.347
N3495 X309.264 Y92.381
N3500 X309.798 Y92.429
N3505 X310.586 Y92.565
N3510 X310.874 Y92.629
N3515 X311.423 Y92.772
N3520 X311.982 Y92.954
N3525 X312.42 Y93.106
N3530 X313.053 Y93.386
N3535 X313.606 Y93.665
N3540 X314.153 Y93.972
N3545 X314.688 Y94.319
N3550 X315.251 Y94.738
N3555 X315.797 Y95.194
N3560 X315.881 Y95.269
N3565 X316.297 Y95.68
N3570 X317.039 Y96.548
N3575 X317.374 Y97.053
N3580 X317.944 Y97.94
N3585 X318.24 Y98.519
N3590 X318.478 Y99.067
N3595 X318.691 Y99.613
N3600 X318.861 Y100.145
N3605 X319.023 Y100.768
N3610 X319.13 Y101.24
N3615 X319.21 Y101.777
N3620 X319.276 Y102.335
N3625 X319.313 Y102.872
N3630 X319.318 Y103.424
N3635 X319.308 Y103.965
N3640 X319.26 Y104.501
N3645 X319.189 Y105.057
N3650 X319.096 Y105.591
N3655 X318.963 Y106.135
N3660 X318.811 Y106.682
N3665 X318.622 Y107.226
N3670 X318.481 Y107.586
N3675 X318.167 Y108.282
N3680 G3 X317.732 Y108.412 I-0.273 J-0.123
N3685 G1 X316.292 Y107.496
N3690 X316.24 Y107.47
N3695 X309.801 Y104.941
N3700 X309.68 Y104.96
N3705 X309.662 Y104.958
N3710 X309.65 Y104.944
N3715 G3 X316.967 Y101.711 Z-3.766 I3.659 J-1.617
N3720 X317.309 Y103.328 Z-4. I-3.659 J1.617
N3725 X309.969 I-3.67 J0.
N3730 X310.297 I0.164 J0.
N3735 X306.369 I-1.964 J0.
N3740 X313.897 I3.764 J0.
N3745 X302.769 I-5.564 J0.
N3750 X313.897 I5.564 J0.
N3755 G2 X315.142 Y105.993 I3.477 J0.
N3760 G3 X315.478 Y108.916 I-1.372 J1.638
N3765 G1 X315.217 Y109.263
N3770 X314.78 Y109.753
N3775 X313.883 Y110.507
N3780 X312.939 Y111.112
N3785 X312.423 Y111.383
N3790 X311.891 Y111.62
N3795 X311.354 Y111.823
N3800 X310.833 Y111.987
N3805 X310.308 Y112.109
N3810 X309.763 Y112.207
N3815 X309.228 Y112.277
N3820 X308.705 Y112.312
N3825 X308.171 Y112.315
N3830 X307.625 Y112.292
N3835 X307.103 Y112.245
N3840 X306.583 Y112.156
N3845 X306.045 Y112.035
N3850 X305.454 Y111.867
N3855 X304.981 Y111.705
N3860 X304.44 Y111.473
N3865 X304.158 Y111.34
N3870 X303.934 Y111.222
N3875 X303.381 Y110.904
N3880 X302.847 Y110.549
N3885 X302.315 Y110.14
N3890 X301.916 Y109.784
N3895 X301.171 Y108.899
N3900 X300.716 Y108.193
N3905 X300.395 Y107.651
N3910 X300.142 Y107.135
N3915 X299.932 Y106.615
N3920 X299.714 Y105.948
N3925 X299.61 Y105.549
N3930 X299.492 Y105.011
N3935 X299.415 Y104.488
N3940 X299.367 Y103.949
N3945 X299.345 Y103.406
N3950 X299.35 Y102.884
N3955 X299.394 Y102.358
N3960 X299.466 Y101.814
N3965 X299.564 Y101.284
N3970 X299.713 Y100.701
N3975 X299.868 Y100.236
N3980 X300.083 Y99.681
N3985 X300.244 Y99.308
N3990 X300.601 Y98.628
N3995 X300.932 Y98.103
N4000 X301.319 Y97.571
N4005 X301.865 Y96.924
N4010 X302.788 Y96.148
N4015 X303.829 Y95.483
N4020 X304.446 Y95.172
N4025 X304.969 Y94.959
N4030 X305.508 Y94.774
N4035 X306.048 Y94.62
N4040 X306.57 Y94.501
N4045 X307.095 Y94.423
N4050 X307.641 Y94.368
N4055 X308.175 Y94.339
N4060 X308.698 Y94.345
N4065 X309.242 Y94.384
N4070 X309.662 Y94.43
N4075 X310.297 Y94.539
N4080 X310.817 Y94.672
N4085 X311.377 Y94.847
N4090 X311.707 Y94.96
N4095 X312.425 Y95.273
N4100 X312.945 Y95.549
N4105 X313.717 Y96.031
N4110 X314.012 Y96.253
N4115 X314.4 Y96.561
N4120 X314.725 Y96.849
N4125 X315.516 Y97.786
N4130 X316.101 Y98.7
N4135 X316.347 Y99.159
N4140 X316.629 Y99.783
N4145 X316.802 Y100.226
N4150 X316.965 Y100.745
N4155 X317.155 Y101.542
N4160 X317.276 Y102.357
N4165 X317.311 Y102.876
N4170 X317.32 Y103.419
N4175 X317.304 Y103.957
N4180 X317.257 Y104.477
N4185 X317.155 Y105.106
N4190 X317.059 Y105.543
N4195 X316.917 Y106.077
N4200 X316.734 Y106.609
N4205 X316.628 Y106.877
N4210 X316.521 Y107.122
N4215 X316.248 Y107.686
N4220 X316.089 Y107.986
N4225 X315.968 Y108.187
N4230 X315.612 Y108.738
N4235 X315.478 Y108.916
N4240 G3 X315.028 Y108.95 I-0.24 J-0.18
N4245 G1 X311.701 Y105.676
N4250 X311.651 Y105.636
N4255 X311.593 Y105.608
N4260 X311.53 Y105.593
N4265 X307.872 Y105.119
N4270 G3 X307.636 Y104.943 I0.039 J-0.298
N4275 X314.954 Y101.709 Z-5.766 I3.659 J-1.617
N4280 X315.295 Y103.326 Z-6. I-3.659 J1.617
N4285 X308.367 I-3.464 J0.
N4290 X311.898 I1.766 J0.
N4295 X304.767 I-3.566 J0.
N4300 X311.898 I3.566 J0.
N4305 G2 X313.071 Y105.867 I3.338 J0.
N4310 G3 X313.042 Y108.665 I-1.182 J1.387
N4315 G1 X312.718 Y108.93
N4320 X312.301 Y109.19
N4325 X311.765 Y109.504
N4330 X311.264 Y109.736
N4335 X310.749 Y109.93
N4340 X310.233 Y110.083
N4345 X309.723 Y110.197
N4350 X309.212 Y110.271
N4355 X308.694 Y110.311
N4360 X308.175 Y110.317
N4365 X307.657 Y110.289
N4370 X307.141 Y110.226
N4375 X306.626 Y110.128
N4380 X306.112 Y109.991
N4385 X305.598 Y109.815
N4390 X305.084 Y109.595
N4395 X304.574 Y109.329
N4400 X304.021 Y108.98
N4405 X303.534 Y108.613
N4410 X303.317 Y108.426
N4415 X303.292 Y108.398
N4420 X302.736 Y107.719
N4425 X302.29 Y107.006
N4430 X302.03 Y106.5
N4435 X301.82 Y105.992
N4440 X301.644 Y105.458
N4445 X301.579 Y105.227
N4450 X301.524 Y104.983
N4455 X301.426 Y104.445
N4460 X301.368 Y103.926
N4465 X301.343 Y103.407
N4470 X301.352 Y102.891
N4475 X301.396 Y102.383
N4480 X301.48 Y101.87
N4485 X301.582 Y101.43
N4490 X301.598 Y101.367
N4495 X301.761 Y100.841
N4500 X301.97 Y100.307
N4505 X302.093 Y100.03
N4510 X302.196 Y99.831
N4515 X302.522 Y99.263
N4520 X302.606 Y99.128
N4525 X302.853 Y98.783
N4530 X303.124 Y98.444
N4535 X303.259 Y98.291
N4540 X303.932 Y97.739
N4545 X304.59 Y97.327
N4550 X305.088 Y97.063
N4555 X305.672 Y96.815
N4560 X306.106 Y96.67
N4565 X306.627 Y96.532
N4570 X307.144 Y96.432
N4575 X307.663 Y96.368
N4580 X308.18 Y96.337
N4585 X308.689 Y96.342
N4590 X309.201 Y96.385
N4595 X309.717 Y96.464
N4600 X310.232 Y96.579
N4605 X310.776 Y96.74
N4610 X311.002 Y96.816
N4615 X311.238 Y96.915
N4620 X311.798 Y97.175
N4625 X312.099 Y97.332
N4630 X312.261 Y97.432
N4635 X312.876 Y97.848
N4640 X313.367 Y98.25
N4645 X313.91 Y98.912
N4650 X314.267 Y99.476
N4655 X314.471 Y99.82
N4660 X314.712 Y100.325
N4665 X314.912 Y100.838
N4670 X315.068 Y101.348
N4675 X315.184 Y101.858
N4680 X315.287 Y102.534
N4685 X315.31 Y102.88
N4690 X315.322 Y103.415
N4695 X315.3 Y103.933
N4700 X315.243 Y104.449
N4705 X315.151 Y104.963
N4710 X315.021 Y105.474
N4715 X314.85 Y105.985
N4720 X314.634 Y106.5
N4725 X314.371 Y107.018
N4730 X314.057 Y107.535
N4735 X313.686 Y108.048
N4740 X313.413 Y108.362
N4745 X313.042 Y108.665
N4750 G3 X312.717 Y108.701 I-0.19 J-0.232
N4755 G1 X308.137 Y106.398
N4760 X308.104 Y106.384
N4765 X308.069 Y106.373
N4770 G3 X309.873 Y98.579 Z-7.766 I0.902 J-3.897
N4775 X311.371 Y99.276 Z-8. I-0.902 J3.897
N4780 X307.393 Y104.581 I-1.989 J2.652
N4785 X309.272 Y102.075 I0.94 J-1.253
N4790 X307.393 Y104.581 I-0.94 J1.253
N4795 G2 X305.136 Y104.167 I-1.545 J2.06
N4800 G3 X303.382 Y102.688 I-0.382 J-1.327
N4805 G1 X303.413 Y102.399
N4810 X303.447 Y102.194
N4815 X303.501 Y101.965
N4820 X303.655 Y101.444
N4825 X303.843 Y100.951
N4830 X304.082 Y100.476
N4835 X304.441 Y99.921
N4840 X304.6 Y99.707
N4845 X304.627 Y99.675
N4850 X304.996 Y99.383
N4855 X305.346 Y99.167
N4860 X305.736 Y98.942
N4865 X306.247 Y98.717
N4870 X306.35 Y98.678
N4875 X306.695 Y98.569
N4880 X307.201 Y98.446
N4885 X307.693 Y98.37
N4890 X308.181 Y98.336
N4895 X308.672 Y98.345
N4900 X309.163 Y98.394
N4905 X309.648 Y98.485
N4910 X310.173 Y98.635
N4915 X310.295 Y98.675
N4920 X310.628 Y98.804
N4925 X311.141 Y99.052
N4930 X311.323 Y99.158
N4935 X311.599 Y99.337
N4940 X312.001 Y99.641
N4945 X312.316 Y100.043
N4950 X312.569 Y100.463
N4955 X312.838 Y100.98
N4960 X312.917 Y101.171
N4965 X313.017 Y101.434
N4970 X313.158 Y101.929
N4975 X313.254 Y102.422
N4980 X313.308 Y102.917
N4985 X313.324 Y103.411
N4990 X313.296 Y103.904
N4995 X313.23 Y104.397
N5000 X313.119 Y104.884
N5005 X312.964 Y105.365
N5010 X312.749 Y105.857
N5015 X312.463 Y106.389
N5020 X312.435 Y106.436
N5025 X312.154 Y106.839
N5030 X312.027 Y106.992
N5035 X311.609 Y107.317
N5040 X311.04 Y107.661
N5045 X310.639 Y107.854
N5050 X310.139 Y108.04
N5055 X309.802 Y108.138
N5060 X309.162 Y108.261
N5065 X308.672 Y108.309
N5070 X308.178 Y108.319
N5075 X307.685 Y108.286
N5080 X307.19 Y108.213
N5085 X306.895 Y108.144
N5090 X306.728 Y108.098
N5095 X306.223 Y107.929
N5100 X305.703 Y107.695
N5105 X305.629 Y107.658
N5110 X305.245 Y107.44
N5115 X304.739 Y107.085
N5120 X304.679 Y107.034
N5125 X304.356 Y106.623
N5130 X304.207 Y106.376
N5135 X303.911 Y105.85
N5140 X303.706 Y105.37
N5145 X303.548 Y104.88
N5150 X303.435 Y104.392
N5155 X303.368 Y103.903
N5160 X303.341 Y103.412
N5165 X303.356 Y102.918
N5170 X303.382 Y102.688
N5175 G3 X303.555 Y102.448 I0.298 J0.033
N5180 G1 X308.109 Y100.359
N5185 X308.165 Y100.34
N5190 X308.223 Y100.332
N5195 G3 X310.129 Y100.93 Z-8.286 I0.108 J2.995
N5200 Y105.725 Z-9.067 I-1.798 J2.398
N5205 X305.334 Y103.327 Z-10. I-1.798 J-2.398
N5210 X309.14 I1.903 J0.
N5215 X307.522 I-0.809 J0.
N5220 X309.14 I0.809 J0.
N5225 G2 X309.919 Y104.566 I1.374 J0.
N5230 G3 X309.892 Y106.028 I-0.349 J0.725
N5235 G1 X309.767 Y106.083
N5240 X309.581 Y106.144
N5245 X309.057 Y106.272
N5250 X308.891 Y106.295
N5255 X308.395 Y106.332
N5260 X308.211
N5265 X307.702 Y106.285
N5270 X307.59 Y106.269
N5275 X307.486 Y106.248
N5280 X306.827 Y106.052
N5285 X306.296 Y105.804
N5290 X306.264 Y105.785
N5295 X306.027 Y105.625
N5300 X305.903 Y105.429
N5305 X305.781 Y105.218
N5310 X305.582 Y104.766
N5315 X305.442 Y104.285
N5320 X305.395 Y104.08
N5325 X305.367 Y103.885
N5330 X305.33 Y103.38
N5335 X305.331 Y103.195
N5340 X305.377 Y102.694
N5345 X305.404 Y102.53
N5350 X305.617 Y101.806
N5355 X305.798 Y101.424
N5360 X305.855 Y101.302
N5365 X306.043 Y101.019
N5370 X306.081 Y100.994
N5375 X306.393 Y100.802
N5380 X306.609 Y100.699
N5385 X306.849 Y100.593
N5390 X306.991 Y100.542
N5395 X307.261 Y100.467
N5400 X307.74 Y100.369
N5405 X308.22 Y100.329
N5410 X308.415 Y100.325
N5415 X308.621 Y100.34
N5420 X309.087 Y100.393
N5425 X309.823 Y100.599
N5430 X310.364 Y100.851
N5435 X310.417 Y100.883
N5440 X310.637 Y101.032
N5445 X310.855 Y101.381
N5450 X310.958 Y101.593
N5455 X311.065 Y101.835
N5460 X311.129 Y102.016
N5465 X311.257 Y102.514
N5470 X311.291 Y102.706
N5475 X311.311 Y102.921
N5480 X311.335 Y103.406
N5485 X311.297 Y103.888
N5490 X311.27 Y104.09
N5495 X311.228 Y104.278
N5500 X311.058 Y104.832
N5505 X310.87 Y105.232
N5510 X310.764 Y105.435
N5515 X310.631 Y105.633
N5520 X310.314 Y105.831
N5525 X310.184 Y105.901
N5530 X309.892 Y106.028
N5535 G3 X309.489 Y105.852 I-0.12 J-0.275
N5540 G1 X308.948 Y104.294
N5545 X308.927 Y104.248
N5550 X308.899 Y104.206
N5555 X307.845 Y102.88
N5560 G3 X307.968 Y102.415 I0.235 J-0.187
N5565 X308.701 Y104.245 Z-10.435 I0.366 J0.915
N5570 X307.968 Y102.415 Z-10.87 I-0.366 J-0.915
N5575 X308.701 Y104.245 Z-11.305 I0.366 J0.915
N5580 X307.968 Y102.415 Z-11.741 I-0.366 J-0.915
N5585 X309.317 Y103.252 Z-12. I0.366 J0.915
N5590 G1 X309.324 Y103.342
N5595 X309.283 Y103.779
N5600 X309.177 Y104.173
N5605 X308.767 Y104.283
N5610 X308.748 Y104.286
N5615 X308.31 Y104.32
N5620 X307.875 Y104.278
N5625 X307.486 Y104.172
N5630 X307.379 Y103.763
N5635 X307.377 Y103.745
N5640 X307.343 Y103.295
N5645 X307.387 Y102.857
N5650 X307.49 Y102.484
N5655 X307.508 Y102.476
N5660 X307.923 Y102.372
N5665 X308.355 Y102.338
N5670 X308.817 Y102.386
N5675 X309.179 Y102.485
N5680 X309.186 Y102.504
N5685 X309.289 Y102.906
N5690 X309.317 Y103.252
N5695 X309.313 Y103.295
N5700 X309.294 Y103.334
N5705 X309.262 Y103.364
N5710 X309.222 Y103.382
N5715 X309.179 Y103.385
N5720 X308.603 Y103.317
N5725 X308.575
N5730 X308.547 Y103.324
N5735 X308.005 Y103.516
N5740 X307.963 Y103.523
N5745 X307.921 Y103.515
N5750 X307.885 Y103.494
N5755 X307.857 Y103.462
N5760 X307.842 Y103.422
N5765 G3 X308.825 Y103.236 Z-12.221 I0.491 J-0.093
N5770 X307.842 Y103.422 Z-12.442 I-0.491 J0.093
N5775 X308.825 Y103.236 Z-12.662 I0.491 J-0.093
N5780 X307.842 Y103.422 Z-12.883 I-0.491 J0.093
N5785 X308.825 Y103.236 Z-13.104 I0.491 J-0.093
N5790 X307.842 Y103.422 Z-13.325 I-0.491 J0.093
N5795 X308.825 Y103.236 Z-13.545 I0.491 J-0.093
N5800 X307.842 Y103.422 Z-13.766 I-0.491 J0.093
N5805 X308.287 Y102.831 Z-13.883 I0.491 J-0.093
N5810 X308.833 Y103.329 Z-14. I0.047 J0.498
N5815 G1 Y103.829
N5820 X307.833
N5825 Y102.829
N5830 X308.833
N5835 Y103.329
N5840 X308.826 Y103.359
N5845 X308.807 Y103.384
N5850 X308.779 Y103.398
N5855 X308.747
N5860 X308.719 Y103.385
N5865 X308.464 Y103.186
N5870 X308.242 Y102.95
N5875 X308.226 Y102.923
N5880 X308.223 Y102.892
N5885 X308.234 Y102.863
N5890 X308.257 Y102.841
N5895 X308.287 Y102.831
N5900 G3 X308.38 Y103.827 Z-14.221 I0.047 J0.498
N5905 X308.287 Y102.831 Z-14.442 I-0.047 J-0.498
N5910 X308.38 Y103.827 Z-14.662 I0.047 J0.498
N5915 X308.287 Y102.831 Z-14.883 I-0.047 J-0.498
N5920 X308.833 Y103.329 Z-15. I0.047 J0.498
N5925 G1 Y103.829
N5930 X307.833
N5935 Y102.829
N5940 X308.833
N5945 Y103.329
N5950 G19 G3 Y103.829 Z-14.732 J0. K0.6
N5955 G18 G3 X308.733 Z-14.4 I0.5 K0.332
N5960 G1 Z5.
N5965 X334.068 Y103.879
N5970 Z1.598
N5975 X334.066 Y103.861 Z1.451
N5980 X334.059 Y103.807 Z1.312
N5985 X334.049 Y103.721 Z1.191
N5990 X334.04 Y103.608 Z1.095
N5995 X334.033 Y103.474 Z1.03
N6000 X334.03 Y103.329 Z1.
N6005 G17 G3 X342.03 Z0. I4. J0.
N6010 X334.03 Z-1. I-4. J0.
N6015 X342.03 Z-2. I4. J0.
N6020 X341.304 I-0.363 J0.
N6025 X345.63 I2.163 J0.
N6030 X337.704 I-3.963 J0.
N6035 X349.23 I5.763 J0.
N6040 X334.104 I-7.563 J0.
N6045 X349.23 I7.563 J0.
N6050 G2 X350.63 Y105.684 I2.681 J0.
N6055 G3 X351.5 Y108.282 I-0.961 J1.767
N6060 G1 X351.486 Y108.314
N6065 X351.197 Y108.85
N6070 X350.85 Y109.416
N6075 X350.698 Y109.651
N6080 X350.492 Y109.941
N6085 X350.071 Y110.49
N6090 X349.587 Y111.029
N6095 X349.366 Y111.247
N6100 X348.414 Y112.061
N6105 X347.444 Y112.695
N6110 X346.896 Y113.021
N6115 X346.374 Y113.287
N6120 X345.838 Y113.511
N6125 X345.245 Y113.731
N6130 X344.747 Y113.89
N6135 X344.202 Y114.024
N6140 X343.653 Y114.141
N6145 X343.116 Y114.221
N6150 X342.559 Y114.278
N6155 X342.022 Y114.315
N6160 X341.481 Y114.313
N6165 X340.929 Y114.295
N6170 X340.393 Y114.246
N6175 X339.837 Y114.167
N6180 X339.303 Y114.074
N6185 X338.769 Y113.936
N6190 X338.211 Y113.771
N6195 X337.68 Y113.586
N6200 X336.744 Y113.182
N6205 X336.042 Y112.803
N6210 X335.5 Y112.461
N6215 X334.947 Y112.071
N6220 X334.402 Y111.643
N6225 X333.872 Y111.162
N6230 X333.782 Y111.066
N6235 X332.941 Y110.084
N6240 X332.127 Y108.839
N6245 X331.71 Y108.039
N6250 X331.371 Y107.226
N6255 X331.168 Y106.602
N6260 X331.035 Y106.138
N6265 X330.91 Y105.599
N6270 X330.814 Y105.046
N6275 X330.737 Y104.505
N6280 X330.7 Y103.968
N6285 X330.68 Y103.411
N6290 X330.686 Y102.875
N6295 X330.725 Y102.325
N6300 X330.78 Y101.783
N6305 X330.872 Y101.249
N6310 X330.991 Y100.697
N6315 X331.168 Y100.036
N6320 X331.311 Y99.624
N6325 X331.523 Y99.063
N6330 X331.759 Y98.528
N6335 X332.051 Y97.968
N6340 X332.256 Y97.593
N6345 X332.71 Y96.891
N6350 X333.134 Y96.336
N6355 X333.34 Y96.079
N6360 X333.875 Y95.494
N6365 X334.084 Y95.306
N6370 X334.894 Y94.617
N6375 X336.069 Y93.846
N6380 X336.408 Y93.652
N6385 X337.135 Y93.295
N6390 X337.666 Y93.076
N6395 X338.216 Y92.886
N6400 X338.759 Y92.72
N6405 X339.433 Y92.564
N6410 X339.842 Y92.493
N6415 X340.388 Y92.411
N6420 X340.932 Y92.369
N6425 X341.483 Y92.341
N6430 X342.019 Y92.347
N6435 X342.576 Y92.379
N6440 X343.11 Y92.427
N6445 X343.923 Y92.565
N6450 X344.186 Y92.624
N6455 X344.736 Y92.767
N6460 X345.295 Y92.947
N6465 X345.753 Y93.106
N6470 X346.365 Y93.376
N6475 X346.92 Y93.655
N6480 X347.465 Y93.959
N6485 X348. Y94.305
N6490 X348.586 Y94.74
N6495 X349.108 Y95.174
N6500 X349.216 Y95.271
N6505 X349.609 Y95.657
N6510 X350.372 Y96.548
N6515 X350.686 Y97.021
N6520 X351.256 Y97.898
N6525 X351.573 Y98.519
N6530 X351.812 Y99.067
N6535 X352.025 Y99.613
N6540 X352.195 Y100.147
N6545 X352.341 Y100.703
N6550 X352.464 Y101.241
N6555 X352.544 Y101.777
N6560 X352.609 Y102.335
N6565 X352.646 Y102.872
N6570 X352.651 Y103.424
N6575 X352.642 Y103.965
N6580 X352.593 Y104.501
N6585 X352.522 Y105.057
N6590 X352.429 Y105.591
N6595 X352.297 Y106.135
N6600 X352.145 Y106.682
N6605 X351.958 Y107.217
N6610 X351.732 Y107.771
N6615 X351.5 Y108.282
N6620 G3 X351.065 Y108.41 I-0.273 J-0.124
N6625 G1 X349.655 Y107.507
N6630 X349.603 Y107.48
N6635 X343.131 Y104.941
N6640 X343.013 Y104.96
N6645 X342.995 Y104.957
N6650 X342.983 Y104.944
N6655 G3 X350.301 Y101.711 Z-3.766 I3.659 J-1.617
N6660 X350.642 Y103.327 Z-4. I-3.659 J1.617
N6665 X343.303 I-3.67 J0.
N6670 X343.631 I0.164 J0.
N6675 X339.703 I-1.964 J0.
N6680 X347.231 I3.764 J0.
N6685 X336.103 I-5.564 J0.
N6690 X347.231 I5.564 J0.
N6695 G2 X348.607 Y105.619 I2.596 J0.
N6700 G3 X349.285 Y108.205 I-0.855 J1.606
N6705 G1 X348.942 Y108.742
N6710 X348.55 Y109.263
N6715 X348.112 Y109.754
N6720 X347.256 Y110.476
N6725 X347.106 Y110.578
N6730 X346.252 Y111.125
N6735 X345.738 Y111.393
N6740 X345.205 Y111.628
N6745 X344.666 Y111.83
N6750 X344.145 Y111.993
N6755 X343.622 Y112.113
N6760 X343.078 Y112.209
N6765 X342.541 Y112.278
N6770 X342.018 Y112.314
N6775 X341.485 Y112.315
N6780 X340.939 Y112.29
N6785 X340.416 Y112.241
N6790 X339.896 Y112.152
N6795 X339.358 Y112.03
N6800 X338.787 Y111.867
N6805 X338.294 Y111.698
N6810 X337.754 Y111.465
N6815 X337.492 Y111.341
N6820 X337.246 Y111.21
N6825 X336.695 Y110.891
N6830 X336.154 Y110.529
N6835 X335.805 Y110.266
N6840 X335.64 Y110.133
N6845 X335.25 Y109.784
N6850 X334.494 Y108.887
N6855 X334.05 Y108.194
N6860 X333.729 Y107.651
N6865 X333.476 Y107.135
N6870 X333.265 Y106.616
N6875 X333.026 Y105.882
N6880 X332.945 Y105.555
N6885 X332.826 Y105.011
N6890 X332.749 Y104.488
N6895 X332.701 Y103.949
N6900 X332.678 Y103.406
N6905 X332.683 Y102.883
N6910 X332.727 Y102.358
N6915 X332.8 Y101.814
N6920 X332.897 Y101.284
N6925 X333.025 Y100.784
N6930 X333.204 Y100.229
N6935 X333.416 Y99.681
N6940 X333.564 Y99.34
N6945 X333.644 Y99.174
N6950 X333.932 Y98.631
N6955 X334.265 Y98.103
N6960 X334.651 Y97.572
N6965 X335.195 Y96.932
N6970 X335.337 Y96.806
N6975 X336.099 Y96.164
N6980 X337.163 Y95.482
N6985 X337.758 Y95.183
N6990 X338.291 Y94.964
N6995 X338.822 Y94.78
N7000 X339.361 Y94.625
N7005 X339.883 Y94.506
N7010 X340.41 Y94.426
N7015 X340.956 Y94.369
N7020 X341.488 Y94.339
N7025 X342.01 Y94.345
N7030 X342.555 Y94.382
N7035 X342.996 Y94.43
N7040 X343.609 Y94.535
N7045 X344.131 Y94.667
N7050 X344.69 Y94.84
N7055 X345.042 Y94.96
N7060 X345.737 Y95.262
N7065 X346.261 Y95.54
N7070 X346.823 Y95.883
N7075 X347.041 Y96.024
N7080 X347.322 Y96.236
N7085 X347.732 Y96.559
N7090 X348.085 Y96.876
N7095 X348.83 Y97.76
N7100 X349.414 Y98.668
N7105 X349.684 Y99.165
N7110 X349.941 Y99.729
N7115 X350.135 Y100.227
N7120 X350.298 Y100.746
N7125 X350.47 Y101.461
N7130 X350.532 Y101.814
N7135 X350.609 Y102.353
N7140 X350.644 Y102.876
N7145 X350.653 Y103.419
N7150 X350.637 Y103.957
N7155 X350.59 Y104.476
N7160 X350.468 Y105.227
N7165 X350.396 Y105.53
N7170 X350.25 Y106.077
N7175 X350.071 Y106.599
N7180 X349.849 Y107.133
N7185 X349.582 Y107.686
N7190 X349.409 Y108.011
N7195 X349.285 Y108.205
N7200 G3 X348.847 Y108.279 I-0.253 J-0.162
N7205 G1 X345.217 Y105.409
N7210 X345.167 Y105.38
N7215 X345.113 Y105.36
N7220 X345.057 Y105.351
N7225 X341.226 Y105.12
N7230 G3 X340.97 Y104.942 I0.018 J-0.299
N7235 X348.287 Y101.708 Z-5.766 I3.659 J-1.617
N7240 X348.629 Y103.325 Z-6. I-3.659 J1.617
N7245 X341.7 I-3.464 J0.
N7250 X345.231 I1.766 J0.
N7255 X338.1 I-3.566 J0.
N7260 X345.231 I3.566 J0.
N7265 G2 X346.405 Y105.866 I3.335 J0.
N7270 G3 X346.375 Y108.664 I-1.18 J1.387
N7275 G1 X346.04 Y108.936
N7280 X345.614 Y109.203
N7285 X345.08 Y109.513
N7290 X344.578 Y109.744
N7295 X344.063 Y109.936
N7300 X343.548 Y110.087
N7305 X343.035 Y110.2
N7310 X342.524 Y110.274
N7315 X342.008 Y110.312
N7320 X341.489 Y110.317
N7325 X340.972 Y110.287
N7330 X340.455 Y110.223
N7335 X339.933 Y110.121
N7340 X339.505 Y110.011
N7345 X338.911 Y109.806
N7350 X338.398 Y109.585
N7355 X337.886 Y109.316
N7360 X337.357 Y108.981
N7365 X336.845 Y108.594
N7370 X336.65 Y108.426
N7375 X336.618 Y108.39
N7380 X336.07 Y107.719
N7385 X335.623 Y107.006
N7390 X335.363 Y106.5
N7395 X335.153 Y105.992
N7400 X334.98 Y105.468
N7405 X334.891 Y105.134
N7410 X334.857 Y104.983
N7415 X334.76 Y104.445
N7420 X334.701 Y103.926
N7425 X334.676 Y103.407
N7430 X334.685 Y102.891
N7435 X334.73 Y102.383
N7440 X334.814 Y101.867
N7445 X334.893 Y101.519
N7450 X334.931 Y101.367
N7455 X335.094 Y100.841
N7460 X335.305 Y100.3
N7465 X335.406 Y100.069
N7470 X335.529 Y99.831
N7475 X335.855 Y99.264
N7480 X335.918 Y99.163
N7485 X336.191 Y98.778
N7490 X336.436 Y98.467
N7495 X336.591 Y98.292
N7500 X337.255 Y97.748
N7505 X337.925 Y97.326
N7510 X338.4 Y97.073
N7515 X339.008 Y96.814
N7520 X339.419 Y96.676
N7525 X339.941 Y96.536
N7530 X340.459 Y96.435
N7535 X340.978 Y96.369
N7540 X341.492 Y96.337
N7545 X342.002 Y96.342
N7550 X342.516 Y96.384
N7555 X343.032 Y96.461
N7560 X343.547 Y96.574
N7565 X344.088 Y96.733
N7570 X344.335 Y96.816
N7575 X344.551 Y96.906
N7580 X345.111 Y97.164
N7585 X345.433 Y97.332
N7590 X345.577 Y97.421
N7595 X346.121 Y97.783
N7600 X346.655 Y98.209
N7605 X346.699 Y98.248
N7610 X347.243 Y98.912
N7615 X347.578 Y99.44
N7620 X347.805 Y99.821
N7625 X348.045 Y100.325
N7630 X348.245 Y100.838
N7635 X348.402 Y101.348
N7640 X348.517 Y101.86
N7645 X348.599 Y102.388
N7650 X348.643 Y102.895
N7655 X348.655 Y103.415
N7660 X348.632 Y103.948
N7665 X348.601 Y104.303
N7670 X348.484 Y104.965
N7675 X348.355 Y105.474
N7680 X348.184 Y105.985
N7685 X347.968 Y106.5
N7690 X347.705 Y107.018
N7695 X347.391 Y107.535
N7700 X347.022 Y108.044
N7705 X346.735 Y108.371
N7710 X346.375 Y108.664
N7715 G3 X345.9 Y108.522 I-0.189 J-0.233
N7720 G1 X343.813 Y101.923
N7725 G3 X344.374 Y101.712 I0.286 J-0.09
N7730 X337.056 Y104.945 Z-7.766 I-3.659 J1.617
N7735 X336.715 Y103.328 Z-8. I3.659 J-1.617
N7740 X343.232 I3.259 J0.
N7745 X340.099 I-1.566 J0.
N7750 X343.232 I1.566 J0.
N7755 G2 X344.38 Y105.335 I2.328 J0.
N7760 G3 X344.395 Y107.647 I-0.682 J1.161
N7765 G1 X344.373 Y107.661
N7770 X343.954 Y107.862
N7775 X343.452 Y108.046
N7780 X343.136 Y108.138
N7785 X342.476 Y108.263
N7790 X341.986 Y108.31
N7795 X341.492 Y108.319
N7800 X340.999 Y108.284
N7805 X340.506 Y108.211
N7810 X340.235 Y108.146
N7815 X340.043 Y108.093
N7820 X339.542 Y107.923
N7825 X338.941 Y107.646
N7830 X338.553 Y107.425
N7835 X338.173 Y107.161
N7840 X338.011 Y107.032
N7845 X337.678 Y106.604
N7850 X337.54 Y106.376
N7855 X337.245 Y105.85
N7860 X337.04 Y105.37
N7865 X336.881 Y104.881
N7870 X336.762 Y104.362
N7875 X336.702 Y103.906
N7880 X336.674 Y103.412
N7885 X336.69 Y102.918
N7890 X336.747 Y102.399
N7895 X336.759 Y102.321
N7900 X336.838 Y101.95
N7905 X336.989 Y101.444
N7910 X337.176 Y100.951
N7915 X337.416 Y100.474
N7920 X337.755 Y99.949
N7925 X337.923 Y99.72
N7930 X337.959 Y99.676
N7935 X338.369 Y99.355
N7940 X339.057 Y98.949
N7945 X339.559 Y98.725
N7950 X339.684 Y98.678
N7955 X340.008 Y98.575
N7960 X340.516 Y98.45
N7965 X341.007 Y98.373
N7970 X341.497 Y98.337
N7975 X341.989 Y98.344
N7980 X342.478 Y98.391
N7985 X342.962 Y98.481
N7990 X343.485 Y98.628
N7995 X343.63 Y98.675
N8000 X343.941 Y98.795
N8005 X344.456 Y99.043
N8010 X344.661 Y99.161
N8015 X344.911 Y99.321
N8020 X345.33 Y99.64
N8025 X345.646 Y100.037
N8030 X345.902 Y100.463
N8035 X346.174 Y100.986
N8040 X346.23 Y101.117
N8045 X346.351 Y101.435
N8050 X346.491 Y101.929
N8055 X346.588 Y102.422
N8060 X346.642 Y102.917
N8065 X346.657 Y103.411
N8070 X346.63 Y103.904
N8075 X346.563 Y104.397
N8080 X346.453 Y104.884
N8085 X346.297 Y105.365
N8090 X346.083 Y105.857
N8095 X345.796 Y106.389
N8100 X345.747 Y106.471
N8105 X345.484 Y106.843
N8110 X345.368 Y106.987
N8115 X344.983 Y107.291
N8120 X344.395 Y107.647
N8125 X344.359 Y107.663
N8130 X344.319 Y107.666
N8135 X344.28 Y107.658
N8140 X344.245 Y107.639
N8145 X344.218 Y107.61
N8150 X344.2 Y107.574
N8155 X343.999 Y106.955
N8160 X342.703 Y104.553
N8165 X342.686 Y104.515
N8170 X341.286 Y100.736
N8175 G3 X341.556 Y100.332 I0.281 J-0.104
N8180 X341.772 Y106.322 Z-9.323 I0.108 J2.995
N8185 X338.667 Y103.327 Z-10. I-0.108 J-2.995
N8190 X342.473 I1.903 J0.
N8195 X340.855 I-0.809 J0.
N8200 X342.473 I0.809 J0.
N8205 G2 X343.253 Y104.565 I1.372 J0.
N8210 G3 X343.226 Y106.027 I-0.347 J0.725
N8215 G1 X343.083 Y106.089
N8220 X342.896 Y106.149
N8225 X342.393 Y106.272
N8230 X342.215 Y106.296
N8235 X341.714 Y106.333
N8240 X341.53 Y106.331
N8245 X341.017 Y106.284
N8250 X340.929 Y106.27
N8255 X340.812 Y106.246
N8260 X340.14 Y106.044
N8265 X339.632 Y105.806
N8270 X339.593 Y105.782
N8275 X339.361 Y105.625
N8280 X339.24 Y105.434
N8285 X339.096 Y105.18
N8290 X338.916 Y104.768
N8295 X338.775 Y104.285
N8300 X338.728 Y104.08
N8305 X338.7 Y103.885
N8310 X338.663 Y103.38
N8315 X338.664 Y103.195
N8320 X338.71 Y102.694
N8325 X338.737 Y102.53
N8330 X338.95 Y101.807
N8335 X339.108 Y101.475
N8340 X339.115 Y101.459
N8345 X339.194 Y101.288
N8350 X339.204 Y101.271
N8355 X339.369 Y101.027
N8360 X339.43 Y100.984
N8365 X339.71 Y100.812
N8370 X339.929 Y100.705
N8375 X340.164 Y100.601
N8380 X340.326 Y100.542
N8385 X340.575 Y100.472
N8390 X341.055 Y100.371
N8395 X341.537 Y100.33
N8400 X341.734 Y100.325
N8405 X341.938 Y100.338
N8410 X342.438 Y100.395
N8415 X342.608 Y100.433
N8420 X342.966 Y100.544
N8425 X343.009 Y100.557
N8430 X343.157 Y100.598
N8435 X343.28 Y100.653
N8440 X343.779 Y100.902
N8445 X343.97 Y101.031
N8450 X344.189 Y101.381
N8455 X344.293 Y101.597
N8460 X344.387 Y101.808
N8465 X344.428 Y101.912
N8470 X344.458 Y102.002
N8475 X344.591 Y102.514
N8480 X344.624 Y102.706
N8485 X344.645 Y102.921
N8490 X344.669 Y103.406
N8495 X344.63 Y103.888
N8500 X344.603 Y104.09
N8505 X344.56 Y104.282
N8510 X344.405 Y104.802
N8515 X344.388 Y104.845
N8520 X344.148 Y105.352
N8525 X344.116 Y105.408
N8530 X343.964 Y105.633
N8535 X343.649 Y105.83
N8540 X343.509 Y105.904
N8545 X343.226 Y106.027
N8550 G3 X342.823 Y105.851 I-0.119 J-0.275
N8555 G1 X342.25 Y104.212
N8560 X342.236 Y104.179
N8565 X342.218 Y104.148
N8570 G3 X342.722 Y103.822 I0.252 J-0.163
N8575 X342.46 Y104.285 I-0.252 J0.163
N8580 G1 X341.91 Y104.266
N8585 G3 X341.93 Y103.666 I0.01 J-0.3
N8590 X342.031 Y104.245 I-0.01 J0.3
N8595 X341.304 Y102.413 Z-10.435 I-0.363 J-0.916
N8600 X342.031 Y104.245 Z-10.87 I0.363 J0.916
N8605 X341.304 Y102.413 Z-11.305 I-0.363 J-0.916
N8610 X342.031 Y104.245 Z-11.74 I0.363 J0.916
N8615 X340.685 Y103.402 Z-12. I-0.363 J-0.916
N8620 G1 X340.677 Y103.295
N8625 X340.721 Y102.857
N8630 X340.824 Y102.482
N8635 X340.83 Y102.479
N8640 X341.24 Y102.373
N8645 X341.671 Y102.339
N8650 X342.142 Y102.385
N8655 X342.513 Y102.489
N8660 X342.52 Y102.505
N8665 X342.623 Y102.906
N8670 X342.657 Y103.342
N8675 X342.616 Y103.779
N8680 X342.509 Y104.175
N8685 X342.497 Y104.18
N8690 X342.122 Y104.278
N8695 X341.655 Y104.319
N8700 X341.644 Y104.32
N8705 X341.19 Y104.273
N8710 X340.82 Y104.172
N8715 X340.712 Y103.763
N8720 X340.71 Y103.745
N8725 X340.685 Y103.402
N8730 X340.688 Y103.366
N8735 X340.702 Y103.333
N8740 X340.726 Y103.306
N8745 X340.757 Y103.288
N8750 X340.792 Y103.28
N8755 X340.828 Y103.284
N8760 X341.36 Y103.431
N8765 X341.386 Y103.438
N8770 X341.782 Y103.604
N8775 X341.817 Y103.626
N8780 X341.841 Y103.66
N8785 X341.852 Y103.7
N8790 X341.847 Y103.741
N8795 X341.829 Y103.778
N8800 X341.798 Y103.805
N8805 X341.76 Y103.82
N8810 G3 X341.574 Y102.838 Z-12.221 I-0.093 J-0.491
N8815 X341.76 Y103.82 Z-12.442 I0.093 J0.491
N8820 X341.574 Y102.838 Z-12.662 I-0.093 J-0.491
N8825 X341.76 Y103.82 Z-12.883 I0.093 J0.491
N8830 X341.574 Y102.838 Z-13.104 I-0.093 J-0.491
N8835 X341.76 Y103.82 Z-13.325 I0.093 J0.491
N8840 X341.574 Y102.838 Z-13.545 I-0.093 J-0.491
N8845 X341.76 Y103.82 Z-13.766 I0.093 J0.491
N8850 X341.169 Y103.376 Z-13.883 I-0.093 J-0.491
N8855 X341.667 Y102.829 Z-14. I0.498 J-0.047
N8860 G1 X342.167
N8865 Y103.829
N8870 X341.167
N8875 Y102.829
N8880 X341.667
N8885 X341.697 Y102.836
N8890 X341.722 Y102.855
N8895 X341.736 Y102.883
N8900 Y102.915
N8905 X341.723 Y102.943
N8910 X341.524 Y103.199
N8915 X341.288 Y103.421
N8920 X341.261 Y103.436
N8925 X341.23 Y103.439
N8930 X341.2 Y103.428
N8935 X341.179 Y103.405
N8940 X341.169 Y103.376
N8945 G3 X342.164 Y103.282 Z-14.221 I0.498 J-0.047
N8950 X341.169 Y103.376 Z-14.442 I-0.498 J0.047
N8955 X342.164 Y103.282 Z-14.662 I0.498 J-0.047
N8960 X341.169 Y103.376 Z-14.883 I-0.498 J0.047
N8965 X341.667 Y102.829 Z-15. I0.498 J-0.047
N8970 G1 X342.167
N8975 Y103.829
N8980 X341.167
N8985 Y102.829
N8990 X341.667
N8995 G18 G2 X342.167 Z-14.732 I0. K0.6
N9000 G19 G3 Y102.929 Z-14.4 J-0.5 K0.332
N9005 G1 Z5.
N9010 X367.401 Y103.879
N9015 Z1.598
N9020 X367.399 Y103.861 Z1.451
N9025 X367.392 Y103.807 Z1.312
N9030 X367.383 Y103.721 Z1.191
N9035 X367.373 Y103.608 Z1.095
N9040 X367.366 Y103.474 Z1.03
N9045 X367.363 Y103.328 Z1.
N9050 G17 G3 X375.363 Z0. I4. J0.
N9055 X367.363 Z-1. I-4. J0.
N9060 X375.363 Z-2. I4. J0.
N9065 X374.637 I-0.363 J0.
N9070 X378.963 I2.163 J0.
N9075 X371.037 I-3.963 J0.
N9080 X382.563 I5.763 J0.
N9085 X367.437 I-7.563 J0.
N9090 X382.563 I7.563 J0.
N9095 G2 X383.963 Y105.684 I2.681 J0.
N9100 G3 X384.834 Y108.282 I-0.961 J1.767
N9105 G1 X384.819 Y108.314
N9110 X384.53 Y108.85
N9115 X384.184 Y109.416
N9120 X384.01 Y109.684
N9125 X383.828 Y109.938
N9130 X383.405 Y110.49
N9135 X382.921 Y111.028
N9140 X382.688 Y111.257
N9145 X381.782 Y112.033
N9150 X381.34 Y112.327
N9155 X380.757 Y112.708
N9160 X380.209 Y113.032
N9165 X379.687 Y113.298
N9170 X379.152 Y113.52
N9175 X378.579 Y113.731
N9180 X378.059 Y113.897
N9185 X377.516 Y114.028
N9190 X376.965 Y114.144
N9195 X376.429 Y114.224
N9200 X375.871 Y114.28
N9205 X375.335 Y114.317
N9210 X374.796 Y114.312
N9215 X374.241 Y114.293
N9220 X373.706 Y114.244
N9225 X373.151 Y114.163
N9230 X372.615 Y114.069
N9235 X372.087 Y113.932
N9240 X371.408 Y113.724
N9245 X370.991 Y113.578
N9250 X370.078 Y113.182
N9255 X369.354 Y112.791
N9260 X368.814 Y112.448
N9265 X368.261 Y112.056
N9270 X367.715 Y111.624
N9275 X367.202 Y111.159
N9280 X366.343 Y110.168
N9285 X366.279 Y110.091
N9290 X365.461 Y108.84
N9295 X365.021 Y107.996
N9300 X364.706 Y107.229
N9305 X364.479 Y106.534
N9310 X364.369 Y106.142
N9315 X364.243 Y105.6
N9320 X364.148 Y105.046
N9325 X364.07 Y104.505
N9330 X364.033 Y103.968
N9335 X364.013 Y103.411
N9340 X364.019 Y102.875
N9345 X364.059 Y102.325
N9350 X364.113 Y101.783
N9355 X364.206 Y101.249
N9360 X364.326 Y100.692
N9365 X364.48 Y100.098
N9370 X364.645 Y99.623
N9375 X364.856 Y99.063
N9380 X365.091 Y98.532
N9385 X365.572 Y97.619
N9390 X366.041 Y96.895
N9395 X366.661 Y96.093
N9400 X367.187 Y95.513
N9405 X367.416 Y95.307
N9410 X368.26 Y94.591
N9415 X369.38 Y93.861
N9420 X369.745 Y93.65
N9425 X370.447 Y93.304
N9430 X370.978 Y93.085
N9435 X371.531 Y92.892
N9440 X372.071 Y92.725
N9445 X372.768 Y92.563
N9450 X373.153 Y92.496
N9455 X373.701 Y92.414
N9460 X374.247 Y92.37
N9465 X374.795 Y92.341
N9470 X375.332 Y92.347
N9475 X375.889 Y92.377
N9480 X376.421 Y92.425
N9485 X377.26 Y92.566
N9490 X377.498 Y92.618
N9495 X378.048 Y92.761
N9500 X378.601 Y92.937
N9505 X379.142 Y93.131
N9510 X379.677 Y93.367
N9515 X380.252 Y93.654
N9520 X380.777 Y93.945
N9525 X381.311 Y94.291
N9530 X381.922 Y94.742
N9535 X382.419 Y95.154
N9540 X382.551 Y95.272
N9545 X382.921 Y95.633
N9550 X383.706 Y96.549
N9555 X383.997 Y96.986
N9560 X384.568 Y97.863
N9565 X384.908 Y98.522
N9570 X385.145 Y99.067
N9575 X385.358 Y99.613
N9580 X385.529 Y100.147
N9585 X385.674 Y100.703
N9590 X385.797 Y101.241
N9595 X385.877 Y101.777
N9600 X385.942 Y102.335
N9605 X385.979 Y102.872
N9610 X385.985 Y103.424
N9615 X385.975 Y103.965
N9620 X385.926 Y104.501
N9625 X385.856 Y105.057
N9630 X385.763 Y105.591
N9635 X385.63 Y106.135
N9640 X385.478 Y106.682
N9645 X385.292 Y107.217
N9650 X385.065 Y107.771
N9655 X384.834 Y108.282
N9660 G3 X384.399 Y108.41 I-0.273 J-0.124
N9665 G1 X382.978 Y107.501
N9670 X382.926 Y107.475
N9675 X376.476 Y104.941
N9680 X376.348 Y104.961
N9685 X376.33 Y104.958
N9690 X376.317 Y104.944
N9695 G3 X383.634 Y101.711 Z-3.766 I3.659 J-1.617
N9700 X383.975 Y103.327 Z-4. I-3.659 J1.617
N9705 X376.636 I-3.67 J0.
N9710 X376.964 I0.164 J0.
N9715 X373.036 I-1.964 J0.
N9720 X380.564 I3.764 J0.
N9725 X369.436 I-5.564 J0.
N9730 X380.564 I5.564 J0.
N9735 G2 X381.944 Y105.618 I2.591 J0.
N9740 G3 X382.621 Y108.206 I-0.848 J1.604
N9745 G1 X382.277 Y108.739
N9750 X381.883 Y109.263
N9755 X381.446 Y109.754
N9760 X380.579 Y110.485
N9765 X379.563 Y111.139
N9770 X379.053 Y111.402
N9775 X378.519 Y111.635
N9780 X377.98 Y111.836
N9785 X377.457 Y111.998
N9790 X376.935 Y112.118
N9795 X376.392 Y112.212
N9800 X375.853 Y112.279
N9805 X375.33 Y112.315
N9810 X374.8 Y112.314
N9815 X374.254 Y112.288
N9820 X373.728 Y112.238
N9825 X373.208 Y112.149
N9830 X372.671 Y112.025
N9835 X372.123 Y111.868
N9840 X371.606 Y111.69
N9845 X371.066 Y111.456
N9850 X370.827 Y111.342
N9855 X370.558 Y111.199
N9860 X370.009 Y110.879
N9865 X369.466 Y110.513
N9870 X369.141 Y110.268
N9875 X368.953 Y110.115
N9880 X368.584 Y109.785
N9885 X367.819 Y108.874
N9890 X367.384 Y108.194
N9895 X367.062 Y107.651
N9900 X366.809 Y107.135
N9905 X366.599 Y106.617
N9910 X366.342 Y105.826
N9915 X366.158 Y105.007
N9920 X366.082 Y104.488
N9925 X366.034 Y103.949
N9930 X366.011 Y103.406
N9935 X366.017 Y102.883
N9940 X366.061 Y102.358
N9945 X366.133 Y101.814
N9950 X366.23 Y101.284
N9955 X366.347 Y100.83
N9960 X366.364 Y100.764
N9965 X366.537 Y100.231
N9970 X366.749 Y99.681
N9975 X366.877 Y99.387
N9980 X366.981 Y99.168
N9985 X367.266 Y98.631
N9990 X367.598 Y98.103
N9995 X367.985 Y97.571
N10000 X368.541 Y96.915
N10005 X369.413 Y96.18
N10010 X370.498 Y95.481
N10015 X371.07 Y95.193
N10020 X371.627 Y94.963
N10025 X372.135 Y94.786
N10030 X372.673 Y94.63
N10035 X373.195 Y94.51
N10040 X373.724 Y94.428
N10045 X374.27 Y94.37
N10050 X374.8 Y94.339
N10055 X375.323 Y94.344
N10060 X375.862 Y94.38
N10065 X376.402 Y94.442
N10070 X376.922 Y94.531
N10075 X377.446 Y94.662
N10080 X378.002 Y94.832
N10085 X378.375 Y94.96
N10090 X379.049 Y95.252
N10095 X379.575 Y95.529
N10100 X380.135 Y95.87
N10105 X380.375 Y96.025
N10110 X380.633 Y96.219
N10115 X381.067 Y96.561
N10120 X381.412 Y96.868
N10125 X382.188 Y97.795
N10130 X382.732 Y98.644
N10135 X383.019 Y99.168
N10140 X383.262 Y99.698
N10145 X383.469 Y100.227
N10150 X383.632 Y100.747
N10155 X383.782 Y101.368
N10160 X383.867 Y101.822
N10165 X383.942 Y102.353
N10170 X383.978 Y102.876
N10175 X383.987 Y103.419
N10180 X383.97 Y103.957
N10185 X383.924 Y104.473
N10190 X383.782 Y105.324
N10195 X383.583 Y106.079
N10200 X383.404 Y106.599
N10205 X383.183 Y107.133
N10210 X382.915 Y107.686
N10215 X382.721 Y108.052
N10220 X382.621 Y108.206
N10225 G3 X382.249 Y108.318 I-0.252 J-0.163
N10230 G1 X374.802 Y105.044
N10235 X374.739 Y105.025
N10240 X374.303 Y104.941
N10245 G3 X381.62 Y101.708 Z-5.766 I3.659 J-1.617
N10250 X381.962 Y103.325 Z-6. I-3.659 J1.617
N10255 X375.033 I-3.464 J0.
N10260 X378.565 I1.766 J0.
N10265 X371.433 I-3.566 J0.
N10270 X378.565 I3.566 J0.
N10275 G2 X379.735 Y105.866 I3.345 J0.
N10280 G3 X379.709 Y108.665 I-1.188 J1.388
N10285 G1 X379.416 Y108.906
N10290 X379.34 Y108.957
N10295 X378.926 Y109.216
N10300 X378.395 Y109.522
N10305 X377.892 Y109.751
N10310 X377.378 Y109.942
N10315 X376.862 Y110.091
N10320 X376.348 Y110.203
N10325 X375.837 Y110.277
N10330 X375.322 Y110.313
N10335 X374.804 Y110.316
N10340 X374.286 Y110.285
N10345 X373.77 Y110.22
N10350 X373.246 Y110.116
N10355 X372.84 Y110.012
N10360 X372.225 Y109.798
N10365 X371.712 Y109.575
N10370 X371.199 Y109.304
N10375 X370.686 Y108.978
N10380 X370.157 Y108.575
N10385 X369.98 Y108.423
N10390 X369.402 Y107.719
N10395 X368.957 Y107.006
N10400 X368.697 Y106.5
N10405 X368.486 Y105.992
N10410 X368.317 Y105.478
N10415 X368.187 Y104.963
N10420 X368.093 Y104.445
N10425 X368.034 Y103.926
N10430 X368.009 Y103.407
N10435 X368.018 Y102.891
N10440 X368.063 Y102.383
N10445 X368.148 Y101.862
N10450 X368.204 Y101.607
N10455 X368.264 Y101.367
N10460 X368.428 Y100.841
N10465 X368.642 Y100.292
N10470 X368.721 Y100.105
N10475 X368.861 Y99.835
N10480 X369.242 Y99.18
N10485 X369.528 Y98.773
N10490 X369.749 Y98.491
N10495 X369.923 Y98.293
N10500 X370.578 Y97.756
N10505 X371.261 Y97.325
N10510 X371.712 Y97.083
N10515 X372.343 Y96.813
N10520 X372.732 Y96.682
N10525 X373.255 Y96.541
N10530 X373.773 Y96.438
N10535 X374.292 Y96.37
N10540 X374.804 Y96.337
N10545 X375.314 Y96.342
N10550 X375.83 Y96.382
N10555 X376.346 Y96.457
N10560 X376.861 Y96.569
N10565 X377.4 Y96.726
N10570 X377.669 Y96.816
N10575 X377.863 Y96.897
N10580 X378.423 Y97.153
N10585 X378.752 Y97.324
N10590 X379.461 Y97.786
N10595 X379.521 Y97.831
N10600 X380.035 Y98.25
N10605 X380.577 Y98.912
N10610 X380.888 Y99.404
N10615 X381.136 Y99.818
N10620 X381.403 Y100.386
N10625 X381.579 Y100.838
N10630 X381.735 Y101.348
N10635 X381.851 Y101.86
N10640 X381.931 Y102.377
N10645 X381.977 Y102.896
N10650 X381.988 Y103.415
N10655 X381.966 Y103.933
N10660 X381.91 Y104.449
N10665 X381.817 Y104.963
N10670 X381.688 Y105.474
N10675 X381.517 Y105.985
N10680 X381.301 Y106.5
N10685 X381.038 Y107.018
N10690 X380.724 Y107.535
N10695 X380.352 Y108.05
N10700 X380.098 Y108.344
N10705 X379.709 Y108.665
N10710 G3 X379.232 Y108.523 I-0.191 J-0.232
N10715 G1 X377.147 Y101.924
N10720 G3 X377.707 Y101.712 I0.286 J-0.09
N10725 X370.39 Y104.945 Z-7.766 I-3.659 J1.617
N10730 X370.048 Y103.329 Z-8. I3.659 J-1.617
N10735 X376.565 I3.259 J0.
N10740 X373.433 I-1.566 J0.
N10745 X376.565 I1.566 J0.
N10750 G2 X377.714 Y105.335 I2.327 J0.
N10755 G3 X377.728 Y107.648 I-0.681 J1.16
N10760 G1 X377.71 Y107.659
N10765 X377.268 Y107.869
N10770 X376.765 Y108.052
N10775 X376.451 Y108.143
N10780 X376.323 Y108.171
N10785 X375.796 Y108.266
N10790 X375.3 Y108.311
N10795 X374.807 Y108.318
N10800 X374.315 Y108.283
N10805 X373.821 Y108.207
N10810 X373.573 Y108.147
N10815 X373.358 Y108.087
N10820 X372.855 Y107.914
N10825 X372.276 Y107.647
N10830 X371.866 Y107.413
N10835 X371.509 Y107.163
N10840 X371.341 Y107.028
N10845 X371.026 Y106.629
N10850 X370.875 Y106.378
N10855 X370.561 Y105.815
N10860 X370.374 Y105.372
N10865 X370.214 Y104.88
N10870 X370.102 Y104.392
N10875 X370.035 Y103.903
N10880 X370.008 Y103.412
N10885 X370.023 Y102.919
N10890 X370.078 Y102.417
N10895 X370.174 Y101.941
N10900 X370.322 Y101.444
N10905 X370.51 Y100.951
N10910 X370.75 Y100.474
N10915 X371.08 Y99.961
N10920 X371.251 Y99.726
N10925 X371.294 Y99.675
N10930 X371.683 Y99.367
N10935 X372.371 Y98.957
N10940 X372.871 Y98.734
N10945 X373.018 Y98.677
N10950 X373.321 Y98.581
N10955 X373.83 Y98.455
N10960 X374.322 Y98.375
N10965 X374.814 Y98.339
N10970 X375.305 Y98.342
N10975 X375.792 Y98.388
N10980 X376.277 Y98.476
N10985 X376.797 Y98.621
N10990 X376.964 Y98.676
N10995 X377.254 Y98.787
N11000 X377.771 Y99.034
N11005 X377.999 Y99.164
N11010 X378.225 Y99.308
N11015 X378.671 Y99.644
N11020 X378.972 Y100.026
N11025 X379.236 Y100.463
N11030 X379.512 Y100.995
N11035 X379.544 Y101.066
N11040 X379.684 Y101.435
N11045 X379.825 Y101.929
N11050 X379.921 Y102.422
N11055 X379.975 Y102.917
N11060 X379.99 Y103.411
N11065 X379.963 Y103.904
N11070 X379.896 Y104.397
N11075 X379.786 Y104.884
N11080 X379.626 Y105.381
N11085 X379.555 Y105.553
N11090 X379.421 Y105.847
N11095 X379.133 Y106.382
N11100 X379.063 Y106.497
N11105 X378.823 Y106.836
N11110 X378.692 Y106.994
N11115 X378.3 Y107.302
N11120 X377.728 Y107.648
N11125 G3 X377.29 Y107.291 I-0.155 J-0.257
N11130 G1 X377.988 Y105.309
N11135 G2 X377.458 Y105.038 I-0.283 J-0.1
N11140 G3 X372.537 Y101.617 Z-9.323 I-2.461 J-1.711
N11145 X376.796 Y100.93 Z-10. I2.461 J1.711
N11150 X377.176 Y103.594 I-1.142 J1.522
N11155 X374.512 Y103.975 I-1.522 J-1.142
N11160 X375.483 Y102.68 I0.485 J-0.647
N11165 X374.512 Y103.975 I-0.485 J0.647
N11170 G2 X373.061 Y103.409 I-1.741 J2.322
N11175 G3 X372.193 Y102.116 I0.101 J-1.006
N11180 G1 X372.283 Y101.808
N11185 X372.417 Y101.528
N11190 X372.425 Y101.51
N11195 X372.521 Y101.3
N11200 X372.538 Y101.27
N11205 X372.701 Y101.028
N11210 X372.768 Y100.981
N11215 X373.026 Y100.822
N11220 X373.247 Y100.712
N11225 X373.478 Y100.608
N11230 X373.663 Y100.541
N11235 X373.89 Y100.477
N11240 X374.371 Y100.374
N11245 X374.853 Y100.332
N11250 X375.052 Y100.325
N11255 X375.254 Y100.337
N11260 X375.756 Y100.392
N11265 X375.925 Y100.429
N11270 X376.303 Y100.545
N11275 X376.348 Y100.558
N11280 X376.487 Y100.596
N11285 X376.597 Y100.645
N11290 X377.093 Y100.891
N11295 X377.307 Y101.034
N11300 X377.379 Y101.145
N11305 X377.518 Y101.373
N11310 X377.621 Y101.586
N11315 X377.761 Y101.912
N11320 X377.793 Y102.007
N11325 X377.924 Y102.514
N11330 X377.958 Y102.706
N11335 X377.978 Y102.921
N11340 X378.002 Y103.406
N11345 X377.963 Y103.888
N11350 X377.937 Y104.09
N11355 X377.893 Y104.282
N11360 X377.74 Y104.795
N11365 X377.703 Y104.892
N11370 X377.484 Y105.349
N11375 X377.45 Y105.408
N11380 X377.296 Y105.635
N11385 X376.984 Y105.829
N11390 X376.834 Y105.909
N11395 X376.4 Y106.095
N11400 X376.213 Y106.154
N11405 X375.723 Y106.273
N11410 X375.537 Y106.297
N11415 X375.033 Y106.334
N11420 X374.848 Y106.33
N11425 X374.356 Y106.284
N11430 X374.124 Y106.24
N11435 X373.454 Y106.036
N11440 X372.969 Y105.807
N11445 X372.923 Y105.779
N11450 X372.693 Y105.624
N11455 X372.569 Y105.428
N11460 X372.447 Y105.218
N11465 X372.249 Y104.766
N11470 X372.109 Y104.285
N11475 X372.062 Y104.08
N11480 X372.033 Y103.885
N11485 X371.996 Y103.38
N11490 X371.998 Y103.195
N11495 X372.044 Y102.694
N11500 X372.071 Y102.53
N11505 X372.193 Y102.116
N11510 G3 X372.643 Y101.949 I0.288 J0.085
N11515 G1 X374.08 Y102.879
N11520 X374.103 Y102.893
N11525 G3 X373.823 Y103.423 I-0.14 J0.265
N11530 X373.81 Y102.9 I0.14 J-0.265
N11535 G1 X374.592 Y102.435
N11540 X374.634 Y102.414
N11545 G3 X375.368 Y104.243 Z-10.435 I0.367 J0.914
N11550 X374.634 Y102.414 Z-10.87 I-0.367 J-0.914
N11555 X375.368 Y104.243 Z-11.305 I0.367 J0.914
N11560 X374.634 Y102.414 Z-11.74 I-0.367 J-0.914
N11565 X375.983 Y103.251 Z-12. I0.367 J0.914
N11570 G1 X375.991 Y103.342
N11575 X375.95 Y103.779
N11580 X375.843 Y104.174
N11585 X375.822 Y104.183
N11590 X375.438 Y104.282
N11595 X375. Y104.318
N11600 X374.559 Y104.279
N11605 X374.232 Y104.194
N11610 X374.153 Y104.171
N11615 X374.046 Y103.763
N11620 X374.044 Y103.745
N11625 X374.01 Y103.295
N11630 X374.054 Y102.857
N11635 X374.157 Y102.483
N11640 X374.558 Y102.377
N11645 X375.024 Y102.338
N11650 X375.469 Y102.382
N11655 X375.845 Y102.485
N11660 X375.956 Y102.911
N11665 X375.983 Y103.251
N11670 X375.979 Y103.289
N11675 X375.96 Y103.322
N11680 X375.93 Y103.346
N11685 X375.893 Y103.356
N11690 X375.855 Y103.351
N11695 X375.411 Y103.197
N11700 X375.388 Y103.188
N11705 X375.081 Y103.01
N11710 X375.053 Y102.987
N11715 X375.036 Y102.955
N11720 X375.032 Y102.919
N11725 X375.042 Y102.884
N11730 X375.063 Y102.855
N11735 X375.094 Y102.836
N11740 X375.129 Y102.829
N11745 X375.5 Z-12.052
N11750 Y103.829 Z-12.193
N11755 X374.5 Z-12.333
N11760 Y102.829 Z-12.474
N11765 X375.5 Z-12.614
N11770 Y103.829 Z-12.755
N11775 X374.5 Z-12.895
N11780 Y102.829 Z-13.036
N11785 X375.5 Z-13.176
N11790 Y103.829 Z-13.317
N11795 X374.5 Z-13.458
N11800 Y102.829 Z-13.598
N11805 X375.5 Z-13.739
N11810 Y103.829 Z-13.879
N11815 X374.64 Z-14.
N11820 X374.5
N11825 Y102.829
N11830 X375.5
N11835 Y103.829
N11840 X374.64
N11845 X374.619 Y103.824
N11850 X374.602 Y103.81
N11855 X374.594 Y103.789
N11860 X374.596 Y103.768
N11865 X374.666 Y103.551
N11870 X374.708 Y103.335
N11875 X374.707 Y103.303
N11880 X374.695 Y103.273
N11885 X374.673 Y103.249
N11890 X374.536 Y103.154
N11895 X374.517 Y103.135
N11900 X374.504 Y103.111
N11905 X374.5 Y103.084
N11910 Y102.829 Z-14.036
N11915 X375.5 Z-14.176
N11920 Y103.829 Z-14.317
N11925 X374.5 Z-14.458
N11930 Y102.829 Z-14.598
N11935 X375.5 Z-14.739
N11940 Y103.829 Z-14.879
N11945 X374.64 Z-15.
N11950 X374.5
N11955 Y102.829
N11960 X375.5
N11965 Y103.829
N11970 X374.64
N11975 Z-14.4
N11980 Z5.
N11985 X400.735 Y103.879
N11990 Z1.598
N11995 X400.732 Y103.861 Z1.451
N12000 X400.725 Y103.807 Z1.312
N12005 X400.716 Y103.721 Z1.191
N12010 X400.706 Y103.607 Z1.095
N12015 X400.699 Y103.474 Z1.03
N12020 X400.697 Y103.328 Z1.
N12025 G3 X408.697 Z0. I4. J0.
N12030 X400.697 Z-1. I-4. J0.
N12035 X408.697 Z-2. I4. J0.
N12040 X407.971 I-0.363 J0.
N12045 X412.297 I2.163 J0.
N12050 X404.371 I-3.963 J0.
N12055 X415.897 I5.763 J0.
N12060 X400.771 I-7.563 J0.
N12065 X415.897 I7.563 J0.
N12070 G2 X417.297 Y105.684 I2.681 J0.
N12075 G3 X418.167 Y108.282 I-0.961 J1.767
N12080 G1 X418.152 Y108.314
N12085 X417.863 Y108.85
N12090 X417.517 Y109.416
N12095 X417.323 Y109.716
N12100 X417.164 Y109.935
N12105 X416.738 Y110.489
N12110 X416.244 Y111.039
N12115 X416.006 Y111.271
N12120 X415.108 Y112.039
N12125 X414.068 Y112.723
N12130 X413.523 Y113.042
N12135 X412.999 Y113.308
N12140 X412.465 Y113.528
N12145 X411.905 Y113.733
N12150 X411.371 Y113.903
N12155 X410.831 Y114.033
N12160 X410.278 Y114.147
N12165 X409.741 Y114.227
N12170 X409.184 Y114.281
N12175 X408.647 Y114.318
N12180 X408.11 Y114.312
N12185 X407.554 Y114.291
N12190 X407.018 Y114.242
N12195 X406.466 Y114.16
N12200 X405.928 Y114.063
N12205 X405.399 Y113.926
N12210 X404.743 Y113.724
N12215 X404.303 Y113.571
N12220 X403.413 Y113.183
N12225 X402.667 Y112.78
N12230 X402.128 Y112.436
N12235 X401.574 Y112.041
N12240 X401.029 Y111.606
N12245 X400.514 Y111.136
N12250 X399.677 Y110.168
N12255 X399.612 Y110.091
N12260 X398.792 Y108.836
N12265 X398.508 Y108.298
N12270 X398.337 Y107.953
N12275 X398.039 Y107.229
N12280 X397.791 Y106.467
N12285 X397.704 Y106.147
N12290 X397.577 Y105.599
N12295 X397.481 Y105.046
N12300 X397.404 Y104.505
N12305 X397.366 Y103.968
N12310 X397.347 Y103.411
N12315 X397.352 Y102.875
N12320 X397.392 Y102.325
N12325 X397.446 Y101.783
N12330 X397.539 Y101.249
N12335 X397.659 Y100.692
N12340 X397.792 Y100.18
N12345 X397.981 Y99.615
N12350 X398.19 Y99.063
N12355 X398.424 Y98.531
N12360 X398.882 Y97.663
N12365 X399.429 Y96.82
N12370 X399.972 Y96.118
N12375 X400.501 Y95.533
N12380 X400.753 Y95.304
N12385 X401.571 Y94.608
N12390 X402.693 Y93.874
N12395 X403.081 Y93.648
N12400 X403.758 Y93.312
N12405 X404.29 Y93.093
N12410 X404.845 Y92.898
N12415 X405.383 Y92.73
N12420 X406.102 Y92.563
N12425 X406.464 Y92.499
N12430 X407.013 Y92.417
N12435 X407.561 Y92.371
N12440 X408.108 Y92.341
N12445 X408.644 Y92.346
N12450 X409.201 Y92.375
N12455 X409.733 Y92.423
N12460 X410.597 Y92.567
N12465 X410.81 Y92.613
N12470 X411.36 Y92.756
N12475 X411.916 Y92.931
N12480 X412.455 Y93.122
N12485 X412.988 Y93.357
N12490 X413.589 Y93.656
N12495 X414.089 Y93.931
N12500 X414.623 Y94.277
N12505 X415.258 Y94.744
N12510 X415.731 Y95.134
N12515 X415.887 Y95.274
N12520 X416.233 Y95.61
N12525 X417.04 Y96.55
N12530 X417.307 Y96.951
N12535 X417.892 Y97.847
N12540 X417.958 Y97.967
N12545 X418.24 Y98.519
N12550 X418.478 Y99.067
N12555 X418.691 Y99.613
N12560 X418.866 Y100.159
N12565 X418.957 Y100.484
N12570 X419.13 Y101.241
N12575 X419.21 Y101.777
N12580 X419.276 Y102.335
N12585 X419.313 Y102.872
N12590 X419.318 Y103.424
N12595 X419.308 Y103.965
N12600 X419.26 Y104.501
N12605 X419.189 Y105.057
N12610 X419.096 Y105.591
N12615 X418.959 Y106.152
N12620 X418.811 Y106.682
N12625 X418.625 Y107.217
N12630 X418.399 Y107.771
N12635 X418.167 Y108.282
N12640 G3 X417.732 Y108.41 I-0.273 J-0.124
N12645 G1 X416.299 Y107.494
N12650 X416.247 Y107.468
N12655 X409.842 Y104.94
N12660 X409.688 Y104.964
N12665 X409.666 Y104.961
N12670 X409.65 Y104.944
N12675 G3 X416.967 Y101.71 Z-3.766 I3.659 J-1.617
N12680 X417.309 Y103.327 Z-4. I-3.659 J1.617
N12685 X409.969 I-3.67 J0.
N12690 X410.297 I0.164 J0.
N12695 X406.369 I-1.964 J0.
N12700 X413.897 I3.764 J0.
N12705 X402.769 I-5.564 J0.
N12710 X413.897 I5.564 J0.
N12715 G2 X415.278 Y105.618 I2.591 J0.
N12720 G3 X415.955 Y108.206 I-0.847 J1.604
N12725 G1 X415.611 Y108.739
N12730 X415.217 Y109.263
N12735 X414.779 Y109.753
N12740 X413.891 Y110.502
N12745 X412.877 Y111.151
N12750 X412.367 Y111.412
N12755 X411.839 Y111.641
N12760 X411.187 Y111.875
N12765 X410.771 Y112.003
N12770 X410.247 Y112.122
N12775 X409.707 Y112.215
N12780 X409.166 Y112.281
N12785 X408.642 Y112.316
N12790 X408.115 Y112.314
N12795 X407.569 Y112.287
N12800 X407.041 Y112.234
N12805 X406.52 Y112.145
N12810 X405.985 Y112.02
N12815 X405.444 Y111.864
N12820 X404.918 Y111.681
N12825 X404.379 Y111.447
N12830 X404.163 Y111.343
N12835 X403.874 Y111.19
N12840 X403.22 Y110.801
N12845 X402.781 Y110.5
N12850 X402.477 Y110.27
N12855 X402.265 Y110.096
N12860 X401.918 Y109.786
N12865 X401.144 Y108.861
N12870 X400.715 Y108.191
N12875 X400.392 Y107.645
N12880 X400.187 Y107.237
N12885 X399.93 Y106.61
N12890 X399.75 Y106.064
N12895 X399.657 Y105.753
N12900 X399.492 Y105.009
N12905 X399.415 Y104.488
N12910 X399.367 Y103.949
N12915 X399.345 Y103.406
N12920 X399.35 Y102.884
N12925 X399.394 Y102.358
N12930 X399.466 Y101.814
N12935 X399.564 Y101.284
N12940 X399.657 Y100.92
N12945 X399.697 Y100.764
N12950 X399.87 Y100.231
N12955 X400.079 Y99.691
N12960 X400.32 Y99.156
N12965 X400.599 Y98.631
N12970 X400.932 Y98.103
N12975 X401.319 Y97.571
N12980 X401.87 Y96.919
N12985 X402.795 Y96.144
N12990 X403.829 Y95.482
N12995 X404.382 Y95.204
N13000 X404.963 Y94.962
N13005 X405.448 Y94.793
N13010 X405.985 Y94.635
N13015 X406.508 Y94.515
N13020 X407.042 Y94.431
N13025 X407.585 Y94.371
N13030 X408.112 Y94.339
N13035 X408.635 Y94.344
N13040 X409.176 Y94.378
N13045 X409.714 Y94.439
N13050 X410.234 Y94.528
N13055 X410.761 Y94.658
N13060 X411.314 Y94.825
N13065 X411.709 Y94.96
N13070 X412.361 Y95.243
N13075 X412.889 Y95.519
N13080 X413.448 Y95.857
N13085 X413.7 Y96.02
N13090 X414.406 Y96.566
N13095 X414.741 Y96.863
N13100 X415.5 Y97.764
N13105 X416.065 Y98.644
N13110 X416.352 Y99.168
N13115 X416.595 Y99.698
N13120 X416.802 Y100.227
N13125 X416.966 Y100.749
N13130 X417.096 Y101.282
N13135 X417.201 Y101.826
N13140 X417.276 Y102.353
N13145 X417.311 Y102.876
N13150 X417.32 Y103.419
N13155 X417.304 Y103.957
N13160 X417.257 Y104.478
N13165 X417.171 Y105.018
N13170 X417.097 Y105.394
N13175 X416.916 Y106.078
N13180 X416.738 Y106.599
N13185 X416.516 Y107.133
N13190 X416.25 Y107.682
N13195 X416.034 Y108.084
N13200 X415.955 Y108.206
N13205 G3 X415.574 Y108.315 I-0.252 J-0.163
N13210 G1 X409.342 Y105.356
N13215 X409.285 Y105.336
N13220 X407.663 Y104.939
N13225 X407.636 Y104.942
N13230 G3 X414.954 Y101.708 Z-5.766 I3.659 J-1.617
N13235 X415.295 Y103.325 Z-6. I-3.659 J1.617
N13240 X408.367 I-3.464 J0.
N13245 X411.898 I1.766 J0.
N13250 X404.767 I-3.566 J0.
N13255 X411.898 I3.566 J0.
N13260 G2 X413.07 Y105.867 I3.341 J0.
N13265 G3 X413.043 Y108.666 I-1.184 J1.388
N13270 G1 X412.746 Y108.909
N13275 X412.231 Y109.234
N13280 X411.777 Y109.498
N13285 X411.204 Y109.76
N13290 X410.692 Y109.947
N13295 X410.176 Y110.096
N13300 X409.66 Y110.206
N13305 X409.149 Y110.28
N13310 X408.637 Y110.315
N13315 X408.118 Y110.316
N13320 X407.601 Y110.284
N13325 X407.085 Y110.217
N13330 X406.558 Y110.111
N13335 X406.176 Y110.012
N13340 X405.539 Y109.789
N13345 X405.026 Y109.565
N13350 X404.513 Y109.291
N13355 X404. Y108.964
N13360 X403.469 Y108.557
N13365 X403.306 Y108.416
N13370 X402.736 Y107.72
N13375 X402.29 Y107.006
N13380 X402.03 Y106.5
N13385 X401.82 Y105.992
N13390 X401.65 Y105.478
N13395 X401.52 Y104.963
N13400 X401.426 Y104.445
N13405 X401.368 Y103.926
N13410 X401.343 Y103.407
N13415 X401.352 Y102.891
N13420 X401.396 Y102.383
N13425 X401.483 Y101.853
N13430 X401.517 Y101.691
N13435 X401.598 Y101.367
N13440 X401.76 Y100.846
N13445 X402.04 Y100.141
N13450 X402.199 Y99.826
N13455 X402.554 Y99.214
N13460 X402.865 Y98.768
N13465 X403.063 Y98.514
N13470 X403.254 Y98.296
N13475 X403.954 Y97.725
N13480 X404.592 Y97.326
N13485 X405.025 Y97.094
N13490 X405.678 Y96.813
N13495 X406.045 Y96.689
N13500 X406.57 Y96.545
N13505 X407.088 Y96.44
N13510 X407.606 Y96.371
N13515 X408.117 Y96.337
N13520 X408.628 Y96.342
N13525 X409.145 Y96.381
N13530 X409.661 Y96.454
N13535 X410.176 Y96.564
N13540 X410.712 Y96.719
N13545 X411.002 Y96.816
N13550 X411.176 Y96.889
N13555 X411.735 Y97.142
N13560 X412.086 Y97.325
N13565 X412.772 Y97.77
N13570 X412.855 Y97.831
N13575 X413.367 Y98.249
N13580 X413.91 Y98.912
N13585 X414.199 Y99.368
N13590 X414.472 Y99.822
N13595 X414.715 Y100.332
N13600 X414.912 Y100.838
N13605 X415.068 Y101.348
N13610 X415.184 Y101.86
N13615 X415.264 Y102.377
N13620 X415.31 Y102.896
N13625 X415.322 Y103.415
N13630 X415.3 Y103.933
N13635 X415.243 Y104.449
N13640 X415.151 Y104.963
N13645 X415.021 Y105.474
N13650 X414.85 Y105.985
N13655 X414.634 Y106.5
N13660 X414.371 Y107.018
N13665 X414.058 Y107.534
N13670 X413.681 Y108.054
N13675 X413.422 Y108.354
N13680 X413.043 Y108.666
N13685 G3 X412.718 Y108.702 I-0.19 J-0.232
N13690 G1 X408.136 Y106.399
N13695 X408.104 Y106.384
N13700 X408.069 Y106.374
N13705 G3 X409.873 Y98.58 Z-7.766 I0.902 J-3.897
N13710 X411.371 Y99.277 Z-8. I-0.902 J3.897
N13715 X407.393 Y104.582 I-1.989 J2.652
N13720 X409.272 Y102.076 I0.94 J-1.253
N13725 X407.393 Y104.582 I-0.94 J1.253
N13730 G2 X405.138 Y104.162 I-1.553 J2.07
N13735 G3 X403.377 Y102.692 I-0.377 J-1.338
N13740 G1 X403.391 Y102.543
N13745 X403.509 Y101.936
N13750 X403.655 Y101.444
N13755 X403.843 Y100.951
N13760 X404.083 Y100.473
N13765 X404.413 Y99.961
N13770 X404.585 Y99.726
N13775 X404.627 Y99.675
N13780 X404.997 Y99.382
N13785 X405.688 Y98.965
N13790 X406.184 Y98.742
N13795 X406.352 Y98.677
N13800 X406.634 Y98.587
N13805 X407.144 Y98.459
N13810 X407.636 Y98.378
N13815 X408.13 Y98.34
N13820 X408.622 Y98.341
N13825 X409.107 Y98.384
N13830 X409.591 Y98.471
N13835 X410.109 Y98.614
N13840 X410.298 Y98.676
N13845 X410.567 Y98.779
N13850 X411.085 Y99.025
N13855 X411.337 Y99.166
N13860 X411.539 Y99.294
N13865 X412.002 Y99.641
N13870 X412.3 Y100.018
N13875 X412.567 Y100.46
N13880 X412.87 Y101.05
N13885 X413.018 Y101.436
N13890 X413.158 Y101.929
N13895 X413.254 Y102.422
N13900 X413.308 Y102.917
N13905 X413.324 Y103.411
N13910 X413.296 Y103.904
N13915 X413.23 Y104.397
N13920 X413.119 Y104.884
N13925 X412.959 Y105.381
N13930 X412.867 Y105.605
N13935 X412.757 Y105.843
N13940 X412.47 Y106.375
N13945 X412.377 Y106.523
N13950 X412.152 Y106.842
N13955 X412.035 Y106.987
N13960 X411.619 Y107.311
N13965 X411.045 Y107.658
N13970 X410.582 Y107.877
N13975 X410.077 Y108.058
N13980 X409.784 Y108.143
N13985 X409.635 Y108.176
N13990 X409.11 Y108.268
N13995 X408.615 Y108.313
N14000 X408.121 Y108.318
N14005 X407.631 Y108.282
N14010 X407.136 Y108.202
N14015 X406.909 Y108.147
N14020 X406.673 Y108.08
N14025 X406.168 Y107.906
N14030 X405.611 Y107.647
N14035 X405.179 Y107.4
N14040 X404.845 Y107.165
N14045 X404.674 Y107.028
N14050 X404.346 Y106.607
N14055 X404.207 Y106.376
N14060 X403.911 Y105.85
N14065 X403.706 Y105.37
N14070 X403.548 Y104.88
N14075 X403.435 Y104.392
N14080 X403.368 Y103.903
N14085 X403.341 Y103.412
N14090 X403.357 Y102.907
N14095 X403.377 Y102.692
N14100 G3 X403.551 Y102.448 I0.299 J0.028
N14105 G1 X408.109 Y100.359
N14110 X408.165 Y100.34
N14115 X408.223 Y100.332
N14120 G3 X408.439 Y106.322 Z-9.323 I0.108 J2.995
N14125 X405.334 Y103.327 Z-10. I-0.108 J-2.995
N14130 X409.14 I1.903 J0.
N14135 X407.522 I-0.809 J0.
N14140 X409.14 I0.809 J0.
N14145 G2 X409.928 Y104.564 I1.365 J0.
N14150 G3 X409.893 Y106.03 I-0.338 J0.726
N14155 G1 X409.729 Y106.098
N14160 X409.532 Y106.158
N14165 X409.056 Y106.271
N14170 X408.568 Y106.321
N14175 X408.357 Y106.334
N14180 X408.166 Y106.328
N14185 X407.671 Y106.282
N14190 X407.451 Y106.239
N14195 X406.768 Y106.028
N14200 X406.305 Y105.809
N14205 X406.252 Y105.776
N14210 X406.034 Y105.629
N14215 X405.897 Y105.42
N14220 X405.781 Y105.218
N14225 X405.582 Y104.766
N14230 X405.442 Y104.285
N14235 X405.395 Y104.08
N14240 X405.367 Y103.885
N14245 X405.33 Y103.38
N14250 X405.331 Y103.195
N14255 X405.377 Y102.694
N14260 X405.404 Y102.53
N14265 X405.617 Y101.808
N14270 X405.727 Y101.576
N14275 X405.734 Y101.562
N14280 X405.848 Y101.315
N14285 X405.872 Y101.272
N14290 X406.037 Y101.026
N14295 X406.095 Y100.985
N14300 X406.365 Y100.819
N14305 X406.436 Y100.779
N14310 X406.796 Y100.616
N14315 X407.001 Y100.539
N14320 X407.204 Y100.482
N14325 X407.686 Y100.376
N14330 X408.17 Y100.333
N14335 X408.371 Y100.325
N14340 X408.571 Y100.336
N14345 X409.073 Y100.389
N14350 X409.242 Y100.425
N14355 X409.64 Y100.546
N14360 X409.681 Y100.558
N14365 X409.817 Y100.596
N14370 X409.917 Y100.638
N14375 X410.407 Y100.879
N14380 X410.638 Y101.034
N14385 X410.716 Y101.151
N14390 X410.851 Y101.373
N14395 X410.955 Y101.587
N14400 X411.086 Y101.891
N14405 X411.127 Y102.01
N14410 X411.257 Y102.514
N14415 X411.291 Y102.706
N14420 X411.311 Y102.921
N14425 X411.335 Y103.406
N14430 X411.297 Y103.888
N14435 X411.27 Y104.09
N14440 X411.226 Y104.282
N14445 X411.077 Y104.782
N14450 X411.019 Y104.926
N14455 X410.816 Y105.35
N14460 X410.783 Y105.407
N14465 X410.634 Y105.628
N14470 X410.391 Y105.784
N14475 X410.135 Y105.924
N14480 X409.949 Y106.008
N14485 X409.893 Y106.03
N14490 G3 X409.496 Y105.85 I-0.114 J-0.278
N14495 G1 X408.962 Y104.295
N14500 X408.94 Y104.247
N14505 X408.911 Y104.204
N14510 X407.846 Y102.881
N14515 G3 X407.968 Y102.415 I0.234 J-0.188
N14520 X408.701 Y104.245 Z-10.435 I0.366 J0.915
N14525 X407.968 Y102.415 Z-10.87 I-0.366 J-0.915
N14530 X408.701 Y104.245 Z-11.305 I0.366 J0.915
N14535 X407.968 Y102.415 Z-11.741 I-0.366 J-0.915
N14540 X409.317 Y103.252 Z-12. I0.366 J0.915
N14545 G1 X409.324 Y103.342
N14550 X409.283 Y103.774
N14555 X409.172 Y104.178
N14560 X409.166 Y104.18
N14565 X408.753 Y104.285
N14570 X408.316 Y104.32
N14575 X407.88 Y104.278
N14580 X407.486 Y104.172
N14585 X407.379 Y103.763
N14590 X407.377 Y103.745
N14595 X407.343 Y103.295
N14600 X407.387 Y102.863
N14605 X407.494 Y102.483
N14610 X407.519 Y102.473
N14615 X407.896 Y102.375
N14620 X407.918 Y102.372
N14625 X408.366 Y102.338
N14630 X408.796 Y102.38
N14635 X409.177 Y102.485
N14640 X409.188 Y102.51
N14645 X409.289 Y102.906
N14650 X409.317 Y103.252
N14655 X409.314 Y103.287
N14660 X409.3 Y103.32
N14665 X409.276 Y103.347
N14670 X409.244 Y103.364
N14675 X409.209 Y103.37
N14680 X408.71 Y103.381
N14685 X408.677 Y103.387
N14690 X408.648 Y103.402
N14695 X408.624 Y103.426
N14700 X408.609 Y103.456
N14705 X408.51 Y103.747
N14710 X408.492 Y103.781
N14715 X408.462 Y103.806
N14720 X408.426 Y103.82
N14725 G3 X408.24 Y102.838 Z-12.221 I-0.093 J-0.491
N14730 X408.426 Y103.82 Z-12.442 I0.093 J0.491
N14735 X408.24 Y102.838 Z-12.662 I-0.093 J-0.491
N14740 X408.426 Y103.82 Z-12.883 I0.093 J0.491
N14745 X408.24 Y102.838 Z-13.104 I-0.093 J-0.491
N14750 X408.426 Y103.82 Z-13.325 I0.093 J0.491
N14755 X408.24 Y102.838 Z-13.545 I-0.093 J-0.491
N14760 X408.426 Y103.82 Z-13.766 I0.093 J0.491
N14765 X407.836 Y103.376 Z-13.883 I-0.093 J-0.491
N14770 X408.333 Y102.829 Z-14. I0.498 J-0.047
N14775 G1 X408.833
N14780 Y103.829
N14785 X407.833
N14790 Y102.829
N14795 X408.333
N14800 X408.364 Y102.836
N14805 X408.389 Y102.855
N14810 X408.402 Y102.883
N14815 X408.403 Y102.915
N14820 X408.389 Y102.943
N14825 X408.19 Y103.199
N14830 X407.955 Y103.421
N14835 X407.928 Y103.436
N14840 X407.896 Y103.439
N14845 X407.867 Y103.428
N14850 X407.845 Y103.405
N14855 X407.836 Y103.376
N14860 G3 X408.831 Y103.282 Z-14.221 I0.498 J-0.047
N14865 X407.836 Y103.376 Z-14.442 I-0.498 J0.047
N14870 X408.831 Y103.282 Z-14.662 I0.498 J-0.047
N14875 X407.836 Y103.376 Z-14.883 I-0.498 J0.047
N14880 X408.333 Y102.829 Z-15. I0.498 J-0.047
N14885 G1 X408.833
N14890 Y103.829
N14895 X407.833
N14900 Y102.829
N14905 X408.333
N14910 G18 G2 X408.833 Z-14.732 I0. K0.6
N14915 G19 G3 Y102.929 Z-14.4 J-0.5 K0.332
N14920 G1 Z5.
N14925 X434.068 Y103.879
N14930 Z1.598
N14935 X434.066 Y103.861 Z1.451
N14940 X434.059 Y103.807 Z1.312
N14945 X434.049 Y103.721 Z1.191
N14950 X434.04 Y103.607 Z1.095
N14955 X434.033 Y103.474 Z1.03
N14960 X434.03 Y103.328 Z1.
N14965 G17 G3 X442.03 Z0. I4. J0.
N14970 X434.03 Z-1. I-4. J0.
N14975 X442.03 Z-2. I4. J0.
N14980 X441.304 I-0.363 J0.
N14985 X445.63 I2.163 J0.
N14990 X437.704 I-3.963 J0.
N14995 X449.23 I5.763 J0.
N15000 X434.104 I-7.563 J0.
N15005 X449.23 I7.563 J0.
N15010 G2 X450.63 Y105.683 I2.681 J0.
N15015 G3 X451.501 Y108.281 I-0.961 J1.767
N15020 G1 X451.486 Y108.314
N15025 X451.187 Y108.867
N15030 X450.851 Y109.415
N15035 X450.642 Y109.738
N15040 X450.069 Y110.492
N15045 X449.558 Y111.06
N15050 X449.321 Y111.288
N15055 X448.431 Y112.047
N15060 X447.381 Y112.736
N15065 X446.837 Y113.051
N15070 X446.311 Y113.317
N15075 X445.777 Y113.537
N15080 X445.218 Y113.74
N15085 X444.684 Y113.91
N15090 X444.145 Y114.037
N15095 X443.59 Y114.15
N15100 X443.054 Y114.231
N15105 X442.499 Y114.282
N15110 X441.959 Y114.318
N15115 X441.423 Y114.312
N15120 X440.866 Y114.289
N15125 X440.331 Y114.24
N15130 X439.781 Y114.157
N15135 X439.24 Y114.058
N15140 X438.71 Y113.92
N15145 X438.077 Y113.724
N15150 X437.614 Y113.563
N15155 X436.747 Y113.184
N15160 X435.979 Y112.769
N15165 X435.442 Y112.423
N15170 X434.891 Y112.028
N15175 X434.296 Y111.547
N15180 X433.829 Y111.115
N15185 X432.94 Y110.082
N15190 X432.125 Y108.836
N15195 X431.845 Y108.304
N15200 X431.65 Y107.903
N15205 X431.373 Y107.229
N15210 X431.104 Y106.402
N15215 X431.039 Y106.154
N15220 X430.91 Y105.6
N15225 X430.814 Y105.046
N15230 X430.737 Y104.505
N15235 X430.7 Y103.968
N15240 X430.68 Y103.411
N15245 X430.686 Y102.875
N15250 X430.725 Y102.325
N15255 X430.78 Y101.783
N15260 X430.872 Y101.249
N15265 X430.992 Y100.692
N15270 X431.115 Y100.219
N15275 X431.131 Y100.158
N15280 X431.314 Y99.617
N15285 X431.523 Y99.063
N15290 X431.758 Y98.531
N15295 X432.201 Y97.69
N15300 X432.351 Y97.447
N15305 X432.739 Y96.85
N15310 X433.284 Y96.142
N15315 X433.814 Y95.555
N15320 X434.091 Y95.3
N15325 X434.883 Y94.625
N15330 X436.006 Y93.887
N15335 X436.418 Y93.647
N15340 X437.07 Y93.321
N15345 X437.603 Y93.102
N15350 X438.16 Y92.904
N15355 X438.696 Y92.735
N15360 X439.436 Y92.563
N15365 X439.776 Y92.502
N15370 X440.326 Y92.42
N15375 X440.876 Y92.373
N15380 X441.42 Y92.34
N15385 X441.957 Y92.346
N15390 X442.513 Y92.373
N15395 X443.044 Y92.421
N15400 X443.934 Y92.567
N15405 X444.123 Y92.608
N15410 X444.673 Y92.75
N15415 X445.23 Y92.924
N15420 X445.767 Y93.112
N15425 X446.299 Y93.347
N15430 X446.925 Y93.657
N15435 X447.401 Y93.917
N15440 X447.934 Y94.262
N15445 X448.593 Y94.745
N15450 X449.042 Y95.114
N15455 X449.222 Y95.276
N15460 X449.546 Y95.588
N15465 X450.235 Y96.386
N15470 X450.372 Y96.547
N15475 X450.618 Y96.916
N15480 X451.206 Y97.818
N15485 X451.295 Y97.974
N15490 X451.573 Y98.519
N15495 X451.812 Y99.067
N15500 X452.023 Y99.608
N15505 X452.272 Y100.406
N15510 X452.464 Y101.242
N15515 X452.544 Y101.777
N15520 X452.609 Y102.335
N15525 X452.646 Y102.872
N15530 X452.651 Y103.424
N15535 X452.642 Y103.965
N15540 X452.593 Y104.501
N15545 X452.522 Y105.057
N15550 X452.43 Y105.589
N15555 X452.27 Y106.237
N15560 X452.145 Y106.68
N15565 X451.958 Y107.217
N15570 X451.726 Y107.784
N15575 X451.501 Y108.281
N15580 G3 X451.066 Y108.41 I-0.273 J-0.124
N15585 G1 X449.633 Y107.495
N15590 X449.582 Y107.468
N15595 X443.168 Y104.94
N15600 X443.02 Y104.963
N15605 X442.998 Y104.96
N15610 X442.983 Y104.944
N15615 G3 X450.301 Y101.711 Z-3.766 I3.659 J-1.617
N15620 X450.642 Y103.327 Z-4. I-3.659 J1.617
N15625 X443.303 I-3.67 J0.
N15630 X443.631 I0.164 J0.
N15635 X439.703 I-1.964 J0.
N15640 X447.231 I3.764 J0.
N15645 X436.102 I-5.564 J0.
N15650 X447.231 I5.564 J0.
N15655 G2 X448.612 Y105.619 I2.591 J0.
N15660 G3 X449.288 Y108.207 I-0.847 J1.604
N15665 G1 X448.944 Y108.739
N15670 X448.55 Y109.263
N15675 X448.112 Y109.754
N15680 X447.274 Y110.461
N15685 X446.186 Y111.165
N15690 X445.682 Y111.421
N15695 X445.152 Y111.649
N15700 X444.523 Y111.874
N15705 X444.083 Y112.008
N15710 X443.56 Y112.127
N15715 X443.021 Y112.218
N15720 X442.478 Y112.282
N15725 X441.955 Y112.318
N15730 X441.429 Y112.314
N15735 X440.883 Y112.285
N15740 X440.353 Y112.231
N15745 X439.833 Y112.142
N15750 X439.3 Y112.015
N15755 X438.759 Y111.857
N15760 X438.231 Y111.672
N15765 X437.691 Y111.438
N15770 X437.498 Y111.344
N15775 X437.185 Y111.178
N15780 X436.556 Y110.803
N15785 X436.093 Y110.483
N15790 X435.812 Y110.272
N15795 X435.577 Y110.077
N15800 X435.25 Y109.784
N15805 X434.515 Y108.912
N15810 X434.024 Y108.154
N15815 X433.729 Y107.653
N15820 X433.476 Y107.135
N15825 X433.264 Y106.613
N15830 X433.086 Y106.074
N15835 X432.969 Y105.662
N15840 X432.825 Y105.009
N15845 X432.749 Y104.488
N15850 X432.701 Y103.949
N15855 X432.678 Y103.406
N15860 X432.683 Y102.883
N15865 X432.727 Y102.358
N15870 X432.8 Y101.814
N15875 X432.897 Y101.284
N15880 X432.967 Y101.011
N15885 X433.03 Y100.764
N15890 X433.204 Y100.231
N15895 X433.412 Y99.691
N15900 X433.654 Y99.156
N15905 X433.932 Y98.631
N15910 X434.265 Y98.103
N15915 X434.654 Y97.568
N15920 X435.124 Y97.008
N15925 X435.191 Y96.932
N15930 X436.107 Y96.158
N15935 X437.19 Y95.468
N15940 X437.693 Y95.215
N15945 X438.299 Y94.961
N15950 X438.761 Y94.799
N15955 X439.298 Y94.639
N15960 X439.819 Y94.52
N15965 X440.379 Y94.43
N15970 X440.898 Y94.373
N15975 X441.425 Y94.338
N15980 X441.947 Y94.344
N15985 X442.491 Y94.377
N15990 X443.026 Y94.435
N15995 X443.547 Y94.524
N16000 X444.075 Y94.653
N16005 X444.627 Y94.818
N16010 X445.042 Y94.96
N16015 X445.674 Y95.234
N16020 X446.203 Y95.509
N16025 X446.76 Y95.843
N16030 X447.034 Y96.02
N16035 X447.74 Y96.566
N16040 X448.058 Y96.849
N16045 X448.813 Y97.739
N16050 X449.4 Y98.646
N16055 X449.69 Y99.177
N16060 X449.876 Y99.57
N16065 X450.136 Y100.229
N16070 X450.299 Y100.749
N16075 X450.429 Y101.282
N16080 X450.534 Y101.826
N16085 X450.609 Y102.353
N16090 X450.644 Y102.876
N16095 X450.653 Y103.419
N16100 X450.637 Y103.957
N16105 X450.59 Y104.478
N16110 X450.506 Y105.007
N16115 X450.391 Y105.548
N16120 X450.25 Y106.077
N16125 X450.071 Y106.599
N16130 X449.849 Y107.133
N16135 X449.586 Y107.678
N16140 X449.346 Y108.117
N16145 X449.288 Y108.207
N16150 G3 X448.899 Y108.311 I-0.252 J-0.163
N16155 G1 X444.137 Y105.855
N16160 X444.083 Y105.834
N16165 X441. Y104.94
N16170 X440.97 Y104.943
N16175 G3 X442.229 Y100.126 Z-4.755 I3.659 J-1.617
N16180 X448.629 Y103.326 Z-6. I2.4 J3.2
N16185 X441.7 I-3.464 J0.
N16190 X445.231 I1.766 J0.
N16195 X438.1 I-3.566 J0.
N16200 X445.231 I3.566 J0.
N16205 G2 X446.49 Y105.562 I2.616 J0.
N16210 G3 X446.993 Y108.079 I-0.904 J1.49
N16215 G1 X446.756 Y108.354
N16220 X446.059 Y108.925
N16225 X445.545 Y109.246
N16230 X445.112 Y109.497
N16235 X444.517 Y109.768
N16240 X444.006 Y109.953
N16245 X443.491 Y110.1
N16250 X442.973 Y110.209
N16255 X442.461 Y110.282
N16260 X441.951 Y110.316
N16265 X441.433
N16270 X440.915 Y110.282
N16275 X440.399 Y110.213
N16280 X439.871 Y110.106
N16285 X439.511 Y110.013
N16290 X438.853 Y109.781
N16295 X438.341 Y109.555
N16300 X437.827 Y109.279
N16305 X437.314 Y108.95
N16310 X436.783 Y108.54
N16315 X436.635 Y108.412
N16320 X436.07 Y107.72
N16325 X435.624 Y107.006
N16330 X435.346 Y106.464
N16335 X435.154 Y105.995
N16340 X434.985 Y105.481
N16345 X434.833 Y104.872
N16350 X434.76 Y104.451
N16355 X434.701 Y103.926
N16360 X434.676 Y103.407
N16365 X434.685 Y102.891
N16370 X434.729 Y102.385
N16375 X434.834 Y101.753
N16380 X434.931 Y101.367
N16385 X435.093 Y100.845
N16390 X435.353 Y100.19
N16395 X435.536 Y99.82
N16400 X435.867 Y99.248
N16405 X436.202 Y98.763
N16410 X436.378 Y98.535
N16415 X436.564 Y98.319
N16420 X436.636 Y98.256
N16425 X437.272 Y97.734
N16430 X437.926 Y97.325
N16435 X438.342 Y97.101
N16440 X438.879 Y96.864
N16445 X438.992 Y96.819
N16450 X439.358 Y96.695
N16455 X439.884 Y96.549
N16460 X440.402 Y96.443
N16465 X440.918 Y96.373
N16470 X441.429 Y96.339
N16475 X441.942 Y96.342
N16480 X442.46 Y96.379
N16485 X442.975 Y96.451
N16490 X443.49 Y96.56
N16495 X444.024 Y96.712
N16500 X444.322 Y96.811
N16505 X445.052 Y97.133
N16510 X445.421 Y97.325
N16515 X446.083 Y97.754
N16520 X446.194 Y97.835
N16525 X446.593 Y98.155
N16530 X446.694 Y98.242
N16535 X447.244 Y98.913
N16540 X447.51 Y99.332
N16545 X447.806 Y99.824
N16550 X448.045 Y100.325
N16555 X448.245 Y100.838
N16560 X448.4 Y101.343
N16565 X448.543 Y101.994
N16570 X448.597 Y102.369
N16575 X448.643 Y102.896
N16580 X448.655 Y103.415
N16585 X448.633 Y103.933
N16590 X448.576 Y104.449
N16595 X448.484 Y104.963
N16600 X448.355 Y105.474
N16605 X448.184 Y105.985
N16610 X447.968 Y106.5
N16615 X447.705 Y107.018
N16620 X447.392 Y107.532
N16625 X446.993 Y108.079
N16630 X446.992 Y108.078
N16635 X442.335 Y105.919
N16640 G2 X442.037 Y105.963 I-0.115 J0.249
N16645 G1 X441.648 Y106.312
N16650 G3 X441.403 Y106.375 I-0.183 J-0.204
N16655 X443.206 Y98.581 Z-7.766 I0.902 J-3.897
N16660 X444.704 Y99.278 Z-8. I-0.902 J3.897
N16665 X440.726 Y104.583 I-1.989 J2.652
N16670 X442.606 Y102.076 I0.94 J-1.253
N16675 X440.726 Y104.583 I-0.94 J1.253
N16680 G2 X438.368 Y103.802 I-2.343 J3.124
N16685 G3 X436.879 Y101.814 I-0.006 J-1.547
N16690 G1 X436.987 Y101.449
N16695 X437.203 Y100.894
N16700 X437.415 Y100.475
N16705 X437.746 Y99.961
N16710 X437.918 Y99.726
N16715 X437.959 Y99.677
N16720 X438.38 Y99.347
N16725 X438.998 Y98.976
N16730 X439.496 Y98.75
N16735 X439.686 Y98.677
N16740 X439.948 Y98.593
N16745 X440.459 Y98.463
N16750 X440.951 Y98.381
N16755 X441.446 Y98.341
N16760 X441.938 Y98.34
N16765 X442.422 Y98.381
N16770 X442.906 Y98.467
N16775 X443.421 Y98.608
N16780 X443.633 Y98.676
N16785 X443.88 Y98.771
N16790 X444.399 Y99.015
N16795 X444.676 Y99.169
N16800 X444.852 Y99.28
N16805 X445.336 Y99.643
N16810 X445.65 Y100.044
N16815 X445.901 Y100.461
N16820 X446.183 Y101.007
N16825 X446.352 Y101.441
N16830 X446.491 Y101.929
N16835 X446.588 Y102.422
N16840 X446.642 Y102.917
N16845 X446.657 Y103.411
N16850 X446.63 Y103.904
N16855 X446.563 Y104.397
N16860 X446.453 Y104.884
N16865 X446.292 Y105.381
N16870 X446.18 Y105.654
N16875 X446.094 Y105.836
N16880 X445.806 Y106.371
N16885 X445.69 Y106.552
N16890 X445.488 Y106.838
N16895 X445.362 Y106.991
N16900 X444.997 Y107.28
N16905 X444.905 Y107.34
N16910 X444.367 Y107.665
N16915 X444.14 Y107.776
N16920 X443.908 Y107.88
N16925 X443.39 Y108.064
N16930 X443.118 Y108.143
N16935 X442.947 Y108.18
N16940 X442.424 Y108.271
N16945 X441.929 Y108.314
N16950 X441.435 Y108.318
N16955 X440.948 Y108.28
N16960 X440.45 Y108.198
N16965 X440.244 Y108.148
N16970 X439.987 Y108.074
N16975 X439.482 Y107.898
N16980 X438.932 Y107.642
N16985 X438.717 Y107.524
N16990 X438.506 Y107.396
N16995 X438.181 Y107.167
N17000 X438.006 Y107.025
N17005 X437.686 Y106.617
N17010 X437.54 Y106.376
N17015 X437.23 Y105.824
N17020 X437.203 Y105.768
N17025 X437.042 Y105.379
N17030 X436.881 Y104.88
N17035 X436.769 Y104.392
N17040 X436.701 Y103.903
N17045 X436.674 Y103.412
N17050 X436.69 Y102.9
N17055 X436.707 Y102.703
N17060 X436.741 Y102.44
N17065 X436.841 Y101.941
N17070 X436.879 Y101.814
N17075 G3 X437.083 Y101.611 I0.288 J0.085
N17080 G1 X441.484 Y100.343
N17085 X441.52 Y100.335
N17090 X441.556 Y100.332
N17095 G3 X441.772 Y106.322 Z-9.323 I0.108 J2.995
N17100 X438.667 Y103.327 Z-10. I-0.108 J-2.995
N17105 X442.473 I1.903 J0.
N17110 X440.855 I-0.809 J0.
N17115 X442.473 I0.809 J0.
N17120 G2 X443.263 Y104.564 I1.363 J0.
N17125 G3 X443.227 Y106.031 I-0.336 J0.726
N17130 G1 X443.048 Y106.103
N17135 X442.851 Y106.161
N17140 X442.371 Y106.274
N17145 X441.884 Y106.322
N17150 X441.676 Y106.334
N17155 X441.483 Y106.327
N17160 X440.986 Y106.278
N17165 X440.778 Y106.237
N17170 X440.083 Y106.02
N17175 X439.656 Y105.817
N17180 X439.356 Y105.618
N17185 X439.235 Y105.428
N17190 X439.114 Y105.218
N17195 X438.916 Y104.766
N17200 X438.775 Y104.285
N17205 X438.728 Y104.08
N17210 X438.7 Y103.885
N17215 X438.663 Y103.38
N17220 X438.664 Y103.195
N17225 X438.71 Y102.694
N17230 X438.737 Y102.53
N17235 X438.948 Y101.812
N17240 X439.04 Y101.615
N17245 X439.175 Y101.328
N17250 X439.204 Y101.274
N17255 X439.37 Y101.026
N17260 X439.426 Y100.987
N17265 X439.771 Y100.779
N17270 X440.11 Y100.624
N17275 X440.339 Y100.538
N17280 X440.518 Y100.487
N17285 X441.001 Y100.379
N17290 X441.486 Y100.334
N17295 X441.689 Y100.325
N17300 X441.887 Y100.334
N17305 X442.389 Y100.386
N17310 X442.564 Y100.422
N17315 X443.137 Y100.59
N17320 X443.239 Y100.632
N17325 X443.717 Y100.865
N17330 X443.967 Y101.033
N17335 X444.057 Y101.163
N17340 X444.184 Y101.373
N17345 X444.29 Y101.589
N17350 X444.411 Y101.87
N17355 X444.461 Y102.013
N17360 X444.591 Y102.514
N17365 X444.624 Y102.706
N17370 X444.645 Y102.921
N17375 X444.669 Y103.406
N17380 X444.63 Y103.888
N17385 X444.603 Y104.09
N17390 X444.56 Y104.282
N17395 X444.405 Y104.802
N17400 X444.389 Y104.845
N17405 X444.148 Y105.352
N17410 X444.117 Y105.407
N17415 X443.966 Y105.63
N17420 X443.649 Y105.83
N17425 X443.47 Y105.923
N17430 X443.262 Y106.017
N17435 X443.227 Y106.031
N17440 G3 X442.831 Y105.85 I-0.113 J-0.278
N17445 G1 X442.298 Y104.294
N17450 X442.276 Y104.246
N17455 X442.247 Y104.203
N17460 X441.179 Y102.88
N17465 G3 X441.301 Y102.413 I0.233 J-0.188
N17470 X442.034 Y104.243 Z-10.435 I0.366 J0.915
N17475 X441.301 Y102.413 Z-10.87 I-0.366 J-0.915
N17480 X442.034 Y104.243 Z-11.305 I0.366 J0.915
N17485 X441.301 Y102.413 Z-11.741 I-0.366 J-0.915
N17490 X442.65 Y103.25 Z-12. I0.366 J0.915
N17495 G1 X442.657 Y103.342
N17500 X442.616 Y103.779
N17505 X442.509 Y104.176
N17510 X442.098 Y104.284
N17515 X441.633 Y104.319
N17520 X441.196 Y104.275
N17525 X440.82 Y104.172
N17530 X440.818 Y104.167
N17535 X440.712 Y103.763
N17540 X440.71 Y103.745
N17545 X440.677 Y103.295
N17550 X440.721 Y102.858
N17555 X440.824 Y102.484
N17560 X440.845 Y102.475
N17565 X441.245 Y102.373
N17570 X441.681 Y102.338
N17575 X442.118 Y102.379
N17580 X442.514 Y102.486
N17585 X442.623 Y102.907
N17590 X442.65 Y103.25
N17595 X442.647 Y103.286
N17600 X442.633 Y103.319
N17605 X442.609 Y103.347
N17610 X442.578 Y103.365
N17615 X442.543 Y103.373
N17620 X442.507 Y103.369
N17625 X441.974 Y103.225
N17630 X441.948 Y103.217
N17635 X441.552 Y103.054
N17640 X441.517 Y103.032
N17645 X441.492 Y102.998
N17650 X441.482 Y102.958
N17655 X441.486 Y102.917
N17660 X441.504 Y102.88
N17665 X441.535 Y102.853
N17670 X441.574 Y102.838
N17675 G3 X441.76 Y103.82 Z-12.221 I0.093 J0.491
N17680 X441.574 Y102.838 Z-12.442 I-0.093 J-0.491
N17685 X441.76 Y103.82 Z-12.662 I0.093 J0.491
N17690 X441.574 Y102.838 Z-12.883 I-0.093 J-0.491
N17695 X441.76 Y103.82 Z-13.104 I0.093 J0.491
N17700 X441.574 Y102.838 Z-13.325 I-0.093 J-0.491
N17705 X441.76 Y103.82 Z-13.545 I0.093 J0.491
N17710 X441.574 Y102.838 Z-13.766 I-0.093 J-0.491
N17715 X442.164 Y103.282 Z-13.883 I0.093 J0.491
N17720 X441.667 Y103.829 Z-14. I-0.498 J0.047
N17725 G1 X441.167
N17730 Y102.829
N17735 X442.167
N17740 Y103.829
N17745 X441.667
N17750 X441.636 Y103.822
N17755 X441.611 Y103.802
N17760 X441.598 Y103.774
N17765 X441.597 Y103.743
N17770 X441.611 Y103.715
N17775 X441.81 Y103.459
N17780 X442.045 Y103.237
N17785 X442.072 Y103.221
N17790 X442.104 Y103.219
N17795 X442.133 Y103.23
N17800 X442.155 Y103.252
N17805 X442.164 Y103.282
N17810 G3 X441.169 Y103.376 Z-14.221 I-0.498 J0.047
N17815 X442.164 Y103.282 Z-14.442 I0.498 J-0.047
N17820 X441.169 Y103.376 Z-14.662 I-0.498 J0.047
N17825 X442.164 Y103.282 Z-14.883 I0.498 J-0.047
N17830 X441.667 Y103.829 Z-15. I-0.498 J0.047
N17835 G1 X441.167
N17840 Y102.829
N17845 X442.167
N17850 Y103.829
N17855 X441.667
N17860 G18 G3 X441.167 Z-14.732 I0. K0.6
N17865 G19 G2 Y103.729 Z-14.4 J0.5 K0.332
N17870 G1 Z5.
N17875 X467.401 Y103.879
N17880 Z1.598
N17885 X467.399 Y103.861 Z1.451
N17890 X467.392 Y103.807 Z1.312
N17895 X467.383 Y103.721 Z1.191
N17900 X467.373 Y103.608 Z1.095
N17905 X467.366 Y103.474 Z1.03
N17910 X467.363 Y103.328 Z1.
N17915 G17 G3 X475.363 Z0. I4. J0.
N17920 X467.363 Z-1. I-4. J0.
N17925 X475.363 Z-2. I4. J0.
N17930 X474.637 I-0.363 J0.
N17935 X478.963 I2.163 J0.
N17940 X471.037 I-3.963 J0.
N17945 X482.563 I5.763 J0.
N17950 X467.437 I-7.563 J0.
N17955 X482.563 I7.563 J0.
N17960 G2 X483.964 Y105.683 I2.68 J0.
N17965 G3 X484.834 Y108.282 I-0.959 J1.766
N17970 G1 X484.819 Y108.313
N17975 X484.499 Y108.907
N17980 X484.186 Y109.412
N17985 X483.953 Y109.772
N17990 X483.404 Y110.49
N17995 X482.872 Y111.081
N18000 X482.638 Y111.303
N18005 X481.754 Y112.055
N18010 X480.694 Y112.749
N18015 X480.152 Y113.06
N18020 X479.623 Y113.325
N18025 X479.089 Y113.545
N18030 X478.53 Y113.746
N18035 X477.996 Y113.917
N18040 X477.46 Y114.042
N18045 X476.903 Y114.154
N18050 X476.366 Y114.234
N18055 X475.813 Y114.284
N18060 X475.272 Y114.318
N18065 X474.735 Y114.312
N18070 X474.178 Y114.287
N18075 X473.643 Y114.238
N18080 X473.095 Y114.154
N18085 X472.553 Y114.053
N18090 X472.021 Y113.914
N18095 X471.411 Y113.725
N18100 X470.926 Y113.556
N18105 X470.082 Y113.184
N18110 X469.291 Y112.757
N18115 X468.755 Y112.41
N18120 X468.203 Y112.012
N18125 X467.632 Y111.549
N18130 X467.141 Y111.092
N18135 X466.269 Y110.077
N18140 X465.459 Y108.837
N18145 X465.183 Y108.314
N18150 X464.925 Y107.761
N18155 X464.706 Y107.23
N18160 X464.42 Y106.347
N18165 X464.243 Y105.597
N18170 X464.148 Y105.046
N18175 X464.07 Y104.505
N18180 X464.033 Y103.968
N18185 X464.013 Y103.411
N18190 X464.019 Y102.875
N18195 X464.059 Y102.325
N18200 X464.113 Y101.783
N18205 X464.206 Y101.249
N18210 X464.326 Y100.692
N18215 X464.425 Y100.308
N18220 X464.464 Y100.158
N18225 X464.647 Y99.617
N18230 X464.856 Y99.063
N18235 X465.091 Y98.531
N18240 X465.514 Y97.728
N18245 X465.688 Y97.441
N18250 X466.051 Y96.879
N18255 X466.596 Y96.168
N18260 X467.129 Y95.576
N18265 X467.426 Y95.299
N18270 X468.267 Y94.587
N18275 X469.315 Y93.903
N18280 X469.754 Y93.645
N18285 X470.382 Y93.33
N18290 X470.917 Y93.11
N18295 X471.474 Y92.91
N18300 X472.008 Y92.74
N18305 X472.771 Y92.563
N18310 X473.087 Y92.506
N18315 X473.638 Y92.423
N18320 X474.191 Y92.374
N18325 X474.732 Y92.34
N18330 X475.269 Y92.346
N18335 X475.826 Y92.371
N18340 X476.356 Y92.419
N18345 X477.272 Y92.568
N18350 X477.437 Y92.602
N18355 X477.985 Y92.745
N18360 X478.544 Y92.917
N18365 X479.087 Y93.106
N18370 X479.611 Y93.337
N18375 X480.262 Y93.659
N18380 X480.714 Y93.904
N18385 X481.245 Y94.248
N18390 X481.929 Y94.747
N18395 X482.353 Y95.095
N18400 X482.558 Y95.278
N18405 X482.86 Y95.566
N18410 X483.426 Y96.219
N18415 X483.706 Y96.548
N18420 X483.929 Y96.881
N18425 X484.52 Y97.788
N18430 X484.631 Y97.98
N18435 X484.912 Y98.53
N18440 X485.034 Y98.797
N18445 X485.359 Y99.617
N18450 X485.583 Y100.32
N18455 X485.797 Y101.243
N18460 X485.877 Y101.777
N18465 X485.942 Y102.335
N18470 X485.979 Y102.872
N18475 X485.985 Y103.424
N18480 X485.975 Y103.965
N18485 X485.926 Y104.501
N18490 X485.856 Y105.057
N18495 X485.763 Y105.588
N18500 X485.582 Y106.322
N18505 X485.48 Y106.677
N18510 X485.292 Y107.215
N18515 X485.037 Y107.834
N18520 X484.834 Y108.282
N18525 G3 X484.399 Y108.41 I-0.273 J-0.124
N18530 G1 X482.986 Y107.503
N18535 X482.934 Y107.476
N18540 X476.494 Y104.941
N18545 X476.352 Y104.963
N18550 X476.331 Y104.96
N18555 X476.317 Y104.944
N18560 G3 X483.634 Y101.711 Z-3.766 I3.659 J-1.617
N18565 X483.975 Y103.328 Z-4. I-3.659 J1.617
N18570 X476.636 I-3.67 J0.
N18575 X476.964 I0.164 J0.
N18580 X473.036 I-1.964 J0.
N18585 X480.564 I3.764 J0.
N18590 X469.436 I-5.564 J0.
N18595 X480.564 I5.564 J0.
N18600 G2 X481.809 Y105.994 I3.478 J0.
N18605 G3 X482.144 Y108.917 I-1.372 J1.638
N18610 G1 X481.883 Y109.263
N18615 X481.446 Y109.754
N18620 X480.586 Y110.478
N18625 X479.501 Y111.177
N18630 X478.997 Y111.431
N18635 X478.465 Y111.657
N18640 X477.86 Y111.873
N18645 X477.395 Y112.012
N18650 X476.872 Y112.132
N18655 X476.336 Y112.22
N18660 X475.79 Y112.284
N18665 X475.267 Y112.319
N18670 X474.744 Y112.314
N18675 X474.198 Y112.283
N18680 X473.665 Y112.227
N18685 X473.145 Y112.138
N18690 X472.614 Y112.011
N18695 X472.073 Y111.851
N18700 X471.543 Y111.663
N18705 X471.004 Y111.429
N18710 X470.834 Y111.346
N18715 X470.496 Y111.166
N18720 X469.891 Y110.804
N18725 X469.404 Y110.467
N18730 X469.147 Y110.273
N18735 X468.889 Y110.058
N18740 X468.583 Y109.784
N18745 X467.833 Y108.894
N18750 X467.337 Y108.121
N18755 X467.064 Y107.654
N18760 X466.809 Y107.135
N18765 X466.598 Y106.613
N18770 X466.422 Y106.082
N18775 X466.275 Y105.54
N18780 X466.159 Y105.011
N18785 X466.082 Y104.488
N18790 X466.034 Y103.949
N18795 X466.011 Y103.406
N18800 X466.017 Y102.883
N18805 X466.061 Y102.358
N18810 X466.133 Y101.814
N18815 X466.23 Y101.284
N18820 X466.364 Y100.764
N18825 X466.537 Y100.231
N18830 X466.745 Y99.691
N18835 X466.987 Y99.156
N18840 X467.266 Y98.631
N18845 X467.598 Y98.103
N18850 X467.987 Y97.568
N18855 X468.457 Y97.008
N18860 X468.519 Y96.939
N18865 X468.601 Y96.864
N18870 X469.418 Y96.176
N18875 X470.503 Y95.478
N18880 X471.005 Y95.226
N18885 X471.634 Y94.96
N18890 X472.075 Y94.805
N18895 X472.61 Y94.644
N18900 X473.131 Y94.525
N18905 X473.715 Y94.43
N18910 X474.212 Y94.374
N18915 X474.737 Y94.338
N18920 X475.26 Y94.344
N18925 X475.806 Y94.375
N18930 X476.339 Y94.431
N18935 X476.859 Y94.521
N18940 X477.39 Y94.648
N18945 X477.939 Y94.811
N18950 X478.375 Y94.96
N18955 X478.986 Y95.225
N18960 X479.517 Y95.499
N18965 X480.072 Y95.83
N18970 X480.367 Y96.02
N18975 X481.073 Y96.566
N18980 X481.384 Y96.842
N18985 X482.168 Y97.765
N18990 X482.732 Y98.644
N18995 X483.026 Y99.182
N19000 X483.189 Y99.519
N19005 X483.469 Y100.23
N19010 X483.633 Y100.749
N19015 X483.763 Y101.282
N19020 X483.867 Y101.826
N19025 X483.942 Y102.353
N19030 X483.978 Y102.876
N19035 X483.987 Y103.419
N19040 X483.97 Y103.957
N19045 X483.923 Y104.478
N19050 X483.839 Y105.006
N19055 X483.721 Y105.561
N19060 X483.584 Y106.077
N19065 X483.404 Y106.599
N19070 X483.183 Y107.133
N19075 X482.922 Y107.671
N19080 X482.623 Y108.206
N19085 X482.278 Y108.738
N19090 X482.144 Y108.917
N19095 G3 X481.694 Y108.95 I-0.24 J-0.18
N19100 G1 X478.368 Y105.677
N19105 X478.317 Y105.637
N19110 X478.259 Y105.609
N19115 X478.197 Y105.594
N19120 X474.539 Y105.119
N19125 G3 X474.303 Y104.943 I0.039 J-0.298
N19130 X481.621 Y101.71 Z-5.766 I3.659 J-1.617
N19135 X481.962 Y103.326 Z-6. I-3.659 J1.617
N19140 X475.034 I-3.464 J0.
N19145 X478.565 I1.766 J0.
N19150 X471.434 I-3.566 J0.
N19155 X478.565 I3.566 J0.
N19160 G2 X479.739 Y105.867 I3.335 J0.
N19165 G3 X479.707 Y108.665 I-1.179 J1.386
N19170 G1 X479.372 Y108.938
N19175 X478.856 Y109.26
N19180 X478.448 Y109.496
N19185 X477.831 Y109.775
N19190 X477.321 Y109.959
N19195 X476.805 Y110.104
N19200 X476.287 Y110.212
N19205 X475.774 Y110.284
N19210 X475.263 Y110.318
N19215 X474.747 Y110.316
N19220 X474.23 Y110.281
N19225 X473.714 Y110.21
N19230 X473.184 Y110.101
N19235 X472.846 Y110.013
N19240 X472.166 Y109.772
N19245 X471.655 Y109.544
N19250 X471.135 Y109.264
N19255 X470.697 Y108.986
N19260 X470.096 Y108.523
N19265 X469.965 Y108.408
N19270 X469.403 Y107.72
N19275 X468.958 Y107.008
N19280 X468.658 Y106.421
N19285 X468.489 Y105.999
N19290 X468.319 Y105.483
N19295 X468.146 Y104.78
N19300 X468.095 Y104.46
N19305 X468.034 Y103.926
N19310 X468.009 Y103.407
N19315 X468.018 Y102.891
N19320 X468.063 Y102.383
N19325 X468.147 Y101.87
N19330 X468.268 Y101.357
N19335 X468.427 Y100.844
N19340 X468.666 Y100.239
N19345 X468.872 Y99.815
N19350 X469.179 Y99.282
N19355 X469.539 Y98.758
N19360 X469.691 Y98.558
N19365 X469.899 Y98.318
N19370 X469.956 Y98.267
N19375 X470.633 Y97.717
N19380 X471.261 Y97.324
N19385 X471.656 Y97.111
N19390 X472.191 Y96.872
N19395 X472.327 Y96.819
N19400 X472.672 Y96.701
N19405 X473.199 Y96.553
N19410 X473.716 Y96.446
N19415 X474.23 Y96.374
N19420 X474.741 Y96.34
N19425 X475.256 Y96.342
N19430 X475.774 Y96.377
N19435 X476.29 Y96.448
N19440 X476.805 Y96.555
N19445 X477.337 Y96.705
N19450 X477.656 Y96.812
N19455 X478.363 Y97.122
N19460 X478.755 Y97.326
N19465 X479.395 Y97.738
N19470 X479.529 Y97.836
N19475 X479.905 Y98.136
N19480 X480.022 Y98.237
N19485 X480.578 Y98.914
N19490 X480.821 Y99.296
N19495 X481.144 Y99.831
N19500 X481.339 Y100.23
N19505 X481.579 Y100.841
N19510 X481.735 Y101.348
