%
(13X13_V2_LEFT_BACK_2MM)
(T2  D=2. CR=0. - ZMIN=-15. - FLAT END MILL)
N10 G90 G94 G17 G91.1
N15 G21
(DRILL1 2)
N20 M8
N25 S12000 M3
N30 G54
N35 G0 X425. Y86.67
N45 G0 Z5.
N50 G98 G83 X425. Y86.67 Z-15. R5. Q3. F500.
N55 X491.667 Y86.667
N60 X516.778 Y25.333
N65 X491.667 Y20.005
N70 X425. Y20.
N75 X325.
N80 X225.
N85 X125.
N90 X58.333 Y20.005
N95 Y86.667
N100 X125. Y86.67
N105 X58.333 Y186.667
N110 X125.
N115 X225. Y186.668
N120 Y120.
N125 X325.
N130 Y186.668
N135 X425. Y186.667
N140 X491.667
N145 X502.778 Y234.667
N150 G80
N155 G0 Z15.
N160 M30
%
