%
(RHU_LETTERPLAAT_13_13_UPPER_2_ROWS_PVC_V1)
(T1  D=1.5 CR=0. - ZMIN=-3. - FLAT END MILL)
N10 G90 G94 G17 G91.1
N15 G21
(POCKET2)
N20 T1 M6
N25 S10000 M3
N30 M8
N35 G54
N40 G0 X249.409 Y444.519
N45 G43 Z15. H1
N50 G0 Z2.5
N55 G1 Z1.15 F300.
N60 X249.411 Y444.517 Z1.128 F700.
N65 X249.414 Y444.514 Z1.107
N70 X249.42 Y444.509 Z1.087
N75 X249.428 Y444.502 Z1.068
N80 X249.438 Y444.494 Z1.05
N85 X249.45 Y444.484 Z1.035
N90 X249.464 Y444.473 Z1.022
N95 X249.48 Y444.462 Z1.012
N100 X249.497 Y444.45 Z1.005
N105 G3 X250.282 Y445.64 Z0.405 I0.392 J0.595
N110 X249.497 Y444.45 Z-0.194 I-0.392 J-0.595
N115 X250.282 Y445.64 Z-0.794 I0.392 J0.595
N120 X249.497 Y444.45 Z-1.394 I-0.392 J-0.595
N125 X249.851 Y444.334 Z-1.495 I0.392 J0.595
N130 G1 X249.87 Y444.333 Z-1.499
N135 X249.889 Z-1.5
N140 X249.991
N145 G3 X250.135 Y444.682 I0. J0.205
N150 G1 X250.082 Y444.739
N155 X250.031 Y444.797
N160 G3 X249.748 I-0.142 J-0.12
N165 G1 X249.697 Y444.739
N170 X249.644 Y444.682
N175 G3 X249.788 Y444.333 I0.144 J-0.145
N180 G1 X249.889
N185 G2 X250.279 Y444.073 I0. J-0.422
N190 G3 X250.668 Y443.814 I0.389 J0.162
N195 G1 X260.294
N200 G3 X260.749 Y444.269 I0. J0.455
N205 G1 Y456.758
N210 G3 X260.258 I-0.246 J0.
N215 G1 X260.312 Y445.777
N220 G2 X259.981 Y445.052 I-1.363 J0.183
N225 X259.296 Y444.644 I-0.973 J0.856
N230 G1 X259.219 Y444.629
N235 X259.141 Y444.617
N240 X259.063 Y444.61
N245 X258.985 Y444.608
N250 X251.286 Y444.613
N255 G2 X250.52 Y444.944 I0.136 J1.367
N260 X250.1 Y445.666 I0.853 J0.979
N265 G1 X250.079 Y445.797
N270 X250.071 Y445.93
N275 X250.135 Y456.332
N280 G3 X249.644 I-0.246 J0.
N285 G1 X249.697 Y445.777
N290 G2 X249.34 Y445.023 I-1.361 J0.183
N295 X248.604 Y444.628 I-0.949 J0.886
N300 G1 X248.489 Y444.613
N305 X248.373 Y444.608
N310 X239.474 Y444.672
N315 G3 Y443.814 I0. J-0.429
N320 G1 X250.668
N325 G2 X251.058 Y443.553 I0. J-0.423
N330 G3 X251.449 Y443.293 I0.391 J0.163
N335 G1 X261.27
N340 Y457.631
N345 X259.737
N350 Y445.93
N355 X259.736 Y445.904
N360 X259.735 Y445.88
N365 X259.732 Y445.855
N370 X259.729 Y445.831
N375 X259.725 Y445.806
N380 X259.72 Y445.782
N385 X259.714 Y445.757
N390 X259.707 Y445.733
N395 X259.7 Y445.708
N400 X259.691 Y445.684
N405 X259.682 Y445.66
N410 X259.671 Y445.635
N415 X259.66 Y445.611
N420 X259.647 Y445.586
N425 X259.633 Y445.561
N430 X259.616 Y445.535
N435 X259.599 Y445.509
N440 X259.579 Y445.483
N445 X259.559 Y445.458
N450 X259.539 Y445.435
N455 X259.517 Y445.412
N460 X259.494 Y445.39
N465 X259.468 Y445.367
N470 X259.441 Y445.346
N475 X259.414 Y445.326
N480 X259.387 Y445.309
N485 X259.362 Y445.293
N490 X259.337 Y445.279
N495 X259.313 Y445.267
N500 X259.288 Y445.256
N505 X259.264 Y445.246
N510 X259.239 Y445.236
N515 X259.215 Y445.228
N520 X259.19 Y445.221
N525 X259.166 Y445.214
N530 X259.141 Y445.209
N535 X259.117 Y445.204
N540 X259.093 Y445.2
N545 X259.068 Y445.197
N550 X259.044 Y445.195
N555 X259.019 Y445.194
N560 X258.995 Y445.193
N565 X258.985
N570 X251.405
N575 X251.393
N580 X251.368 Y445.194
N585 X251.344 Y445.195
N590 X251.319 Y445.198
N595 X251.295 Y445.201
N600 X251.27 Y445.205
N605 X251.246 Y445.21
N610 X251.221 Y445.216
N615 X251.197 Y445.223
N620 X251.173 Y445.23
N625 X251.148 Y445.239
N630 X251.124 Y445.248
N635 X251.099 Y445.258
N640 X251.075 Y445.27
N645 X251.05 Y445.283
N650 X251.026 Y445.296
N655 X251.001 Y445.311
N660 X250.977 Y445.328
N665 X250.951 Y445.346
N670 X250.925 Y445.368
N675 X250.899 Y445.39
N680 X250.873 Y445.415
N685 X250.85 Y445.439
N690 X250.829 Y445.464
N695 X250.809 Y445.488
N700 X250.791 Y445.513
N705 X250.775 Y445.537
N710 X250.76 Y445.562
N715 X250.744 Y445.59
N720 X250.728 Y445.622
N725 X250.714 Y445.655
N730 X250.701 Y445.687
N735 X250.69 Y445.72
N740 X250.68 Y445.753
N745 X250.673 Y445.782
N750 X250.668 Y445.806
N755 X250.664 Y445.831
N760 X250.661 Y445.855
N765 X250.658 Y445.88
N770 X250.657 Y445.904
N775 X250.656 Y445.93
N780 Y457.205
N785 X249.123
N790 Y445.93
N795 X249.122 Y445.904
N800 X249.12 Y445.88
N805 X249.118 Y445.855
N810 X249.115 Y445.831
N815 X249.11 Y445.806
N820 X249.105 Y445.782
N825 X249.098 Y445.753
N830 X249.089 Y445.72
N835 X249.078 Y445.687
N840 X249.065 Y445.655
N845 X249.051 Y445.622
N850 X249.035 Y445.59
N855 X249.019 Y445.562
N860 X249.004 Y445.537
N865 X248.987 Y445.513
N870 X248.97 Y445.488
N875 X248.95 Y445.464
N880 X248.929 Y445.439
N885 X248.905 Y445.414
N890 X248.877 Y445.388
N895 X248.851 Y445.365
N900 X248.826 Y445.346
N905 X248.802 Y445.328
N910 X248.777 Y445.311
N915 X248.753 Y445.296
N920 X248.729 Y445.283
N925 X248.704 Y445.27
N930 X248.68 Y445.258
N935 X248.655 Y445.248
N940 X248.631 Y445.239
N945 X248.606 Y445.23
N950 X248.582 Y445.223
N955 X248.557 Y445.216
N960 X248.533 Y445.21
N965 X248.508 Y445.205
N970 X248.484 Y445.201
N975 X248.46 Y445.198
N980 X248.435 Y445.195
N985 X248.411 Y445.194
N990 X248.386 Y445.193
N995 X248.373
N1000 X238.509
N1005 Y443.293
N1010 X251.449
N1015 X251.472 Y443.295 Z-1.498
N1020 X251.494 Y443.3 Z-1.493
N1025 X251.515 Y443.308 Z-1.484
N1030 X251.532 Y443.318 Z-1.471
N1035 X251.546 Y443.329 Z-1.456
N1040 X251.557 Y443.339 Z-1.438
N1045 X251.566 Y443.349 Z-1.418
N1050 X251.571 Y443.356 Z-1.396
N1055 X251.574 Y443.36 Z-1.373
N1060 X251.575 Y443.362 Z-1.35
N1065 G0 Z5.
N1070 X249.409 Y444.519
N1075 Z2.5
N1080 G1 Z-0.35 F300.
N1085 X249.411 Y444.517 Z-0.372 F700.
N1090 X249.414 Y444.514 Z-0.393
N1095 X249.42 Y444.509 Z-0.413
N1100 X249.428 Y444.502 Z-0.432
N1105 X249.438 Y444.494 Z-0.45
N1110 X249.45 Y444.484 Z-0.465
N1115 X249.464 Y444.473 Z-0.478
N1120 X249.48 Y444.462 Z-0.488
N1125 X249.497 Y444.45 Z-0.495
N1130 G3 X250.282 Y445.64 Z-1.095 I0.392 J0.595
N1135 X249.497 Y444.45 Z-1.694 I-0.392 J-0.595
N1140 X250.282 Y445.64 Z-2.294 I0.392 J0.595
N1145 X249.497 Y444.45 Z-2.894 I-0.392 J-0.595
N1150 X249.851 Y444.334 Z-2.995 I0.392 J0.595
N1155 G1 X249.87 Y444.333 Z-2.999
N1160 X249.889 Z-3.
N1165 X249.991
N1170 G3 X250.135 Y444.682 I0. J0.205
N1175 G1 X250.082 Y444.739
N1180 X250.031 Y444.797
N1185 G3 X249.748 I-0.142 J-0.12
N1190 G1 X249.697 Y444.739
N1195 X249.644 Y444.682
N1200 G3 X249.788 Y444.333 I0.144 J-0.145
N1205 G1 X249.889
N1210 G2 X250.279 Y444.073 I0. J-0.422
N1215 G3 X250.668 Y443.814 I0.389 J0.162
N1220 G1 X260.294
N1225 G3 X260.749 Y444.269 I0. J0.455
N1230 G1 Y456.758
N1235 G3 X260.258 I-0.246 J0.
N1240 G1 X260.312 Y445.777
N1245 G2 X259.981 Y445.052 I-1.363 J0.183
N1250 X259.296 Y444.644 I-0.973 J0.856
N1255 G1 X259.219 Y444.629
N1260 X259.141 Y444.617
N1265 X259.063 Y444.61
N1270 X258.985 Y444.608
N1275 X251.286 Y444.613
N1280 G2 X250.52 Y444.944 I0.136 J1.367
N1285 X250.1 Y445.666 I0.853 J0.979
N1290 G1 X250.079 Y445.797
N1295 X250.071 Y445.93
N1300 X250.135 Y456.332
N1305 G3 X249.644 I-0.246 J0.
N1310 G1 X249.697 Y445.777
N1315 G2 X249.34 Y445.023 I-1.361 J0.183
N1320 X248.604 Y444.628 I-0.949 J0.886
N1325 G1 X248.489 Y444.613
N1330 X248.373 Y444.608
N1335 X239.474 Y444.672
N1340 G3 Y443.814 I0. J-0.429
N1345 G1 X250.668
N1350 G2 X251.058 Y443.553 I0. J-0.423
N1355 G3 X251.449 Y443.293 I0.391 J0.163
N1360 G1 X261.27
N1365 Y457.631
N1370 X259.737
N1375 Y445.93
N1380 X259.736 Y445.904
N1385 X259.735 Y445.88
N1390 X259.732 Y445.855
N1395 X259.729 Y445.831
N1400 X259.725 Y445.806
N1405 X259.72 Y445.782
N1410 X259.714 Y445.757
N1415 X259.707 Y445.733
N1420 X259.7 Y445.708
N1425 X259.691 Y445.684
N1430 X259.682 Y445.66
N1435 X259.671 Y445.635
N1440 X259.66 Y445.611
N1445 X259.647 Y445.586
N1450 X259.633 Y445.561
N1455 X259.616 Y445.535
N1460 X259.599 Y445.509
N1465 X259.579 Y445.483
N1470 X259.559 Y445.458
N1475 X259.539 Y445.435
N1480 X259.517 Y445.412
N1485 X259.494 Y445.39
N1490 X259.468 Y445.367
N1495 X259.441 Y445.346
N1500 X259.414 Y445.326
N1505 X259.387 Y445.309
N1510 X259.362 Y445.293
N1515 X259.337 Y445.279
N1520 X259.313 Y445.267
N1525 X259.288 Y445.256
N1530 X259.264 Y445.246
N1535 X259.239 Y445.236
N1540 X259.215 Y445.228
N1545 X259.19 Y445.221
N1550 X259.166 Y445.214
N1555 X259.141 Y445.209
N1560 X259.117 Y445.204
N1565 X259.093 Y445.2
N1570 X259.068 Y445.197
N1575 X259.044 Y445.195
N1580 X259.019 Y445.194
N1585 X258.995 Y445.193
N1590 X258.985
N1595 X251.405
N1600 X251.393
N1605 X251.368 Y445.194
N1610 X251.344 Y445.195
N1615 X251.319 Y445.198
N1620 X251.295 Y445.201
N1625 X251.27 Y445.205
N1630 X251.246 Y445.21
N1635 X251.221 Y445.216
N1640 X251.197 Y445.223
N1645 X251.173 Y445.23
N1650 X251.148 Y445.239
N1655 X251.124 Y445.248
N1660 X251.099 Y445.258
N1665 X251.075 Y445.27
N1670 X251.05 Y445.283
N1675 X251.026 Y445.296
N1680 X251.001 Y445.311
N1685 X250.977 Y445.328
N1690 X250.951 Y445.346
N1695 X250.925 Y445.368
N1700 X250.899 Y445.39
N1705 X250.873 Y445.415
N1710 X250.85 Y445.439
N1715 X250.829 Y445.464
N1720 X250.809 Y445.488
N1725 X250.791 Y445.513
N1730 X250.775 Y445.537
N1735 X250.76 Y445.562
N1740 X250.744 Y445.59
N1745 X250.728 Y445.622
N1750 X250.714 Y445.655
N1755 X250.701 Y445.687
N1760 X250.69 Y445.72
N1765 X250.68 Y445.753
N1770 X250.673 Y445.782
N1775 X250.668 Y445.806
N1780 X250.664 Y445.831
N1785 X250.661 Y445.855
N1790 X250.658 Y445.88
N1795 X250.657 Y445.904
N1800 X250.656 Y445.93
N1805 Y457.205
N1810 X249.123
N1815 Y445.93
N1820 X249.122 Y445.904
N1825 X249.12 Y445.88
N1830 X249.118 Y445.855
N1835 X249.115 Y445.831
N1840 X249.11 Y445.806
N1845 X249.105 Y445.782
N1850 X249.098 Y445.753
N1855 X249.089 Y445.72
N1860 X249.078 Y445.687
N1865 X249.065 Y445.655
N1870 X249.051 Y445.622
N1875 X249.035 Y445.59
N1880 X249.019 Y445.562
N1885 X249.004 Y445.537
N1890 X248.987 Y445.513
N1895 X248.97 Y445.488
N1900 X248.95 Y445.464
N1905 X248.929 Y445.439
N1910 X248.905 Y445.414
N1915 X248.877 Y445.388
N1920 X248.851 Y445.365
N1925 X248.826 Y445.346
N1930 X248.802 Y445.328
N1935 X248.777 Y445.311
N1940 X248.753 Y445.296
N1945 X248.729 Y445.283
N1950 X248.704 Y445.27
N1955 X248.68 Y445.258
N1960 X248.655 Y445.248
N1965 X248.631 Y445.239
N1970 X248.606 Y445.23
N1975 X248.582 Y445.223
N1980 X248.557 Y445.216
N1985 X248.533 Y445.21
N1990 X248.508 Y445.205
N1995 X248.484 Y445.201
N2000 X248.46 Y445.198
N2005 X248.435 Y445.195
N2010 X248.411 Y445.194
N2015 X248.386 Y445.193
N2020 X248.373
N2025 X238.509
N2030 Y443.293
N2035 X251.449
N2040 X251.472 Y443.295 Z-2.998
N2045 X251.494 Y443.3 Z-2.993
N2050 X251.515 Y443.308 Z-2.984
N2055 X251.532 Y443.318 Z-2.971
N2060 X251.546 Y443.329 Z-2.956
N2065 X251.557 Y443.339 Z-2.938
N2070 X251.566 Y443.349 Z-2.918
N2075 X251.571 Y443.356 Z-2.896
N2080 X251.574 Y443.36 Z-2.873
N2085 X251.575 Y443.362 Z-2.85
N2090 G0 Z5.
N2095 X240.264 Y410.915
N2100 Z1.15
N2105 G1 X240.265 Y410.914 Z1.128 F700.
N2110 X240.269 Y410.911 Z1.107
N2115 X240.274 Y410.906 Z1.087
N2120 X240.282 Y410.899 Z1.068
N2125 X240.293 Y410.891 Z1.05
N2130 X240.305 Y410.881 Z1.035
N2135 X240.319 Y410.87 Z1.022
N2140 X240.335 Y410.859 Z1.012
N2145 X240.352 Y410.848 Z1.005
N2150 G3 X241.133 Y412.039 Z0.405 I0.391 J0.596
N2155 X240.352 Y410.847 Z-0.194 I-0.391 J-0.596
N2160 X241.133 Y412.039 Z-0.794 I0.391 J0.596
N2165 X240.352 Y410.847 Z-1.394 I-0.391 J-0.596
N2170 X240.705 Y410.732 Z-1.495 I0.391 J0.596
N2175 G1 X240.725 Y410.731 Z-1.499
N2180 X240.744 Z-1.5
N2185 G3 X241.399 Y411.389 I-0.002 J0.656
N2190 X240.741 Y412.043 I-0.656 J-0.002
N2195 G1 X240.634
N2200 G2 X239.945 Y412.337 I0.183 J1.381
N2205 X239.522 Y412.954 I0.806 J1.005
N2210 G1 X239.497 Y413.044
N2215 X239.477 Y413.135
N2220 X239.463 Y413.228
N2225 X239.458 Y413.321
N2230 X239.521 Y423.853
N2235 G3 X239.335 Y424.038 I-0.185 J0.
N2240 G1 X239.215
N2245 G3 X239.029 Y423.853 I0. J-0.185
N2250 G1 Y411.705
N2255 G3 X239.484 Y411.25 I0.455 J0.
N2260 G1 X260.414
N2265 G3 X260.75 Y411.586 I0. J0.335
N2270 G1 Y411.762
N2275 G3 X260.414 Y412.097 I-0.335 J0.
N2280 G1 X240.741 Y412.043
N2285 G2 X240.246 Y412.475 I-0.001 J0.498
N2290 G3 X240.086 Y413.112 I-2.913 J-0.391
N2295 G1 X240.08 Y413.13
N2300 X240.072 Y413.155
N2305 X240.065 Y413.179
N2310 X240.059 Y413.204
N2315 X240.054 Y413.228
N2320 X240.05 Y413.252
N2325 X240.047 Y413.277
N2330 X240.044 Y413.301
N2335 X240.042 Y413.333
N2340 X240.041 Y413.382
N2345 Y413.39
N2350 Y424.559
N2355 X238.509
N2360 Y410.73
N2365 X261.27
N2370 Y412.618
N2375 X240.794
N2380 X240.779
N2385 X240.745 Y412.619
N2390 X240.71 Y412.622
N2395 X240.676 Y412.627
N2400 X240.644 Y412.632
N2405 X240.615 Y412.639
N2410 X240.588 Y412.646
N2415 X240.564 Y412.653
N2420 X240.54 Y412.661
N2425 X240.515 Y412.671
N2430 X240.491 Y412.681
N2435 X240.466 Y412.692
N2440 X240.442 Y412.704
N2445 X240.417 Y412.718
N2450 X240.397 Y412.73
N2455 X240.38 Y412.74
N2460 X240.36 Y412.755
N2465 X240.335 Y412.773
N2470 X240.311 Y412.792
N2475 X240.286 Y412.814
N2480 X240.265 Y412.833
N2485 X240.248 Y412.85
N2490 X240.232 Y412.868
N2495 X240.217 Y412.885
N2500 X240.204 Y412.902
N2505 X240.192 Y412.917
N2510 X240.175 Y412.941
N2515 X240.154 Y412.973
N2520 X240.14 Y412.996
N2525 X240.131 Y413.012
N2530 X240.12 Y413.032
N2535 X240.109 Y413.057
N2540 X240.098 Y413.081
N2545 X240.088 Y413.106
N2550 X240.086 Y413.112
N2555 X240.072 Y413.13
N2560 X240.05 Y413.135
N2565 X240.029 Y413.127
N2570 X240.017 Y413.107
N2575 X239.987 Y412.974
N2580 Y412.965
N2585 X240.018 Y411.442
N2590 Y411.438
N2595 X240.037 Y411.297
N2600 X240.045 Y411.28
N2605 X240.061 Y411.27
N2610 X240.079
N2615 X240.095 Y411.28
N2620 X240.107 Y411.295 Z-1.501
N2625 X240.119 Y411.31 Z-1.505
N2630 G3 X238.983 Y412.171 Z-2.105 I-0.568 J0.43
N2635 X240.119 Y411.31 Z-2.705 I0.568 J-0.43
N2640 X240.01 Y412.286 Z-2.995 I-0.568 J0.43
N2645 G1 X239.995 Y412.298 Z-2.999
N2650 X239.979 Y412.31 Z-3.
N2655 X239.945 Y412.337
N2660 G2 X239.522 Y412.954 I0.806 J1.005
N2665 G1 X239.497 Y413.044
N2670 X239.477 Y413.135
N2675 X239.463 Y413.228
N2680 X239.458 Y413.321
N2685 X239.521 Y423.853
N2690 G3 X239.335 Y424.038 I-0.185 J0.
N2695 G1 X239.215
N2700 G3 X239.029 Y423.853 I0. J-0.185
N2705 G1 Y411.705
N2710 G3 X239.484 Y411.25 I0.455 J0.
N2715 G1 X260.414
N2720 G3 X260.75 Y411.586 I0. J0.335
N2725 G1 Y411.762
N2730 G3 X260.414 Y412.097 I-0.335 J0.
N2735 G1 X240.634 Y412.043
N2740 G2 X239.979 Y412.31 I0.183 J1.381
N2745 X239.863 Y412.943 I0.286 J0.38
N2750 G3 X240.041 Y413.562 I-0.983 J0.618
N2755 G1 Y424.559
N2760 X238.509
N2765 Y413.39
N2770 Y410.73
N2775 X261.27
N2780 Y412.618
N2785 X240.794
N2790 X240.779
N2795 X240.745 Y412.619
N2800 X240.71 Y412.622
N2805 X240.676 Y412.627
N2810 X240.644 Y412.632
N2815 X240.615 Y412.639
N2820 X240.588 Y412.646
N2825 X240.564 Y412.653
N2830 X240.54 Y412.661
N2835 X240.515 Y412.671
N2840 X240.491 Y412.681
N2845 X240.466 Y412.692
N2850 X240.442 Y412.704
N2855 X240.417 Y412.718
N2860 X240.397 Y412.73
N2865 X240.38 Y412.74
N2870 X240.36 Y412.755
N2875 X240.335 Y412.773
N2880 X240.311 Y412.792
N2885 X240.286 Y412.814
N2890 X240.265 Y412.833
N2895 X240.248 Y412.85
N2900 X240.232 Y412.868
N2905 X240.217 Y412.885
N2910 X240.204 Y412.902
N2915 X240.192 Y412.917
N2920 X240.175 Y412.941
N2925 X240.154 Y412.973
N2930 X240.14 Y412.996
N2935 X240.131 Y413.012
N2940 X240.12 Y413.032
N2945 X240.109 Y413.057
N2950 X240.098 Y413.081
N2955 X240.088 Y413.106
N2960 X240.08 Y413.13
N2965 X240.072 Y413.155
N2970 X240.065 Y413.179
N2975 X240.059 Y413.204
N2980 X240.054 Y413.228
N2985 X240.05 Y413.252
N2990 X240.047 Y413.277
N2995 X240.044 Y413.301
N3000 X240.042 Y413.333
N3005 X240.041 Y413.382
N3010 Y413.39
N3015 Y413.562
N3020 X240.039 Y413.585 Z-2.998
N3025 X240.034 Y413.607 Z-2.993
N3030 X240.026 Y413.627 Z-2.984
N3035 X240.016 Y413.645 Z-2.971
N3040 X240.005 Y413.659 Z-2.956
N3045 X239.995 Y413.67 Z-2.938
N3050 X239.985 Y413.678 Z-2.918
N3055 X239.978 Y413.684 Z-2.896
N3060 X239.974 Y413.687 Z-2.873
N3065 X239.972 Y413.688 Z-2.85
N3070 G0 Z5.
N3075 X282.595 Y418.225
N3080 Z1.15
N3085 G1 X282.594 Y418.226 Z1.128 F700.
N3090 X282.59 Y418.228 Z1.107
N3095 X282.583 Y418.231 Z1.087
N3100 X282.573 Y418.235 Z1.068
N3105 X282.561 Y418.24 Z1.05
N3110 X282.546 Y418.246 Z1.035
N3115 X282.53 Y418.252 Z1.022
N3120 X282.511 Y418.258 Z1.012
N3125 X282.492 Y418.264 Z1.005
N3130 G3 X282.082 Y418.26 Z0.894 I-0.198 J-0.684
N3135 X282.505 Y416.899 Z0.294 I0.212 J-0.68
N3140 X282.082 Y418.26 Z-0.306 I-0.212 J0.68
N3145 X282.505 Y416.899 Z-0.906 I0.212 J-0.68
N3150 X282.119 Y418.271 Z-1.495 I-0.212 J0.68
N3155 G1 X282.101 Y418.266 Z-1.499
N3160 X282.082 Y418.26 Z-1.5
N3165 G2 X281.635 Y418.189 I-0.472 J1.519
N3170 X280.931 Y418.397 I-0.019 J1.23
N3175 G1 X272.837 Y423.872
N3180 G3 X272.457 Y423.669 I-0.136 J-0.203
N3185 G1 Y423.658
N3190 X272.465 Y423.597
N3195 X272.487 Y423.54
N3200 X272.523 Y423.49
N3205 X272.571 Y423.451
N3210 X282.15 Y417.357
N3215 X282.222 Y417.295
N3220 X282.289 Y417.227
N3225 G3 X282.632 Y417.36 I0.144 J0.139
N3230 G2 X282.648 Y417.752 I12.473 J-0.313
N3235 X282.68 Y418.142 I8.153 J-0.461
N3240 G3 X282.346 Y418.369 I-0.228 J0.024
N3245 G2 X282.082 Y418.26 I-0.736 J1.41
N3250 G1 X282.06 Y418.252 Z-1.498
N3255 X282.04 Y418.241 Z-1.493
N3260 X282.023 Y418.228 Z-1.484
N3265 X282.009 Y418.213 Z-1.471
N3270 X281.998 Y418.199 Z-1.456
N3275 X281.99 Y418.186 Z-1.438
N3280 X281.985 Y418.175 Z-1.418
N3285 X281.982 Y418.166 Z-1.396
N3290 X281.98 Y418.161 Z-1.373
N3295 Y418.159 Z-1.35
N3300 G0 Z5.
N3305 X288.808 Y424.752
N3310 Z1.15
N3315 G1 X288.807 Y424.753 Z1.128 F700.
N3320 X288.804 Y424.756 Z1.107
N3325 X288.798 Y424.761 Z1.087
N3330 X288.79 Y424.768 Z1.068
N3335 X288.779 Y424.776 Z1.05
N3340 X288.767 Y424.786 Z1.035
N3345 X288.753 Y424.797 Z1.022
N3350 X288.737 Y424.808 Z1.012
N3355 X288.72 Y424.819 Z1.005
N3360 G3 X288.327 Y424.934 Z0.894 I-0.388 J-0.598
N3365 X288.338 Y423.509 Z0.294 I0.005 J-0.712
N3370 X288.327 Y424.934 Z-0.306 I-0.005 J0.712
N3375 X288.338 Y423.509 Z-0.906 I0.005 J-0.712
N3380 X288.906 Y423.798 Z-1.083 I-0.005 J0.712
N3385 X288.366 Y424.933 Z-1.495 I-0.573 J0.423
N3390 G1 X288.347 Y424.934 Z-1.499
N3395 X288.327 Z-1.5
N3400 G3 X287.747 Y424.345 I0.004 J-0.584
N3405 X288.336 Y423.766 I0.584 J0.004
N3410 G1 X288.5 Y423.764
N3415 G2 X291.965 Y422.386 I-0.112 J-5.326
N3420 X292.292 Y422.016 I-1.488 J-1.642
N3425 G3 X292.578 Y421.612 I36.722 J25.723
N3430 X292.809 Y421.753 I0.11 J0.079
N3435 X290.364 Y423.896 I-3.953 J-2.044
N3440 X287.117 Y424.066 I-1.904 J-5.283
N3445 X285.863 Y423.611 I1.504 J-6.108
N3450 X284.769 Y422.849 I1.9 J-3.894
N3455 X284.946 Y422.638 I0.095 J-0.1
N3460 G2 X288.336 Y423.766 I3.433 J-4.665
N3465 X288.909 Y423.372 I0.005 J-0.607
N3470 G3 X289.445 Y422.93 I0.654 J0.246
N3475 G1 X289.464 Y422.926
N3480 X289.485 Y422.922
N3485 X289.68 Y422.878
N3490 X289.691 Y422.875
N3495 X289.798 Y422.847
N3500 X289.811 Y422.844
N3505 X289.997 Y422.788
N3510 X290.017 Y422.782
N3515 X290.135 Y422.739
N3520 X290.14 Y422.737
N3525 X290.291 Y422.681
N3530 X290.314 Y422.671
N3535 X290.534 Y422.571
N3540 X290.556 Y422.56
N3545 X290.653 Y422.508
N3550 X290.658 Y422.506
N3555 X290.811 Y422.421
N3560 X290.834 Y422.407
N3565 X290.984 Y422.31
N3570 X290.991 Y422.305
N3575 X291.079 Y422.245
N3580 X291.096 Y422.233
N3585 X291.273 Y422.098
N3590 X291.293 Y422.081
N3595 X291.346 Y422.034
N3600 X291.35 Y422.031
N3605 X291.511 Y421.885
N3610 X291.529 Y421.867
N3615 X291.674 Y421.717
N3620 X291.684 Y421.706
N3625 X291.735 Y421.649
N3630 X291.743 Y421.639
N3635 X291.841 Y421.521
N3640 X291.845 Y421.517
N3645 X291.9 Y421.448
N3650 X291.913 Y421.432
N3655 X292.053 Y421.236
N3660 X292.066 Y421.217
N3665 X292.189 Y421.021
N3670 X292.198 Y421.006
N3675 X292.271 Y420.878
N3680 X292.273 Y420.874
N3685 X292.31 Y420.806
N3690 X292.314 Y420.798
N3695 X292.365 Y420.701
N3700 X292.37 Y420.689
N3705 X292.463 Y420.493
N3710 X292.47 Y420.477
N3715 X292.552 Y420.281
N3720 X292.556 Y420.271
N3725 X292.593 Y420.173
N3730 X292.596 Y420.166
N3735 X292.666 Y419.97
N3740 X292.67 Y419.957
N3745 X292.732 Y419.761
N3750 X292.735 Y419.75
N3755 X292.763 Y419.652
N3760 X292.764 Y419.649
N3765 X292.795 Y419.535
N3770 X292.796 Y419.531
N3775 X292.817 Y419.449
N3780 X292.819 Y419.44
N3785 X292.865 Y419.244
N3790 X292.867 Y419.234
N3795 X292.898 Y419.083
N3800 X292.899 Y419.08
N3805 X292.927 Y418.938
N3810 X292.929 Y418.927
N3815 X292.961 Y418.731
N3820 Y418.726
N3825 X292.976 Y418.629
N3830 X292.977 Y418.625
N3835 X293.004 Y418.429
N3840 X293.005 Y418.418
N3845 X293.027 Y418.223
N3850 X293.028 Y418.22
N3855 X293.038 Y418.122
N3860 Y418.117
N3865 X293.056 Y417.922
N3870 Y417.911
N3875 X293.075 Y417.618
N3880 Y417.612
N3885 X293.084 Y417.416
N3890 Y417.41
N3895 X293.09 Y417.214
N3900 Y417.212
N3905 X293.092 Y417.114
N3910 Y417.109
N3915 X293.094 Y416.815
N3920 Y416.812
N3925 Y415.823
N3930 X294.319
N3935 Y417.226
N3940 X294.314 Y417.589
N3945 X294.312 Y417.682
N3950 X294.298 Y418.066
N3955 X294.293 Y418.159
N3960 X294.267 Y418.542
N3965 X294.23 Y418.926
N3970 X294.22 Y419.017
N3975 X294.169 Y419.399
N3980 X294.155 Y419.49
N3985 X294.089 Y419.87
N3990 X294.008 Y420.25
N3995 X293.986 Y420.339
N4000 X293.886 Y420.72
N4005 X293.8 Y421.003
N4010 X293.771 Y421.094
N4015 X293.673 Y421.376
N4020 X293.554 Y421.675
N4025 X293.48 Y421.841
N4030 X293.437 Y421.936
N4035 X293.395 Y422.025
N4040 X293.258 Y422.29
N4045 X293.089 Y422.578
N4050 X292.904 Y422.852
N4055 X292.725 Y423.086
N4060 X292.694 Y423.124
N4065 X292.536 Y423.309
N4070 X292.451 Y423.399
N4075 X292.362 Y423.49
N4080 X292.269 Y423.58
N4085 X292.169 Y423.672
N4090 X292.093 Y423.739
N4095 X291.911 Y423.886
N4100 X291.823 Y423.95
N4105 X291.705 Y424.034
N4110 X291.642 Y424.076
N4115 X291.421 Y424.213
N4120 X291.189 Y424.337
N4125 X291.068 Y424.393
N4130 X290.916 Y424.463
N4135 X290.632 Y424.577
N4140 X290.456 Y424.637
N4145 X290.358 Y424.669
N4150 X290.277 Y424.693
N4155 X290.029 Y424.76
N4160 X289.712 Y424.827
N4165 X289.445 Y424.869
N4170 X289.356 Y424.881
N4175 X289.076 Y424.911
N4180 X288.796 Y424.929
N4185 X288.706 Y424.932
N4190 X288.423 Y424.937
N4195 X288.238 Y424.934
N4200 X288.148 Y424.93
N4205 X287.963 Y424.919
N4210 X287.873 Y424.91
N4215 X287.687 Y424.891
N4220 X287.501 Y424.865
N4225 X287.411 Y424.85
N4230 X287.225 Y424.816
N4235 X287.135 Y424.797
N4240 X286.948 Y424.754
N4245 X286.762 Y424.705
N4250 X286.672 Y424.679
N4255 X286.461 Y424.614
N4260 X286.297 Y424.558
N4265 X286.208 Y424.526
N4270 X286.024 Y424.453
N4275 X285.936 Y424.415
N4280 X285.751 Y424.33
N4285 X285.566 Y424.235
N4290 X285.521 Y424.211
N4295 X285.358 Y424.117
N4300 X285.296 Y424.079
N4305 X285.111 Y423.961
N4310 X284.928 Y423.832
N4315 X284.821 Y423.751
N4320 X284.704 Y423.661
N4325 X284.492 Y423.478
N4330 X284.301 Y423.295
N4335 X284.105 Y423.087
N4340 X283.965 Y422.925
N4345 X283.922 Y422.874
N4350 X283.747 Y422.65
N4355 X283.614 Y422.465
N4360 X283.551 Y422.373
N4365 X283.456 Y422.228
N4370 X283.43 Y422.188
N4375 X283.316 Y422.
N4380 X283.264 Y421.91
N4385 X283.161 Y421.721
N4390 X283.116 Y421.633
N4395 X282.996 Y421.381
N4400 X282.871 Y421.079
N4405 X282.772 Y420.799
N4410 X282.743 Y420.71
N4415 X282.685 Y420.519
N4420 X282.658 Y420.428
N4425 X282.585 Y420.146
N4430 X282.565 Y420.056
N4435 X282.504 Y419.771
N4440 X282.445 Y419.443
N4445 X282.443 Y419.434
N4450 X282.439 Y419.413
N4455 X282.432 Y419.385
N4460 X282.421 Y419.348
N4465 X282.411 Y419.318
N4470 X282.401 Y419.294
N4475 X282.391 Y419.269
N4480 X282.38 Y419.245
N4485 X282.367 Y419.22
N4490 X282.353 Y419.196
N4495 X282.338 Y419.171
N4500 X282.322 Y419.147
N4505 X282.304 Y419.122
N4510 X282.285 Y419.098
N4515 X282.264 Y419.074
N4520 X282.242 Y419.05
N4525 X282.222 Y419.031
N4530 X282.206 Y419.016
N4535 X282.191 Y419.002
N4540 X282.175 Y418.99
N4545 X282.152 Y418.972
N4550 X282.12 Y418.95
N4555 X282.095 Y418.934
N4560 X282.078 Y418.924
N4565 X282.061 Y418.914
N4570 X282.043 Y418.905
N4575 X282.022 Y418.895
N4580 X281.998 Y418.884
N4585 X281.973 Y418.874
N4590 X281.949 Y418.865
N4595 X281.924 Y418.858
N4600 X281.9 Y418.851
N4605 X281.875 Y418.844
N4610 X281.851 Y418.839
N4615 X281.821 Y418.834
N4620 X281.784 Y418.829
N4625 X281.747 Y418.826
N4630 X281.711 Y418.825
N4635 X281.68 Y418.826
N4640 X281.656 Y418.827
N4645 X281.631 Y418.829
N4650 X281.607 Y418.832
N4655 X281.582 Y418.835
N4660 X281.558 Y418.84
N4665 X281.533 Y418.845
N4670 X281.509 Y418.851
N4675 X281.485 Y418.859
N4680 X281.46 Y418.867
N4685 X281.43 Y418.878
N4690 X281.395 Y418.893
N4695 X281.369 Y418.905
N4700 X281.352 Y418.914
N4705 X281.334 Y418.924
N4710 X281.317 Y418.934
N4715 X281.298 Y418.946
N4720 X271.842 Y425.278
N4725 Y423.186
N4730 X281.729 Y416.895
N4735 X281.753 Y416.879
N4740 X281.777 Y416.861
N4745 X281.802 Y416.84
N4750 X281.826 Y416.819
N4755 X281.848 Y416.798
N4760 X281.867 Y416.778
N4765 X281.886 Y416.756
N4770 X281.906 Y416.732
N4775 X281.925 Y416.707
N4780 X281.942 Y416.683
N4785 X281.957 Y416.658
N4790 X281.971 Y416.634
N4795 X281.984 Y416.609
N4800 X281.996 Y416.585
N4805 X282.006 Y416.562
N4810 X282.015 Y416.54
N4815 X282.023 Y416.518
N4820 X282.031 Y416.496
N4825 X282.038 Y416.471
N4830 X282.045 Y416.444
N4835 X282.051 Y416.417
N4840 X282.056 Y416.39
N4845 X282.059 Y416.365
N4850 X282.062 Y416.34
N4855 X282.064 Y416.316
N4860 X282.065 Y416.291
N4865 Y416.275
N4870 Y415.823
N4875 X283.243
N4880 Y417.106
N4885 Y417.112
N4890 X283.246 Y417.308
N4895 Y417.311
N4900 X283.249 Y417.409
N4905 Y417.415
N4910 X283.258 Y417.611
N4915 Y417.615
N4920 X283.263 Y417.712
N4925 Y417.72
N4930 X283.278 Y417.915
N4935 Y417.917
N4940 X283.285 Y418.014
N4945 X283.286 Y418.025
N4950 X283.307 Y418.221
N4955 Y418.226
N4960 X283.319 Y418.324
N4965 X283.32 Y418.328
N4970 X283.332 Y418.426
N4975 X283.333 Y418.432
N4980 X283.358 Y418.596
N4985 X283.359 Y418.603
N4990 X283.381 Y418.733
N4995 X283.382 Y418.738
N5000 X283.4 Y418.836
N5005 Y418.84
N5010 X283.42 Y418.938
N5015 X283.421 Y418.945
N5020 X283.442 Y419.043
N5025 X283.443 Y419.048
N5030 X283.466 Y419.146
N5035 X283.468 Y419.153
N5040 X283.493 Y419.251
N5045 X283.494 Y419.255
N5050 X283.519 Y419.353
N5055 X283.522 Y419.361
N5060 X283.564 Y419.507
N5065 X283.567 Y419.518
N5070 X283.615 Y419.665
N5075 X283.618 Y419.676
N5080 X283.669 Y419.818
N5085 X283.67 Y419.821
N5090 X283.689 Y419.875
N5095 X283.692 Y419.882
N5100 X283.73 Y419.98
N5105 X283.732 Y419.984
N5110 X283.772 Y420.084
N5115 X283.776 Y420.093
N5120 X283.817 Y420.189
N5125 X283.819 Y420.193
N5130 X283.875 Y420.319
N5135 X283.879 Y420.328
N5140 X283.913 Y420.397
N5145 X283.916 Y420.403
N5150 X283.98 Y420.532
N5155 X283.985 Y420.541
N5160 X284.047 Y420.657
N5165 X284.052 Y420.666
N5170 X284.112 Y420.771
N5175 X284.115 Y420.776
N5180 X284.14 Y420.817
N5185 X284.144 Y420.824
N5190 X284.204 Y420.922
N5195 X284.208 Y420.928
N5200 X284.271 Y421.025
N5205 X284.28 Y421.038
N5210 X284.349 Y421.136
N5215 X284.353 Y421.142
N5220 X284.426 Y421.24
N5225 X284.432 Y421.249
N5230 X284.509 Y421.347
N5235 X284.519 Y421.359
N5240 X284.617 Y421.474
N5245 X284.625 Y421.484
N5250 X284.699 Y421.564
N5255 X284.706 Y421.572
N5260 X284.801 Y421.67
N5265 X284.811 Y421.679
N5270 X284.913 Y421.777
N5275 X284.916 Y421.78
N5280 X284.94 Y421.802
N5285 X284.948 Y421.81
N5290 X285.046 Y421.896
N5295 X285.055 Y421.903
N5300 X285.161 Y421.991
N5305 X285.17 Y421.998
N5310 X285.259 Y422.067
N5315 X285.267 Y422.073
N5320 X285.365 Y422.145
N5325 X285.376 Y422.153
N5330 X285.473 Y422.22
N5335 X285.484 Y422.227
N5340 X285.62 Y422.312
N5345 X285.628 Y422.317
N5350 X285.688 Y422.353
N5355 X285.696 Y422.358
N5360 X285.807 Y422.42
N5365 X285.817 Y422.425
N5370 X285.902 Y422.47
N5375 X285.913 Y422.476
N5380 X286.024 Y422.529
N5385 X286.032 Y422.533
N5390 X286.117 Y422.571
N5395 X286.126 Y422.575
N5400 X286.224 Y422.616
N5405 X286.23 Y422.619
N5410 X286.276 Y422.637
N5415 X286.285 Y422.64
N5420 X286.435 Y422.696
N5425 X286.444 Y422.699
N5430 X286.569 Y422.742
N5435 X286.577 Y422.744
N5440 X286.647 Y422.766
N5445 X286.656 Y422.769
N5450 X286.852 Y422.826
N5455 X286.862 Y422.828
N5460 X286.96 Y422.854
N5465 X286.967 Y422.856
N5470 X287.065 Y422.879
N5475 X287.072 Y422.881
N5480 X287.17 Y422.902
N5485 X287.175 Y422.903
N5490 X287.272 Y422.923
N5495 X287.284 Y422.925
N5500 X287.479 Y422.958
N5505 X287.492 Y422.96
N5510 X287.59 Y422.974
N5515 X287.597 Y422.975
N5520 X287.793 Y422.997
N5525 X287.804 Y422.998
N5530 X287.902 Y423.007
N5535 X287.911 Y423.008
N5540 X288.107 Y423.02
N5545 X288.116
N5550 X288.214 Y423.023
N5555 X288.219 Y423.024
N5560 X288.316 Y423.026
N5565 X288.328
N5570 X288.426 Y423.025
N5575 X288.431
N5580 X288.651 Y423.02
N5585 X288.668
N5590 X288.839 Y423.009
N5595 X288.842 Y423.008
N5600 X288.94 Y423.001
N5605 X288.955 Y423.
N5610 X289.151 Y422.977
N5615 X289.162 Y422.976
N5620 X289.26 Y422.961
N5625 X289.269 Y422.96
N5630 X289.445 Y422.93
N5635 X289.473
N5640 X289.499 Y422.941
N5645 X289.519 Y422.961
N5650 X289.53 Y422.986
N5655 X289.693 Y423.667
N5660 X289.703 Y423.69
N5665 X289.719 Y423.709
N5670 X289.742 Y423.721
N5675 X290.227 Y423.885
N5680 X290.248 Y423.897
N5685 X290.265 Y423.914
N5690 X290.275 Y423.937
N5695 X290.28 Y423.956 Z-1.501
N5700 X290.284 Y423.974 Z-1.505
N5705 G3 X288.89 Y424.271 Z-2.105 I-0.697 J0.148
N5710 X290.284 Y423.974 Z-2.705 I0.697 J-0.148
N5715 X289.77 Y424.811 Z-2.995 I-0.697 J0.148
N5720 G1 X289.752 Y424.816 Z-2.999
N5725 X289.733 Y424.82 Z-3.
N5730 G3 X289.042 Y424.368 I-0.119 J-0.571
N5735 X289.494 Y423.678 I0.571 J-0.119
N5740 G2 X292.111 Y422.229 I-1.034 J-4.955
N5745 X292.355 Y421.93 I-1.728 J-1.659
N5750 G3 X292.577 Y421.613 I16.765 J11.559
N5755 X292.808 Y421.755 I0.11 J0.079
N5760 X290.363 Y423.897 I-3.951 J-2.042
N5765 X287.117 Y424.066 I-1.902 J-5.285
N5770 X285.864 Y423.612 I1.506 J-6.113
N5775 X284.77 Y422.85 I1.896 J-3.889
N5780 X284.947 Y422.639 I0.095 J-0.1
N5785 G2 X288.606 Y423.783 I3.49 J-4.741
N5790 X289.494 Y423.678 I-0.146 J-5.059
N5795 G1 X289.518 Y423.676 Z-2.998
N5800 X289.54 Y423.677 Z-2.993
N5805 X289.562 Y423.682 Z-2.984
N5810 X289.581 Y423.689 Z-2.971
N5815 X289.596 Y423.697 Z-2.956
N5820 X289.609 Y423.705 Z-2.938
N5825 X289.619 Y423.713 Z-2.918
N5830 X289.625 Y423.719 Z-2.896
N5835 X289.629 Y423.723 Z-2.873
N5840 X289.63 Y423.725 Z-2.85
N5845 G0 Z5.
N5850 X282.595 Y418.225
N5855 Z2.5
N5860 G1 Z-0.35 F300.
N5865 X282.594 Y418.226 Z-0.372 F700.
N5870 X282.59 Y418.228 Z-0.393
N5875 X282.583 Y418.231 Z-0.413
N5880 X282.573 Y418.235 Z-0.432
N5885 X282.561 Y418.24 Z-0.45
N5890 X282.546 Y418.246 Z-0.465
N5895 X282.53 Y418.252 Z-0.478
N5900 X282.511 Y418.258 Z-0.488
N5905 X282.492 Y418.264 Z-0.495
N5910 G3 X282.082 Y418.26 Z-0.606 I-0.198 J-0.684
N5915 X282.505 Y416.899 Z-1.206 I0.212 J-0.68
N5920 X282.082 Y418.26 Z-1.806 I-0.212 J0.68
N5925 X282.505 Y416.899 Z-2.406 I0.212 J-0.68
N5930 X282.119 Y418.271 Z-2.995 I-0.212 J0.68
N5935 G1 X282.101 Y418.266 Z-2.999
N5940 X282.082 Y418.26 Z-3.
N5945 G2 X281.635 Y418.189 I-0.472 J1.519
N5950 X280.931 Y418.397 I-0.019 J1.23
N5955 G1 X272.837 Y423.872
N5960 G3 X272.457 Y423.669 I-0.136 J-0.203
N5965 G1 Y423.658
N5970 X272.465 Y423.597
N5975 X272.487 Y423.54
N5980 X272.523 Y423.49
N5985 X272.571 Y423.451
N5990 X282.15 Y417.357
N5995 X282.222 Y417.295
N6000 X282.289 Y417.227
N6005 G3 X282.632 Y417.36 I0.144 J0.139
N6010 G2 X282.648 Y417.752 I12.473 J-0.313
N6015 X282.68 Y418.142 I8.153 J-0.461
N6020 G3 X282.346 Y418.369 I-0.228 J0.024
N6025 G2 X282.082 Y418.26 I-0.736 J1.41
N6030 X281.469 Y418.569 I-0.147 J0.472
N6035 G3 X281.048 Y419.113 I-1.023 J-0.357
N6040 G1 X271.842 Y425.278
N6045 Y423.186
N6050 X281.729 Y416.895
N6055 X281.753 Y416.879
N6060 X281.777 Y416.861
N6065 X281.802 Y416.84
N6070 X281.826 Y416.819
N6075 X281.848 Y416.798
N6080 X281.867 Y416.778
N6085 X281.886 Y416.756
N6090 X281.906 Y416.732
N6095 X281.925 Y416.707
N6100 X281.942 Y416.683
N6105 X281.957 Y416.658
N6110 X281.971 Y416.634
N6115 X281.984 Y416.609
N6120 X281.996 Y416.585
N6125 X282.006 Y416.562
N6130 X282.015 Y416.54
N6135 X282.023 Y416.518
N6140 X282.031 Y416.496
N6145 X282.038 Y416.471
N6150 X282.045 Y416.444
N6155 X282.051 Y416.417
N6160 X282.056 Y416.39
N6165 X282.059 Y416.365
N6170 X282.062 Y416.34
N6175 X282.064 Y416.316
N6180 X282.065 Y416.291
N6185 Y416.275
N6190 Y415.823
N6195 X283.243
N6200 Y417.106
N6205 Y417.112
N6210 X283.246 Y417.308
N6215 Y417.311
N6220 X283.249 Y417.409
N6225 Y417.415
N6230 X283.258 Y417.611
N6235 Y417.615
N6240 X283.263 Y417.712
N6245 Y417.72
N6250 X283.278 Y417.915
N6255 Y417.917
N6260 X283.285 Y418.014
N6265 X283.286 Y418.025
N6270 X283.307 Y418.221
N6275 Y418.226
N6280 X283.319 Y418.324
N6285 X283.32 Y418.328
N6290 X283.332 Y418.426
N6295 X283.333 Y418.432
N6300 X283.358 Y418.596
N6305 X283.359 Y418.603
N6310 X283.381 Y418.733
N6315 X283.382 Y418.738
N6320 X283.4 Y418.836
N6325 Y418.84
N6330 X283.42 Y418.938
N6335 X283.421 Y418.945
N6340 X283.442 Y419.043
N6345 X283.443 Y419.048
N6350 X283.466 Y419.146
N6355 X283.468 Y419.153
N6360 X283.493 Y419.251
N6365 X283.494 Y419.255
N6370 X283.519 Y419.353
N6375 X283.522 Y419.361
N6380 X283.564 Y419.507
N6385 X283.567 Y419.518
N6390 X283.615 Y419.665
N6395 X283.618 Y419.676
N6400 X283.669 Y419.818
N6405 X283.67 Y419.821
N6410 X283.689 Y419.875
N6415 X283.692 Y419.882
N6420 X283.73 Y419.98
N6425 X283.732 Y419.984
N6430 X283.772 Y420.084
N6435 X283.776 Y420.093
N6440 X283.817 Y420.189
N6445 X283.819 Y420.193
N6450 X283.875 Y420.319
N6455 X283.879 Y420.328
N6460 X283.913 Y420.397
N6465 X283.916 Y420.403
N6470 X283.98 Y420.532
N6475 X283.985 Y420.541
N6480 X284.047 Y420.657
N6485 X284.052 Y420.666
N6490 X284.112 Y420.771
N6495 X284.115 Y420.776
N6500 X284.14 Y420.817
N6505 X284.144 Y420.824
N6510 X284.204 Y420.922
N6515 X284.208 Y420.928
N6520 X284.271 Y421.025
N6525 X284.28 Y421.038
N6530 X284.349 Y421.136
N6535 X284.353 Y421.142
N6540 X284.426 Y421.24
N6545 X284.432 Y421.249
N6550 X284.509 Y421.347
N6555 X284.519 Y421.359
N6560 X284.617 Y421.474
N6565 X284.625 Y421.484
N6570 X284.699 Y421.564
N6575 X284.706 Y421.572
N6580 X284.801 Y421.67
N6585 X284.811 Y421.679
N6590 X284.913 Y421.777
N6595 X284.916 Y421.78
N6600 X284.94 Y421.802
N6605 X284.948 Y421.81
N6610 X285.046 Y421.896
N6615 X285.055 Y421.903
N6620 X285.161 Y421.991
N6625 X285.17 Y421.998
N6630 X285.259 Y422.067
N6635 X285.267 Y422.073
N6640 X285.365 Y422.145
N6645 X285.376 Y422.153
N6650 X285.473 Y422.22
N6655 X285.484 Y422.227
N6660 X285.62 Y422.312
N6665 X285.628 Y422.317
N6670 X285.688 Y422.353
N6675 X285.696 Y422.358
N6680 X285.807 Y422.42
N6685 X285.817 Y422.425
N6690 X285.902 Y422.47
N6695 X285.913 Y422.476
N6700 X286.024 Y422.529
N6705 X286.032 Y422.533
N6710 X286.117 Y422.571
N6715 X286.126 Y422.575
N6720 X286.224 Y422.616
N6725 X286.23 Y422.619
N6730 X286.276 Y422.637
N6735 X286.285 Y422.64
N6740 X286.435 Y422.696
N6745 X286.444 Y422.699
N6750 X286.569 Y422.742
N6755 X286.577 Y422.744
N6760 X286.647 Y422.766
N6765 X286.656 Y422.769
N6770 X286.852 Y422.826
N6775 X286.862 Y422.828
N6780 X286.96 Y422.854
N6785 X286.967 Y422.856
N6790 X287.065 Y422.879
N6795 X287.072 Y422.881
N6800 X287.17 Y422.902
N6805 X287.175 Y422.903
N6810 X287.272 Y422.923
N6815 X287.284 Y422.925
N6820 X287.479 Y422.958
N6825 X287.492 Y422.96
N6830 X287.59 Y422.974
N6835 X287.597 Y422.975
N6840 X287.793 Y422.997
N6845 X287.804 Y422.998
N6850 X287.902 Y423.007
N6855 X287.911 Y423.008
N6860 X288.107 Y423.02
N6865 X288.116
N6870 X288.214 Y423.023
N6875 X288.219 Y423.024
N6880 X288.316 Y423.026
N6885 X288.328
N6890 X288.426 Y423.025
N6895 X288.431
N6900 X288.651 Y423.02
N6905 X288.669
N6910 X288.938 Y423.001
N6915 X288.955 Y423.
N6920 X289.151 Y422.977
N6925 X289.162 Y422.976
N6930 X289.259 Y422.961
N6935 X289.269 Y422.96
N6940 X289.464 Y422.926
N6945 X289.485 Y422.922
N6950 X289.68 Y422.878
N6955 X289.691 Y422.875
N6960 X289.798 Y422.847
N6965 X289.812 Y422.844
N6970 X289.997 Y422.788
N6975 X290.017 Y422.782
N6980 X290.135 Y422.739
N6985 X290.14 Y422.737
N6990 X290.291 Y422.681
N6995 X290.314 Y422.671
N7000 X290.534 Y422.571
N7005 X290.555 Y422.561
N7010 X290.653 Y422.508
N7015 X290.658 Y422.506
N7020 X290.811 Y422.421
N7025 X290.834 Y422.407
N7030 X290.984 Y422.31
N7035 X290.991 Y422.305
N7040 X291.079 Y422.245
N7045 X291.096 Y422.233
N7050 X291.273 Y422.098
N7055 X291.292 Y422.082
N7060 X291.334 Y422.045
N7065 X291.338 Y422.042
N7070 X291.511 Y421.885
N7075 X291.53 Y421.867
N7080 X291.628 Y421.765
N7085 X291.631 Y421.762
N7090 X291.721 Y421.665
N7095 X291.736 Y421.648
N7100 X291.841 Y421.521
N7105 X291.844 Y421.518
N7110 X291.9 Y421.449
N7115 X291.913 Y421.432
N7120 X292.053 Y421.236
N7125 X292.066 Y421.217
N7130 X292.189 Y421.021
N7135 X292.198 Y421.008
N7140 X292.253 Y420.91
N7145 X292.257 Y420.903
N7150 X292.31 Y420.806
N7155 X292.314 Y420.799
N7160 X292.364 Y420.701
N7165 X292.371 Y420.689
N7170 X292.463 Y420.493
N7175 X292.47 Y420.477
N7180 X292.552 Y420.281
N7185 X292.556 Y420.272
N7190 X292.593 Y420.174
N7195 X292.596 Y420.165
N7200 X292.666 Y419.97
N7205 X292.671 Y419.956
N7210 X292.732 Y419.761
N7215 X292.735 Y419.75
N7220 X292.763 Y419.652
N7225 X292.764 Y419.648
N7230 X292.814 Y419.462
N7235 X292.817 Y419.45
N7240 X292.865 Y419.244
N7245 X292.867 Y419.234
N7250 X292.898 Y419.083
N7255 X292.899 Y419.08
N7260 X292.927 Y418.938
N7265 X292.929 Y418.927
N7270 X292.961 Y418.731
N7275 Y418.726
N7280 X292.976 Y418.629
N7285 X292.977 Y418.625
N7290 X293.004 Y418.429
N7295 X293.005 Y418.418
N7300 X293.027 Y418.223
N7305 X293.028 Y418.22
N7310 X293.038 Y418.122
N7315 Y418.117
N7320 X293.056 Y417.922
N7325 Y417.911
N7330 X293.075 Y417.618
N7335 Y417.612
N7340 X293.084 Y417.416
N7345 Y417.41
N7350 X293.09 Y417.214
N7355 Y417.212
N7360 X293.092 Y417.114
N7365 Y417.109
N7370 X293.094 Y416.815
N7375 Y416.812
N7380 Y415.823
N7385 X294.319
N7390 Y417.226
N7395 X294.314 Y417.589
N7400 X294.312 Y417.682
N7405 X294.298 Y418.066
N7410 X294.293 Y418.159
N7415 X294.267 Y418.542
N7420 X294.23 Y418.926
N7425 X294.22 Y419.017
N7430 X294.169 Y419.399
N7435 X294.155 Y419.49
N7440 X294.089 Y419.87
N7445 X294.008 Y420.25
N7450 X293.986 Y420.339
N7455 X293.886 Y420.72
N7460 X293.8 Y421.003
N7465 X293.771 Y421.094
N7470 X293.673 Y421.376
N7475 X293.554 Y421.675
N7480 X293.48 Y421.841
N7485 X293.437 Y421.936
N7490 X293.395 Y422.025
N7495 X293.258 Y422.29
N7500 X293.089 Y422.578
N7505 X292.904 Y422.852
N7510 X292.725 Y423.086
N7515 X292.694 Y423.124
N7520 X292.536 Y423.309
N7525 X292.451 Y423.399
N7530 X292.362 Y423.49
N7535 X292.269 Y423.58
N7540 X292.169 Y423.672
N7545 X292.093 Y423.739
N7550 X291.911 Y423.886
N7555 X291.823 Y423.95
N7560 X291.705 Y424.034
N7565 X291.642 Y424.076
N7570 X291.421 Y424.213
N7575 X291.189 Y424.337
N7580 X291.068 Y424.393
N7585 X290.916 Y424.463
N7590 X290.632 Y424.577
N7595 X290.456 Y424.637
N7600 X290.358 Y424.669
N7605 X290.277 Y424.693
N7610 X290.029 Y424.76
N7615 X289.712 Y424.827
N7620 X289.445 Y424.869
N7625 X289.356 Y424.881
N7630 X289.076 Y424.911
N7635 X288.796 Y424.929
N7640 X288.706 Y424.932
N7645 X288.423 Y424.937
N7650 X288.238 Y424.934
N7655 X288.148 Y424.93
N7660 X287.963 Y424.919
N7665 X287.873 Y424.91
N7670 X287.687 Y424.891
N7675 X287.501 Y424.865
N7680 X287.411 Y424.85
N7685 X287.225 Y424.816
N7690 X287.135 Y424.797
N7695 X286.948 Y424.754
N7700 X286.762 Y424.705
N7705 X286.672 Y424.679
N7710 X286.461 Y424.614
N7715 X286.297 Y424.558
N7720 X286.208 Y424.526
N7725 X286.024 Y424.453
N7730 X285.936 Y424.415
N7735 X285.751 Y424.33
N7740 X285.566 Y424.235
N7745 X285.521 Y424.211
N7750 X285.358 Y424.117
N7755 X285.296 Y424.079
N7760 X285.111 Y423.961
N7765 X284.928 Y423.832
N7770 X284.821 Y423.751
N7775 X284.704 Y423.661
N7780 X284.492 Y423.478
N7785 X284.301 Y423.295
N7790 X284.105 Y423.087
N7795 X283.965 Y422.925
N7800 X283.922 Y422.874
N7805 X283.747 Y422.65
N7810 X283.614 Y422.465
N7815 X283.551 Y422.373
N7820 X283.456 Y422.228
N7825 X283.43 Y422.188
N7830 X283.316 Y422.
N7835 X283.264 Y421.91
N7840 X283.161 Y421.721
N7845 X283.116 Y421.633
N7850 X282.996 Y421.381
N7855 X282.871 Y421.079
N7860 X282.772 Y420.799
N7865 X282.743 Y420.71
N7870 X282.685 Y420.519
N7875 X282.658 Y420.428
N7880 X282.585 Y420.146
N7885 X282.565 Y420.056
N7890 X282.504 Y419.771
N7895 X282.445 Y419.443
N7900 X282.443 Y419.434
N7905 X282.439 Y419.413
N7910 X282.432 Y419.385
N7915 X282.421 Y419.348
N7920 X282.411 Y419.318
N7925 X282.401 Y419.294
N7930 X282.391 Y419.269
N7935 X282.38 Y419.245
N7940 X282.367 Y419.22
N7945 X282.353 Y419.196
N7950 X282.338 Y419.171
N7955 X282.322 Y419.147
N7960 X282.304 Y419.122
N7965 X282.285 Y419.098
N7970 X282.264 Y419.074
N7975 X282.242 Y419.05
N7980 X282.222 Y419.031
N7985 X282.206 Y419.016
N7990 X282.191 Y419.002
N7995 X282.175 Y418.99
N8000 X282.152 Y418.972
N8005 X282.12 Y418.95
N8010 X282.095 Y418.934
N8015 X282.078 Y418.924
N8020 X282.061 Y418.914
N8025 X282.043 Y418.905
N8030 X282.022 Y418.895
N8035 X281.998 Y418.884
N8040 X281.973 Y418.874
N8045 X281.949 Y418.865
N8050 X281.924 Y418.858
N8055 X281.9 Y418.851
N8060 X281.875 Y418.844
N8065 X281.851 Y418.839
N8070 X281.821 Y418.834
N8075 X281.784 Y418.829
N8080 X281.747 Y418.826
N8085 X281.711 Y418.825
N8090 X281.68 Y418.826
N8095 X281.656 Y418.827
N8100 X281.631 Y418.829
N8105 X281.607 Y418.832
N8110 X281.582 Y418.835
N8115 X281.558 Y418.84
N8120 X281.533 Y418.845
N8125 X281.509 Y418.851
N8130 X281.485 Y418.859
N8135 X281.46 Y418.867
N8140 X281.43 Y418.878
N8145 X281.395 Y418.893
N8150 X281.369 Y418.905
N8155 X281.352 Y418.914
N8160 X281.334 Y418.924
N8165 X281.317 Y418.934
N8170 X281.298 Y418.946
N8175 X281.048 Y419.113
N8180 X281.028 Y419.125 Z-2.998
N8185 X281.006 Y419.133 Z-2.993
N8190 X280.985 Y419.137 Z-2.984
N8195 X280.965 Y419.138 Z-2.971
N8200 X280.947 Y419.137 Z-2.956
N8205 X280.932 Y419.135 Z-2.938
N8210 X280.92 Y419.132 Z-2.918
N8215 X280.912 Y419.129 Z-2.896
N8220 X280.907 Y419.127 Z-2.873
N8225 X280.905 Y419.126 Z-2.85
N8230 G0 Z5.
N8235 X272.745 Y410.809
N8240 Z1.15
N8245 G1 X272.744 Y410.808 Z1.128 F700.
N8250 X272.741 Y410.804 Z1.107
N8255 X272.736 Y410.798 Z1.087
N8260 X272.729 Y410.79 Z1.068
N8265 X272.721 Y410.78 Z1.05
N8270 X272.711 Y410.768 Z1.035
N8275 X272.7 Y410.754 Z1.022
N8280 X272.689 Y410.738 Z1.012
N8285 X272.677 Y410.721 Z1.005
N8290 G3 X273.867 Y409.937 Z0.405 I0.595 J-0.392
N8295 X272.677 Y410.721 Z-0.194 I-0.595 J0.392
N8300 X273.867 Y409.937 Z-0.794 I0.595 J-0.392
N8305 X272.677 Y410.721 Z-1.394 I-0.595 J0.392
N8310 X272.561 Y410.368 Z-1.495 I0.595 J-0.392
N8315 G1 X272.56 Y410.349 Z-1.499
N8320 X272.559 Y410.329 Z-1.5
N8325 G3 X272.862 Y410.027 I0.302 J0.
N8330 G1 X293.434
N8335 G3 X293.683 Y410.276 I0. J0.25
N8340 G1 Y410.382
N8345 G3 X293.434 Y410.631 I-0.25 J0.
N8350 G1 X272.862
N8355 G3 X272.559 Y410.329 I0. J-0.302
N8360 G2 X272.255 Y409.906 I-0.446 J0.
N8365 G3 X272.339 Y409.391 I0.084 J-0.251
N8370 G1 X294.319
N8375 Y411.267
N8380 X271.842
N8385 Y409.391
N8390 X272.339
N8395 X272.358 Y409.398
N8400 X272.368 Y409.417
N8405 X272.383 Y409.54
N8410 X272.388 Y409.553
N8415 X273.235 Y410.809
N8420 X273.346 Y410.975
N8425 X273.353 Y410.995
N8430 X273.349 Y411.017
N8435 X273.334 Y411.033
N8440 X273.314 Y411.04
N8445 X273.294 Y411.041 Z-1.501
N8450 X273.275 Y411.042 Z-1.505
N8455 G3 X273.269 Y409.617 Z-2.105 I-0.003 J-0.712
N8460 X273.275 Y411.041 Z-2.705 I0.003 J0.712
N8465 X272.561 Y410.368 Z-2.995 I-0.003 J-0.712
N8470 G1 X272.56 Y410.349 Z-2.999
N8475 X272.559 Y410.329 Z-3.
N8480 G3 X272.862 Y410.027 I0.302 J0.
N8485 G1 X293.434
N8490 G3 X293.683 Y410.276 I0. J0.25
N8495 G1 Y410.382
N8500 G3 X293.434 Y410.631 I-0.25 J0.
N8505 G1 X272.862
N8510 G3 X272.559 Y410.329 I0. J-0.302
N8515 G2 X272.255 Y409.906 I-0.446 J0.
N8520 G3 X272.339 Y409.391 I0.084 J-0.251
N8525 G1 X294.319
N8530 Y411.267
N8535 X271.842
N8540 Y409.391
N8545 X272.339
N8550 X272.362 Y409.393 Z-2.998
N8555 X272.384 Y409.398 Z-2.993
N8560 X272.405 Y409.406 Z-2.984
N8565 X272.422 Y409.416 Z-2.971
N8570 X272.436 Y409.427 Z-2.956
N8575 X272.447 Y409.437 Z-2.938
N8580 X272.455 Y409.447 Z-2.918
N8585 X272.461 Y409.454 Z-2.896
N8590 X272.464 Y409.458 Z-2.873
N8595 X272.465 Y409.46 Z-2.85
N8600 G0 Z5.
N8605 X317.681 Y410.364
N8610 Z1.15
N8615 G1 Y410.365 Z1.128 F700.
N8620 Y410.37 Z1.107
N8625 Y410.378 Z1.087
N8630 Y410.388 Z1.068
N8635 Y410.402 Z1.05
N8640 X317.68 Y410.417 Z1.035
N8645 X317.678 Y410.435 Z1.022
N8650 X317.676 Y410.454 Z1.012
N8655 X317.674 Y410.474 Z1.005
N8660 G3 X316.27 Y410.508 Z0.471 I-0.705 J-0.105
N8665 X317.031 Y409.659 Z0.117 I0.699 J-0.139
N8670 X316.906 Y411.079 Z-0.483 I-0.063 J0.71
N8675 X316.27 Y410.508 Z-0.728 I0.063 J-0.71
N8680 X317.031 Y409.659 Z-1.083 I0.699 J-0.139
N8685 X317.524 Y410.815 Z-1.495 I-0.063 J0.71
N8690 G1 X317.512 Y410.83 Z-1.499
N8695 X317.499 Y410.845 Z-1.5
N8700 X317.457 Y410.894
N8705 G3 X317.171 Y410.893 I-0.143 J-0.118
N8710 G1 X317.12 Y410.835
N8715 X317.066 Y410.779
N8720 G3 X317.213 Y410.431 I0.146 J-0.143
N8725 G1 X317.416
N8730 G3 X317.561 Y410.779 I0. J0.205
N8735 G1 X317.499 Y410.845
N8740 G2 X317.457 Y411.299 I0.285 J0.255
N8745 G3 X317.521 Y411.75 I-0.494 J0.3
N8750 G2 X317.468 Y412.293 I1.579 J0.428
N8755 G3 X317.496 Y413.096 I-11.277 J0.797
N8760 G1 X317.56 Y422.455
N8765 G3 X317.375 Y422.64 I-0.185 J0.
N8770 G1 X317.254
N8775 G3 X317.069 Y422.455 I0. J-0.185
N8780 G1 X317.126 Y411.913
N8785 G2 X316.81 Y411.171 I-1.292 J0.113
N8790 X316.124 Y410.747 I-1.035 J0.906
N8795 G1 X315.994 Y410.721
N8800 X315.863 Y410.708
N8805 X307.357 Y410.71
N8810 G2 X306.651 Y410.978 I0.086 J1.29
N8815 X306.203 Y411.586 I0.847 J1.093
N8820 G1 X306.175 Y411.672
N8825 X306.154 Y411.759
N8830 X306.138 Y411.848
N8835 X306.128 Y411.937
N8840 X306.187 Y424.244
N8845 G3 X306.002 Y424.429 I-0.185 J0.
N8850 G1 X305.881
N8855 G3 X305.696 Y424.244 I0. J-0.185
N8860 G1 Y410.367
N8865 G3 X306.151 Y409.912 I0.455 J0.
N8870 G1 X326.961
N8875 G3 X327.416 Y410.367 I0. J0.455
N8880 G1 Y423.354
N8885 G3 X326.924 I-0.246 J0.
N8890 G1 X326.984 Y411.929
N8895 G2 X326.724 Y411.241 I-1.278 J0.09
N8900 X326.138 Y410.797 I-1.096 J0.837
N8905 G1 X326.055 Y410.768
N8910 X325.97 Y410.744
N8915 X325.884 Y410.727
N8920 X325.797 Y410.714
N8925 X318.815 Y410.707
N8930 G2 X318.095 Y410.927 I0. J1.285
N8935 X317.61 Y411.502 I0.775 J1.147
N8940 X317.521 Y411.75 I1.49 J0.675
N8945 X317.766 Y412.29 I0.449 J0.122
N8950 G3 X318.081 Y412.794 I-0.245 J0.503
N8955 G1 Y413.096
N8960 Y423.161
N8965 X316.548
N8970 Y413.096
N8975 Y412.118
N8980 Y412.116
N8985 X316.547 Y412.018
N8990 X316.546 Y411.988
N8995 X316.544 Y411.964
N9000 X316.541 Y411.939
N9005 X316.537 Y411.915
N9010 X316.533 Y411.89
N9015 X316.527 Y411.866
N9020 X316.521 Y411.841
N9025 X316.514 Y411.817
N9030 X316.505 Y411.792
N9035 X316.496 Y411.768
N9040 X316.486 Y411.743
N9045 X316.475 Y411.719
N9050 X316.463 Y411.694
N9055 X316.45 Y411.67
N9060 X316.433 Y411.643
N9065 X316.414 Y411.613
N9070 X316.393 Y411.585
N9075 X316.371 Y411.557
N9080 X316.347 Y411.53
N9085 X316.32 Y411.503
N9090 X316.294 Y411.479
N9095 X316.27 Y411.458
N9100 X316.246 Y411.439
N9105 X316.221 Y411.422
N9110 X316.196 Y411.405
N9115 X316.171 Y411.391
N9120 X316.147 Y411.377
N9125 X316.123 Y411.365
N9130 X316.098 Y411.354
N9135 X316.074 Y411.343
N9140 X316.049 Y411.334
N9145 X316.025 Y411.326
N9150 X316. Y411.319
N9155 X315.976 Y411.312
N9160 X315.951 Y411.307
N9165 X315.927 Y411.302
N9170 X315.902 Y411.298
N9175 X315.878 Y411.295
N9180 X315.853 Y411.293
N9185 X315.829 Y411.292
N9190 X315.807 Y411.291
N9195 X307.445
N9200 X307.42 Y411.292
N9205 X307.396 Y411.294
N9210 X307.371 Y411.296
N9215 X307.347 Y411.299
N9220 X307.323 Y411.303
N9225 X307.298 Y411.308
N9230 X307.274 Y411.314
N9235 X307.249 Y411.321
N9240 X307.225 Y411.328
N9245 X307.2 Y411.337
N9250 X307.176 Y411.346
N9255 X307.151 Y411.357
N9260 X307.128 Y411.368
N9265 X307.104 Y411.38
N9270 X307.081 Y411.392
N9275 X307.058 Y411.406
N9280 X307.034 Y411.423
N9285 X307.008 Y411.441
N9290 X306.982 Y411.462
N9295 X306.956 Y411.484
N9300 X306.936 Y411.502
N9305 X306.922 Y411.516
N9310 X306.902 Y411.538
N9315 X306.878 Y411.566
N9320 X306.861 Y411.588
N9325 X306.85 Y411.602
N9330 X306.837 Y411.621
N9335 X306.822 Y411.645
N9340 X306.807 Y411.668
N9345 X306.794 Y411.692
N9350 X306.782 Y411.716
N9355 X306.771 Y411.74
N9360 X306.761 Y411.765
N9365 X306.751 Y411.791
N9370 X306.742 Y411.817
N9375 X306.735 Y411.841
N9380 X306.729 Y411.866
N9385 X306.723 Y411.89
N9390 X306.719 Y411.915
N9395 X306.715 Y411.939
N9400 X306.712 Y411.964
N9405 X306.71 Y411.988
N9410 X306.709 Y412.02
N9415 X306.708 Y412.998
N9420 Y424.95
N9425 X305.175
N9430 Y409.391
N9435 X327.937
N9440 Y424.227
N9445 X326.404
N9450 Y412.033
N9455 X326.403 Y412.006
N9460 X326.4 Y411.97
N9465 X326.397 Y411.939
N9470 X326.393 Y411.915
N9475 X326.389 Y411.89
N9480 X326.383 Y411.866
N9485 X326.377 Y411.841
N9490 X326.37 Y411.817
N9495 X326.36 Y411.787
N9500 X326.346 Y411.752
N9505 X326.335 Y411.726
N9510 X326.327 Y411.709
N9515 X326.314 Y411.684
N9520 X326.296 Y411.653
N9525 X326.282 Y411.63
N9530 X326.272 Y411.616
N9535 X326.26 Y411.599
N9540 X326.244 Y411.578
N9545 X326.227 Y411.557
N9550 X326.209 Y411.537
N9555 X326.189 Y411.515
N9560 X326.165 Y411.493
N9565 X326.142 Y411.472
N9570 X326.119 Y411.453
N9575 X326.097 Y411.436
N9580 X326.076 Y411.421
N9585 X326.056 Y411.408
N9590 X326.037 Y411.396
N9595 X326.017 Y411.385
N9600 X325.998 Y411.375
N9605 X325.979 Y411.365
N9610 X325.96 Y411.356
N9615 X325.941 Y411.348
N9620 X325.922 Y411.34
N9625 X325.9 Y411.332
N9630 X325.876 Y411.324
N9635 X325.851 Y411.317
N9640 X325.827 Y411.311
N9645 X325.802 Y411.306
N9650 X325.778 Y411.301
N9655 X325.753 Y411.298
N9660 X325.729 Y411.295
N9665 X325.69 Y411.292
N9670 X325.592 Y411.291
N9675 X325.587
N9680 X318.815
N9685 X318.787 Y411.292
N9690 X318.762 Y411.294
N9695 X318.738 Y411.297
N9700 X318.713 Y411.3
N9705 X318.689 Y411.304
N9710 X318.664 Y411.31
N9715 X318.64 Y411.316
N9720 X318.615 Y411.322
N9725 X318.591 Y411.33
N9730 X318.567 Y411.339
N9735 X318.542 Y411.349
N9740 X318.518 Y411.359
N9745 X318.493 Y411.371
N9750 X318.469 Y411.384
N9755 X318.447 Y411.396
N9760 X318.429 Y411.408
N9765 X318.409 Y411.42
N9770 X318.389 Y411.434
N9775 X318.37 Y411.449
N9780 X318.35 Y411.465
N9785 X318.329 Y411.483
N9790 X318.308 Y411.503
N9795 X318.288 Y411.523
N9800 X318.27 Y411.543
N9805 X318.25 Y411.567
N9810 X318.228 Y411.595
N9815 X318.209 Y411.621
N9820 X318.193 Y411.646
N9825 X318.179 Y411.67
N9830 X318.165 Y411.695
N9835 X318.153 Y411.719
N9840 X318.142 Y411.744
N9845 X318.132 Y411.768
N9850 X318.123 Y411.793
N9855 X318.115 Y411.817
N9860 X318.108 Y411.841
N9865 X318.101 Y411.866
N9870 X318.096 Y411.89
N9875 X318.091 Y411.915
N9880 X318.088 Y411.939
N9885 X318.085 Y411.964
N9890 X318.082 Y411.988
N9895 X318.081 Y412.02
N9900 Y412.794
N9905 X318.079 Y412.817 Z-1.498
N9910 X318.074 Y412.839 Z-1.493
N9915 X318.065 Y412.859 Z-1.484
N9920 X318.055 Y412.877 Z-1.471
N9925 X318.045 Y412.891 Z-1.456
N9930 X318.034 Y412.902 Z-1.438
N9935 X318.025 Y412.91 Z-1.418
N9940 X318.018 Y412.916 Z-1.396
N9945 X318.013 Y412.919 Z-1.373
N9950 X318.012 Y412.92 Z-1.35
N9955 G0 Z5.
N9960 X317.681 Y410.364
N9965 Z2.5
N9970 G1 Z-0.35 F300.
N9975 Y410.365 Z-0.372 F700.
N9980 Y410.37 Z-0.393
N9985 Y410.378 Z-0.413
N9990 Y410.388 Z-0.432
N9995 Y410.402 Z-0.45
N10000 X317.68 Y410.417 Z-0.465
N10005 X317.678 Y410.435 Z-0.478
N10010 X317.676 Y410.454 Z-0.488
N10015 X317.674 Y410.474 Z-0.495
N10020 G3 X317.499 Y410.845 Z-0.606 I-0.705 J-0.105
N10025 X316.27 Y410.508 Z-1.029 I-0.53 J-0.476
N10030 X317.031 Y409.659 Z-1.383 I0.699 J-0.139
N10035 X316.906 Y411.079 Z-1.983 I-0.063 J0.71
N10040 X316.27 Y410.508 Z-2.228 I0.063 J-0.71
N10045 X317.031 Y409.659 Z-2.583 I0.699 J-0.139
N10050 X317.524 Y410.815 Z-2.995 I-0.063 J0.71
N10055 G1 X317.512 Y410.83 Z-2.999
N10060 X317.499 Y410.845 Z-3.
N10065 X317.457 Y410.894
N10070 G3 X317.171 Y410.893 I-0.143 J-0.118
N10075 G1 X317.12 Y410.835
N10080 X317.066 Y410.779
N10085 G3 X317.213 Y410.431 I0.146 J-0.143
N10090 G1 X317.416
N10095 G3 X317.561 Y410.779 I0. J0.205
N10100 G1 X317.499 Y410.845
N10105 G2 X317.457 Y411.299 I0.285 J0.255
N10110 G3 X317.521 Y411.75 I-0.494 J0.3
N10115 G2 X317.468 Y412.293 I1.579 J0.428
N10120 G3 X317.496 Y413.096 I-11.277 J0.797
N10125 G1 X317.56 Y422.455
N10130 G3 X317.375 Y422.64 I-0.185 J0.
N10135 G1 X317.254
N10140 G3 X317.069 Y422.455 I0. J-0.185
N10145 G1 X317.126 Y411.913
N10150 G2 X316.81 Y411.171 I-1.292 J0.113
N10155 X316.124 Y410.747 I-1.035 J0.906
N10160 G1 X315.994 Y410.721
N10165 X315.863 Y410.708
N10170 X307.357 Y410.71
N10175 G2 X306.651 Y410.978 I0.086 J1.29
N10180 X306.203 Y411.586 I0.847 J1.093
N10185 G1 X306.175 Y411.672
N10190 X306.154 Y411.759
N10195 X306.138 Y411.848
N10200 X306.128 Y411.937
N10205 X306.187 Y424.244
N10210 G3 X306.002 Y424.429 I-0.185 J0.
N10215 G1 X305.881
N10220 G3 X305.696 Y424.244 I0. J-0.185
N10225 G1 Y410.367
N10230 G3 X306.151 Y409.912 I0.455 J0.
N10235 G1 X326.961
N10240 G3 X327.416 Y410.367 I0. J0.455
N10245 G1 Y423.354
N10250 G3 X326.924 I-0.246 J0.
N10255 G1 X326.984 Y411.929
N10260 G2 X326.724 Y411.241 I-1.278 J0.09
N10265 X326.138 Y410.797 I-1.096 J0.837
N10270 G1 X326.055 Y410.768
N10275 X325.97 Y410.744
N10280 X325.884 Y410.727
N10285 X325.797 Y410.714
N10290 X318.815 Y410.707
N10295 G2 X318.095 Y410.927 I0. J1.285
N10300 X317.61 Y411.502 I0.775 J1.147
N10305 X317.521 Y411.75 I1.49 J0.675
N10310 X317.766 Y412.29 I0.449 J0.122
N10315 G3 X318.081 Y412.794 I-0.245 J0.503
N10320 G1 Y413.096
N10325 Y423.161
N10330 X316.548
N10335 Y412.118
N10340 Y412.116
N10345 X316.547 Y412.018
N10350 X316.546 Y411.988
N10355 X316.544 Y411.964
N10360 X316.541 Y411.939
N10365 X316.537 Y411.915
N10370 X316.533 Y411.89
N10375 X316.527 Y411.866
N10380 X316.521 Y411.841
N10385 X316.514 Y411.817
N10390 X316.505 Y411.792
N10395 X316.496 Y411.768
N10400 X316.486 Y411.743
N10405 X316.475 Y411.719
N10410 X316.463 Y411.694
N10415 X316.45 Y411.67
N10420 X316.433 Y411.643
N10425 X316.414 Y411.613
N10430 X316.393 Y411.585
N10435 X316.371 Y411.557
N10440 X316.347 Y411.53
N10445 X316.32 Y411.503
N10450 X316.294 Y411.479
N10455 X316.27 Y411.458
N10460 X316.246 Y411.439
N10465 X316.221 Y411.422
N10470 X316.196 Y411.405
N10475 X316.171 Y411.391
N10480 X316.147 Y411.377
N10485 X316.123 Y411.365
N10490 X316.098 Y411.354
N10495 X316.074 Y411.343
N10500 X316.049 Y411.334
N10505 X316.025 Y411.326
N10510 X316. Y411.319
N10515 X315.976 Y411.312
N10520 X315.951 Y411.307
N10525 X315.927 Y411.302
N10530 X315.902 Y411.298
N10535 X315.878 Y411.295
N10540 X315.853 Y411.293
N10545 X315.829 Y411.292
N10550 X315.807 Y411.291
N10555 X307.445
N10560 X307.42 Y411.292
N10565 X307.396 Y411.294
N10570 X307.371 Y411.296
N10575 X307.347 Y411.299
N10580 X307.323 Y411.303
N10585 X307.298 Y411.308
N10590 X307.274 Y411.314
N10595 X307.249 Y411.321
N10600 X307.225 Y411.328
N10605 X307.2 Y411.337
N10610 X307.176 Y411.346
N10615 X307.151 Y411.357
N10620 X307.128 Y411.368
N10625 X307.104 Y411.38
N10630 X307.081 Y411.392
N10635 X307.058 Y411.406
N10640 X307.034 Y411.423
N10645 X307.008 Y411.441
N10650 X306.982 Y411.462
N10655 X306.956 Y411.484
N10660 X306.936 Y411.502
N10665 X306.922 Y411.516
N10670 X306.902 Y411.538
N10675 X306.878 Y411.566
N10680 X306.861 Y411.588
N10685 X306.85 Y411.602
N10690 X306.837 Y411.621
N10695 X306.822 Y411.645
N10700 X306.807 Y411.668
N10705 X306.794 Y411.692
N10710 X306.782 Y411.716
N10715 X306.771 Y411.74
N10720 X306.761 Y411.765
N10725 X306.751 Y411.791
N10730 X306.742 Y411.817
N10735 X306.735 Y411.841
N10740 X306.729 Y411.866
N10745 X306.723 Y411.89
N10750 X306.719 Y411.915
N10755 X306.715 Y411.939
N10760 X306.712 Y411.964
N10765 X306.71 Y411.988
N10770 X306.709 Y412.02
N10775 X306.708 Y412.998
N10780 Y424.95
N10785 X305.175
N10790 Y409.391
N10795 X327.937
N10800 Y424.227
N10805 X326.404
N10810 Y412.033
N10815 X326.403 Y412.006
N10820 X326.4 Y411.97
N10825 X326.397 Y411.939
N10830 X326.393 Y411.915
N10835 X326.389 Y411.89
N10840 X326.383 Y411.866
N10845 X326.377 Y411.841
N10850 X326.37 Y411.817
N10855 X326.36 Y411.787
N10860 X326.346 Y411.752
N10865 X326.335 Y411.726
N10870 X326.327 Y411.709
N10875 X326.314 Y411.684
N10880 X326.296 Y411.653
N10885 X326.282 Y411.63
N10890 X326.272 Y411.616
N10895 X326.26 Y411.599
N10900 X326.244 Y411.578
N10905 X326.227 Y411.557
N10910 X326.209 Y411.537
N10915 X326.189 Y411.515
N10920 X326.165 Y411.493
N10925 X326.142 Y411.472
N10930 X326.119 Y411.453
N10935 X326.097 Y411.436
N10940 X326.076 Y411.421
N10945 X326.056 Y411.408
N10950 X326.037 Y411.396
N10955 X326.017 Y411.385
N10960 X325.998 Y411.375
N10965 X325.979 Y411.365
N10970 X325.96 Y411.356
N10975 X325.941 Y411.348
N10980 X325.922 Y411.34
N10985 X325.9 Y411.332
N10990 X325.876 Y411.324
N10995 X325.851 Y411.317
N11000 X325.827 Y411.311
N11005 X325.802 Y411.306
N11010 X325.778 Y411.301
N11015 X325.753 Y411.298
N11020 X325.729 Y411.295
N11025 X325.69 Y411.292
N11030 X325.592 Y411.291
N11035 X325.587
N11040 X318.815
N11045 X318.787 Y411.292
N11050 X318.762 Y411.294
N11055 X318.738 Y411.297
N11060 X318.713 Y411.3
N11065 X318.689 Y411.304
N11070 X318.664 Y411.31
N11075 X318.64 Y411.316
N11080 X318.615 Y411.322
N11085 X318.591 Y411.33
N11090 X318.567 Y411.339
N11095 X318.542 Y411.349
N11100 X318.518 Y411.359
N11105 X318.493 Y411.371
N11110 X318.469 Y411.384
N11115 X318.447 Y411.396
N11120 X318.429 Y411.408
N11125 X318.409 Y411.42
N11130 X318.389 Y411.434
N11135 X318.37 Y411.449
N11140 X318.35 Y411.465
N11145 X318.329 Y411.483
N11150 X318.308 Y411.503
N11155 X318.288 Y411.523
N11160 X318.27 Y411.543
N11165 X318.25 Y411.567
N11170 X318.228 Y411.595
N11175 X318.209 Y411.621
N11180 X318.193 Y411.646
N11185 X318.179 Y411.67
N11190 X318.165 Y411.695
N11195 X318.153 Y411.719
N11200 X318.142 Y411.744
N11205 X318.132 Y411.768
N11210 X318.123 Y411.793
N11215 X318.115 Y411.817
N11220 X318.108 Y411.841
N11225 X318.101 Y411.866
N11230 X318.096 Y411.89
N11235 X318.091 Y411.915
N11240 X318.088 Y411.939
N11245 X318.085 Y411.964
N11250 X318.082 Y411.988
N11255 X318.081 Y412.02
N11260 Y412.794
N11265 X318.079 Y412.817 Z-2.998
N11270 X318.074 Y412.839 Z-2.993
N11275 X318.065 Y412.859 Z-2.984
N11280 X318.055 Y412.877 Z-2.971
N11285 X318.045 Y412.891 Z-2.956
N11290 X318.034 Y412.902 Z-2.938
N11295 X318.025 Y412.91 Z-2.918
N11300 X318.018 Y412.916 Z-2.896
N11305 X318.013 Y412.919 Z-2.873
N11310 X318.012 Y412.92 Z-2.85
N11315 G0 Z5.
N11320 X338.728 Y417.067
N11325 Z1.15
N11330 G1 X338.727 Y417.066 Z1.128 F700.
N11335 X338.723 Y417.062 Z1.107
N11340 X338.718 Y417.057 Z1.087
N11345 X338.71 Y417.049 Z1.068
N11350 X338.701 Y417.039 Z1.05
N11355 X338.691 Y417.027 Z1.035
N11360 X338.68 Y417.014 Z1.022
N11365 X338.668 Y416.999 Z1.012
N11370 X338.655 Y416.982 Z1.005
N11375 G3 X339.632 Y415.973 Z0.471 I0.576 J-0.42
N11380 X338.831 Y417.152 Z-0.129 I-0.4 J0.589
N11385 X338.519 Y416.596 Z-0.306 I0.4 J-0.589
N11390 X339.632 Y415.973 Z-0.728 I0.712 J-0.033
N11395 X338.831 Y417.152 Z-1.328 I-0.4 J0.589
N11400 X338.522 Y416.635 Z-1.495 I0.4 J-0.589
N11405 G1 X338.521 Y416.616 Z-1.499
N11410 X338.519 Y416.596 Z-1.5
N11415 G3 X338.951 Y416.122 I0.453 J-0.021
N11420 X339.426 Y416.554 I0.021 J0.453
N11425 G2 X339.515 Y417.321 I5.614 J-0.263
N11430 X341.054 Y419.905 I4.278 J-0.798
N11435 X342.82 Y420.846 I3.318 J-4.096
N11440 X344.788 Y421.212 I2.571 J-8.347
N11445 G1 X359.017 Y421.241
N11450 G2 X359.702 Y421.033 I-0.043 J-1.378
N11455 X360.182 Y420.501 I-0.685 J-1.1
N11460 X360.275 Y420.257 I-1.307 J-0.638
N11465 X360.318 Y420. I-1.179 J-0.332
N11470 G1 X360.258 Y416.009
N11475 G3 X360.75 I0.246 J0.
N11480 G1 Y421.558
N11485 G3 X360.295 Y422.013 I-0.455 J0.
N11490 G1 X344.459 Y421.897
N11495 G3 X342.082 Y421.308 I0.829 J-8.437
N11500 X340.146 Y419.809 I1.729 J-4.234
N11505 X339.183 Y417.493 I4.112 J-3.068
N11510 X339.167 Y414.985 I8.836 J-1.31
N11515 X340.269 Y412.317 I5.626 J0.761
N11520 X342.592 Y410.602 I4.073 J3.088
N11525 X343.083 Y410.891 I0.126 J0.347
N11530 G1 X343.101 Y411.004
N11535 G3 X342.892 Y411.369 I-0.331 J0.053
N11540 G2 X341.018 Y412.515 I2.296 J5.862
N11545 X339.774 Y414.326 I3.001 J3.395
N11550 X339.426 Y416.554 I5.266 J1.965
N11555 X339.784 Y417.021 I0.515 J-0.024
N11560 G3 X340.186 Y417.451 I-0.182 J0.572
N11565 G1 X340.187 Y417.454
N11570 X340.189 Y417.463
N11575 X340.224 Y417.594
N11580 X340.228 Y417.607
N11585 X340.258 Y417.704
N11590 X340.26 Y417.711
N11595 X340.292 Y417.811
N11600 X340.295 Y417.819
N11605 X340.312 Y417.866
N11610 X340.316 Y417.878
N11615 X340.373 Y418.024
N11620 X340.379 Y418.04
N11625 X340.444 Y418.187
N11630 X340.451 Y418.2
N11635 X340.508 Y418.317
N11640 X340.516 Y418.332
N11645 X340.586 Y418.46
N11650 X340.595 Y418.475
N11655 X340.685 Y418.622
N11660 X340.693 Y418.634
N11665 X340.736 Y418.7
N11670 X340.74 Y418.704
N11675 X340.764 Y418.739
N11680 X340.771 Y418.749
N11685 X340.857 Y418.865
N11690 X340.866 Y418.877
N11695 X340.916 Y418.939
N11700 X340.917 Y418.941
N11705 X340.969 Y419.005
N11710 X340.981 Y419.019
N11715 X341.07 Y419.117
N11720 X341.079 Y419.127
N11725 X341.173 Y419.225
N11730 X341.184 Y419.235
N11735 X341.287 Y419.333
N11740 X341.294 Y419.34
N11745 X341.335 Y419.377
N11750 X341.343 Y419.384
N11755 X341.415 Y419.445
N11760 X341.422 Y419.451
N11765 X341.489 Y419.505
N11770 X341.493 Y419.508
N11775 X341.548 Y419.552
N11780 X341.555 Y419.557
N11785 X341.598 Y419.589
N11790 X341.602 Y419.592
N11795 X341.7 Y419.663
N11800 X341.711 Y419.671
N11805 X341.809 Y419.737
N11810 X341.814 Y419.74
N11815 X341.857 Y419.768
N11820 X341.863 Y419.772
N11825 X341.919 Y419.806
N11830 X341.925 Y419.81
N11835 X342.043 Y419.88
N11840 X342.058 Y419.888
N11845 X342.229 Y419.979
N11850 X342.241 Y419.985
N11855 X342.342 Y420.035
N11860 X342.351 Y420.039
N11865 X342.501 Y420.108
N11870 X342.507 Y420.11
N11875 X342.552 Y420.13
N11880 X342.562 Y420.134
N11885 X342.704 Y420.192
N11890 X342.716 Y420.196
N11895 X342.867 Y420.251
N11900 X342.878 Y420.255
N11905 X343.005 Y420.298
N11910 X343.01 Y420.299
N11915 X343.078 Y420.321
N11920 X343.085 Y420.323
N11925 X343.182 Y420.352
N11930 X343.19 Y420.354
N11935 X343.36 Y420.401
N11940 X343.362 Y420.402
N11945 X343.387 Y420.408
N11950 X343.4 Y420.411
N11955 X343.595 Y420.457
N11960 X343.602 Y420.459
N11965 X343.7 Y420.479
N11970 X343.708 Y420.481
N11975 X343.903 Y420.519
N11980 X343.915 Y420.521
N11985 X344.111 Y420.552
N11990 X344.116 Y420.553
N11995 X344.213 Y420.567
N12000 X344.219 Y420.568
N12005 X344.317 Y420.58
N12010 X344.32 Y420.581
N12015 X344.418 Y420.593
N12020 X344.426
N12025 X344.621 Y420.613
N12030 X344.629 Y420.614
N12035 X344.825 Y420.629
N12040 X344.828
N12045 X344.926 Y420.636
N12050 X344.933 Y420.637
N12055 X345.129 Y420.647
N12060 X345.137
N12065 X345.43 Y420.655
N12070 X345.438
N12075 X345.634 Y420.657
N12080 X345.637
N12085 X358.987
N12090 X358.998
N12095 X359.023 Y420.656
N12100 X359.047 Y420.654
N12105 X359.072 Y420.652
N12110 X359.096 Y420.649
N12115 X359.121 Y420.645
N12120 X359.145 Y420.64
N12125 X359.169 Y420.634
N12130 X359.194 Y420.628
N12135 X359.218 Y420.62
N12140 X359.243 Y420.612
N12145 X359.267 Y420.603
N12150 X359.288 Y420.594
N12155 X359.306 Y420.586
N12160 X359.332 Y420.573
N12165 X359.365 Y420.554
N12170 X359.397 Y420.534
N12175 X359.429 Y420.513
N12180 X359.452 Y420.496
N12185 X359.467 Y420.483
N12190 X359.482 Y420.47
N12195 X359.496 Y420.457
N12200 X359.517 Y420.437
N12205 X359.544 Y420.409
N12210 X359.562 Y420.388
N12215 X359.573 Y420.375
N12220 X359.586 Y420.358
N12225 X359.6 Y420.34
N12230 X359.613 Y420.321
N12235 X359.625 Y420.302
N12240 X359.636 Y420.283
N12245 X359.647 Y420.264
N12250 X359.657 Y420.245
N12255 X359.666 Y420.226
N12260 X359.675 Y420.206
N12265 X359.684 Y420.183
N12270 X359.693 Y420.16
N12275 X359.701 Y420.136
N12280 X359.709 Y420.111
N12285 X359.715 Y420.087
N12290 X359.721 Y420.062
N12295 X359.726 Y420.038
N12300 X359.73 Y420.013
N12305 X359.733 Y419.989
N12310 X359.735 Y419.964
N12315 X359.737 Y419.94
N12320 Y419.917
N12325 Y415.136
N12330 X361.27
N12335 Y422.533
N12340 X345.542
N12345 X345.159 Y422.527
N12350 X344.78 Y422.509
N12355 X344.402 Y422.478
N12360 X344.024 Y422.435
N12365 X343.647 Y422.376
N12370 X343.32 Y422.312
N12375 X343.274 Y422.303
N12380 X342.925 Y422.219
N12385 X342.596 Y422.125
N12390 X342.525 Y422.103
N12395 X342.314 Y422.032
N12400 X342.245 Y422.008
N12405 X341.966 Y421.9
N12410 X341.689 Y421.776
N12415 X341.6 Y421.732
N12420 X341.413 Y421.637
N12425 X341.297 Y421.572
N12430 X341.137 Y421.48
N12435 X340.951 Y421.359
N12440 X340.863 Y421.302
N12445 X340.608 Y421.113
N12450 X340.389 Y420.931
N12455 X340.292 Y420.841
N12460 X340.192 Y420.747
N12465 X340.134 Y420.69
N12470 X339.951 Y420.497
N12475 X339.769 Y420.28
N12480 X339.678 Y420.159
N12485 X339.576 Y420.02
N12490 X339.454 Y419.835
N12495 X339.404 Y419.758
N12500 X339.291 Y419.562
N12505 X339.242 Y419.473
N12510 X339.128 Y419.249
N12515 X339.105 Y419.2
N12520 X339.021 Y419.011
N12525 X338.985 Y418.923
N12530 X338.881 Y418.646
N12535 X338.823 Y418.461
N12540 X338.794 Y418.367
N12545 X338.768 Y418.279
N12550 X338.699 Y417.999
N12555 X338.679 Y417.91
N12560 X338.625 Y417.629
N12565 X338.597 Y417.443
N12570 X338.571 Y417.256
N12575 X338.543 Y416.973
N12580 X338.535 Y416.883
N12585 X338.519 Y416.598
N12590 X338.515 Y416.508
N12595 X338.51 Y416.223
N12600 Y416.134
N12605 X338.526 Y415.56
N12610 X338.547 Y415.28
N12615 X338.556 Y415.188
N12620 X338.576 Y414.999
N12625 X338.588 Y414.907
N12630 X338.615 Y414.717
N12635 X338.63 Y414.626
N12640 X338.67 Y414.405
N12645 X338.692 Y414.3
N12650 X338.733 Y414.112
N12655 X338.753 Y414.034
N12660 X338.794 Y413.879
N12665 X338.819 Y413.789
N12670 X338.878 Y413.602
N12675 X338.907 Y413.512
N12680 X338.975 Y413.325
N12685 X339.009 Y413.236
N12690 X339.087 Y413.051
N12695 X339.13 Y412.955
N12700 X339.223 Y412.764
N12705 X339.263 Y412.688
N12710 X339.361 Y412.512
N12715 X339.383 Y412.473
N12720 X339.497 Y412.29
N12725 X339.536 Y412.232
N12730 X339.667 Y412.046
N12735 X339.704 Y411.997
N12740 X339.81 Y411.863
N12745 X339.859 Y411.802
N12750 X340.042 Y411.598
N12755 X340.085 Y411.554
N12760 X340.228 Y411.413
N12765 X340.327 Y411.323
N12770 X340.465 Y411.202
N12775 X340.517 Y411.16
N12780 X340.679 Y411.033
N12785 X340.784 Y410.957
N12790 X340.936 Y410.851
N12795 X340.997 Y410.812
N12800 X341.207 Y410.681
N12805 X341.462 Y410.538
N12810 X341.542 Y410.497
N12815 X341.731 Y410.402
N12820 X341.784 Y410.376
N12825 X342.021 Y410.27
N12830 X342.085 Y410.243
N12835 X342.324 Y410.147
N12840 X342.583 Y410.052
N12845 X342.686 Y410.017
N12850 X342.938 Y409.935
N12855 X343.435 Y409.798
N12860 X343.73 Y411.643
N12865 X343.67 Y411.659
N12870 X343.664 Y411.661
N12875 X343.477 Y411.716
N12880 X343.464 Y411.72
N12885 X343.269 Y411.785
N12890 X343.263 Y411.787
N12895 X343.165 Y411.822
N12900 X343.153 Y411.826
N12905 X342.957 Y411.903
N12910 X342.95 Y411.906
N12915 X342.852 Y411.947
N12920 X342.839 Y411.952
N12925 X342.644 Y412.042
N12930 X342.636 Y412.046
N12935 X342.538 Y412.094
N12940 X342.519 Y412.103
N12945 X342.324 Y412.213
N12950 X342.314 Y412.219
N12955 X342.202 Y412.286
N12960 X342.196 Y412.29
N12965 X342.112 Y412.343
N12970 X342.105 Y412.347
N12975 X342.007 Y412.411
N12980 X341.999 Y412.417
N12985 X341.887 Y412.495
N12990 X341.878 Y412.502
N12995 X341.771 Y412.581
N13000 X341.765 Y412.585
N13005 X341.691 Y412.642
N13010 X341.685 Y412.647
N13015 X341.611 Y412.707
N13020 X341.601 Y412.715
N13025 X341.479 Y412.82
N13030 X341.471 Y412.828
N13035 X341.373 Y412.918
N13040 X341.362 Y412.928
N13045 X341.264 Y413.025
N13050 X341.256 Y413.034
N13055 X341.186 Y413.107
N13060 X341.18 Y413.114
N13065 X341.132 Y413.166
N13070 X341.126 Y413.173
N13075 X341.066 Y413.243
N13080 X341.059 Y413.251
N13085 X340.98 Y413.349
N13090 X340.974 Y413.356
N13095 X340.899 Y413.454
N13100 X340.891 Y413.465
N13105 X340.821 Y413.563
N13110 X340.815 Y413.572
N13115 X340.749 Y413.67
N13120 X340.744 Y413.678
N13125 X340.682 Y413.776
N13130 X340.674 Y413.789
N13135 X340.618 Y413.887
N13140 X340.614 Y413.893
N13145 X340.56 Y413.991
N13150 X340.554 Y414.002
N13155 X340.504 Y414.1
N13160 X340.5 Y414.109
N13165 X340.453 Y414.207
N13170 X340.449 Y414.218
N13175 X340.403 Y414.322
N13180 X340.399 Y414.331
N13185 X340.362 Y414.422
N13190 X340.358 Y414.432
N13195 X340.322 Y414.53
N13200 X340.318 Y414.539
N13205 X340.285 Y414.637
N13210 X340.282 Y414.647
N13215 X340.251 Y414.744
N13220 X340.249 Y414.75
N13225 X340.22 Y414.848
N13230 X340.217 Y414.859
N13235 X340.188 Y414.97
N13240 X340.185 Y414.982
N13245 X340.144 Y415.165
N13250 X340.141 Y415.18
N13255 X340.123 Y415.278
N13260 X340.122 Y415.282
N13265 X340.105 Y415.38
N13270 X340.104 Y415.388
N13275 X340.089 Y415.486
N13280 X340.088 Y415.495
N13285 X340.076 Y415.593
N13290 X340.075 Y415.6
N13295 X340.065 Y415.698
N13300 X340.064 Y415.706
N13305 X340.056 Y415.804
N13310 Y415.809
N13315 X340.049 Y415.907
N13320 Y415.918
N13325 X340.045 Y416.016
N13330 Y416.021
N13335 X340.042 Y416.119
N13340 Y416.125
N13345 X340.041 Y416.223
N13350 Y416.231
N13355 X340.043 Y416.329
N13360 Y416.336
N13365 X340.046 Y416.434
N13370 X340.047 Y416.439
N13375 X340.051 Y416.536
N13380 Y416.542
N13385 X340.057 Y416.639
N13390 X340.058 Y416.652
N13395 X340.068 Y416.75
N13400 Y416.756
N13405 X340.081 Y416.868
N13410 Y416.872
N13415 X340.091 Y416.956
N13420 X340.093 Y416.967
N13425 X340.108 Y417.064
N13430 X340.109 Y417.071
N13435 X340.125 Y417.169
N13440 X340.126 Y417.175
N13445 X340.145 Y417.273
N13450 X340.148 Y417.286
N13455 X340.17 Y417.384
N13460 X340.171 Y417.39
N13465 X340.186 Y417.451
N13470 X340.187 Y417.48
N13475 X340.177 Y417.507
N13480 X340.158 Y417.529
N13485 X340.131 Y417.541
N13490 X340.102 Y417.543
N13495 X340.075 Y417.533
N13500 X339.537 Y417.218
N13505 X339.513 Y417.196
N13510 X339.491 Y417.175
N13515 X339.462 Y417.164
N13520 X339.432 Y417.166
N13525 X339.405 Y417.18
N13530 X339.385 Y417.203
N13535 X339.37 Y417.232
N13540 X339.356 Y417.251
N13545 X339.336 Y417.264
N13550 X339.312 Y417.271
N13555 X339.293 Y417.273 Z-1.501
N13560 X339.273 Y417.274 Z-1.505
N13565 G3 X339.194 Y415.851 Z-2.105 I-0.04 J-0.711
N13570 X339.273 Y417.274 Z-2.705 I0.04 J0.711
N13575 X338.525 Y416.638 Z-2.995 I-0.04 J-0.711
N13580 G1 X338.523 Y416.619 Z-2.999
N13585 X338.522 Y416.6 Z-3.
N13590 G3 X339.453 Y416.551 I0.466 J-0.024
N13595 G2 X339.542 Y417.304 I5.78 J-0.3
N13600 X341.121 Y419.959 I4.386 J-0.812
N13605 X343.009 Y420.91 I3.133 J-3.869
N13610 X345.099 Y421.23 I2.622 J-10.151
N13615 G1 X358.987 Y421.241
N13620 G2 X359.665 Y421.054 I0. J-1.325
N13625 X360.157 Y420.55 I-0.699 J-1.172
N13630 X360.258 Y420.314 I-1.07 J-0.6
N13635 X360.312 Y420.062 I-1.405 J-0.436
N13640 G1 X360.258 Y416.009
N13645 G3 X360.75 I0.246 J0.
N13650 G1 Y421.558
N13655 G3 X360.295 Y422.013 I-0.455 J0.
N13660 G1 X344.459 Y421.897
N13665 G3 X342.082 Y421.308 I0.829 J-8.437
N13670 X340.146 Y419.809 I1.729 J-4.234
N13675 X339.183 Y417.493 I4.112 J-3.068
N13680 X339.167 Y414.985 I8.833 J-1.31
N13685 X340.269 Y412.317 I5.627 J0.762
N13690 X342.592 Y410.602 I4.072 J3.087
N13695 X343.083 Y410.891 I0.126 J0.347
N13700 G1 X343.101 Y411.004
N13705 G3 X342.892 Y411.369 I-0.331 J0.053
N13710 G2 X341.047 Y412.47 I2.394 J6.112
N13715 X339.811 Y414.228 I2.743 J3.243
N13720 X339.453 Y416.551 I5.423 J2.023
N13725 X339.794 Y416.996 I0.494 J-0.026
N13730 G3 X340.175 Y417.407 I-0.178 J0.547
N13735 G1 X340.187 Y417.454
N13740 X340.189 Y417.463
N13745 X340.224 Y417.594
N13750 X340.228 Y417.607
N13755 X340.258 Y417.704
N13760 X340.26 Y417.711
N13765 X340.292 Y417.811
N13770 X340.295 Y417.819
N13775 X340.312 Y417.866
N13780 X340.316 Y417.878
N13785 X340.373 Y418.024
N13790 X340.379 Y418.04
N13795 X340.444 Y418.187
N13800 X340.451 Y418.2
N13805 X340.508 Y418.317
N13810 X340.516 Y418.332
N13815 X340.586 Y418.46
N13820 X340.595 Y418.475
N13825 X340.685 Y418.622
N13830 X340.693 Y418.634
N13835 X340.736 Y418.7
N13840 X340.74 Y418.704
N13845 X340.764 Y418.739
N13850 X340.771 Y418.749
N13855 X340.856 Y418.865
N13860 X340.867 Y418.878
N13865 X340.968 Y419.004
N13870 X340.981 Y419.019
N13875 X341.07 Y419.117
N13880 X341.079 Y419.127
N13885 X341.173 Y419.225
N13890 X341.184 Y419.235
N13895 X341.287 Y419.333
N13900 X341.294 Y419.34
N13905 X341.335 Y419.377
N13910 X341.343 Y419.384
N13915 X341.415 Y419.445
N13920 X341.422 Y419.451
N13925 X341.489 Y419.505
N13930 X341.493 Y419.508
N13935 X341.548 Y419.552
N13940 X341.555 Y419.557
N13945 X341.598 Y419.589
N13950 X341.602 Y419.592
N13955 X341.7 Y419.663
N13960 X341.711 Y419.671
N13965 X341.809 Y419.737
N13970 X341.814 Y419.74
N13975 X341.857 Y419.768
N13980 X341.863 Y419.772
N13985 X341.919 Y419.806
N13990 X341.925 Y419.81
N13995 X342.043 Y419.88
N14000 X342.057 Y419.888
N14005 X342.229 Y419.979
N14010 X342.241 Y419.985
N14015 X342.342 Y420.035
N14020 X342.351 Y420.039
N14025 X342.501 Y420.108
N14030 X342.507 Y420.11
N14035 X342.553 Y420.13
N14040 X342.562 Y420.134
N14045 X342.704 Y420.192
N14050 X342.716 Y420.196
N14055 X342.867 Y420.251
N14060 X342.878 Y420.255
N14065 X343.057 Y420.314
N14070 X343.068 Y420.318
N14075 X343.183 Y420.352
N14080 X343.19 Y420.354
N14085 X343.36 Y420.401
N14090 X343.362 Y420.402
N14095 X343.387 Y420.408
N14100 X343.4 Y420.411
N14105 X343.595 Y420.457
N14110 X343.602 Y420.459
N14115 X343.7 Y420.479
N14120 X343.708 Y420.481
N14125 X343.903 Y420.519
N14130 X343.915 Y420.521
N14135 X344.111 Y420.552
N14140 X344.116 Y420.553
N14145 X344.213 Y420.567
N14150 X344.219 Y420.568
N14155 X344.317 Y420.58
N14160 X344.32 Y420.581
N14165 X344.418 Y420.593
N14170 X344.426
N14175 X344.621 Y420.613
N14180 X344.629 Y420.614
N14185 X344.825 Y420.629
N14190 X344.828
N14195 X344.926 Y420.636
N14200 X344.933 Y420.637
N14205 X345.129 Y420.647
N14210 X345.137
N14215 X345.43 Y420.655
N14220 X345.438
N14225 X345.634 Y420.657
N14230 X345.637
N14235 X358.987
N14240 X358.998
N14245 X359.023 Y420.656
N14250 X359.047 Y420.654
N14255 X359.072 Y420.652
N14260 X359.096 Y420.649
N14265 X359.121 Y420.645
N14270 X359.145 Y420.64
N14275 X359.169 Y420.634
N14280 X359.194 Y420.628
N14285 X359.218 Y420.62
N14290 X359.243 Y420.612
N14295 X359.267 Y420.603
N14300 X359.288 Y420.594
N14305 X359.306 Y420.586
N14310 X359.332 Y420.573
N14315 X359.365 Y420.554
N14320 X359.397 Y420.534
N14325 X359.429 Y420.513
N14330 X359.452 Y420.496
N14335 X359.467 Y420.483
N14340 X359.482 Y420.47
N14345 X359.496 Y420.457
N14350 X359.517 Y420.437
N14355 X359.544 Y420.409
N14360 X359.562 Y420.388
N14365 X359.573 Y420.375
N14370 X359.586 Y420.358
N14375 X359.6 Y420.34
N14380 X359.613 Y420.321
N14385 X359.625 Y420.302
N14390 X359.636 Y420.283
N14395 X359.647 Y420.264
N14400 X359.657 Y420.245
N14405 X359.666 Y420.226
N14410 X359.675 Y420.206
N14415 X359.684 Y420.183
N14420 X359.693 Y420.16
N14425 X359.701 Y420.136
N14430 X359.709 Y420.111
N14435 X359.715 Y420.087
N14440 X359.721 Y420.062
N14445 X359.726 Y420.038
N14450 X359.73 Y420.013
N14455 X359.733 Y419.989
N14460 X359.735 Y419.964
N14465 X359.737 Y419.94
N14470 Y419.917
N14475 Y415.136
N14480 X361.27
N14485 Y422.533
N14490 X345.542
N14495 X345.159 Y422.527
N14500 X344.78 Y422.509
N14505 X344.402 Y422.478
N14510 X344.024 Y422.435
N14515 X343.647 Y422.376
N14520 X343.32 Y422.312
N14525 X343.274 Y422.303
N14530 X342.925 Y422.219
N14535 X342.596 Y422.125
N14540 X342.525 Y422.103
N14545 X342.314 Y422.032
N14550 X342.245 Y422.008
N14555 X341.966 Y421.9
N14560 X341.689 Y421.776
N14565 X341.6 Y421.732
N14570 X341.413 Y421.637
N14575 X341.297 Y421.572
N14580 X341.137 Y421.48
N14585 X340.951 Y421.359
N14590 X340.863 Y421.302
N14595 X340.608 Y421.113
N14600 X340.389 Y420.931
N14605 X340.292 Y420.841
N14610 X340.192 Y420.747
N14615 X340.134 Y420.69
N14620 X339.951 Y420.497
N14625 X339.769 Y420.28
N14630 X339.678 Y420.159
N14635 X339.576 Y420.02
N14640 X339.454 Y419.835
N14645 X339.404 Y419.758
N14650 X339.291 Y419.562
N14655 X339.242 Y419.473
N14660 X339.128 Y419.249
N14665 X339.105 Y419.2
N14670 X339.021 Y419.011
N14675 X338.985 Y418.923
N14680 X338.881 Y418.646
N14685 X338.823 Y418.461
N14690 X338.794 Y418.367
N14695 X338.768 Y418.279
N14700 X338.699 Y417.999
N14705 X338.679 Y417.91
N14710 X338.625 Y417.629
N14715 X338.597 Y417.443
N14720 X338.571 Y417.256
N14725 X338.543 Y416.973
N14730 X338.535 Y416.883
N14735 X338.519 Y416.598
N14740 X338.515 Y416.508
N14745 X338.51 Y416.223
N14750 Y416.134
N14755 X338.526 Y415.56
N14760 X338.547 Y415.28
N14765 X338.556 Y415.188
N14770 X338.576 Y414.999
N14775 X338.588 Y414.907
N14780 X338.615 Y414.717
N14785 X338.63 Y414.626
N14790 X338.67 Y414.405
N14795 X338.692 Y414.3
N14800 X338.733 Y414.112
N14805 X338.753 Y414.034
N14810 X338.794 Y413.879
N14815 X338.819 Y413.789
N14820 X338.878 Y413.602
N14825 X338.907 Y413.512
N14830 X338.975 Y413.325
N14835 X339.009 Y413.236
N14840 X339.087 Y413.051
N14845 X339.13 Y412.955
N14850 X339.223 Y412.764
N14855 X339.263 Y412.689
N14860 X339.361 Y412.512
N14865 X339.383 Y412.473
N14870 X339.497 Y412.29
N14875 X339.536 Y412.232
N14880 X339.667 Y412.046
N14885 X339.704 Y411.997
N14890 X339.81 Y411.863
N14895 X339.859 Y411.802
N14900 X340.042 Y411.598
N14905 X340.085 Y411.554
N14910 X340.228 Y411.413
N14915 X340.327 Y411.323
N14920 X340.465 Y411.202
N14925 X340.517 Y411.16
N14930 X340.679 Y411.033
N14935 X340.784 Y410.957
N14940 X340.936 Y410.851
N14945 X340.997 Y410.812
N14950 X341.207 Y410.681
N14955 X341.417 Y410.563
N14960 X341.507 Y410.514
N14965 X341.731 Y410.402
N14970 X341.784 Y410.377
N14975 X341.975 Y410.291
N14980 X342.066 Y410.251
N14985 X342.324 Y410.147
N14990 X342.583 Y410.052
N14995 X342.686 Y410.017
N15000 X342.938 Y409.935
N15005 X343.435 Y409.798
N15010 X343.73 Y411.643
N15015 X343.67 Y411.659
N15020 X343.664 Y411.661
N15025 X343.477 Y411.716
N15030 X343.464 Y411.72
N15035 X343.269 Y411.785
N15040 X343.263 Y411.787
N15045 X343.165 Y411.822
N15050 X343.153 Y411.826
N15055 X342.957 Y411.903
N15060 X342.95 Y411.906
N15065 X342.852 Y411.947
N15070 X342.839 Y411.952
N15075 X342.644 Y412.042
N15080 X342.636 Y412.046
N15085 X342.538 Y412.094
N15090 X342.519 Y412.103
N15095 X342.324 Y412.213
N15100 X342.314 Y412.219
N15105 X342.202 Y412.286
N15110 X342.196 Y412.29
N15115 X342.112 Y412.343
N15120 X342.105 Y412.347
N15125 X342.007 Y412.411
N15130 X341.999 Y412.417
N15135 X341.887 Y412.495
N15140 X341.878 Y412.502
N15145 X341.771 Y412.581
N15150 X341.765 Y412.585
N15155 X341.691 Y412.642
N15160 X341.685 Y412.647
N15165 X341.611 Y412.707
N15170 X341.601 Y412.715
N15175 X341.479 Y412.82
N15180 X341.471 Y412.828
N15185 X341.373 Y412.918
N15190 X341.362 Y412.928
N15195 X341.264 Y413.025
N15200 X341.256 Y413.034
N15205 X341.186 Y413.107
N15210 X341.18 Y413.114
N15215 X341.132 Y413.166
N15220 X341.126 Y413.173
N15225 X341.066 Y413.243
N15230 X341.059 Y413.251
N15235 X340.98 Y413.349
N15240 X340.974 Y413.356
N15245 X340.899 Y413.454
N15250 X340.891 Y413.465
N15255 X340.821 Y413.563
N15260 X340.815 Y413.572
N15265 X340.749 Y413.67
N15270 X340.744 Y413.678
N15275 X340.682 Y413.776
N15280 X340.674 Y413.789
N15285 X340.618 Y413.887
N15290 X340.614 Y413.893
N15295 X340.56 Y413.991
N15300 X340.554 Y414.002
N15305 X340.504 Y414.1
N15310 X340.5 Y414.109
N15315 X340.453 Y414.207
N15320 X340.449 Y414.218
N15325 X340.403 Y414.322
N15330 X340.399 Y414.331
N15335 X340.362 Y414.422
N15340 X340.358 Y414.432
N15345 X340.322 Y414.53
N15350 X340.318 Y414.539
N15355 X340.285 Y414.637
N15360 X340.282 Y414.647
N15365 X340.251 Y414.744
N15370 X340.249 Y414.75
N15375 X340.22 Y414.848
N15380 X340.217 Y414.859
N15385 X340.188 Y414.97
N15390 X340.185 Y414.982
N15395 X340.144 Y415.165
N15400 X340.141 Y415.18
N15405 X340.123 Y415.278
N15410 X340.122 Y415.282
N15415 X340.105 Y415.38
N15420 X340.104 Y415.388
N15425 X340.089 Y415.486
N15430 X340.088 Y415.495
N15435 X340.076 Y415.593
N15440 X340.075 Y415.6
N15445 X340.065 Y415.698
N15450 X340.064 Y415.706
N15455 X340.056 Y415.804
N15460 Y415.809
N15465 X340.049 Y415.907
N15470 Y415.918
N15475 X340.045 Y416.016
N15480 Y416.021
N15485 X340.042 Y416.119
N15490 Y416.125
N15495 X340.041 Y416.223
N15500 Y416.231
N15505 X340.043 Y416.329
N15510 Y416.336
N15515 X340.046 Y416.434
N15520 X340.047 Y416.439
N15525 X340.051 Y416.536
N15530 Y416.542
N15535 X340.057 Y416.639
N15540 X340.058 Y416.652
N15545 X340.068 Y416.75
N15550 Y416.756
N15555 X340.081 Y416.868
N15560 Y416.872
N15565 X340.091 Y416.956
N15570 X340.093 Y416.967
N15575 X340.108 Y417.064
N15580 X340.109 Y417.071
N15585 X340.125 Y417.169
N15590 X340.126 Y417.175
N15595 X340.145 Y417.273
N15600 X340.148 Y417.286
N15605 X340.17 Y417.384
N15610 X340.171 Y417.39
N15615 X340.175 Y417.407
N15620 X340.179 Y417.43 Z-2.998
N15625 Y417.453 Z-2.993
N15630 X340.176 Y417.475 Z-2.984
N15635 X340.17 Y417.494 Z-2.971
N15640 X340.163 Y417.51 Z-2.956
N15645 X340.156 Y417.524 Z-2.938
N15650 X340.149 Y417.534 Z-2.918
N15655 X340.143 Y417.541 Z-2.896
N15660 X340.139 Y417.545 Z-2.873
N15665 X340.138 Y417.546 Z-2.85
N15670 G0 Z5.
N15675 X350.256 Y444.265
N15680 Z1.15
N15685 G1 Y444.266 Z1.128 F700.
N15690 Y444.271 Z1.107
N15695 Y444.279 Z1.087
N15700 Y444.289 Z1.068
N15705 X350.255 Y444.303 Z1.05
N15710 X350.254 Y444.318 Z1.035
N15715 X350.253 Y444.336 Z1.022
N15720 X350.251 Y444.355 Z1.012
N15725 X350.248 Y444.376 Z1.005
N15730 G3 X350.075 Y444.747 Z0.894 I-0.705 J-0.103
N15735 X349.012 Y443.798 Z0.294 I-0.531 J-0.475
N15740 X350.075 Y444.747 Z-0.306 I0.531 J0.475
N15745 X349.012 Y443.798 Z-0.906 I-0.531 J-0.475
N15750 X350.1 Y444.717 Z-1.495 I0.531 J0.475
N15755 G1 X350.088 Y444.732 Z-1.499
N15760 X350.075 Y444.747 Z-1.5
N15765 X350.031 Y444.797
N15770 G3 X349.748 I-0.142 J-0.119
N15775 G1 X349.697 Y444.739
N15780 X349.644 Y444.683
N15785 G3 X349.788 Y444.333 I0.144 J-0.145
N15790 G1 X349.991
N15795 G3 X350.135 Y444.682 I0. J0.205
N15800 G1 X350.082 Y444.738
N15805 X350.075 Y444.747
N15810 G2 X350.033 Y445.198 I0.285 J0.254
N15815 G3 X350.105 Y445.646 I-0.521 J0.314
N15820 G1 X350.085 Y445.752
N15825 X350.075 Y445.841
N15830 X350.071 Y445.93
N15835 X350.135 Y456.332
N15840 G3 X349.644 I-0.246 J0.
N15845 G1 X349.697 Y445.777
N15850 G2 X349.372 Y445.058 I-1.364 J0.183
N15855 X348.697 Y444.648 I-0.978 J0.85
N15860 G1 X348.618 Y444.631
N15865 X348.537 Y444.618
N15870 X348.456 Y444.611
N15875 X348.375 Y444.608
N15880 X339.474 Y444.672
N15885 G3 Y443.814 I0. J-0.429
N15890 G1 X360.294
N15895 G3 X360.749 Y444.269 I0. J0.455
N15900 G1 Y456.758
N15905 G3 X360.258 I-0.246 J0.
N15910 G1 X360.312 Y445.777
N15915 G2 X359.953 Y445.021 I-1.361 J0.183
N15920 X359.214 Y444.628 I-0.947 J0.888
N15925 G1 X359.076 Y444.612
N15930 X358.938 Y444.608
N15935 X351.292 Y444.613
N15940 G2 X350.556 Y444.913 I0.13 J1.37
N15945 X350.122 Y445.579 I0.815 J1.007
N15950 G1 X350.105 Y445.646
N15955 G2 X350.352 Y446.163 I0.451 J0.102
N15960 G3 X350.656 Y446.65 I-0.238 J0.487
N15965 G1 Y457.205
N15970 X349.123
N15975 Y445.93
N15980 X349.122 Y445.904
N15985 X349.12 Y445.88
N15990 X349.118 Y445.855
N15995 X349.115 Y445.831
N16000 X349.11 Y445.806
N16005 X349.105 Y445.782
N16010 X349.1 Y445.757
N16015 X349.093 Y445.733
N16020 X349.085 Y445.708
N16025 X349.077 Y445.684
N16030 X349.067 Y445.66
N16035 X349.057 Y445.635
N16040 X349.045 Y445.611
N16045 X349.033 Y445.586
N16050 X349.019 Y445.562
N16055 X349.005 Y445.539
N16060 X348.989 Y445.516
N16065 X348.973 Y445.492
N16070 X348.953 Y445.468
N16075 X348.931 Y445.442
N16080 X348.907 Y445.417
N16085 X348.881 Y445.391
N16090 X348.855 Y445.368
N16095 X348.83 Y445.348
N16100 X348.806 Y445.33
N16105 X348.781 Y445.314
N16110 X348.756 Y445.298
N16115 X348.732 Y445.284
N16120 X348.707 Y445.272
N16125 X348.683 Y445.26
N16130 X348.658 Y445.249
N16135 X348.634 Y445.24
N16140 X348.609 Y445.231
N16145 X348.585 Y445.223
N16150 X348.561 Y445.217
N16155 X348.536 Y445.211
N16160 X348.512 Y445.206
N16165 X348.487 Y445.202
N16170 X348.463 Y445.198
N16175 X348.438 Y445.196
N16180 X348.414 Y445.194
N16185 X348.389 Y445.193
N16190 X348.375
N16195 X338.509
N16200 Y443.293
N16205 X361.27
N16210 Y457.631
N16215 X359.737
N16220 Y445.93
N16225 X359.736 Y445.904
N16230 X359.735 Y445.88
N16235 X359.732 Y445.855
N16240 X359.729 Y445.831
N16245 X359.725 Y445.806
N16250 X359.72 Y445.782
N16255 X359.713 Y445.752
N16260 X359.703 Y445.718
N16265 X359.691 Y445.684
N16270 X359.678 Y445.65
N16275 X359.663 Y445.618
N16280 X359.648 Y445.589
N16285 X359.633 Y445.562
N16290 X359.618 Y445.537
N16295 X359.602 Y445.513
N16300 X359.584 Y445.488
N16305 X359.564 Y445.464
N16310 X359.543 Y445.439
N16315 X359.52 Y445.415
N16320 X359.494 Y445.39
N16325 X359.468 Y445.367
N16330 X359.44 Y445.345
N16335 X359.414 Y445.326
N16340 X359.389 Y445.31
N16345 X359.365 Y445.295
N16350 X359.34 Y445.281
N16355 X359.316 Y445.269
N16360 X359.291 Y445.257
N16365 X359.267 Y445.247
N16370 X359.243 Y445.238
N16375 X359.218 Y445.229
N16380 X359.194 Y445.222
N16385 X359.169 Y445.215
N16390 X359.145 Y445.21
N16395 X359.12 Y445.205
N16400 X359.096 Y445.201
N16405 X359.071 Y445.198
N16410 X359.047 Y445.195
N16415 X359.015 Y445.194
N16420 X358.941 Y445.193
N16425 X358.938
N16430 X351.407
N16435 X351.396
N16440 X351.371 Y445.194
N16445 X351.347 Y445.195
N16450 X351.323 Y445.198
N16455 X351.298 Y445.201
N16460 X351.274 Y445.205
N16465 X351.249 Y445.209
N16470 X351.225 Y445.215
N16475 X351.2 Y445.222
N16480 X351.176 Y445.229
N16485 X351.151 Y445.237
N16490 X351.127 Y445.247
N16495 X351.102 Y445.257
N16500 X351.078 Y445.268
N16505 X351.054 Y445.281
N16510 X351.029 Y445.294
N16515 X351.004 Y445.31
N16520 X350.977 Y445.327
N16525 X350.951 Y445.347
N16530 X350.925 Y445.368
N16535 X350.899 Y445.39
N16540 X350.875 Y445.414
N16545 X350.852 Y445.437
N16550 X350.831 Y445.461
N16555 X350.812 Y445.485
N16560 X350.793 Y445.51
N16565 X350.776 Y445.536
N16570 X350.76 Y445.561
N16575 X350.746 Y445.586
N16580 X350.733 Y445.611
N16585 X350.722 Y445.635
N16590 X350.711 Y445.66
N16595 X350.702 Y445.684
N16600 X350.693 Y445.708
N16605 X350.686 Y445.733
N16610 X350.679 Y445.757
N16615 X350.673 Y445.782
N16620 X350.668 Y445.806
N16625 X350.664 Y445.831
N16630 X350.661 Y445.855
N16635 X350.658 Y445.88
N16640 X350.657 Y445.904
N16645 X350.656 Y445.93
N16650 Y446.65
N16655 X350.654 Y446.673 Z-1.498
N16660 X350.649 Y446.696 Z-1.493
N16665 X350.641 Y446.716 Z-1.484
N16670 X350.631 Y446.733 Z-1.471
N16675 X350.62 Y446.747 Z-1.456
N16680 X350.609 Y446.758 Z-1.438
N16685 X350.6 Y446.767 Z-1.418
N16690 X350.593 Y446.772 Z-1.396
N16695 X350.589 Y446.775 Z-1.373
N16700 X350.587 Y446.776 Z-1.35
N16705 G0 Z5.
N16710 X350.256 Y444.265
N16715 Z2.5
N16720 G1 Z-0.35 F300.
N16725 Y444.266 Z-0.372 F700.
N16730 Y444.271 Z-0.393
N16735 Y444.279 Z-0.413
N16740 Y444.289 Z-0.432
N16745 X350.255 Y444.303 Z-0.45
N16750 X350.254 Y444.318 Z-0.465
N16755 X350.253 Y444.336 Z-0.478
N16760 X350.251 Y444.355 Z-0.488
N16765 X350.248 Y444.376 Z-0.495
N16770 G3 X350.075 Y444.747 Z-0.606 I-0.705 J-0.103
N16775 X349.012 Y443.798 Z-1.206 I-0.531 J-0.475
N16780 X350.075 Y444.747 Z-1.806 I0.531 J0.475
N16785 X349.012 Y443.798 Z-2.406 I-0.531 J-0.475
N16790 X350.1 Y444.717 Z-2.995 I0.531 J0.475
N16795 G1 X350.088 Y444.732 Z-2.999
N16800 X350.075 Y444.747 Z-3.
N16805 X350.031 Y444.797
N16810 G3 X349.748 I-0.142 J-0.119
N16815 G1 X349.697 Y444.739
N16820 X349.644 Y444.683
N16825 G3 X349.788 Y444.333 I0.144 J-0.145
N16830 G1 X349.991
N16835 G3 X350.135 Y444.682 I0. J0.205
N16840 G1 X350.082 Y444.738
N16845 X350.075 Y444.747
N16850 G2 X350.033 Y445.198 I0.285 J0.254
N16855 G3 X350.105 Y445.646 I-0.521 J0.314
N16860 G1 X350.085 Y445.752
N16865 X350.075 Y445.841
N16870 X350.071 Y445.93
N16875 X350.135 Y456.332
N16880 G3 X349.644 I-0.246 J0.
N16885 G1 X349.697 Y445.777
N16890 G2 X349.372 Y445.058 I-1.364 J0.183
N16895 X348.697 Y444.648 I-0.978 J0.85
N16900 G1 X348.618 Y444.631
N16905 X348.537 Y444.618
N16910 X348.456 Y444.611
N16915 X348.375 Y444.608
N16920 X339.474 Y444.672
N16925 G3 Y443.814 I0. J-0.429
N16930 G1 X360.294
N16935 G3 X360.749 Y444.269 I0. J0.455
N16940 G1 Y456.758
N16945 G3 X360.258 I-0.246 J0.
N16950 G1 X360.312 Y445.777
N16955 G2 X359.953 Y445.021 I-1.361 J0.183
N16960 X359.214 Y444.628 I-0.947 J0.888
N16965 G1 X359.076 Y444.612
N16970 X358.938 Y444.608
N16975 X351.292 Y444.613
N16980 G2 X350.556 Y444.913 I0.13 J1.37
N16985 X350.122 Y445.579 I0.815 J1.007
N16990 G1 X350.105 Y445.646
N16995 G2 X350.352 Y446.163 I0.451 J0.102
N17000 G3 X350.656 Y446.65 I-0.238 J0.487
N17005 G1 Y457.205
N17010 X349.123
N17015 Y445.93
N17020 X349.122 Y445.904
N17025 X349.12 Y445.88
N17030 X349.118 Y445.855
N17035 X349.115 Y445.831
N17040 X349.11 Y445.806
N17045 X349.105 Y445.782
N17050 X349.1 Y445.757
N17055 X349.093 Y445.733
N17060 X349.085 Y445.708
N17065 X349.077 Y445.684
N17070 X349.067 Y445.66
N17075 X349.057 Y445.635
N17080 X349.045 Y445.611
N17085 X349.033 Y445.586
N17090 X349.019 Y445.562
N17095 X349.005 Y445.539
N17100 X348.989 Y445.516
N17105 X348.973 Y445.492
N17110 X348.953 Y445.468
N17115 X348.931 Y445.442
N17120 X348.907 Y445.417
N17125 X348.881 Y445.391
N17130 X348.855 Y445.368
N17135 X348.83 Y445.348
N17140 X348.806 Y445.33
N17145 X348.781 Y445.314
N17150 X348.756 Y445.298
N17155 X348.732 Y445.284
N17160 X348.707 Y445.272
N17165 X348.683 Y445.26
N17170 X348.658 Y445.249
N17175 X348.634 Y445.24
N17180 X348.609 Y445.231
N17185 X348.585 Y445.223
N17190 X348.561 Y445.217
N17195 X348.536 Y445.211
N17200 X348.512 Y445.206
N17205 X348.487 Y445.202
N17210 X348.463 Y445.198
N17215 X348.438 Y445.196
N17220 X348.414 Y445.194
N17225 X348.389 Y445.193
N17230 X348.375
N17235 X338.509
N17240 Y443.293
N17245 X361.27
N17250 Y457.631
N17255 X359.737
N17260 Y445.93
N17265 X359.736 Y445.904
N17270 X359.735 Y445.88
N17275 X359.732 Y445.855
N17280 X359.729 Y445.831
N17285 X359.725 Y445.806
N17290 X359.72 Y445.782
N17295 X359.713 Y445.752
N17300 X359.703 Y445.718
N17305 X359.691 Y445.684
N17310 X359.678 Y445.65
N17315 X359.663 Y445.618
N17320 X359.648 Y445.589
N17325 X359.633 Y445.562
N17330 X359.618 Y445.537
N17335 X359.602 Y445.513
N17340 X359.584 Y445.488
N17345 X359.564 Y445.464
N17350 X359.543 Y445.439
N17355 X359.52 Y445.415
N17360 X359.494 Y445.39
N17365 X359.468 Y445.367
N17370 X359.44 Y445.345
N17375 X359.414 Y445.326
N17380 X359.389 Y445.31
N17385 X359.365 Y445.295
N17390 X359.34 Y445.281
N17395 X359.316 Y445.269
N17400 X359.291 Y445.257
N17405 X359.267 Y445.247
N17410 X359.243 Y445.238
N17415 X359.218 Y445.229
N17420 X359.194 Y445.222
N17425 X359.169 Y445.215
N17430 X359.145 Y445.21
N17435 X359.12 Y445.205
N17440 X359.096 Y445.201
N17445 X359.071 Y445.198
N17450 X359.047 Y445.195
N17455 X359.015 Y445.194
N17460 X358.941 Y445.193
N17465 X358.938
N17470 X351.407
N17475 X351.396
N17480 X351.371 Y445.194
N17485 X351.347 Y445.195
N17490 X351.323 Y445.198
N17495 X351.298 Y445.201
N17500 X351.274 Y445.205
N17505 X351.249 Y445.209
N17510 X351.225 Y445.215
N17515 X351.2 Y445.222
N17520 X351.176 Y445.229
N17525 X351.151 Y445.237
N17530 X351.127 Y445.247
N17535 X351.102 Y445.257
N17540 X351.078 Y445.268
N17545 X351.054 Y445.281
N17550 X351.029 Y445.294
N17555 X351.004 Y445.31
N17560 X350.977 Y445.327
N17565 X350.951 Y445.347
N17570 X350.925 Y445.368
N17575 X350.899 Y445.39
N17580 X350.875 Y445.414
N17585 X350.852 Y445.437
N17590 X350.831 Y445.461
N17595 X350.812 Y445.485
N17600 X350.793 Y445.51
N17605 X350.776 Y445.536
N17610 X350.76 Y445.561
N17615 X350.746 Y445.586
N17620 X350.733 Y445.611
N17625 X350.722 Y445.635
N17630 X350.711 Y445.66
N17635 X350.702 Y445.684
N17640 X350.693 Y445.708
N17645 X350.686 Y445.733
N17650 X350.679 Y445.757
N17655 X350.673 Y445.782
N17660 X350.668 Y445.806
N17665 X350.664 Y445.831
N17670 X350.661 Y445.855
N17675 X350.658 Y445.88
N17680 X350.657 Y445.904
N17685 X350.656 Y445.93
N17690 Y446.65
N17695 X350.654 Y446.673 Z-2.998
N17700 X350.649 Y446.696 Z-2.993
N17705 X350.641 Y446.716 Z-2.984
N17710 X350.631 Y446.733 Z-2.971
N17715 X350.62 Y446.747 Z-2.956
N17720 X350.609 Y446.758 Z-2.938
N17725 X350.6 Y446.767 Z-2.918
N17730 X350.593 Y446.772 Z-2.896
N17735 X350.589 Y446.775 Z-2.873
N17740 X350.587 Y446.776 Z-2.85
N17745 G0 Z5.
N17750 X371.997 Y455.57
N17755 Z1.15
N17760 G1 X371.996 Y455.569 Z1.128 F700.
N17765 X371.993 Y455.565 Z1.107
N17770 X371.989 Y455.559 Z1.087
N17775 X371.982 Y455.55 Z1.068
N17780 X371.975 Y455.539 Z1.05
N17785 X371.966 Y455.526 Z1.035
N17790 X371.956 Y455.512 Z1.022
N17795 X371.946 Y455.495 Z1.012
N17800 X371.936 Y455.477 Z1.005
N17805 G3 X373.028 Y454.595 Z0.471 I0.623 J-0.346
N17810 X372.089 Y455.667 Z-0.129 I-0.469 J0.536
N17815 X371.848 Y455.077 Z-0.306 I0.469 J-0.536
N17820 X373.028 Y454.595 Z-0.728 I0.71 J0.054
N17825 X372.089 Y455.667 Z-1.328 I-0.469 J0.536
N17830 X371.846 Y455.116 Z-1.495 I0.469 J-0.536
N17835 G1 X371.847 Y455.097 Z-1.499
N17840 X371.848 Y455.077 Z-1.5
N17845 G3 X373.131 Y455.174 I0.642 J0.049
N17850 G2 X373.298 Y456.051 I1.704 J0.129
N17855 G3 X373.131 Y456.317 I-0.167 J0.081
N17860 G1 X372.998
N17865 G3 X372.813 Y456.132 I0. J-0.185
N17870 G1 Y455.148
N17875 X372.818 Y455.109
N17880 X372.835 Y455.074
N17885 X372.86 Y455.044
N17890 X372.893 Y455.023
N17895 X372.941 Y455.002
N17900 X372.98 Y454.991
N17905 X373.021
N17910 X373.06 Y455.004
N17915 X373.093 Y455.028
N17920 X373.118 Y455.061
N17925 X373.132 Y455.099
N17930 X373.134 Y455.14
N17935 X373.131 Y455.174
N17940 X373.129 Y455.198 Z-1.498
N17945 X373.128 Y455.221 Z-1.493
N17950 X373.127 Y455.242 Z-1.484
N17955 Y455.262 Z-1.471
N17960 X373.126 Y455.28 Z-1.456
N17965 Y455.296 Z-1.438
N17970 Y455.308 Z-1.418
N17975 Y455.317 Z-1.396
N17980 Y455.322 Z-1.373
N17985 Y455.324 Z-1.35
N17990 G0 Z5.
N17995 X393.447 Y444.462
N18000 Z1.15
N18005 G1 X393.446 Y444.461 Z1.128 F700.
N18010 X393.442 Y444.459 Z1.107
N18015 X393.435 Y444.456 Z1.087
N18020 X393.425 Y444.451 Z1.068
N18025 X393.414 Y444.444 Z1.05
N18030 X393.4 Y444.437 Z1.035
N18035 X393.385 Y444.427 Z1.022
N18040 X393.369 Y444.417 Z1.012
N18045 X393.352 Y444.405 Z1.005
N18050 G3 X393.1 Y444.083 Z0.894 I0.411 J-0.582
N18055 X394.427 Y443.564 Z0.294 I0.664 J-0.259
N18060 X393.1 Y444.083 Z-0.306 I-0.664 J0.259
N18065 X394.427 Y443.564 Z-0.906 I0.664 J-0.259
N18070 X393.115 Y444.118 Z-1.495 I-0.664 J0.259
N18075 G1 X393.107 Y444.101 Z-1.499
N18080 X393.1 Y444.083 Z-1.5
N18085 X393.097 Y444.075
N18090 G3 X393.329 Y443.734 I0.232 J-0.092
N18095 G1 X393.344
N18100 G3 X393.593 Y443.984 I0. J0.25
N18105 G1 Y444.67
N18110 X393.586 Y444.722
N18115 X393.564 Y444.77
N18120 X393.529 Y444.81
N18125 X393.485 Y444.839
N18130 X393.478 Y444.842
N18135 G3 X393.215 Y444.677 I-0.077 J-0.169
N18140 G2 X393.183 Y444.371 I-1.83 J0.04
N18145 X393.1 Y444.083 I-1.621 J0.312
N18150 X392.696 Y443.829 I-0.373 J0.146
N18155 G3 X392.24 Y443.691 I-0.05 J-0.659
N18160 G2 X391.99 Y443.538 I-0.805 J1.034
N18165 X391.351 Y443.426 I-0.526 J1.125
N18170 G1 X387.478 Y443.696
N18175 X372.688 Y443.769
N18180 G3 Y443.2 I0. J-0.284
N18185 G1 X393.681
N18190 G3 X394.127 Y443.646 I0. J0.446
N18195 G1 Y444.753
N18200 G3 X393.783 Y445.289 I-0.59 J0.
N18205 G1 X374.147 Y454.219
N18210 G2 X374.566 Y456.559 I0.685 J1.085
N18215 X375.173 Y456.576 I0.349 J-1.635
N18220 G3 X375.776 Y456.499 I1.653 J10.575
N18225 G1 X378.913 Y456.282
N18230 X393.882 Y456.208
N18235 G3 X394.127 Y456.452 I0. J0.245
N18240 G1 Y456.567
N18245 G3 X393.882 Y456.812 I-0.245 J0.
N18250 G1 X372.764
N18255 G3 X372.318 Y456.366 I0. J-0.446
N18260 G1 Y455.121
N18265 G3 X372.664 Y454.584 I0.59 J0.
N18270 G1 X392.101 Y445.827
N18275 G2 X392.744 Y444.649 I-0.622 J-1.104
N18280 X392.24 Y443.691 I-1.309 J0.077
N18285 X391.663 Y443.734 I-0.265 J0.34
N18290 G3 X391.141 Y443.986 I-0.595 J-0.566
N18295 G1 X389.812 Y444.105
N18300 X389.132 Y444.155
N18305 X389.038 Y444.161
N18310 X388.259 Y444.202
N18315 X387.629 Y444.232
N18320 X387.488 Y444.235
N18325 X386.857 Y444.245
N18330 X371.842
N18335 Y442.724
N18340 X394.603
N18345 Y445.437
N18350 X374.528 Y454.622
N18355 X374.508 Y454.632
N18360 X374.483 Y454.645
N18365 X374.459 Y454.659
N18370 X374.435 Y454.675
N18375 X374.41 Y454.692
N18380 X374.386 Y454.71
N18385 X374.361 Y454.73
N18390 X374.337 Y454.752
N18395 X374.316 Y454.771
N18400 X374.3 Y454.788
N18405 X374.282 Y454.808
N18410 X374.262 Y454.833
N18415 X374.243 Y454.857
N18420 X374.225 Y454.882
N18425 X374.21 Y454.906
N18430 X374.195 Y454.93
N18435 X374.182 Y454.955
N18440 X374.17 Y454.979
N18445 X374.159 Y455.003
N18450 X374.149 Y455.026
N18455 X374.141 Y455.049
N18460 X374.133 Y455.073
N18465 X374.125 Y455.097
N18470 X374.119 Y455.123
N18475 X374.113 Y455.149
N18480 X374.108 Y455.174
N18485 X374.104 Y455.199
N18490 X374.101 Y455.224
N18495 X374.099 Y455.248
N18500 X374.098 Y455.273
N18505 X374.097 Y455.297
N18510 Y455.322
N18515 X374.098 Y455.346
N18520 X374.1 Y455.371
N18525 X374.104 Y455.4
N18530 X374.109 Y455.434
N18535 X374.116 Y455.467
N18540 X374.124 Y455.501
N18545 X374.134 Y455.533
N18550 X374.145 Y455.563
N18555 X374.155 Y455.591
N18560 X374.166 Y455.615
N18565 X374.178 Y455.64
N18570 X374.191 Y455.664
N18575 X374.205 Y455.689
N18580 X374.22 Y455.713
N18585 X374.237 Y455.738
N18590 X374.256 Y455.762
N18595 X374.272 Y455.782
N18600 X374.286 Y455.799
N18605 X374.301 Y455.815
N18610 X374.317 Y455.831
N18615 X374.336 Y455.85
N18620 X374.359 Y455.87
N18625 X374.381 Y455.889
N18630 X374.404 Y455.906
N18635 X374.426 Y455.922
N18640 X374.449 Y455.937
N18645 X374.475 Y455.952
N18650 X374.505 Y455.968
N18655 X374.532 Y455.982
N18660 X374.556 Y455.992
N18665 X374.581 Y456.002
N18670 X374.605 Y456.011
N18675 X374.63 Y456.019
N18680 X374.654 Y456.026
N18685 X374.679 Y456.032
N18690 X374.703 Y456.037
N18695 X374.728 Y456.042
N18700 X374.752 Y456.045
N18705 X374.777 Y456.048
N18710 X374.801 Y456.05
N18715 X374.825 Y456.051
N18720 X374.85
N18725 X374.874
N18730 X374.899 Y456.049
N18735 X374.919 Y456.048
N18740 X375.723 Y455.963
N18745 X376.575 Y455.885
N18750 X377.254 Y455.826
N18755 X378.028 Y455.777
N18760 X378.899 Y455.743
N18765 X379.772 Y455.732
N18770 X394.603 Y455.731
N18775 Y457.288
N18780 X371.842
N18785 Y454.434
N18790 X391.783 Y445.386
N18795 X391.812 Y445.371
N18800 X391.836 Y445.357
N18805 X391.861 Y445.342
N18810 X391.885 Y445.326
N18815 X391.91 Y445.308
N18820 X391.934 Y445.289
N18825 X391.956 Y445.27
N18830 X391.977 Y445.251
N18835 X391.998 Y445.229
N18840 X392.02 Y445.205
N18845 X392.041 Y445.18
N18850 X392.06 Y445.156
N18855 X392.077 Y445.131
N18860 X392.093 Y445.107
N18865 X392.107 Y445.082
N18870 X392.121 Y445.058
N18875 X392.131 Y445.038
N18880 X392.138 Y445.023
N18885 X392.146 Y445.005
N18890 X392.154 Y444.984
N18895 X392.162 Y444.964
N18900 X392.169 Y444.943
N18905 X392.176 Y444.922
N18910 X392.181 Y444.902
N18915 X392.186 Y444.881
N18920 X392.191 Y444.86
N18925 X392.195 Y444.838
N18930 X392.199 Y444.813
N18935 X392.202 Y444.789
N18940 X392.204 Y444.764
N18945 X392.205 Y444.74
N18950 X392.206 Y444.716
N18955 Y444.691
N18960 X392.205 Y444.667
N18965 X392.203 Y444.642
N18970 X392.2 Y444.618
N18975 X392.197 Y444.593
N18980 X392.192 Y444.569
N18985 X392.187 Y444.544
N18990 X392.181 Y444.52
N18995 X392.174 Y444.495
N19000 X392.166 Y444.471
N19005 X392.157 Y444.446
N19010 X392.147 Y444.42
N19015 X392.135 Y444.393
N19020 X392.122 Y444.366
N19025 X392.107 Y444.34
N19030 X392.091 Y444.313
N19035 X392.077 Y444.29
N19040 X392.064 Y444.272
N19045 X392.052 Y444.256
N19050 X392.04 Y444.241
N19055 X392.028 Y444.226
N19060 X392.015 Y444.211
N19065 X392.001 Y444.195
N19070 X391.985 Y444.179
N19075 X391.963 Y444.159
N19080 X391.935 Y444.134
N19085 X391.914 Y444.117
N19090 X391.901 Y444.107
N19095 X391.881 Y444.093
N19100 X391.855 Y444.076
N19105 X391.831 Y444.061
N19110 X391.808 Y444.049
N19115 X391.785 Y444.037
N19120 X391.762 Y444.026
N19125 X391.738 Y444.016
N19130 X391.714 Y444.007
N19135 X391.689 Y443.998
N19140 X391.665 Y443.991
N19145 X391.641 Y443.984
N19150 X391.616 Y443.978
N19155 X391.592 Y443.973
N19160 X391.567 Y443.969
N19165 X391.543 Y443.966
N19170 X391.518 Y443.963
N19175 X391.494 Y443.962
N19180 X391.469 Y443.961
N19185 X391.445
N19190 X391.42 Y443.962
N19195 X391.399 Y443.963
N19200 X391.141 Y443.986
N19205 X391.118 Z-1.498
N19210 X391.095 Y443.983 Z-1.493
N19215 X391.074 Y443.977 Z-1.484
N19220 X391.056 Y443.968 Z-1.471
N19225 X391.041 Y443.959 Z-1.456
N19230 X391.029 Y443.949 Z-1.438
N19235 X391.02 Y443.941 Z-1.418
N19240 X391.014 Y443.934 Z-1.396
N19245 X391.01 Y443.93 Z-1.373
N19250 X391.009 Y443.929 Z-1.35
N19255 G0 Z5.
N19260 X393.447 Y444.462
N19265 Z2.5
N19270 G1 Z-0.35 F300.
N19275 X393.446 Y444.461 Z-0.372 F700.
N19280 X393.442 Y444.459 Z-0.393
N19285 X393.435 Y444.456 Z-0.413
N19290 X393.425 Y444.451 Z-0.432
N19295 X393.414 Y444.444 Z-0.45
N19300 X393.4 Y444.437 Z-0.465
N19305 X393.385 Y444.427 Z-0.478
N19310 X393.369 Y444.417 Z-0.488
N19315 X393.352 Y444.405 Z-0.495
N19320 G3 X393.1 Y444.083 Z-0.606 I0.411 J-0.582
N19325 X394.427 Y443.564 Z-1.206 I0.664 J-0.259
N19330 X393.1 Y444.083 Z-1.806 I-0.664 J0.259
N19335 X394.427 Y443.564 Z-2.406 I0.664 J-0.259
N19340 X393.115 Y444.118 Z-2.995 I-0.664 J0.259
N19345 G1 X393.107 Y444.101 Z-2.999
N19350 X393.1 Y444.083 Z-3.
N19355 X393.097 Y444.075
N19360 G3 X393.329 Y443.734 I0.232 J-0.092
N19365 G1 X393.344
N19370 G3 X393.593 Y443.984 I0. J0.25
N19375 G1 Y444.67
N19380 X393.586 Y444.722
N19385 X393.564 Y444.77
N19390 X393.529 Y444.81
N19395 X393.485 Y444.839
N19400 X393.478 Y444.842
N19405 G3 X393.215 Y444.677 I-0.077 J-0.169
