( Made using CamBam - http://www.cambam.co.uk )
( gatenboard 11/19/2017 9:46:10 PM )
( T2 : 2.0 )
M8
(G21 G90 G64 G40)
G0 Z20.0
( gaten )
G64 G17
M8
M3 S10000
G0 X34.9305 Y37.9016
G0 Z10.0
G1 F400.0 Z6.0
G2 F1000.0 X37.9167 Y34.9016 I-0.0139 J-3.0
G1 Y28.4167
G2 X34.9167 Y25.4167 I-3.0 J0.0
G1 X28.4167
G2 X25.4167 Y28.4167 I0.0 J3.0
G1 Y34.9317
G2 X28.4305 Y37.9316 I3.0 J0.0
G1 X34.9305 Y37.9016
G1 F400.0 Z3.0
G2 F1000.0 X37.9167 Y34.9016 I-0.0139 J-3.0
G1 Y28.4167
G2 X34.9167 Y25.4167 I-3.0 J0.0
G1 X28.4167
G2 X25.4167 Y28.4167 I0.0 J3.0
G1 Y34.9317
G2 X28.4305 Y37.9316 I3.0 J0.0
G1 X34.9305 Y37.9016
G1 F400.0 Z0.0
G2 F1000.0 X37.9167 Y34.9016 I-0.0139 J-3.0
G1 Y30.3916
G1 Y29.3916 Z2.0
G1 Y28.4167
G2 X37.7366 Y27.393 I-3.0 J0.0
G2 X37.1359 Y26.398 Z0.0 I-2.8199 J1.0237
G2 X34.9167 Y25.4167 I-2.2192 J2.0187
G1 X28.4167
G2 X25.4167 Y28.4167 I0.0 J3.0
G1 Y32.9456
G1 Y33.9456 Z2.0
G1 Y34.9317
G2 X25.5929 Y35.9448 I3.0 J0.0
G2 X26.1899 Y36.942 Z0.0 I2.8238 J-1.0131
G2 X28.4305 Y37.9316 I2.2268 J-2.0104
G1 X34.9305 Y37.9016
G0 Z20.0
G0 X34.9225 Y42.0833
G0 Z10.0
G1 F400.0 Z6.0
G1 F1000.0 X34.9167
G1 X28.4167
G2 X25.4167 Y45.0833 I0.0 J3.0
G1 Y51.5983
G2 X28.4305 Y54.5982 I3.0 J0.0
G1 X34.9305 Y54.5682
G2 X37.9167 Y51.5682 I-0.0139 J-3.0
G1 Y45.0833
G2 X34.9225 Y42.0833 I-3.0 J0.0
G1 F400.0 Z3.0
G1 F1000.0 X34.9167
G1 X28.4167
G2 X25.4167 Y45.0833 I0.0 J3.0
G1 Y51.5983
G2 X28.4305 Y54.5982 I3.0 J0.0
G1 X34.9305 Y54.5682
G2 X37.9167 Y51.5682 I-0.0139 J-3.0
G1 Y45.0833
G2 X34.9225 Y42.0833 I-3.0 J0.0
G1 F400.0 Z0.0
G1 F1000.0 X34.9167
G1 X28.4167
G2 X25.4167 Y45.0833 I0.0 J3.0
G1 Y49.6122
G1 Y50.6122 Z2.0
G1 Y51.5983
G2 X25.5929 Y52.6114 I3.0 J0.0
G2 X26.1899 Y53.6086 Z0.0 I2.8238 J-1.0131
G2 X28.4305 Y54.5982 I2.2268 J-2.0104
G1 X34.9305 Y54.5682
G2 X37.9167 Y51.5682 I-0.0139 J-3.0
G1 Y47.0582
G1 Y46.0582 Z2.0
G1 Y45.0833
G2 X37.7366 Y44.0596 I-3.0 J0.0
G2 X37.1359 Y43.0646 Z0.0 I-2.8199 J1.0237
G2 X34.9225 Y42.0833 I-2.2192 J2.0187
G0 Z20.0
G0 X42.2061 Y44.2338
G0 Z10.0
G1 F400.0 Z6.0
G2 F1000.0 X42.0833 Y45.0833 I2.8772 J0.8495
G1 Y51.5983
G2 X45.0971 Y54.5982 I3.0 J0.0
G1 X51.5971 Y54.5682
G2 X54.5833 Y51.5682 I-0.0139 J-3.0
G1 Y45.0833
G2 X51.5833 Y42.0833 I-3.0 J0.0
G1 X45.0833
G2 X42.2061 Y44.2338 I0.0 J3.0
G1 F400.0 Z3.0
G2 F1000.0 X42.0833 Y45.0833 I2.8772 J0.8495
G1 Y51.5983
G2 X45.0971 Y54.5982 I3.0 J0.0
G1 X51.5971 Y54.5682
G2 X54.5833 Y51.5682 I-0.0139 J-3.0
G1 Y45.0833
G2 X51.5833 Y42.0833 I-3.0 J0.0
G1 X45.0833
G2 X42.2061 Y44.2338 I0.0 J3.0
G1 F400.0 Z0.0
G2 F1000.0 X42.0833 Y45.0833 I2.8772 J0.8495
G1 Y49.6122
G1 Y50.6122 Z2.0
G1 Y51.5983
G2 X42.2595 Y52.6114 I3.0 J0.0
G2 X42.8565 Y53.6086 Z0.0 I2.8238 J-1.0131
G2 X45.0971 Y54.5982 I2.2268 J-2.0104
G1 X51.5971 Y54.5682
G2 X54.5833 Y51.5682 I-0.0139 J-3.0
G1 Y47.0582
G1 Y46.0582 Z2.0
G1 Y45.0833
G2 X54.4032 Y44.0596 I-3.0 J0.0
G2 X53.8025 Y43.0646 Z0.0 I-2.8199 J1.0237
G2 X51.5833 Y42.0833 I-2.2192 J2.0187
G1 X45.0833
G2 X42.2061 Y44.2338 I0.0 J3.0
G0 Z20.0
G0 X44.1968 Y37.7977
G0 Z10.0
G1 F400.0 Z6.0
G2 F1000.0 X45.0971 Y37.9316 I0.8865 J-2.866
G1 X51.5971 Y37.9016
G2 X54.5833 Y34.9016 I-0.0139 J-3.0
G1 Y28.4167
G2 X51.5833 Y25.4167 I-3.0 J0.0
G1 X45.0833
G2 X42.0833 Y28.4167 I0.0 J3.0
G1 Y34.9317
G2 X44.1968 Y37.7977 I3.0 J0.0
G1 F400.0 Z3.0
G2 F1000.0 X45.0971 Y37.9316 I0.8865 J-2.866
G1 X51.5971 Y37.9016
G2 X54.5833 Y34.9016 I-0.0139 J-3.0
G1 Y28.4167
G2 X51.5833 Y25.4167 I-3.0 J0.0
G1 X45.0833
G2 X42.0833 Y28.4167 I0.0 J3.0
G1 Y34.9317
G2 X44.1968 Y37.7977 I3.0 J0.0
G1 F400.0 Z0.0
G2 F1000.0 X45.0971 Y37.9316 I0.8865 J-2.866
G1 X51.5971 Y37.9016
G2 X54.5833 Y34.9016 I-0.0139 J-3.0
G1 Y30.3916
G1 Y29.3916 Z2.0
G1 Y28.4167
G2 X54.4032 Y27.393 I-3.0 J0.0
G2 X53.8025 Y26.398 Z0.0 I-2.8199 J1.0237
G2 X51.5833 Y25.4167 I-2.2192 J2.0187
G1 X45.0833
G2 X42.0833 Y28.4167 I0.0 J3.0
G1 Y32.9456
G1 Y33.9456 Z2.0
G1 Y34.9317
G2 X42.2595 Y35.9448 I3.0 J0.0
G2 X42.8565 Y36.942 Z0.0 I2.8238 J-1.0131
G2 X44.1968 Y37.7977 I2.2268 J-2.0104
G0 Z20.0
G0 X58.7891 Y35.4151
G0 Z10.0
G1 F400.0 Z6.0
G2 F1000.0 X61.7637 Y37.9316 I2.9608 J-0.4834
G1 X68.2637 Y37.9016
G2 X71.2499 Y34.9016 I-0.0139 J-3.0
G1 Y28.4167
G2 X68.2499 Y25.4167 I-3.0 J0.0
G1 X61.7499
G2 X58.7499 Y28.4167 I0.0 J3.0
G1 Y34.9317
G2 X58.7891 Y35.4151 I3.0 J0.0
G1 F400.0 Z3.0
G2 F1000.0 X61.7637 Y37.9316 I2.9608 J-0.4834
G1 X68.2637 Y37.9016
G2 X71.2499 Y34.9016 I-0.0139 J-3.0
G1 Y28.4167
G2 X68.2499 Y25.4167 I-3.0 J0.0
G1 X61.7499
G2 X58.7499 Y28.4167 I0.0 J3.0
G1 Y34.9317
G2 X58.7891 Y35.4151 I3.0 J0.0
G1 F400.0 Z2.0
G2 F1000.0 X58.9261 Y35.9448 I2.9608 J-0.4834
G2 X59.5231 Y36.942 Z0.0 I2.8238 J-1.0131
G2 X61.7637 Y37.9316 I2.2268 J-2.0104
G1 X68.2637 Y37.9016
G2 X71.2499 Y34.9016 I-0.0139 J-3.0
G1 Y30.3916
G1 Y29.3916 Z2.0
G1 Y28.4167
G2 X71.0698 Y27.393 I-3.0 J0.0
G2 X70.4691 Y26.398 Z0.0 I-2.8199 J1.0237
G2 X68.2499 Y25.4167 I-2.2192 J2.0187
G1 X61.7499
G2 X58.7499 Y28.4167 I0.0 J3.0
G1 Y32.9456
G1 Y33.9456 Z2.0
G1 Y34.9317
G2 X58.7891 Y35.4151 I3.0 J0.0
G0 Z20.0
G0 X60.8714 Y42.2148
G0 Z10.0
G1 F400.0 Z6.0
G2 F1000.0 X58.7499 Y45.0833 I0.8785 J2.8685
G1 Y51.5983
G2 X61.7637 Y54.5982 I3.0 J0.0
G1 X68.2637 Y54.5682
G2 X71.2499 Y51.5682 I-0.0139 J-3.0
G1 Y45.0833
G2 X68.2499 Y42.0833 I-3.0 J0.0
G1 X61.7499
G2 X60.8714 Y42.2148 I0.0 J3.0
G1 F400.0 Z3.0
G2 F1000.0 X58.7499 Y45.0833 I0.8785 J2.8685
G1 Y51.5983
G2 X61.7637 Y54.5982 I3.0 J0.0
G1 X68.2637 Y54.5682
G2 X71.2499 Y51.5682 I-0.0139 J-3.0
G1 Y45.0833
G2 X68.2499 Y42.0833 I-3.0 J0.0
G1 X61.7499
G2 X60.8714 Y42.2148 I0.0 J3.0
G1 F400.0 Z0.0
G2 F1000.0 X58.7499 Y45.0833 I0.8785 J2.8685
G1 Y49.6122
G1 Y50.6122 Z2.0
G1 Y51.5983
G2 X58.9261 Y52.6114 I3.0 J0.0
G2 X59.5231 Y53.6086 Z0.0 I2.8238 J-1.0131
G2 X61.7637 Y54.5982 I2.2268 J-2.0104
G1 X68.2637 Y54.5682
G2 X71.2499 Y51.5682 I-0.0139 J-3.0
G1 Y47.0582
G1 Y46.0582 Z2.0
G1 Y45.0833
G2 X71.0698 Y44.0596 I-3.0 J0.0
G2 X70.4691 Y43.0646 Z0.0 I-2.8199 J1.0237
G2 X68.2499 Y42.0833 I-2.2192 J2.0187
G1 X61.7499
G2 X60.8714 Y42.2148 I0.0 J3.0
G0 Z20.0
G0 X75.4558 Y44.5992
G0 Z10.0
G1 F400.0 Z6.0
G2 F1000.0 X75.4165 Y45.0833 I2.9607 J0.4841
G1 Y51.5983
G2 X78.4303 Y54.5982 I3.0 J0.0
G1 X84.9303 Y54.5682
G2 X87.9165 Y51.5682 I-0.0139 J-3.0
G1 Y45.0833
G2 X84.9165 Y42.0833 I-3.0 J0.0
G1 X78.4165
G2 X75.4558 Y44.5992 I0.0 J3.0
G1 F400.0 Z3.0
G2 F1000.0 X75.4165 Y45.0833 I2.9607 J0.4841
G1 Y51.5983
G2 X78.4303 Y54.5982 I3.0 J0.0
G1 X84.9303 Y54.5682
G2 X87.9165 Y51.5682 I-0.0139 J-3.0
G1 Y45.0833
G2 X84.9165 Y42.0833 I-3.0 J0.0
G1 X78.4165
G2 X75.4558 Y44.5992 I0.0 J3.0
G1 F400.0 Z0.0
G2 F1000.0 X75.4165 Y45.0833 I2.9607 J0.4841
G1 Y49.6122
G1 Y50.6122 Z2.0
G1 Y51.5983
G2 X75.5927 Y52.6114 I3.0 J0.0
G2 X76.1897 Y53.6086 Z0.0 I2.8238 J-1.0131
G2 X78.4303 Y54.5982 I2.2268 J-2.0104
G1 X84.9303 Y54.5682
G2 X87.9165 Y51.5682 I-0.0139 J-3.0
G1 Y47.0582
G1 Y46.0582 Z2.0
G1 Y45.0833
G2 X87.7364 Y44.0596 I-3.0 J0.0
G2 X87.1357 Y43.0646 Z0.0 I-2.8199 J1.0237
G2 X84.9165 Y42.0833 I-2.2192 J2.0187
G1 X78.4165
G2 X75.4558 Y44.5992 I0.0 J3.0
G0 Z20.0
G0 X77.538 Y37.8002
G0 Z10.0
G1 F400.0 Z6.0
G2 F1000.0 X78.4303 Y37.9316 I0.8785 J-2.8685
G1 X84.9303 Y37.9016
G2 X87.9165 Y34.9016 I-0.0139 J-3.0
G1 Y28.4167
G2 X84.9165 Y25.4167 I-3.0 J0.0
G1 X78.4165
G2 X75.4165 Y28.4167 I0.0 J3.0
G1 Y34.9317
G2 X77.538 Y37.8002 I3.0 J0.0
G1 F400.0 Z3.0
G2 F1000.0 X78.4303 Y37.9316 I0.8785 J-2.8685
G1 X84.9303 Y37.9016
G2 X87.9165 Y34.9016 I-0.0139 J-3.0
G1 Y28.4167
G2 X84.9165 Y25.4167 I-3.0 J0.0
G1 X78.4165
G2 X75.4165 Y28.4167 I0.0 J3.0
G1 Y34.9317
G2 X77.538 Y37.8002 I3.0 J0.0
G1 F400.0 Z0.0
G2 F1000.0 X78.4303 Y37.9316 I0.8785 J-2.8685
G1 X84.9303 Y37.9016
G2 X87.9165 Y34.9016 I-0.0139 J-3.0
G1 Y30.3916
G1 Y29.3916 Z2.0
G1 Y28.4167
G2 X87.7364 Y27.393 I-3.0 J0.0
G2 X87.1357 Y26.398 Z0.0 I-2.8199 J1.0237
G2 X84.9165 Y25.4167 I-2.2192 J2.0187
G1 X78.4165
G2 X75.4165 Y28.4167 I0.0 J3.0
G1 Y32.9456
G1 Y33.9456 Z2.0
G1 Y34.9317
G2 X75.5927 Y35.9448 I3.0 J0.0
G2 X76.1897 Y36.942 Z0.0 I2.8238 J-1.0131
G2 X77.538 Y37.8002 I2.2268 J-2.0104
G0 Z20.0
G0 X92.1224 Y35.4157
G0 Z10.0
G1 F400.0 Z6.0
G2 F1000.0 X95.0969 Y37.9316 I2.9607 J-0.4841
G1 X101.5969 Y37.9016
G2 X104.5831 Y34.9016 I-0.0139 J-3.0
G1 Y28.4167
G2 X101.5831 Y25.4167 I-3.0 J0.0
G1 X95.0831
G2 X92.0831 Y28.4167 I0.0 J3.0
G1 Y34.9317
G2 X92.1224 Y35.4157 I3.0 J0.0
G1 F400.0 Z3.0
G2 F1000.0 X95.0969 Y37.9316 I2.9607 J-0.4841
G1 X101.5969 Y37.9016
G2 X104.5831 Y34.9016 I-0.0139 J-3.0
G1 Y28.4167
G2 X101.5831 Y25.4167 I-3.0 J0.0
G1 X95.0831
G2 X92.0831 Y28.4167 I0.0 J3.0
G1 Y34.9317
G2 X92.1224 Y35.4157 I3.0 J0.0
G1 F400.0 Z2.0
G2 F1000.0 X92.2593 Y35.9448 I2.9607 J-0.4841
G2 X92.8563 Y36.942 Z0.0 I2.8238 J-1.0131
G2 X95.0969 Y37.9316 I2.2268 J-2.0104
G1 X101.5969 Y37.9016
G2 X104.5831 Y34.9016 I-0.0139 J-3.0
G1 Y30.3916
G1 Y29.3916 Z2.0
G1 Y28.4167
G2 X104.403 Y27.393 I-3.0 J0.0
G2 X103.8023 Y26.398 Z0.0 I-2.8199 J1.0237
G2 X101.5831 Y25.4167 I-2.2192 J2.0187
G1 X95.0831
G2 X92.0831 Y28.4167 I0.0 J3.0
G1 Y32.9456
G1 Y33.9456 Z2.0
G1 Y34.9317
G2 X92.1224 Y35.4157 I3.0 J0.0
G0 Z20.0
G0 X94.2046 Y42.2148
G0 Z10.0
G1 F400.0 Z6.0
G2 F1000.0 X92.0831 Y45.0833 I0.8785 J2.8685
G1 Y51.5983
G2 X95.0969 Y54.5982 I3.0 J0.0
G1 X101.5969 Y54.5682
G2 X104.5831 Y51.5682 I-0.0139 J-3.0
G1 Y45.0833
G2 X101.5831 Y42.0833 I-3.0 J0.0
G1 X95.0831
G2 X94.2046 Y42.2148 I0.0 J3.0
G1 F400.0 Z3.0
G2 F1000.0 X92.0831 Y45.0833 I0.8785 J2.8685
G1 Y51.5983
G2 X95.0969 Y54.5982 I3.0 J0.0
G1 X101.5969 Y54.5682
G2 X104.5831 Y51.5682 I-0.0139 J-3.0
G1 Y45.0833
G2 X101.5831 Y42.0833 I-3.0 J0.0
G1 X95.0831
G2 X94.2046 Y42.2148 I0.0 J3.0
G1 F400.0 Z0.0
G2 F1000.0 X92.0831 Y45.0833 I0.8785 J2.8685
G1 Y49.6122
G1 Y50.6122 Z2.0
G1 Y51.5983
G2 X92.2593 Y52.6114 I3.0 J0.0
G2 X92.8563 Y53.6086 Z0.0 I2.8238 J-1.0131
G2 X95.0969 Y54.5982 I2.2268 J-2.0104
G1 X101.5969 Y54.5682
G2 X104.5831 Y51.5682 I-0.0139 J-3.0
G1 Y47.0582
G1 Y46.0582 Z2.0
G1 Y45.0833
G2 X104.403 Y44.0596 I-3.0 J0.0
G2 X103.8023 Y43.0646 Z0.0 I-2.8199 J1.0237
G2 X101.5831 Y42.0833 I-2.2192 J2.0187
G1 X95.0831
G2 X94.2046 Y42.2148 I0.0 J3.0
G0 Z20.0
G0 X108.789 Y44.5992
G0 Z10.0
G1 F400.0 Z6.0
G2 F1000.0 X108.7497 Y45.0833 I2.9607 J0.4841
G1 Y51.5983
G2 X111.7635 Y54.5982 I3.0 J0.0
G1 X118.2635 Y54.5682
G2 X121.2497 Y51.5682 I-0.0139 J-3.0
G1 Y45.0833
G2 X118.2497 Y42.0833 I-3.0 J0.0
G1 X111.7497
G2 X108.789 Y44.5992 I0.0 J3.0
G1 F400.0 Z3.0
G2 F1000.0 X108.7497 Y45.0833 I2.9607 J0.4841
G1 Y51.5983
G2 X111.7635 Y54.5982 I3.0 J0.0
G1 X118.2635 Y54.5682
G2 X121.2497 Y51.5682 I-0.0139 J-3.0
G1 Y45.0833
G2 X118.2497 Y42.0833 I-3.0 J0.0
G1 X111.7497
G2 X108.789 Y44.5992 I0.0 J3.0
G1 F400.0 Z0.0
G2 F1000.0 X108.7497 Y45.0833 I2.9607 J0.4841
G1 Y49.6122
G1 Y50.6122 Z2.0
G1 Y51.5983
G2 X108.9259 Y52.6114 I3.0 J0.0
G2 X109.5229 Y53.6086 Z0.0 I2.8238 J-1.0131
G2 X111.7635 Y54.5982 I2.2268 J-2.0104
G1 X118.2635 Y54.5682
G2 X121.2497 Y51.5682 I-0.0139 J-3.0
G1 Y47.0582
G1 Y46.0582 Z2.0
G1 Y45.0833
G2 X121.0696 Y44.0596 I-3.0 J0.0
G2 X120.4689 Y43.0646 Z0.0 I-2.8199 J1.0237
G2 X118.2497 Y42.0833 I-2.2192 J2.0187
G1 X111.7497
G2 X108.789 Y44.5992 I0.0 J3.0
G0 Z20.0
G0 X110.8712 Y37.8002
G0 Z10.0
G1 F400.0 Z6.0
G2 F1000.0 X111.7635 Y37.9316 I0.8785 J-2.8685
G1 X118.2635 Y37.9016
G2 X121.2497 Y34.9016 I-0.0139 J-3.0
G1 Y28.4167
G2 X118.2497 Y25.4167 I-3.0 J0.0
G1 X111.7497
G2 X108.7497 Y28.4167 I0.0 J3.0
G1 Y34.9317
G2 X110.8712 Y37.8002 I3.0 J0.0
G1 F400.0 Z3.0
G2 F1000.0 X111.7635 Y37.9316 I0.8785 J-2.8685
G1 X118.2635 Y37.9016
G2 X121.2497 Y34.9016 I-0.0139 J-3.0
G1 Y28.4167
G2 X118.2497 Y25.4167 I-3.0 J0.0
G1 X111.7497
G2 X108.7497 Y28.4167 I0.0 J3.0
G1 Y34.9317
G2 X110.8712 Y37.8002 I3.0 J0.0
G1 F400.0 Z0.0
G2 F1000.0 X111.7635 Y37.9316 I0.8785 J-2.8685
G1 X118.2635 Y37.9016
G2 X121.2497 Y34.9016 I-0.0139 J-3.0
G1 Y30.3916
G1 Y29.3916 Z2.0
G1 Y28.4167
G2 X121.0696 Y27.393 I-3.0 J0.0
G2 X120.4689 Y26.398 Z0.0 I-2.8199 J1.0237
G2 X118.2497 Y25.4167 I-2.2192 J2.0187
G1 X111.7497
G2 X108.7497 Y28.4167 I0.0 J3.0
G1 Y32.9456
G1 Y33.9456 Z2.0
G1 Y34.9317
G2 X108.9259 Y35.9448 I3.0 J0.0
G2 X109.5229 Y36.942 Z0.0 I2.8238 J-1.0131
G2 X110.8712 Y37.8002 I2.2268 J-2.0104
G0 Z20.0
G0 X125.4556 Y35.4157
G0 Z10.0
G1 F400.0 Z6.0
G2 F1000.0 X128.4301 Y37.9316 I2.9607 J-0.4841
G1 X134.9301 Y37.9016
G2 X137.9163 Y34.9016 I-0.0139 J-3.0
G1 Y28.4167
G2 X134.9163 Y25.4167 I-3.0 J0.0
G1 X128.4163
G2 X125.4163 Y28.4167 I0.0 J3.0
G1 Y34.9317
G2 X125.4556 Y35.4157 I3.0 J0.0
G1 F400.0 Z3.0
G2 F1000.0 X128.4301 Y37.9316 I2.9607 J-0.4841
G1 X134.9301 Y37.9016
G2 X137.9163 Y34.9016 I-0.0139 J-3.0
G1 Y28.4167
G2 X134.9163 Y25.4167 I-3.0 J0.0
G1 X128.4163
G2 X125.4163 Y28.4167 I0.0 J3.0
G1 Y34.9317
G2 X125.4556 Y35.4157 I3.0 J0.0
G1 F400.0 Z2.0
G2 F1000.0 X125.5925 Y35.9448 I2.9607 J-0.4841
G2 X126.1895 Y36.942 Z0.0 I2.8238 J-1.0131
G2 X128.4301 Y37.9316 I2.2268 J-2.0104
G1 X134.9301 Y37.9016
G2 X137.9163 Y34.9016 I-0.0139 J-3.0
G1 Y30.3916
G1 Y29.3916 Z2.0
G1 Y28.4167
G2 X137.7362 Y27.393 I-3.0 J0.0
G2 X137.1355 Y26.398 Z0.0 I-2.8199 J1.0237
G2 X134.9163 Y25.4167 I-2.2192 J2.0187
G1 X128.4163
G2 X125.4163 Y28.4167 I0.0 J3.0
G1 Y32.9456
G1 Y33.9456 Z2.0
G1 Y34.9317
G2 X125.4556 Y35.4157 I3.0 J0.0
G0 Z20.0
G0 X127.5378 Y42.2148
G0 Z10.0
G1 F400.0 Z6.0
G2 F1000.0 X125.4163 Y45.0833 I0.8785 J2.8685
G1 Y51.5983
G2 X128.4301 Y54.5982 I3.0 J0.0
G1 X134.9301 Y54.5682
G2 X137.9163 Y51.5682 I-0.0139 J-3.0
G1 Y45.0833
G2 X134.9163 Y42.0833 I-3.0 J0.0
G1 X128.4163
G2 X127.5378 Y42.2148 I0.0 J3.0
G1 F400.0 Z3.0
G2 F1000.0 X125.4163 Y45.0833 I0.8785 J2.8685
G1 Y51.5983
G2 X128.4301 Y54.5982 I3.0 J0.0
G1 X134.9301 Y54.5682
G2 X137.9163 Y51.5682 I-0.0139 J-3.0
G1 Y45.0833
G2 X134.9163 Y42.0833 I-3.0 J0.0
G1 X128.4163
G2 X127.5378 Y42.2148 I0.0 J3.0
G1 F400.0 Z0.0
G2 F1000.0 X125.4163 Y45.0833 I0.8785 J2.8685
G1 Y49.6122
G1 Y50.6122 Z2.0
G1 Y51.5983
G2 X125.5925 Y52.6114 I3.0 J0.0
G2 X126.1895 Y53.6086 Z0.0 I2.8238 J-1.0131
G2 X128.4301 Y54.5982 I2.2268 J-2.0104
G1 X134.9301 Y54.5682
G2 X137.9163 Y51.5682 I-0.0139 J-3.0
G1 Y47.0582
G1 Y46.0582 Z2.0
G1 Y45.0833
G2 X137.7362 Y44.0596 I-3.0 J0.0
G2 X137.1355 Y43.0646 Z0.0 I-2.8199 J1.0237
G2 X134.9163 Y42.0833 I-2.2192 J2.0187
G1 X128.4163
G2 X127.5378 Y42.2148 I0.0 J3.0
G0 Z20.0
G0 X142.1222 Y44.5992
G0 Z10.0
G1 F400.0 Z6.0
G2 F1000.0 X142.0829 Y45.0833 I2.9607 J0.4841
G1 Y51.5983
G2 X145.0967 Y54.5982 I3.0 J0.0
G1 X151.5967 Y54.5682
G2 X154.5829 Y51.5682 I-0.0139 J-3.0
G1 Y45.0833
G2 X151.5829 Y42.0833 I-3.0 J0.0
G1 X145.0829
G2 X142.1222 Y44.5992 I0.0 J3.0
G1 F400.0 Z3.0
G2 F1000.0 X142.0829 Y45.0833 I2.9607 J0.4841
G1 Y51.5983
G2 X145.0967 Y54.5982 I3.0 J0.0
G1 X151.5967 Y54.5682
G2 X154.5829 Y51.5682 I-0.0139 J-3.0
G1 Y45.0833
G2 X151.5829 Y42.0833 I-3.0 J0.0
G1 X145.0829
G2 X142.1222 Y44.5992 I0.0 J3.0
G1 F400.0 Z0.0
G2 F1000.0 X142.0829 Y45.0833 I2.9607 J0.4841
G1 Y49.6122
G1 Y50.6122 Z2.0
G1 Y51.5983
G2 X142.2591 Y52.6114 I3.0 J0.0
G2 X142.8561 Y53.6086 Z0.0 I2.8238 J-1.0131
G2 X145.0967 Y54.5982 I2.2268 J-2.0104
G1 X151.5967 Y54.5682
G2 X154.5829 Y51.5682 I-0.0139 J-3.0
G1 Y47.0582
G1 Y46.0582 Z2.0
G1 Y45.0833
G2 X154.4028 Y44.0596 I-3.0 J0.0
G2 X153.8021 Y43.0646 Z0.0 I-2.8199 J1.0237
G2 X151.5829 Y42.0833 I-2.2192 J2.0187
G1 X145.0829
G2 X142.1222 Y44.5992 I0.0 J3.0
G0 Z20.0
G0 X144.2044 Y37.8002
G0 Z10.0
G1 F400.0 Z6.0
G2 F1000.0 X145.0967 Y37.9316 I0.8785 J-2.8685
G1 X151.5967 Y37.9016
G2 X154.5829 Y34.9016 I-0.0139 J-3.0
G1 Y28.4167
G2 X151.5829 Y25.4167 I-3.0 J0.0
G1 X145.0829
G2 X142.0829 Y28.4167 I0.0 J3.0
G1 Y34.9317
G2 X144.2044 Y37.8002 I3.0 J0.0
G1 F400.0 Z3.0
G2 F1000.0 X145.0967 Y37.9316 I0.8785 J-2.8685
G1 X151.5967 Y37.9016
G2 X154.5829 Y34.9016 I-0.0139 J-3.0
G1 Y28.4167
G2 X151.5829 Y25.4167 I-3.0 J0.0
G1 X145.0829
G2 X142.0829 Y28.4167 I0.0 J3.0
G1 Y34.9317
G2 X144.2044 Y37.8002 I3.0 J0.0
G1 F400.0 Z0.0
G2 F1000.0 X145.0967 Y37.9316 I0.8785 J-2.8685
G1 X151.5967 Y37.9016
G2 X154.5829 Y34.9016 I-0.0139 J-3.0
G1 Y30.3916
G1 Y29.3916 Z2.0
G1 Y28.4167
G2 X154.4028 Y27.393 I-3.0 J0.0
G2 X153.8021 Y26.398 Z0.0 I-2.8199 J1.0237
G2 X151.5829 Y25.4167 I-2.2192 J2.0187
G1 X145.0829
G2 X142.0829 Y28.4167 I0.0 J3.0
G1 Y32.9456
G1 Y33.9456 Z2.0
G1 Y34.9317
G2 X142.2591 Y35.9448 I3.0 J0.0
G2 X142.8561 Y36.942 Z0.0 I2.8238 J-1.0131
G2 X144.2044 Y37.8002 I2.2268 J-2.0104
G0 Z20.0
G0 X158.7888 Y35.4157
G0 Z10.0
G1 F400.0 Z6.0
G2 F1000.0 X161.7633 Y37.9316 I2.9607 J-0.4841
G1 X168.2633 Y37.9016
G2 X171.2495 Y34.9016 I-0.0139 J-3.0
G1 Y28.4167
G2 X168.2495 Y25.4167 I-3.0 J0.0
G1 X161.7495
G2 X158.7495 Y28.4167 I0.0 J3.0
G1 Y34.9317
G2 X158.7888 Y35.4157 I3.0 J0.0
G1 F400.0 Z3.0
G2 F1000.0 X161.7633 Y37.9316 I2.9607 J-0.4841
G1 X168.2633 Y37.9016
G2 X171.2495 Y34.9016 I-0.0139 J-3.0
G1 Y28.4167
G2 X168.2495 Y25.4167 I-3.0 J0.0
G1 X161.7495
G2 X158.7495 Y28.4167 I0.0 J3.0
G1 Y34.9317
G2 X158.7888 Y35.4157 I3.0 J0.0
G1 F400.0 Z2.0
G2 F1000.0 X158.9257 Y35.9448 I2.9607 J-0.4841
G2 X159.5227 Y36.942 Z0.0 I2.8238 J-1.0131
G2 X161.7633 Y37.9316 I2.2268 J-2.0104
G1 X168.2633 Y37.9016
G2 X171.2495 Y34.9016 I-0.0139 J-3.0
G1 Y30.3916
G1 Y29.3916 Z2.0
G1 Y28.4167
G2 X171.0694 Y27.393 I-3.0 J0.0
G2 X170.4687 Y26.398 Z0.0 I-2.8199 J1.0237
G2 X168.2495 Y25.4167 I-2.2192 J2.0187
G1 X161.7495
G2 X158.7495 Y28.4167 I0.0 J3.0
G1 Y32.9456
G1 Y33.9456 Z2.0
G1 Y34.9317
G2 X158.7888 Y35.4157 I3.0 J0.0
G0 Z20.0
G0 X160.871 Y42.2148
G0 Z10.0
G1 F400.0 Z6.0
G2 F1000.0 X158.7495 Y45.0833 I0.8785 J2.8685
G1 Y51.5983
G2 X161.7633 Y54.5982 I3.0 J0.0
G1 X168.2633 Y54.5682
G2 X171.2495 Y51.5682 I-0.0139 J-3.0
G1 Y45.0833
G2 X168.2495 Y42.0833 I-3.0 J0.0
G1 X161.7495
G2 X160.871 Y42.2148 I0.0 J3.0
G1 F400.0 Z3.0
G2 F1000.0 X158.7495 Y45.0833 I0.8785 J2.8685
G1 Y51.5983
G2 X161.7633 Y54.5982 I3.0 J0.0
G1 X168.2633 Y54.5682
G2 X171.2495 Y51.5682 I-0.0139 J-3.0
G1 Y45.0833
G2 X168.2495 Y42.0833 I-3.0 J0.0
G1 X161.7495
G2 X160.871 Y42.2148 I0.0 J3.0
G1 F400.0 Z0.0
G2 F1000.0 X158.7495 Y45.0833 I0.8785 J2.8685
G1 Y49.6122
G1 Y50.6122 Z2.0
G1 Y51.5983
G2 X158.9257 Y52.6114 I3.0 J0.0
G2 X159.5227 Y53.6086 Z0.0 I2.8238 J-1.0131
G2 X161.7633 Y54.5982 I2.2268 J-2.0104
G1 X168.2633 Y54.5682
G2 X171.2495 Y51.5682 I-0.0139 J-3.0
G1 Y47.0582
G1 Y46.0582 Z2.0
G1 Y45.0833
G2 X171.0694 Y44.0596 I-3.0 J0.0
G2 X170.4687 Y43.0646 Z0.0 I-2.8199 J1.0237
G2 X168.2495 Y42.0833 I-2.2192 J2.0187
G1 X161.7495
G2 X160.871 Y42.2148 I0.0 J3.0
G0 Z20.0
G0 X175.4554 Y44.5992
G0 Z10.0
G1 F400.0 Z6.0
G2 F1000.0 X175.4161 Y45.0833 I2.9607 J0.4841
G1 Y51.5983
G2 X178.4299 Y54.5982 I3.0 J0.0
G1 X184.9299 Y54.5682
G2 X187.9161 Y51.5682 I-0.0139 J-3.0
G1 Y45.0833
G2 X184.9161 Y42.0833 I-3.0 J0.0
G1 X178.4161
G2 X175.4554 Y44.5992 I0.0 J3.0
G1 F400.0 Z3.0
G2 F1000.0 X175.4161 Y45.0833 I2.9607 J0.4841
G1 Y51.5983
G2 X178.4299 Y54.5982 I3.0 J0.0
G1 X184.9299 Y54.5682
G2 X187.9161 Y51.5682 I-0.0139 J-3.0
G1 Y45.0833
G2 X184.9161 Y42.0833 I-3.0 J0.0
G1 X178.4161
G2 X175.4554 Y44.5992 I0.0 J3.0
G1 F400.0 Z0.0
G2 F1000.0 X175.4161 Y45.0833 I2.9607 J0.4841
G1 Y49.6122
G1 Y50.6122 Z2.0
G1 Y51.5983
G2 X175.5923 Y52.6114 I3.0 J0.0
G2 X176.1893 Y53.6086 Z0.0 I2.8238 J-1.0131
G2 X178.4299 Y54.5982 I2.2268 J-2.0104
G1 X184.9299 Y54.5682
G2 X187.9161 Y51.5682 I-0.0139 J-3.0
G1 Y47.0582
G1 Y46.0582 Z2.0
G1 Y45.0833
G2 X187.736 Y44.0596 I-3.0 J0.0
G2 X187.1353 Y43.0646 Z0.0 I-2.8199 J1.0237
G2 X184.9161 Y42.0833 I-2.2192 J2.0187
G1 X178.4161
G2 X175.4554 Y44.5992 I0.0 J3.0
G0 Z20.0
G0 X177.5376 Y37.8002
G0 Z10.0
G1 F400.0 Z6.0
G2 F1000.0 X178.4299 Y37.9316 I0.8785 J-2.8685
G1 X184.9299 Y37.9016
G2 X187.9161 Y34.9016 I-0.0139 J-3.0
G1 Y28.4167
G2 X184.9161 Y25.4167 I-3.0 J0.0
G1 X178.4161
G2 X175.4161 Y28.4167 I0.0 J3.0
G1 Y34.9317
G2 X177.5376 Y37.8002 I3.0 J0.0
G1 F400.0 Z3.0
G2 F1000.0 X178.4299 Y37.9316 I0.8785 J-2.8685
G1 X184.9299 Y37.9016
G2 X187.9161 Y34.9016 I-0.0139 J-3.0
G1 Y28.4167
G2 X184.9161 Y25.4167 I-3.0 J0.0
G1 X178.4161
G2 X175.4161 Y28.4167 I0.0 J3.0
G1 Y34.9317
G2 X177.5376 Y37.8002 I3.0 J0.0
G1 F400.0 Z0.0
G2 F1000.0 X178.4299 Y37.9316 I0.8785 J-2.8685
G1 X184.9299 Y37.9016
G2 X187.9161 Y34.9016 I-0.0139 J-3.0
G1 Y30.3916
G1 Y29.3916 Z2.0
G1 Y28.4167
G2 X187.736 Y27.393 I-3.0 J0.0
G2 X187.1353 Y26.398 Z0.0 I-2.8199 J1.0237
G2 X184.9161 Y25.4167 I-2.2192 J2.0187
G1 X178.4161
G2 X175.4161 Y28.4167 I0.0 J3.0
G1 Y32.9456
G1 Y33.9456 Z2.0
G1 Y34.9317
G2 X175.5923 Y35.9448 I3.0 J0.0
G2 X176.1893 Y36.942 Z0.0 I2.8238 J-1.0131
G2 X177.5376 Y37.8002 I2.2268 J-2.0104
G0 Z20.0
G0 X192.122 Y35.4157
G0 Z10.0
G1 F400.0 Z6.0
G2 F1000.0 X195.0965 Y37.9316 I2.9607 J-0.4841
G1 X201.5965 Y37.9016
G2 X204.5827 Y34.9016 I-0.0139 J-3.0
G1 Y28.4167
G2 X201.5827 Y25.4167 I-3.0 J0.0
G1 X195.0827
G2 X192.0827 Y28.4167 I0.0 J3.0
G1 Y34.9317
G2 X192.122 Y35.4157 I3.0 J0.0
G1 F400.0 Z3.0
G2 F1000.0 X195.0965 Y37.9316 I2.9607 J-0.4841
G1 X201.5965 Y37.9016
G2 X204.5827 Y34.9016 I-0.0139 J-3.0
G1 Y28.4167
G2 X201.5827 Y25.4167 I-3.0 J0.0
G1 X195.0827
G2 X192.0827 Y28.4167 I0.0 J3.0
G1 Y34.9317
G2 X192.122 Y35.4157 I3.0 J0.0
G1 F400.0 Z2.0
G2 F1000.0 X192.2589 Y35.9448 I2.9607 J-0.4841
G2 X192.8559 Y36.942 Z0.0 I2.8238 J-1.0131
G2 X195.0965 Y37.9316 I2.2268 J-2.0104
G1 X201.5965 Y37.9016
G2 X204.5827 Y34.9016 I-0.0139 J-3.0
G1 Y30.3916
G1 Y29.3916 Z2.0
G1 Y28.4167
G2 X204.4026 Y27.393 I-3.0 J0.0
G2 X203.8019 Y26.398 Z0.0 I-2.8199 J1.0237
G2 X201.5827 Y25.4167 I-2.2192 J2.0187
G1 X195.0827
G2 X192.0827 Y28.4167 I0.0 J3.0
G1 Y32.9456
G1 Y33.9456 Z2.0
G1 Y34.9317
G2 X192.122 Y35.4157 I3.0 J0.0
G0 Z20.0
G0 X194.2042 Y42.2148
G0 Z10.0
G1 F400.0 Z6.0
G2 F1000.0 X192.0827 Y45.0833 I0.8785 J2.8685
G1 Y51.5983
G2 X195.0965 Y54.5982 I3.0 J0.0
G1 X201.5965 Y54.5682
G2 X204.5827 Y51.5682 I-0.0139 J-3.0
G1 Y45.0833
G2 X201.5827 Y42.0833 I-3.0 J0.0
G1 X195.0827
G2 X194.2042 Y42.2148 I0.0 J3.0
G1 F400.0 Z3.0
G2 F1000.0 X192.0827 Y45.0833 I0.8785 J2.8685
G1 Y51.5983
G2 X195.0965 Y54.5982 I3.0 J0.0
G1 X201.5965 Y54.5682
G2 X204.5827 Y51.5682 I-0.0139 J-3.0
G1 Y45.0833
G2 X201.5827 Y42.0833 I-3.0 J0.0
G1 X195.0827
G2 X194.2042 Y42.2148 I0.0 J3.0
G1 F400.0 Z0.0
G2 F1000.0 X192.0827 Y45.0833 I0.8785 J2.8685
G1 Y49.6122
G1 Y50.6122 Z2.0
G1 Y51.5983
G2 X192.2589 Y52.6114 I3.0 J0.0
G2 X192.8559 Y53.6086 Z0.0 I2.8238 J-1.0131
G2 X195.0965 Y54.5982 I2.2268 J-2.0104
G1 X201.5965 Y54.5682
G2 X204.5827 Y51.5682 I-0.0139 J-3.0
G1 Y47.0582
G1 Y46.0582 Z2.0
G1 Y45.0833
G2 X204.4026 Y44.0596 I-3.0 J0.0
G2 X203.8019 Y43.0646 Z0.0 I-2.8199 J1.0237
G2 X201.5827 Y42.0833 I-2.2192 J2.0187
G1 X195.0827
G2 X194.2042 Y42.2148 I0.0 J3.0
G0 Z20.0
G0 X194.9479 Y58.7529
G0 Z10.0
G1 F400.0 Z6.0
G2 F1000.0 X192.0827 Y61.7499 I0.1348 J2.997
G1 Y68.2649
G2 X195.0965 Y71.2648 I3.0 J0.0
G1 X201.5965 Y71.2348
G2 X204.5827 Y68.2348 I-0.0139 J-3.0
G1 Y61.7499
G2 X201.5827 Y58.7499 I-3.0 J0.0
G1 X195.0827
G2 X194.9479 Y58.7529 I0.0 J3.0
G1 F400.0 Z3.0
G2 F1000.0 X192.0827 Y61.7499 I0.1348 J2.997
G1 Y68.2649
G2 X195.0965 Y71.2648 I3.0 J0.0
G1 X201.5965 Y71.2348
G2 X204.5827 Y68.2348 I-0.0139 J-3.0
G1 Y61.7499
G2 X201.5827 Y58.7499 I-3.0 J0.0
G1 X195.0827
G2 X194.9479 Y58.7529 I0.0 J3.0
G1 F400.0 Z0.0
G2 F1000.0 X192.0827 Y61.7499 I0.1348 J2.997
G1 Y66.2788
G1 Y67.2788 Z2.0
G1 Y68.2649
G2 X192.2589 Y69.278 I3.0 J0.0
G2 X192.8559 Y70.2752 Z0.0 I2.8238 J-1.0131
G2 X195.0965 Y71.2648 I2.2268 J-2.0104
G1 X201.5965 Y71.2348
G2 X204.5827 Y68.2348 I-0.0139 J-3.0
G1 Y63.7248
G1 Y62.7248 Z2.0
G1 Y61.7499
G2 X204.4026 Y60.7262 I-3.0 J0.0
G2 X203.8019 Y59.7312 Z0.0 I-2.8199 J1.0237
G2 X201.5827 Y58.7499 I-2.2192 J2.0187
G1 X195.0827
G2 X194.9479 Y58.7529 I0.0 J3.0
G0 Z20.0
G0 X187.7905 Y60.8912
G0 Z10.0
G1 F400.0 Z6.0
G2 F1000.0 X184.9161 Y58.7499 I-2.8745 J0.8587
G1 X178.4161
G2 X175.4161 Y61.7499 I0.0 J3.0
G1 Y68.2649
G2 X178.4299 Y71.2648 I3.0 J0.0
G1 X184.9299 Y71.2348
G2 X187.9161 Y68.2348 I-0.0139 J-3.0
G1 Y61.7499
G2 X187.7905 Y60.8912 I-3.0 J0.0
G1 F400.0 Z3.0
G2 F1000.0 X184.9161 Y58.7499 I-2.8745 J0.8587
G1 X178.4161
G2 X175.4161 Y61.7499 I0.0 J3.0
G1 Y68.2649
G2 X178.4299 Y71.2648 I3.0 J0.0
G1 X184.9299 Y71.2348
G2 X187.9161 Y68.2348 I-0.0139 J-3.0
G1 Y61.7499
G2 X187.7905 Y60.8912 I-3.0 J0.0
G1 F400.0 Z2.0
G2 F1000.0 X187.736 Y60.7262 I-2.8745 J0.8587
G2 X187.1353 Y59.7312 Z0.0 I-2.8199 J1.0237
G2 X184.9161 Y58.7499 I-2.2192 J2.0187
G1 X178.4161
G2 X175.4161 Y61.7499 I0.0 J3.0
G1 Y66.2788
G1 Y67.2788 Z2.0
G1 Y68.2649
G2 X175.5923 Y69.278 I3.0 J0.0
G2 X176.1893 Y70.2752 Z0.0 I2.8238 J-1.0131
G2 X178.4299 Y71.2648 I2.2268 J-2.0104
G1 X184.9299 Y71.2348
G2 X187.9161 Y68.2348 I-0.0139 J-3.0
G1 Y63.7248
G1 Y62.7248 Z2.0
G1 Y61.7499
G2 X187.7905 Y60.8912 I-3.0 J0.0
G0 Z20.0
G0 X185.4016 Y75.4561
G0 Z10.0
G1 F400.0 Z6.0
G2 F1000.0 X184.9161 Y75.4165 I-0.4856 J2.9604
G1 X178.4161
G2 X175.4161 Y78.4165 I0.0 J3.0
G1 Y84.9315
G2 X178.4299 Y87.9314 I3.0 J0.0
G1 X184.9299 Y87.9014
G2 X187.9161 Y84.9014 I-0.0139 J-3.0
G1 Y78.4165
G2 X185.4016 Y75.4561 I-3.0 J0.0
G1 F400.0 Z3.0
G2 F1000.0 X184.9161 Y75.4165 I-0.4856 J2.9604
G1 X178.4161
G2 X175.4161 Y78.4165 I0.0 J3.0
G1 Y84.9315
G2 X178.4299 Y87.9314 I3.0 J0.0
G1 X184.9299 Y87.9014
G2 X187.9161 Y84.9014 I-0.0139 J-3.0
G1 Y78.4165
G2 X185.4016 Y75.4561 I-3.0 J0.0
G1 F400.0 Z0.0
G2 F1000.0 X184.9161 Y75.4165 I-0.4856 J2.9604
G1 X178.4161
G2 X175.4161 Y78.4165 I0.0 J3.0
G1 Y82.9454
G1 Y83.9454 Z2.0
G1 Y84.9315
G2 X175.5923 Y85.9446 I3.0 J0.0
G2 X176.1893 Y86.9418 Z0.0 I2.8238 J-1.0131
G2 X178.4299 Y87.9314 I2.2268 J-2.0104
G1 X184.9299 Y87.9014
G2 X187.9161 Y84.9014 I-0.0139 J-3.0
G1 Y80.3914
G1 Y79.3914 Z2.0
G1 Y78.4165
G2 X187.736 Y77.3928 I-3.0 J0.0
G2 X187.1353 Y76.3978 Z0.0 I-2.8199 J1.0237
G2 X185.4016 Y75.4561 I-2.2192 J2.0187
G0 Z20.0
G0 X192.2138 Y77.5392
G0 Z10.0
G1 F400.0 Z6.0
G2 F1000.0 X192.0827 Y78.4165 I2.8689 J0.8773
G1 Y84.9315
G2 X195.0965 Y87.9314 I3.0 J0.0
G1 X201.5965 Y87.9014
G2 X204.5827 Y84.9014 I-0.0139 J-3.0
G1 Y78.4165
G2 X201.5827 Y75.4165 I-3.0 J0.0
G1 X195.0827
G2 X192.2138 Y77.5392 I0.0 J3.0
G1 F400.0 Z3.0
G2 F1000.0 X192.0827 Y78.4165 I2.8689 J0.8773
G1 Y84.9315
G2 X195.0965 Y87.9314 I3.0 J0.0
G1 X201.5965 Y87.9014
G2 X204.5827 Y84.9014 I-0.0139 J-3.0
G1 Y78.4165
G2 X201.5827 Y75.4165 I-3.0 J0.0
G1 X195.0827
G2 X192.2138 Y77.5392 I0.0 J3.0
G1 F400.0 Z0.0
G2 F1000.0 X192.0827 Y78.4165 I2.8689 J0.8773
G1 Y82.9454
G1 Y83.9454 Z2.0
G1 Y84.9315
G2 X192.2589 Y85.9446 I3.0 J0.0
G2 X192.8559 Y86.9418 Z0.0 I2.8238 J-1.0131
G2 X195.0965 Y87.9314 I2.2268 J-2.0104
G1 X201.5965 Y87.9014
G2 X204.5827 Y84.9014 I-0.0139 J-3.0
G1 Y80.3914
G1 Y79.3914 Z2.0
G1 Y78.4165
G2 X204.4026 Y77.3928 I-3.0 J0.0
G2 X203.8019 Y76.3978 Z0.0 I-2.8199 J1.0237
G2 X201.5827 Y75.4165 I-2.2192 J2.0187
G1 X195.0827
G2 X192.2138 Y77.5392 I0.0 J3.0
G0 Z20.0
G0 X194.5985 Y92.1224
G0 Z10.0
G1 F400.0 Z6.0
G2 F1000.0 X192.0827 Y95.0831 I0.4841 J2.9607
G1 Y101.5981
G2 X195.0965 Y104.598 I3.0 J0.0
G1 X201.5965 Y104.568
G2 X204.5827 Y101.568 I-0.0139 J-3.0
G1 Y95.0831
G2 X201.5827 Y92.0831 I-3.0 J0.0
G1 X195.0827
G2 X194.5985 Y92.1224 I0.0 J3.0
G1 F400.0 Z3.0
G2 F1000.0 X192.0827 Y95.0831 I0.4841 J2.9607
G1 Y101.5981
G2 X195.0965 Y104.598 I3.0 J0.0
G1 X201.5965 Y104.568
G2 X204.5827 Y101.568 I-0.0139 J-3.0
G1 Y95.0831
G2 X201.5827 Y92.0831 I-3.0 J0.0
G1 X195.0827
G2 X194.5985 Y92.1224 I0.0 J3.0
G1 F400.0 Z0.0
G2 F1000.0 X192.0827 Y95.0831 I0.4841 J2.9607
G1 Y99.612
G1 Y100.612 Z2.0
G1 Y101.5981
G2 X192.2589 Y102.6112 I3.0 J0.0
G2 X192.8559 Y103.6084 Z0.0 I2.8238 J-1.0131
G2 X195.0965 Y104.598 I2.2268 J-2.0104
G1 X201.5965 Y104.568
G2 X204.5827 Y101.568 I-0.0139 J-3.0
G1 Y97.058
G1 Y96.058 Z2.0
G1 Y95.0831
G2 X204.4026 Y94.0594 I-3.0 J0.0
G2 X203.8019 Y93.0644 Z0.0 I-2.8199 J1.0237
G2 X201.5827 Y92.0831 I-2.2192 J2.0187
G1 X195.0827
G2 X194.5985 Y92.1224 I0.0 J3.0
G0 Z20.0
G0 X187.7849 Y94.2059
G0 Z10.0
G1 F400.0 Z6.0
G2 F1000.0 X184.9161 Y92.0831 I-2.8689 J0.8772
G1 X178.4161
G2 X175.4161 Y95.0831 I0.0 J3.0
G1 Y101.5981
G2 X178.4299 Y104.598 I3.0 J0.0
G1 X184.9299 Y104.568
G2 X187.9161 Y101.568 I-0.0139 J-3.0
G1 Y95.0831
G2 X187.7849 Y94.2059 I-3.0 J0.0
G1 F400.0 Z3.0
G2 F1000.0 X184.9161 Y92.0831 I-2.8689 J0.8772
G1 X178.4161
G2 X175.4161 Y95.0831 I0.0 J3.0
G1 Y101.5981
G2 X178.4299 Y104.598 I3.0 J0.0
G1 X184.9299 Y104.568
G2 X187.9161 Y101.568 I-0.0139 J-3.0
G1 Y95.0831
G2 X187.7849 Y94.2059 I-3.0 J0.0
G1 F400.0 Z2.0
G2 F1000.0 X187.736 Y94.0594 I-2.8689 J0.8772
G2 X187.1353 Y93.0644 Z0.0 I-2.8199 J1.0237
G2 X184.9161 Y92.0831 I-2.2192 J2.0187
G1 X178.4161
G2 X175.4161 Y95.0831 I0.0 J3.0
G1 Y99.612
G1 Y100.612 Z2.0
G1 Y101.5981
G2 X175.5923 Y102.6112 I3.0 J0.0
G2 X176.1893 Y103.6084 Z0.0 I2.8238 J-1.0131
G2 X178.4299 Y104.598 I2.2268 J-2.0104
G1 X184.9299 Y104.568
G2 X187.9161 Y101.568 I-0.0139 J-3.0
G1 Y97.058
G1 Y96.058 Z2.0
G1 Y95.0831
G2 X187.7849 Y94.2059 I-3.0 J0.0
G0 Z20.0
G0 X185.4002 Y108.789
G0 Z10.0
G1 F400.0 Z6.0
G2 F1000.0 X184.9161 Y108.7497 I-0.4841 J2.9607
G1 X178.4161
G2 X175.4161 Y111.7497 I0.0 J3.0
G1 Y118.2647
G2 X178.4299 Y121.2646 I3.0 J0.0
G1 X184.9299 Y121.2346
G2 X187.9161 Y118.2346 I-0.0139 J-3.0
G1 Y111.7497
G2 X185.4002 Y108.789 I-3.0 J0.0
G1 F400.0 Z3.0
G2 F1000.0 X184.9161 Y108.7497 I-0.4841 J2.9607
G1 X178.4161
G2 X175.4161 Y111.7497 I0.0 J3.0
G1 Y118.2647
G2 X178.4299 Y121.2646 I3.0 J0.0
G1 X184.9299 Y121.2346
G2 X187.9161 Y118.2346 I-0.0139 J-3.0
G1 Y111.7497
G2 X185.4002 Y108.789 I-3.0 J0.0
G1 F400.0 Z0.0
G2 F1000.0 X184.9161 Y108.7497 I-0.4841 J2.9607
G1 X178.4161
G2 X175.4161 Y111.7497 I0.0 J3.0
G1 Y116.2786
G1 Y117.2786 Z2.0
G1 Y118.2647
G2 X175.5923 Y119.2778 I3.0 J0.0
G2 X176.1893 Y120.275 Z0.0 I2.8238 J-1.0131
G2 X178.4299 Y121.2646 I2.2268 J-2.0104
G1 X184.9299 Y121.2346
G2 X187.9161 Y118.2346 I-0.0139 J-3.0
G1 Y113.7246
G1 Y112.7246 Z2.0
G1 Y111.7497
G2 X187.736 Y110.726 I-3.0 J0.0
G2 X187.1353 Y109.731 Z0.0 I-2.8199 J1.0237
G2 X185.4002 Y108.789 I-2.2192 J2.0187
G0 Z20.0
G0 X192.2138 Y110.8725
G0 Z10.0
G1 F400.0 Z6.0
G2 F1000.0 X192.0827 Y111.7497 I2.8689 J0.8772
G1 Y118.2647
G2 X195.0965 Y121.2646 I3.0 J0.0
G1 X201.5965 Y121.2346
G2 X204.5827 Y118.2346 I-0.0139 J-3.0
G1 Y111.7497
G2 X201.5827 Y108.7497 I-3.0 J0.0
G1 X195.0827
G2 X192.2138 Y110.8725 I0.0 J3.0
G1 F400.0 Z3.0
G2 F1000.0 X192.0827 Y111.7497 I2.8689 J0.8772
G1 Y118.2647
G2 X195.0965 Y121.2646 I3.0 J0.0
G1 X201.5965 Y121.2346
G2 X204.5827 Y118.2346 I-0.0139 J-3.0
G1 Y111.7497
G2 X201.5827 Y108.7497 I-3.0 J0.0
G1 X195.0827
G2 X192.2138 Y110.8725 I0.0 J3.0
G1 F400.0 Z0.0
G2 F1000.0 X192.0827 Y111.7497 I2.8689 J0.8772
G1 Y116.2786
G1 Y117.2786 Z2.0
G1 Y118.2647
G2 X192.2589 Y119.2778 I3.0 J0.0
G2 X192.8559 Y120.275 Z0.0 I2.8238 J-1.0131
G2 X195.0965 Y121.2646 I2.2268 J-2.0104
G1 X201.5965 Y121.2346
G2 X204.5827 Y118.2346 I-0.0139 J-3.0
G1 Y113.7246
G1 Y112.7246 Z2.0
G1 Y111.7497
G2 X204.4026 Y110.726 I-3.0 J0.0
G2 X203.8019 Y109.731 Z0.0 I-2.8199 J1.0237
G2 X201.5827 Y108.7497 I-2.2192 J2.0187
G1 X195.0827
G2 X192.2138 Y110.8725 I0.0 J3.0
G0 Z20.0
G0 X194.5985 Y125.4556
G0 Z10.0
G1 F400.0 Z6.0
G2 F1000.0 X192.0827 Y128.4163 I0.4841 J2.9607
G1 Y134.9313
G2 X195.0965 Y137.9312 I3.0 J0.0
G1 X201.5965 Y137.9012
G2 X204.5827 Y134.9012 I-0.0139 J-3.0
G1 Y128.4163
G2 X201.5827 Y125.4163 I-3.0 J0.0
G1 X195.0827
G2 X194.5985 Y125.4556 I0.0 J3.0
G1 F400.0 Z3.0
G2 F1000.0 X192.0827 Y128.4163 I0.4841 J2.9607
G1 Y134.9313
G2 X195.0965 Y137.9312 I3.0 J0.0
G1 X201.5965 Y137.9012
G2 X204.5827 Y134.9012 I-0.0139 J-3.0
G1 Y128.4163
G2 X201.5827 Y125.4163 I-3.0 J0.0
G1 X195.0827
G2 X194.5985 Y125.4556 I0.0 J3.0
G1 F400.0 Z0.0
G2 F1000.0 X192.0827 Y128.4163 I0.4841 J2.9607
G1 Y132.9452
G1 Y133.9452 Z2.0
G1 Y134.9313
G2 X192.2589 Y135.9444 I3.0 J0.0
G2 X192.8559 Y136.9416 Z0.0 I2.8238 J-1.0131
G2 X195.0965 Y137.9312 I2.2268 J-2.0104
G1 X201.5965 Y137.9012
G2 X204.5827 Y134.9012 I-0.0139 J-3.0
G1 Y130.3912
G1 Y129.3912 Z2.0
G1 Y128.4163
G2 X204.4026 Y127.3926 I-3.0 J0.0
G2 X203.8019 Y126.3976 Z0.0 I-2.8199 J1.0237
G2 X201.5827 Y125.4163 I-2.2192 J2.0187
G1 X195.0827
G2 X194.5985 Y125.4556 I0.0 J3.0
G0 Z20.0
G0 X187.7849 Y127.5391
G0 Z10.0
G1 F400.0 Z6.0
G2 F1000.0 X184.9161 Y125.4163 I-2.8689 J0.8772
G1 X178.4161
G2 X175.4161 Y128.4163 I0.0 J3.0
G1 Y134.9313
G2 X178.4299 Y137.9312 I3.0 J0.0
G1 X184.9299 Y137.9012
G2 X187.9161 Y134.9012 I-0.0139 J-3.0
G1 Y128.4163
G2 X187.7849 Y127.5391 I-3.0 J0.0
G1 F400.0 Z3.0
G2 F1000.0 X184.9161 Y125.4163 I-2.8689 J0.8772
G1 X178.4161
G2 X175.4161 Y128.4163 I0.0 J3.0
G1 Y134.9313
G2 X178.4299 Y137.9312 I3.0 J0.0
G1 X184.9299 Y137.9012
G2 X187.9161 Y134.9012 I-0.0139 J-3.0
G1 Y128.4163
G2 X187.7849 Y127.5391 I-3.0 J0.0
G1 F400.0 Z2.0
G2 F1000.0 X187.736 Y127.3926 I-2.8689 J0.8772
G2 X187.1353 Y126.3976 Z0.0 I-2.8199 J1.0237
G2 X184.9161 Y125.4163 I-2.2192 J2.0187
G1 X178.4161
G2 X175.4161 Y128.4163 I0.0 J3.0
G1 Y132.9452
G1 Y133.9452 Z2.0
G1 Y134.9313
G2 X175.5923 Y135.9444 I3.0 J0.0
G2 X176.1893 Y136.9416 Z0.0 I2.8238 J-1.0131
G2 X178.4299 Y137.9312 I2.2268 J-2.0104
G1 X184.9299 Y137.9012
G2 X187.9161 Y134.9012 I-0.0139 J-3.0
G1 Y130.3912
G1 Y129.3912 Z2.0
G1 Y128.4163
G2 X187.7849 Y127.5391 I-3.0 J0.0
G0 Z20.0
G0 X185.4002 Y142.1222
G0 Z10.0
G1 F400.0 Z6.0
G2 F1000.0 X184.9161 Y142.0829 I-0.4841 J2.9607
G1 X178.4161
G2 X175.4161 Y145.0829 I0.0 J3.0
G1 Y151.5979
G2 X178.4299 Y154.5978 I3.0 J0.0
G1 X184.9299 Y154.5678
G2 X187.9161 Y151.5678 I-0.0139 J-3.0
G1 Y145.0829
G2 X185.4002 Y142.1222 I-3.0 J0.0
G1 F400.0 Z3.0
G2 F1000.0 X184.9161 Y142.0829 I-0.4841 J2.9607
G1 X178.4161
G2 X175.4161 Y145.0829 I0.0 J3.0
G1 Y151.5979
G2 X178.4299 Y154.5978 I3.0 J0.0
G1 X184.9299 Y154.5678
G2 X187.9161 Y151.5678 I-0.0139 J-3.0
G1 Y145.0829
G2 X185.4002 Y142.1222 I-3.0 J0.0
G1 F400.0 Z0.0
G2 F1000.0 X184.9161 Y142.0829 I-0.4841 J2.9607
G1 X178.4161
G2 X175.4161 Y145.0829 I0.0 J3.0
G1 Y149.6118
G1 Y150.6118 Z2.0
G1 Y151.5979
G2 X175.5923 Y152.611 I3.0 J0.0
G2 X176.1893 Y153.6082 Z0.0 I2.8238 J-1.0131
G2 X178.4299 Y154.5978 I2.2268 J-2.0104
G1 X184.9299 Y154.5678
G2 X187.9161 Y151.5678 I-0.0139 J-3.0
G1 Y147.0578
G1 Y146.0578 Z2.0
G1 Y145.0829
G2 X187.736 Y144.0592 I-3.0 J0.0
G2 X187.1353 Y143.0642 Z0.0 I-2.8199 J1.0237
G2 X185.4002 Y142.1222 I-2.2192 J2.0187
G0 Z20.0
G0 X192.2138 Y144.2057
G0 Z10.0
G1 F400.0 Z6.0
G2 F1000.0 X192.0827 Y145.0829 I2.8689 J0.8772
G1 Y151.5979
G2 X195.0965 Y154.5978 I3.0 J0.0
G1 X201.5965 Y154.5678
G2 X204.5827 Y151.5678 I-0.0139 J-3.0
G1 Y145.0829
G2 X201.5827 Y142.0829 I-3.0 J0.0
G1 X195.0827
G2 X192.2138 Y144.2057 I0.0 J3.0
G1 F400.0 Z3.0
G2 F1000.0 X192.0827 Y145.0829 I2.8689 J0.8772
G1 Y151.5979
G2 X195.0965 Y154.5978 I3.0 J0.0
G1 X201.5965 Y154.5678
G2 X204.5827 Y151.5678 I-0.0139 J-3.0
G1 Y145.0829
G2 X201.5827 Y142.0829 I-3.0 J0.0
G1 X195.0827
G2 X192.2138 Y144.2057 I0.0 J3.0
G1 F400.0 Z0.0
G2 F1000.0 X192.0827 Y145.0829 I2.8689 J0.8772
G1 Y149.6118
G1 Y150.6118 Z2.0
G1 Y151.5979
G2 X192.2589 Y152.611 I3.0 J0.0
G2 X192.8559 Y153.6082 Z0.0 I2.8238 J-1.0131
G2 X195.0965 Y154.5978 I2.2268 J-2.0104
G1 X201.5965 Y154.5678
G2 X204.5827 Y151.5678 I-0.0139 J-3.0
G1 Y147.0578
G1 Y146.0578 Z2.0
G1 Y145.0829
G2 X204.4026 Y144.0592 I-3.0 J0.0
G2 X203.8019 Y143.0642 Z0.0 I-2.8199 J1.0237
G2 X201.5827 Y142.0829 I-2.2192 J2.0187
G1 X195.0827
G2 X192.2138 Y144.2057 I0.0 J3.0
G0 Z20.0
G0 X194.5985 Y158.7888
G0 Z10.0
G1 F400.0 Z6.0
G2 F1000.0 X192.0827 Y161.7495 I0.4841 J2.9607
G1 Y168.2645
G2 X195.0965 Y171.2644 I3.0 J0.0
G1 X201.5965 Y171.2344
G2 X204.5827 Y168.2344 I-0.0139 J-3.0
G1 Y161.7495
G2 X201.5827 Y158.7495 I-3.0 J0.0
G1 X195.0827
G2 X194.5985 Y158.7888 I0.0 J3.0
G1 F400.0 Z3.0
G2 F1000.0 X192.0827 Y161.7495 I0.4841 J2.9607
G1 Y168.2645
G2 X195.0965 Y171.2644 I3.0 J0.0
G1 X201.5965 Y171.2344
G2 X204.5827 Y168.2344 I-0.0139 J-3.0
G1 Y161.7495
G2 X201.5827 Y158.7495 I-3.0 J0.0
G1 X195.0827
G2 X194.5985 Y158.7888 I0.0 J3.0
G1 F400.0 Z0.0
G2 F1000.0 X192.0827 Y161.7495 I0.4841 J2.9607
G1 Y166.2784
G1 Y167.2784 Z2.0
G1 Y168.2645
G2 X192.2589 Y169.2776 I3.0 J0.0
G2 X192.8559 Y170.2748 Z0.0 I2.8238 J-1.0131
G2 X195.0965 Y171.2644 I2.2268 J-2.0104
G1 X201.5965 Y171.2344
G2 X204.5827 Y168.2344 I-0.0139 J-3.0
G1 Y163.7244
G1 Y162.7244 Z2.0
G1 Y161.7495
G2 X204.4026 Y160.7258 I-3.0 J0.0
G2 X203.8019 Y159.7308 Z0.0 I-2.8199 J1.0237
G2 X201.5827 Y158.7495 I-2.2192 J2.0187
G1 X195.0827
G2 X194.5985 Y158.7888 I0.0 J3.0
G0 Z20.0
G0 X187.7849 Y160.8723
G0 Z10.0
G1 F400.0 Z6.0
G2 F1000.0 X184.9161 Y158.7495 I-2.8689 J0.8772
G1 X178.4161
G2 X175.4161 Y161.7495 I0.0 J3.0
G1 Y168.2645
G2 X178.4299 Y171.2644 I3.0 J0.0
G1 X184.9299 Y171.2344
G2 X187.9161 Y168.2344 I-0.0139 J-3.0
G1 Y161.7495
G2 X187.7849 Y160.8723 I-3.0 J0.0
G1 F400.0 Z3.0
G2 F1000.0 X184.9161 Y158.7495 I-2.8689 J0.8772
G1 X178.4161
G2 X175.4161 Y161.7495 I0.0 J3.0
G1 Y168.2645
G2 X178.4299 Y171.2644 I3.0 J0.0
G1 X184.9299 Y171.2344
G2 X187.9161 Y168.2344 I-0.0139 J-3.0
G1 Y161.7495
G2 X187.7849 Y160.8723 I-3.0 J0.0
G1 F400.0 Z2.0
G2 F1000.0 X187.736 Y160.7258 I-2.8689 J0.8772
G2 X187.1353 Y159.7308 Z0.0 I-2.8199 J1.0237
G2 X184.9161 Y158.7495 I-2.2192 J2.0187
G1 X178.4161
G2 X175.4161 Y161.7495 I0.0 J3.0
G1 Y166.2784
G1 Y167.2784 Z2.0
G1 Y168.2645
G2 X175.5923 Y169.2776 I3.0 J0.0
G2 X176.1893 Y170.2748 Z0.0 I2.8238 J-1.0131
G2 X178.4299 Y171.2644 I2.2268 J-2.0104
G1 X184.9299 Y171.2344
G2 X187.9161 Y168.2344 I-0.0139 J-3.0
G1 Y163.7244
G1 Y162.7244 Z2.0
G1 Y161.7495
G2 X187.7849 Y160.8723 I-3.0 J0.0
G0 Z20.0
G0 X185.4002 Y175.4554
G0 Z10.0
G1 F400.0 Z6.0
G2 F1000.0 X184.9161 Y175.4161 I-0.4841 J2.9607
G1 X178.4161
G2 X175.4161 Y178.4161 I0.0 J3.0
G1 Y184.9311
G2 X178.4299 Y187.931 I3.0 J0.0
G1 X184.9299 Y187.901
G2 X187.9161 Y184.901 I-0.0139 J-3.0
G1 Y178.4161
G2 X185.4002 Y175.4554 I-3.0 J0.0
G1 F400.0 Z3.0
G2 F1000.0 X184.9161 Y175.4161 I-0.4841 J2.9607
G1 X178.4161
G2 X175.4161 Y178.4161 I0.0 J3.0
G1 Y184.9311
G2 X178.4299 Y187.931 I3.0 J0.0
G1 X184.9299 Y187.901
G2 X187.9161 Y184.901 I-0.0139 J-3.0
G1 Y178.4161
G2 X185.4002 Y175.4554 I-3.0 J0.0
G1 F400.0 Z0.0
G2 F1000.0 X184.9161 Y175.4161 I-0.4841 J2.9607
G1 X178.4161
G2 X175.4161 Y178.4161 I0.0 J3.0
G1 Y182.945
G1 Y183.945 Z2.0
G1 Y184.9311
G2 X175.5923 Y185.9442 I3.0 J0.0
G2 X176.1893 Y186.9414 Z0.0 I2.8238 J-1.0131
G2 X178.4299 Y187.931 I2.2268 J-2.0104
G1 X184.9299 Y187.901
G2 X187.9161 Y184.901 I-0.0139 J-3.0
G1 Y180.391
G1 Y179.391 Z2.0
G1 Y178.4161
G2 X187.736 Y177.3924 I-3.0 J0.0
G2 X187.1353 Y176.3974 Z0.0 I-2.8199 J1.0237
G2 X185.4002 Y175.4554 I-2.2192 J2.0187
G0 Z20.0
G0 X192.2138 Y177.5389
G0 Z10.0
G1 F400.0 Z6.0
G2 F1000.0 X192.0827 Y178.4161 I2.8689 J0.8772
G1 Y184.9311
G2 X195.0965 Y187.931 I3.0 J0.0
G1 X201.5965 Y187.901
G2 X204.5827 Y184.901 I-0.0139 J-3.0
G1 Y178.4161
G2 X201.5827 Y175.4161 I-3.0 J0.0
G1 X195.0827
G2 X192.2138 Y177.5389 I0.0 J3.0
G1 F400.0 Z3.0
G2 F1000.0 X192.0827 Y178.4161 I2.8689 J0.8772
G1 Y184.9311
G2 X195.0965 Y187.931 I3.0 J0.0
G1 X201.5965 Y187.901
G2 X204.5827 Y184.901 I-0.0139 J-3.0
G1 Y178.4161
G2 X201.5827 Y175.4161 I-3.0 J0.0
G1 X195.0827
G2 X192.2138 Y177.5389 I0.0 J3.0
G1 F400.0 Z0.0
G2 F1000.0 X192.0827 Y178.4161 I2.8689 J0.8772
G1 Y182.945
G1 Y183.945 Z2.0
G1 Y184.9311
G2 X192.2589 Y185.9442 I3.0 J0.0
G2 X192.8559 Y186.9414 Z0.0 I2.8238 J-1.0131
G2 X195.0965 Y187.931 I2.2268 J-2.0104
G1 X201.5965 Y187.901
G2 X204.5827 Y184.901 I-0.0139 J-3.0
G1 Y180.391
G1 Y179.391 Z2.0
G1 Y178.4161
G2 X204.4026 Y177.3924 I-3.0 J0.0
G2 X203.8019 Y176.3974 Z0.0 I-2.8199 J1.0237
G2 X201.5827 Y175.4161 I-2.2192 J2.0187
G1 X195.0827
G2 X192.2138 Y177.5389 I0.0 J3.0
G0 Z20.0
G0 X194.5985 Y192.122
G0 Z10.0
G1 F400.0 Z6.0
G2 F1000.0 X192.0827 Y195.0827 I0.4841 J2.9607
G1 Y201.5977
G2 X195.0965 Y204.5976 I3.0 J0.0
G1 X201.5965 Y204.5676
G2 X204.5827 Y201.5676 I-0.0139 J-3.0
G1 Y195.0827
G2 X201.5827 Y192.0827 I-3.0 J0.0
G1 X195.0827
G2 X194.5985 Y192.122 I0.0 J3.0
G1 F400.0 Z3.0
G2 F1000.0 X192.0827 Y195.0827 I0.4841 J2.9607
G1 Y201.5977
G2 X195.0965 Y204.5976 I3.0 J0.0
G1 X201.5965 Y204.5676
G2 X204.5827 Y201.5676 I-0.0139 J-3.0
G1 Y195.0827
G2 X201.5827 Y192.0827 I-3.0 J0.0
G1 X195.0827
G2 X194.5985 Y192.122 I0.0 J3.0
G1 F400.0 Z0.0
G2 F1000.0 X192.0827 Y195.0827 I0.4841 J2.9607
G1 Y199.6116
G1 Y200.6116 Z2.0
G1 Y201.5977
G2 X192.2589 Y202.6108 I3.0 J0.0
G2 X192.8559 Y203.608 Z0.0 I2.8238 J-1.0131
G2 X195.0965 Y204.5976 I2.2268 J-2.0104
G1 X201.5965 Y204.5676
G2 X204.5827 Y201.5676 I-0.0139 J-3.0
G1 Y197.0576
G1 Y196.0576 Z2.0
G1 Y195.0827
G2 X204.4026 Y194.059 I-3.0 J0.0
G2 X203.8019 Y193.064 Z0.0 I-2.8199 J1.0237
G2 X201.5827 Y192.0827 I-2.2192 J2.0187
G1 X195.0827
G2 X194.5985 Y192.122 I0.0 J3.0
G0 Z20.0
G0 X187.7849 Y194.2055
G0 Z10.0
G1 F400.0 Z6.0
G2 F1000.0 X184.9161 Y192.0827 I-2.8689 J0.8772
G1 X178.4161
G2 X175.4161 Y195.0827 I0.0 J3.0
G1 Y201.5977
G2 X178.4299 Y204.5976 I3.0 J0.0
G1 X184.9299 Y204.5676
G2 X187.9161 Y201.5676 I-0.0139 J-3.0
G1 Y195.0827
G2 X187.7849 Y194.2055 I-3.0 J0.0
G1 F400.0 Z3.0
G2 F1000.0 X184.9161 Y192.0827 I-2.8689 J0.8772
G1 X178.4161
G2 X175.4161 Y195.0827 I0.0 J3.0
G1 Y201.5977
G2 X178.4299 Y204.5976 I3.0 J0.0
G1 X184.9299 Y204.5676
G2 X187.9161 Y201.5676 I-0.0139 J-3.0
G1 Y195.0827
G2 X187.7849 Y194.2055 I-3.0 J0.0
G1 F400.0 Z2.0
G2 F1000.0 X187.736 Y194.059 I-2.8689 J0.8772
G2 X187.1353 Y193.064 Z0.0 I-2.8199 J1.0237
G2 X184.9161 Y192.0827 I-2.2192 J2.0187
G1 X178.4161
G2 X175.4161 Y195.0827 I0.0 J3.0
G1 Y199.6116
G1 Y200.6116 Z2.0
G1 Y201.5977
G2 X175.5923 Y202.6108 I3.0 J0.0
G2 X176.1893 Y203.608 Z0.0 I2.8238 J-1.0131
G2 X178.4299 Y204.5976 I2.2268 J-2.0104
G1 X184.9299 Y204.5676
G2 X187.9161 Y201.5676 I-0.0139 J-3.0
G1 Y197.0576
G1 Y196.0576 Z2.0
G1 Y195.0827
G2 X187.7849 Y194.2055 I-3.0 J0.0
G0 Z20.0
G0 X171.2464 Y194.9481
G0 Z10.0
G1 F400.0 Z6.0
G2 F1000.0 X168.2495 Y192.0827 I-2.997 J0.1346
G1 X161.7495
G2 X158.7495 Y195.0827 I0.0 J3.0
G1 Y201.5977
G2 X161.7633 Y204.5976 I3.0 J0.0
G1 X168.2633 Y204.5676
G2 X171.2495 Y201.5676 I-0.0139 J-3.0
G1 Y195.0827
G2 X171.2464 Y194.9481 I-3.0 J0.0
G1 F400.0 Z3.0
G2 F1000.0 X168.2495 Y192.0827 I-2.997 J0.1346
G1 X161.7495
G2 X158.7495 Y195.0827 I0.0 J3.0
G1 Y201.5977
G2 X161.7633 Y204.5976 I3.0 J0.0
G1 X168.2633 Y204.5676
G2 X171.2495 Y201.5676 I-0.0139 J-3.0
G1 Y195.0827
G2 X171.2464 Y194.9481 I-3.0 J0.0
G1 F400.0 Z2.0
G2 F1000.0 X171.0694 Y194.059 I-2.997 J0.1346
G2 X170.4687 Y193.064 Z0.0 I-2.8199 J1.0237
G2 X168.2495 Y192.0827 I-2.2192 J2.0187
G1 X161.7495
G2 X158.7495 Y195.0827 I0.0 J3.0
G1 Y199.6116
G1 Y200.6116 Z2.0
G1 Y201.5977
G2 X158.9257 Y202.6108 I3.0 J0.0
G2 X159.5227 Y203.608 Z0.0 I2.8238 J-1.0131
G2 X161.7633 Y204.5976 I2.2268 J-2.0104
G1 X168.2633 Y204.5676
G2 X171.2495 Y201.5676 I-0.0139 J-3.0
G1 Y197.0576
G1 Y196.0576 Z2.0
G1 Y195.0827
G2 X171.2464 Y194.9481 I-3.0 J0.0
G0 Z20.0
G0 X169.107 Y187.7759
G0 Z10.0
G1 F400.0 Z6.0
G2 F1000.0 X171.2495 Y184.901 I-0.8575 J-2.8748
G1 Y178.4161
G2 X168.2495 Y175.4161 I-3.0 J0.0
G1 X161.7495
G2 X158.7495 Y178.4161 I0.0 J3.0
G1 Y184.9311
G2 X161.7633 Y187.931 I3.0 J0.0
G1 X168.2633 Y187.901
G2 X169.107 Y187.7759 I-0.0139 J-3.0
G1 F400.0 Z3.0
G2 F1000.0 X171.2495 Y184.901 I-0.8575 J-2.8748
G1 Y178.4161
G2 X168.2495 Y175.4161 I-3.0 J0.0
G1 X161.7495
G2 X158.7495 Y178.4161 I0.0 J3.0
G1 Y184.9311
G2 X161.7633 Y187.931 I3.0 J0.0
G1 X168.2633 Y187.901
G2 X169.107 Y187.7759 I-0.0139 J-3.0
G1 F400.0 Z0.0
G2 F1000.0 X171.2495 Y184.901 I-0.8575 J-2.8748
G1 Y180.391
G1 Y179.391 Z2.0
G1 Y178.4161
G2 X171.0694 Y177.3924 I-3.0 J0.0
G2 X170.4687 Y176.3974 Z0.0 I-2.8199 J1.0237
G2 X168.2495 Y175.4161 I-2.2192 J2.0187
G1 X161.7495
G2 X158.7495 Y178.4161 I0.0 J3.0
G1 Y182.945
G1 Y183.945 Z2.0
G1 Y184.9311
G2 X158.9257 Y185.9442 I3.0 J0.0
G2 X159.5227 Y186.9414 Z0.0 I2.8238 J-1.0131
G2 X161.7633 Y187.931 I2.2268 J-2.0104
G1 X168.2633 Y187.901
G2 X169.107 Y187.7759 I-0.0139 J-3.0
G0 Z20.0
G0 X154.5433 Y185.3867
G0 Z10.0
G1 F400.0 Z6.0
G2 F1000.0 X154.5829 Y184.901 I-2.9604 J-0.4857
G1 Y178.4161
G2 X151.5829 Y175.4161 I-3.0 J0.0
G1 X145.0829
G2 X142.0829 Y178.4161 I0.0 J3.0
G1 Y184.9311
G2 X145.0967 Y187.931 I3.0 J0.0
G1 X151.5967 Y187.901
G2 X154.5433 Y185.3867 I-0.0139 J-3.0
G1 F400.0 Z3.0
G2 F1000.0 X154.5829 Y184.901 I-2.9604 J-0.4857
G1 Y178.4161
G2 X151.5829 Y175.4161 I-3.0 J0.0
G1 X145.0829
G2 X142.0829 Y178.4161 I0.0 J3.0
G1 Y184.9311
G2 X145.0967 Y187.931 I3.0 J0.0
G1 X151.5967 Y187.901
G2 X154.5433 Y185.3867 I-0.0139 J-3.0
G1 F400.0 Z0.0
G2 F1000.0 X154.5829 Y184.901 I-2.9604 J-0.4857
G1 Y180.391
G1 Y179.391 Z2.0
G1 Y178.4161
G2 X154.4028 Y177.3924 I-3.0 J0.0
G2 X153.8021 Y176.3974 Z0.0 I-2.8199 J1.0237
G2 X151.5829 Y175.4161 I-2.2192 J2.0187
G1 X145.0829
G2 X142.0829 Y178.4161 I0.0 J3.0
G1 Y182.945
G1 Y183.945 Z2.0
G1 Y184.9311
G2 X142.2591 Y185.9442 I3.0 J0.0
G2 X142.8561 Y186.9414 Z0.0 I2.8238 J-1.0131
G2 X145.0967 Y187.931 I2.2268 J-2.0104
G1 X151.5967 Y187.901
G2 X154.5433 Y185.3867 I-0.0139 J-3.0
G0 Z20.0
G0 X152.4589 Y192.2135
G0 Z10.0
G1 F400.0 Z6.0
G2 F1000.0 X151.5829 Y192.0827 I-0.876 J2.8692
G1 X145.0829
G2 X142.0829 Y195.0827 I0.0 J3.0
G1 Y201.5977
G2 X145.0967 Y204.5976 I3.0 J0.0
G1 X151.5967 Y204.5676
G2 X154.5829 Y201.5676 I-0.0139 J-3.0
G1 Y195.0827
G2 X152.4589 Y192.2135 I-3.0 J0.0
G1 F400.0 Z3.0
G2 F1000.0 X151.5829 Y192.0827 I-0.876 J2.8692
G1 X145.0829
G2 X142.0829 Y195.0827 I0.0 J3.0
G1 Y201.5977
G2 X145.0967 Y204.5976 I3.0 J0.0
G1 X151.5967 Y204.5676
G2 X154.5829 Y201.5676 I-0.0139 J-3.0
G1 Y195.0827
G2 X152.4589 Y192.2135 I-3.0 J0.0
G1 F400.0 Z0.0
G2 F1000.0 X151.5829 Y192.0827 I-0.876 J2.8692
G1 X145.0829
G2 X142.0829 Y195.0827 I0.0 J3.0
G1 Y199.6116
G1 Y200.6116 Z2.0
G1 Y201.5977
G2 X142.2591 Y202.6108 I3.0 J0.0
G2 X142.8561 Y203.608 Z0.0 I2.8238 J-1.0131
G2 X145.0967 Y204.5976 I2.2268 J-2.0104
G1 X151.5967 Y204.5676
G2 X154.5829 Y201.5676 I-0.0139 J-3.0
G1 Y197.0576
G1 Y196.0576 Z2.0
G1 Y195.0827
G2 X154.4028 Y194.059 I-3.0 J0.0
G2 X153.8021 Y193.064 Z0.0 I-2.8199 J1.0237
G2 X152.4589 Y192.2135 I-2.2192 J2.0187
G0 Z20.0
G0 X137.8769 Y194.5985
G0 Z10.0
G1 F400.0 Z6.0
G2 F1000.0 X134.9163 Y192.0827 I-2.9607 J0.4842
G1 X128.4163
G2 X125.4163 Y195.0827 I0.0 J3.0
G1 Y201.5977
G2 X128.4301 Y204.5976 I3.0 J0.0
G1 X134.9301 Y204.5676
G2 X137.9163 Y201.5676 I-0.0139 J-3.0
G1 Y195.0827
G2 X137.8769 Y194.5985 I-3.0 J0.0
G1 F400.0 Z3.0
G2 F1000.0 X134.9163 Y192.0827 I-2.9607 J0.4842
G1 X128.4163
G2 X125.4163 Y195.0827 I0.0 J3.0
G1 Y201.5977
G2 X128.4301 Y204.5976 I3.0 J0.0
G1 X134.9301 Y204.5676
G2 X137.9163 Y201.5676 I-0.0139 J-3.0
G1 Y195.0827
G2 X137.8769 Y194.5985 I-3.0 J0.0
G1 F400.0 Z2.0
G2 F1000.0 X137.7362 Y194.059 I-2.9607 J0.4842
G2 X137.1355 Y193.064 Z0.0 I-2.8199 J1.0237
G2 X134.9163 Y192.0827 I-2.2192 J2.0187
G1 X128.4163
G2 X125.4163 Y195.0827 I0.0 J3.0
G1 Y199.6116
G1 Y200.6116 Z2.0
G1 Y201.5977
G2 X125.5925 Y202.6108 I3.0 J0.0
G2 X126.1895 Y203.608 Z0.0 I2.8238 J-1.0131
G2 X128.4301 Y204.5976 I2.2268 J-2.0104
G1 X134.9301 Y204.5676
G2 X137.9163 Y201.5676 I-0.0139 J-3.0
G1 Y197.0576
G1 Y196.0576 Z2.0
G1 Y195.0827
G2 X137.8769 Y194.5985 I-3.0 J0.0
G0 Z20.0
G0 X135.7923 Y187.7703
G0 Z10.0
G1 F400.0 Z6.0
G2 F1000.0 X137.9163 Y184.901 I-0.876 J-2.8693
G1 Y178.4161
G2 X134.9163 Y175.4161 I-3.0 J0.0
G1 X128.4163
G2 X125.4163 Y178.4161 I0.0 J3.0
G1 Y184.9311
G2 X128.4301 Y187.931 I3.0 J0.0
G1 X134.9301 Y187.901
G2 X135.7923 Y187.7703 I-0.0139 J-3.0
G1 F400.0 Z3.0
G2 F1000.0 X137.9163 Y184.901 I-0.876 J-2.8693
G1 Y178.4161
G2 X134.9163 Y175.4161 I-3.0 J0.0
G1 X128.4163
G2 X125.4163 Y178.4161 I0.0 J3.0
G1 Y184.9311
G2 X128.4301 Y187.931 I3.0 J0.0
G1 X134.9301 Y187.901
G2 X135.7923 Y187.7703 I-0.0139 J-3.0
G1 F400.0 Z0.0
G2 F1000.0 X137.9163 Y184.901 I-0.876 J-2.8693
G1 Y180.391
G1 Y179.391 Z2.0
G1 Y178.4161
G2 X137.7362 Y177.3924 I-3.0 J0.0
G2 X137.1355 Y176.3974 Z0.0 I-2.8199 J1.0237
G2 X134.9163 Y175.4161 I-2.2192 J2.0187
G1 X128.4163
G2 X125.4163 Y178.4161 I0.0 J3.0
G1 Y182.945
G1 Y183.945 Z2.0
G1 Y184.9311
G2 X125.5925 Y185.9442 I3.0 J0.0
G2 X126.1895 Y186.9414 Z0.0 I2.8238 J-1.0131
G2 X128.4301 Y187.931 I2.2268 J-2.0104
G1 X134.9301 Y187.901
G2 X135.7923 Y187.7703 I-0.0139 J-3.0
G0 Z20.0
G0 X121.2103 Y185.3853
G0 Z10.0
G1 F400.0 Z6.0
G2 F1000.0 X121.2497 Y184.901 I-2.9607 J-0.4842
G1 Y178.4161
G2 X118.2497 Y175.4161 I-3.0 J0.0
G1 X111.7497
G2 X108.7497 Y178.4161 I0.0 J3.0
G1 Y184.9311
G2 X111.7635 Y187.931 I3.0 J0.0
G1 X118.2635 Y187.901
G2 X121.2103 Y185.3853 I-0.0139 J-3.0
G1 F400.0 Z3.0
G2 F1000.0 X121.2497 Y184.901 I-2.9607 J-0.4842
G1 Y178.4161
G2 X118.2497 Y175.4161 I-3.0 J0.0
G1 X111.7497
G2 X108.7497 Y178.4161 I0.0 J3.0
G1 Y184.9311
G2 X111.7635 Y187.931 I3.0 J0.0
G1 X118.2635 Y187.901
G2 X121.2103 Y185.3853 I-0.0139 J-3.0
G1 F400.0 Z0.0
G2 F1000.0 X121.2497 Y184.901 I-2.9607 J-0.4842
G1 Y180.391
G1 Y179.391 Z2.0
G1 Y178.4161
G2 X121.0696 Y177.3924 I-3.0 J0.0
G2 X120.4689 Y176.3974 Z0.0 I-2.8199 J1.0237
G2 X118.2497 Y175.4161 I-2.2192 J2.0187
G1 X111.7497
G2 X108.7497 Y178.4161 I0.0 J3.0
G1 Y182.945
G1 Y183.945 Z2.0
G1 Y184.9311
G2 X108.9259 Y185.9442 I3.0 J0.0
G2 X109.5229 Y186.9414 Z0.0 I2.8238 J-1.0131
G2 X111.7635 Y187.931 I2.2268 J-2.0104
G1 X118.2635 Y187.901
G2 X121.2103 Y185.3853 I-0.0139 J-3.0
G0 Z20.0
G0 X119.1257 Y192.2134
G0 Z10.0
G1 F400.0 Z6.0
G2 F1000.0 X118.2497 Y192.0827 I-0.876 J2.8693
G1 X111.7497
G2 X108.7497 Y195.0827 I0.0 J3.0
G1 Y201.5977
G2 X111.7635 Y204.5976 I3.0 J0.0
G1 X118.2635 Y204.5676
G2 X121.2497 Y201.5676 I-0.0139 J-3.0
G1 Y195.0827
G2 X119.1257 Y192.2134 I-3.0 J0.0
G1 F400.0 Z3.0
G2 F1000.0 X118.2497 Y192.0827 I-0.876 J2.8693
G1 X111.7497
G2 X108.7497 Y195.0827 I0.0 J3.0
G1 Y201.5977
G2 X111.7635 Y204.5976 I3.0 J0.0
G1 X118.2635 Y204.5676
G2 X121.2497 Y201.5676 I-0.0139 J-3.0
G1 Y195.0827
G2 X119.1257 Y192.2134 I-3.0 J0.0
G1 F400.0 Z0.0
G2 F1000.0 X118.2497 Y192.0827 I-0.876 J2.8693
G1 X111.7497
G2 X108.7497 Y195.0827 I0.0 J3.0
G1 Y199.6116
G1 Y200.6116 Z2.0
G1 Y201.5977
G2 X108.9259 Y202.6108 I3.0 J0.0
G2 X109.5229 Y203.608 Z0.0 I2.8238 J-1.0131
G2 X111.7635 Y204.5976 I2.2268 J-2.0104
G1 X118.2635 Y204.5676
G2 X121.2497 Y201.5676 I-0.0139 J-3.0
G1 Y197.0576
G1 Y196.0576 Z2.0
G1 Y195.0827
G2 X121.0696 Y194.059 I-3.0 J0.0
G2 X120.4689 Y193.064 Z0.0 I-2.8199 J1.0237
G2 X119.1257 Y192.2134 I-2.2192 J2.0187
G0 Z20.0
G0 X104.5437 Y194.5985
G0 Z10.0
G1 F400.0 Z6.0
G2 F1000.0 X101.5831 Y192.0827 I-2.9607 J0.4842
G1 X95.0831
G2 X92.0831 Y195.0827 I0.0 J3.0
G1 Y201.5977
G2 X95.0969 Y204.5976 I3.0 J0.0
G1 X101.5969 Y204.5676
G2 X104.5831 Y201.5676 I-0.0139 J-3.0
G1 Y195.0827
G2 X104.5437 Y194.5985 I-3.0 J0.0
G1 F400.0 Z3.0
G2 F1000.0 X101.5831 Y192.0827 I-2.9607 J0.4842
G1 X95.0831
G2 X92.0831 Y195.0827 I0.0 J3.0
G1 Y201.5977
G2 X95.0969 Y204.5976 I3.0 J0.0
G1 X101.5969 Y204.5676
G2 X104.5831 Y201.5676 I-0.0139 J-3.0
G1 Y195.0827
G2 X104.5437 Y194.5985 I-3.0 J0.0
G1 F400.0 Z2.0
G2 F1000.0 X104.403 Y194.059 I-2.9607 J0.4842
G2 X103.8023 Y193.064 Z0.0 I-2.8199 J1.0237
G2 X101.5831 Y192.0827 I-2.2192 J2.0187
G1 X95.0831
G2 X92.0831 Y195.0827 I0.0 J3.0
G1 Y199.6116
G1 Y200.6116 Z2.0
G1 Y201.5977
G2 X92.2593 Y202.6108 I3.0 J0.0
G2 X92.8563 Y203.608 Z0.0 I2.8238 J-1.0131
G2 X95.0969 Y204.5976 I2.2268 J-2.0104
G1 X101.5969 Y204.5676
G2 X104.5831 Y201.5676 I-0.0139 J-3.0
G1 Y197.0576
G1 Y196.0576 Z2.0
G1 Y195.0827
G2 X104.5437 Y194.5985 I-3.0 J0.0
G0 Z20.0
G0 X102.4591 Y187.7703
G0 Z10.0
G1 F400.0 Z6.0
G2 F1000.0 X104.5831 Y184.901 I-0.876 J-2.8693
G1 Y178.4161
G2 X101.5831 Y175.4161 I-3.0 J0.0
G1 X95.0831
G2 X92.0831 Y178.4161 I0.0 J3.0
G1 Y184.9311
G2 X95.0969 Y187.931 I3.0 J0.0
G1 X101.5969 Y187.901
G2 X102.4591 Y187.7703 I-0.0139 J-3.0
G1 F400.0 Z3.0
G2 F1000.0 X104.5831 Y184.901 I-0.876 J-2.8693
G1 Y178.4161
G2 X101.5831 Y175.4161 I-3.0 J0.0
G1 X95.0831
G2 X92.0831 Y178.4161 I0.0 J3.0
G1 Y184.9311
G2 X95.0969 Y187.931 I3.0 J0.0
G1 X101.5969 Y187.901
G2 X102.4591 Y187.7703 I-0.0139 J-3.0
G1 F400.0 Z0.0
G2 F1000.0 X104.5831 Y184.901 I-0.876 J-2.8693
G1 Y180.391
G1 Y179.391 Z2.0
G1 Y178.4161
G2 X104.403 Y177.3924 I-3.0 J0.0
G2 X103.8023 Y176.3974 Z0.0 I-2.8199 J1.0237
G2 X101.5831 Y175.4161 I-2.2192 J2.0187
G1 X95.0831
G2 X92.0831 Y178.4161 I0.0 J3.0
G1 Y182.945
G1 Y183.945 Z2.0
G1 Y184.9311
G2 X92.2593 Y185.9442 I3.0 J0.0
G2 X92.8563 Y186.9414 Z0.0 I2.8238 J-1.0131
G2 X95.0969 Y187.931 I2.2268 J-2.0104
G1 X101.5969 Y187.901
G2 X102.4591 Y187.7703 I-0.0139 J-3.0
G0 Z20.0
G0 X87.8771 Y185.3853
G0 Z10.0
G1 F400.0 Z6.0
G2 F1000.0 X87.9165 Y184.901 I-2.9607 J-0.4842
G1 Y178.4161
G2 X84.9165 Y175.4161 I-3.0 J0.0
G1 X78.4165
G2 X75.4165 Y178.4161 I0.0 J3.0
G1 Y184.9311
G2 X78.4303 Y187.931 I3.0 J0.0
G1 X84.9303 Y187.901
G2 X87.8771 Y185.3853 I-0.0139 J-3.0
G1 F400.0 Z3.0
G2 F1000.0 X87.9165 Y184.901 I-2.9607 J-0.4842
G1 Y178.4161
G2 X84.9165 Y175.4161 I-3.0 J0.0
G1 X78.4165
G2 X75.4165 Y178.4161 I0.0 J3.0
G1 Y184.9311
G2 X78.4303 Y187.931 I3.0 J0.0
G1 X84.9303 Y187.901
G2 X87.8771 Y185.3853 I-0.0139 J-3.0
G1 F400.0 Z0.0
G2 F1000.0 X87.9165 Y184.901 I-2.9607 J-0.4842
G1 Y180.391
G1 Y179.391 Z2.0
G1 Y178.4161
G2 X87.7364 Y177.3924 I-3.0 J0.0
G2 X87.1357 Y176.3974 Z0.0 I-2.8199 J1.0237
G2 X84.9165 Y175.4161 I-2.2192 J2.0187
G1 X78.4165
G2 X75.4165 Y178.4161 I0.0 J3.0
G1 Y182.945
G1 Y183.945 Z2.0
G1 Y184.9311
G2 X75.5927 Y185.9442 I3.0 J0.0
G2 X76.1897 Y186.9414 Z0.0 I2.8238 J-1.0131
G2 X78.4303 Y187.931 I2.2268 J-2.0104
G1 X84.9303 Y187.901
G2 X87.8771 Y185.3853 I-0.0139 J-3.0
G0 Z20.0
G0 X85.7925 Y192.2134
G0 Z10.0
G1 F400.0 Z6.0
G2 F1000.0 X84.9165 Y192.0827 I-0.876 J2.8693
G1 X78.4165
G2 X75.4165 Y195.0827 I0.0 J3.0
G1 Y201.5977
G2 X78.4303 Y204.5976 I3.0 J0.0
G1 X84.9303 Y204.5676
G2 X87.9165 Y201.5676 I-0.0139 J-3.0
G1 Y195.0827
G2 X85.7925 Y192.2134 I-3.0 J0.0
G1 F400.0 Z3.0
G2 F1000.0 X84.9165 Y192.0827 I-0.876 J2.8693
G1 X78.4165
G2 X75.4165 Y195.0827 I0.0 J3.0
G1 Y201.5977
G2 X78.4303 Y204.5976 I3.0 J0.0
G1 X84.9303 Y204.5676
G2 X87.9165 Y201.5676 I-0.0139 J-3.0
G1 Y195.0827
G2 X85.7925 Y192.2134 I-3.0 J0.0
G1 F400.0 Z0.0
G2 F1000.0 X84.9165 Y192.0827 I-0.876 J2.8693
G1 X78.4165
G2 X75.4165 Y195.0827 I0.0 J3.0
G1 Y199.6116
G1 Y200.6116 Z2.0
G1 Y201.5977
G2 X75.5927 Y202.6108 I3.0 J0.0
G2 X76.1897 Y203.608 Z0.0 I2.8238 J-1.0131
G2 X78.4303 Y204.5976 I2.2268 J-2.0104
G1 X84.9303 Y204.5676
G2 X87.9165 Y201.5676 I-0.0139 J-3.0
G1 Y197.0576
G1 Y196.0576 Z2.0
G1 Y195.0827
G2 X87.7364 Y194.059 I-3.0 J0.0
G2 X87.1357 Y193.064 Z0.0 I-2.8199 J1.0237
G2 X85.7925 Y192.2134 I-2.2192 J2.0187
G0 Z20.0
G0 X71.2105 Y194.5985
G0 Z10.0
G1 F400.0 Z6.0
G2 F1000.0 X68.2499 Y192.0827 I-2.9607 J0.4842
G1 X61.7499
G2 X58.7499 Y195.0827 I0.0 J3.0
G1 Y201.5977
G2 X61.7637 Y204.5976 I3.0 J0.0
G1 X68.2637 Y204.5676
G2 X71.2499 Y201.5676 I-0.0139 J-3.0
G1 Y195.0827
G2 X71.2105 Y194.5985 I-3.0 J0.0
G1 F400.0 Z3.0
G2 F1000.0 X68.2499 Y192.0827 I-2.9607 J0.4842
G1 X61.7499
G2 X58.7499 Y195.0827 I0.0 J3.0
G1 Y201.5977
G2 X61.7637 Y204.5976 I3.0 J0.0
G1 X68.2637 Y204.5676
G2 X71.2499 Y201.5676 I-0.0139 J-3.0
G1 Y195.0827
G2 X71.2105 Y194.5985 I-3.0 J0.0
G1 F400.0 Z2.0
G2 F1000.0 X71.0698 Y194.059 I-2.9607 J0.4842
G2 X70.4691 Y193.064 Z0.0 I-2.8199 J1.0237
G2 X68.2499 Y192.0827 I-2.2192 J2.0187
G1 X61.7499
G2 X58.7499 Y195.0827 I0.0 J3.0
G1 Y199.6116
G1 Y200.6116 Z2.0
G1 Y201.5977
G2 X58.9261 Y202.6108 I3.0 J0.0
G2 X59.5231 Y203.608 Z0.0 I2.8238 J-1.0131
G2 X61.7637 Y204.5976 I2.2268 J-2.0104
G1 X68.2637 Y204.5676
G2 X71.2499 Y201.5676 I-0.0139 J-3.0
G1 Y197.0576
G1 Y196.0576 Z2.0
G1 Y195.0827
G2 X71.2105 Y194.5985 I-3.0 J0.0
G0 Z20.0
G0 X69.1259 Y187.7703
G0 Z10.0
G1 F400.0 Z6.0
G2 F1000.0 X71.2499 Y184.901 I-0.876 J-2.8693
G1 Y178.4161
G2 X68.2499 Y175.4161 I-3.0 J0.0
G1 X61.7499
G2 X58.7499 Y178.4161 I0.0 J3.0
G1 Y184.9311
G2 X61.7637 Y187.931 I3.0 J0.0
G1 X68.2637 Y187.901
G2 X69.1259 Y187.7703 I-0.0139 J-3.0
G1 F400.0 Z3.0
G2 F1000.0 X71.2499 Y184.901 I-0.876 J-2.8693
G1 Y178.4161
G2 X68.2499 Y175.4161 I-3.0 J0.0
G1 X61.7499
G2 X58.7499 Y178.4161 I0.0 J3.0
G1 Y184.9311
G2 X61.7637 Y187.931 I3.0 J0.0
G1 X68.2637 Y187.901
G2 X69.1259 Y187.7703 I-0.0139 J-3.0
G1 F400.0 Z0.0
G2 F1000.0 X71.2499 Y184.901 I-0.876 J-2.8693
G1 Y180.391
G1 Y179.391 Z2.0
G1 Y178.4161
G2 X71.0698 Y177.3924 I-3.0 J0.0
G2 X70.4691 Y176.3974 Z0.0 I-2.8199 J1.0237
G2 X68.2499 Y175.4161 I-2.2192 J2.0187
G1 X61.7499
G2 X58.7499 Y178.4161 I0.0 J3.0
G1 Y182.945
G1 Y183.945 Z2.0
G1 Y184.9311
G2 X58.9261 Y185.9442 I3.0 J0.0
G2 X59.5231 Y186.9414 Z0.0 I2.8238 J-1.0131
G2 X61.7637 Y187.931 I2.2268 J-2.0104
G1 X68.2637 Y187.901
G2 X69.1259 Y187.7703 I-0.0139 J-3.0
G0 Z20.0
G0 X54.5439 Y185.3853
G0 Z10.0
G1 F400.0 Z6.0
G2 F1000.0 X54.5833 Y184.901 I-2.9607 J-0.4842
G1 Y178.4161
G2 X51.5833 Y175.4161 I-3.0 J0.0
G1 X45.0833
G2 X42.0833 Y178.4161 I0.0 J3.0
G1 Y184.9311
G2 X45.0971 Y187.931 I3.0 J0.0
G1 X51.5971 Y187.901
G2 X54.5439 Y185.3853 I-0.0139 J-3.0
G1 F400.0 Z3.0
G2 F1000.0 X54.5833 Y184.901 I-2.9607 J-0.4842
G1 Y178.4161
G2 X51.5833 Y175.4161 I-3.0 J0.0
G1 X45.0833
G2 X42.0833 Y178.4161 I0.0 J3.0
G1 Y184.9311
G2 X45.0971 Y187.931 I3.0 J0.0
G1 X51.5971 Y187.901
G2 X54.5439 Y185.3853 I-0.0139 J-3.0
G1 F400.0 Z0.0
G2 F1000.0 X54.5833 Y184.901 I-2.9607 J-0.4842
G1 Y180.391
G1 Y179.391 Z2.0
G1 Y178.4161
G2 X54.4032 Y177.3924 I-3.0 J0.0
G2 X53.8025 Y176.3974 Z0.0 I-2.8199 J1.0237
G2 X51.5833 Y175.4161 I-2.2192 J2.0187
G1 X45.0833
G2 X42.0833 Y178.4161 I0.0 J3.0
G1 Y182.945
G1 Y183.945 Z2.0
G1 Y184.9311
G2 X42.2595 Y185.9442 I3.0 J0.0
G2 X42.8565 Y186.9414 Z0.0 I2.8238 J-1.0131
G2 X45.0971 Y187.931 I2.2268 J-2.0104
G1 X51.5971 Y187.901
G2 X54.5439 Y185.3853 I-0.0139 J-3.0
G0 Z20.0
G0 X52.4593 Y192.2134
G0 Z10.0
G1 F400.0 Z6.0
G2 F1000.0 X51.5833 Y192.0827 I-0.876 J2.8693
G1 X45.0833
G2 X42.0833 Y195.0827 I0.0 J3.0
G1 Y201.5977
G2 X45.0971 Y204.5976 I3.0 J0.0
G1 X51.5971 Y204.5676
G2 X54.5833 Y201.5676 I-0.0139 J-3.0
G1 Y195.0827
G2 X52.4593 Y192.2134 I-3.0 J0.0
G1 F400.0 Z3.0
G2 F1000.0 X51.5833 Y192.0827 I-0.876 J2.8693
G1 X45.0833
G2 X42.0833 Y195.0827 I0.0 J3.0
G1 Y201.5977
G2 X45.0971 Y204.5976 I3.0 J0.0
G1 X51.5971 Y204.5676
G2 X54.5833 Y201.5676 I-0.0139 J-3.0
G1 Y195.0827
G2 X52.4593 Y192.2134 I-3.0 J0.0
G1 F400.0 Z0.0
G2 F1000.0 X51.5833 Y192.0827 I-0.876 J2.8693
G1 X45.0833
G2 X42.0833 Y195.0827 I0.0 J3.0
G1 Y199.6116
G1 Y200.6116 Z2.0
G1 Y201.5977
G2 X42.2595 Y202.6108 I3.0 J0.0
G2 X42.8565 Y203.608 Z0.0 I2.8238 J-1.0131
G2 X45.0971 Y204.5976 I2.2268 J-2.0104
G1 X51.5971 Y204.5676
G2 X54.5833 Y201.5676 I-0.0139 J-3.0
G1 Y197.0576
G1 Y196.0576 Z2.0
G1 Y195.0827
G2 X54.4032 Y194.059 I-3.0 J0.0
G2 X53.8025 Y193.064 Z0.0 I-2.8199 J1.0237
G2 X52.4593 Y192.2134 I-2.2192 J2.0187
G0 Z20.0
G0 X37.8773 Y194.5985
G0 Z10.0
G1 F400.0 Z6.0
G2 F1000.0 X34.9167 Y192.0827 I-2.9607 J0.4842
G1 X28.4167
G2 X25.4167 Y195.0827 I0.0 J3.0
G1 Y201.5977
G2 X28.4305 Y204.5976 I3.0 J0.0
G1 X34.9305 Y204.5676
G2 X37.9167 Y201.5676 I-0.0139 J-3.0
G1 Y195.0827
G2 X37.8773 Y194.5985 I-3.0 J0.0
G1 F400.0 Z3.0
G2 F1000.0 X34.9167 Y192.0827 I-2.9607 J0.4842
G1 X28.4167
G2 X25.4167 Y195.0827 I0.0 J3.0
G1 Y201.5977
G2 X28.4305 Y204.5976 I3.0 J0.0
G1 X34.9305 Y204.5676
G2 X37.9167 Y201.5676 I-0.0139 J-3.0
G1 Y195.0827
G2 X37.8773 Y194.5985 I-3.0 J0.0
G1 F400.0 Z2.0
G2 F1000.0 X37.7366 Y194.059 I-2.9607 J0.4842
G2 X37.1359 Y193.064 Z0.0 I-2.8199 J1.0237
G2 X34.9167 Y192.0827 I-2.2192 J2.0187
G1 X28.4167
G2 X25.4167 Y195.0827 I0.0 J3.0
G1 Y199.6116
G1 Y200.6116 Z2.0
G1 Y201.5977
G2 X25.5929 Y202.6108 I3.0 J0.0
G2 X26.1899 Y203.608 Z0.0 I2.8238 J-1.0131
G2 X28.4305 Y204.5976 I2.2268 J-2.0104
G1 X34.9305 Y204.5676
G2 X37.9167 Y201.5676 I-0.0139 J-3.0
G1 Y197.0576
G1 Y196.0576 Z2.0
G1 Y195.0827
G2 X37.8773 Y194.5985 I-3.0 J0.0
G0 Z20.0
G0 X35.7927 Y187.7703
G0 Z10.0
G1 F400.0 Z6.0
G2 F1000.0 X37.9167 Y184.901 I-0.876 J-2.8693
G1 Y178.4161
G2 X34.9167 Y175.4161 I-3.0 J0.0
G1 X28.4167
G2 X25.4167 Y178.4161 I0.0 J3.0
G1 Y184.9311
G2 X28.4305 Y187.931 I3.0 J0.0
G1 X34.9305 Y187.901
G2 X35.7927 Y187.7703 I-0.0139 J-3.0
G1 F400.0 Z3.0
G2 F1000.0 X37.9167 Y184.901 I-0.876 J-2.8693
G1 Y178.4161
G2 X34.9167 Y175.4161 I-3.0 J0.0
G1 X28.4167
G2 X25.4167 Y178.4161 I0.0 J3.0
G1 Y184.9311
G2 X28.4305 Y187.931 I3.0 J0.0
G1 X34.9305 Y187.901
G2 X35.7927 Y187.7703 I-0.0139 J-3.0
G1 F400.0 Z0.0
G2 F1000.0 X37.9167 Y184.901 I-0.876 J-2.8693
G1 Y180.391
G1 Y179.391 Z2.0
G1 Y178.4161
G2 X37.7366 Y177.3924 I-3.0 J0.0
G2 X37.1359 Y176.3974 Z0.0 I-2.8199 J1.0237
G2 X34.9167 Y175.4161 I-2.2192 J2.0187
G1 X28.4167
G2 X25.4167 Y178.4161 I0.0 J3.0
G1 Y182.945
G1 Y183.945 Z2.0
G1 Y184.9311
G2 X25.5929 Y185.9442 I3.0 J0.0
G2 X26.1899 Y186.9414 Z0.0 I2.8238 J-1.0131
G2 X28.4305 Y187.931 I2.2268 J-2.0104
G1 X34.9305 Y187.901
G2 X35.7927 Y187.7703 I-0.0139 J-3.0
G0 Z20.0
G0 X35.0511 Y171.2314
G0 Z10.0
G1 F400.0 Z6.0
G2 F1000.0 X37.9167 Y168.2344 I-0.1344 J-2.997
G1 Y161.7495
G2 X34.9167 Y158.7495 I-3.0 J0.0
G1 X28.4167
G2 X25.4167 Y161.7495 I0.0 J3.0
G1 Y168.2645
G2 X28.4305 Y171.2644 I3.0 J0.0
G1 X34.9305 Y171.2344
G2 X35.0511 Y171.2314 I-0.0139 J-3.0
G1 F400.0 Z3.0
G2 F1000.0 X37.9167 Y168.2344 I-0.1344 J-2.997
G1 Y161.7495
G2 X34.9167 Y158.7495 I-3.0 J0.0
G1 X28.4167
G2 X25.4167 Y161.7495 I0.0 J3.0
G1 Y168.2645
G2 X28.4305 Y171.2644 I3.0 J0.0
G1 X34.9305 Y171.2344
G2 X35.0511 Y171.2314 I-0.0139 J-3.0
G1 F400.0 Z0.0
G2 F1000.0 X37.9167 Y168.2344 I-0.1344 J-2.997
G1 Y163.7244
G1 Y162.7244 Z2.0
G1 Y161.7495
G2 X37.7366 Y160.7258 I-3.0 J0.0
G2 X37.1359 Y159.7308 Z0.0 I-2.8199 J1.0237
G2 X34.9167 Y158.7495 I-2.2192 J2.0187
G1 X28.4167
G2 X25.4167 Y161.7495 I0.0 J3.0
G1 Y166.2784
G1 Y167.2784 Z2.0
G1 Y168.2645
G2 X25.5929 Y169.2776 I3.0 J0.0
G2 X26.1899 Y170.2748 Z0.0 I2.8238 J-1.0131
G2 X28.4305 Y171.2644 I2.2268 J-2.0104
G1 X34.9305 Y171.2344
G2 X35.0511 Y171.2314 I-0.0139 J-3.0
G0 Z20.0
G0 X42.2064 Y169.1153
G0 Z10.0
G1 F400.0 Z6.0
G2 F1000.0 X45.0971 Y171.2644 I2.8768 J-0.8508
G1 X51.5971 Y171.2344
G2 X54.5833 Y168.2344 I-0.0139 J-3.0
G1 Y161.7495
G2 X51.5833 Y158.7495 I-3.0 J0.0
G1 X45.0833
G2 X42.0833 Y161.7495 I0.0 J3.0
G1 Y168.2645
G2 X42.2064 Y169.1153 I3.0 J0.0
G1 F400.0 Z3.0
G2 F1000.0 X45.0971 Y171.2644 I2.8768 J-0.8508
G1 X51.5971 Y171.2344
G2 X54.5833 Y168.2344 I-0.0139 J-3.0
G1 Y161.7495
G2 X51.5833 Y158.7495 I-3.0 J0.0
G1 X45.0833
G2 X42.0833 Y161.7495 I0.0 J3.0
G1 Y168.2645
G2 X42.2064 Y169.1153 I3.0 J0.0
G1 F400.0 Z2.0
G2 F1000.0 X42.2595 Y169.2776 I2.8768 J-0.8508
G2 X42.8565 Y170.2748 Z0.0 I2.8238 J-1.0131
G2 X45.0971 Y171.2644 I2.2268 J-2.0104
G1 X51.5971 Y171.2344
G2 X54.5833 Y168.2344 I-0.0139 J-3.0
G1 Y163.7244
G1 Y162.7244 Z2.0
G1 Y161.7495
G2 X54.4032 Y160.7258 I-3.0 J0.0
G2 X53.8025 Y159.7308 Z0.0 I-2.8199 J1.0237
G2 X51.5833 Y158.7495 I-2.2192 J2.0187
G1 X45.0833
G2 X42.0833 Y161.7495 I0.0 J3.0
G1 Y166.2784
G1 Y167.2784 Z2.0
G1 Y168.2645
G2 X42.2064 Y169.1153 I3.0 J0.0
G0 Z20.0
G0 X44.5971 Y154.5582
G0 Z10.0
G1 F400.0 Z6.0
G2 F1000.0 X45.0971 Y154.5978 I0.4862 J-2.9603
G1 X51.5971 Y154.5678
G2 X54.5833 Y151.5678 I-0.0139 J-3.0
G1 Y145.0829
G2 X51.5833 Y142.0829 I-3.0 J0.0
G1 X45.0833
G2 X42.0833 Y145.0829 I0.0 J3.0
G1 Y151.5979
G2 X44.5971 Y154.5582 I3.0 J0.0
G1 F400.0 Z3.0
G2 F1000.0 X45.0971 Y154.5978 I0.4862 J-2.9603
G1 X51.5971 Y154.5678
G2 X54.5833 Y151.5678 I-0.0139 J-3.0
G1 Y145.0829
G2 X51.5833 Y142.0829 I-3.0 J0.0
G1 X45.0833
G2 X42.0833 Y145.0829 I0.0 J3.0
G1 Y151.5979
G2 X44.5971 Y154.5582 I3.0 J0.0
G1 F400.0 Z0.0
G2 F1000.0 X45.0971 Y154.5978 I0.4862 J-2.9603
G1 X51.5971 Y154.5678
G2 X54.5833 Y151.5678 I-0.0139 J-3.0
G1 Y147.0578
G1 Y146.0578 Z2.0
G1 Y145.0829
G2 X54.4032 Y144.0592 I-3.0 J0.0
G2 X53.8025 Y143.0642 Z0.0 I-2.8199 J1.0237
G2 X51.5833 Y142.0829 I-2.2192 J2.0187
G1 X45.0833
G2 X42.0833 Y145.0829 I0.0 J3.0
G1 Y149.6118
G1 Y150.6118 Z2.0
G1 Y151.5979
G2 X42.2595 Y152.611 I3.0 J0.0
G2 X42.8565 Y153.6082 Z0.0 I2.8238 J-1.0131
G2 X44.5971 Y154.5582 I2.2268 J-2.0104
G0 Z20.0
G0 X37.783 Y152.4533
G0 Z10.0
G1 F400.0 Z6.0
G2 F1000.0 X37.9167 Y151.5678 I-2.8664 J-0.8854
G1 Y145.0829
G2 X34.9167 Y142.0829 I-3.0 J0.0
G1 X28.4167
G2 X25.4167 Y145.0829 I0.0 J3.0
G1 Y151.5979
G2 X28.4305 Y154.5978 I3.0 J0.0
G1 X34.9305 Y154.5678
G2 X37.783 Y152.4533 I-0.0139 J-3.0
G1 F400.0 Z3.0
G2 F1000.0 X37.9167 Y151.5678 I-2.8664 J-0.8854
G1 Y145.0829
G2 X34.9167 Y142.0829 I-3.0 J0.0
G1 X28.4167
G2 X25.4167 Y145.0829 I0.0 J3.0
G1 Y151.5979
G2 X28.4305 Y154.5978 I3.0 J0.0
G1 X34.9305 Y154.5678
G2 X37.783 Y152.4533 I-0.0139 J-3.0
G1 F400.0 Z0.0
G2 F1000.0 X37.9167 Y151.5678 I-2.8664 J-0.8854
G1 Y147.0578
G1 Y146.0578 Z2.0
G1 Y145.0829
G2 X37.7366 Y144.0592 I-3.0 J0.0
G2 X37.1359 Y143.0642 Z0.0 I-2.8199 J1.0237
G2 X34.9167 Y142.0829 I-2.2192 J2.0187
G1 X28.4167
G2 X25.4167 Y145.0829 I0.0 J3.0
G1 Y149.6118
G1 Y150.6118 Z2.0
G1 Y151.5979
G2 X25.5929 Y152.611 I3.0 J0.0
G2 X26.1899 Y153.6082 Z0.0 I2.8238 J-1.0131
G2 X28.4305 Y154.5978 I2.2268 J-2.0104
G1 X34.9305 Y154.5678
G2 X37.783 Y152.4533 I-0.0139 J-3.0
G0 Z20.0
G0 X35.4002 Y137.862
G0 Z10.0
G1 F400.0 Z6.0
G2 F1000.0 X37.9167 Y134.9012 I-0.4835 J-2.9608
G1 Y128.4163
G2 X34.9167 Y125.4163 I-3.0 J0.0
G1 X28.4167
G2 X25.4167 Y128.4163 I0.0 J3.0
G1 Y134.9313
G2 X28.4305 Y137.9312 I3.0 J0.0
G1 X34.9305 Y137.9012
G2 X35.4002 Y137.862 I-0.0139 J-3.0
G1 F400.0 Z3.0
G2 F1000.0 X37.9167 Y134.9012 I-0.4835 J-2.9608
G1 Y128.4163
G2 X34.9167 Y125.4163 I-3.0 J0.0
G1 X28.4167
G2 X25.4167 Y128.4163 I0.0 J3.0
G1 Y134.9313
G2 X28.4305 Y137.9312 I3.0 J0.0
G1 X34.9305 Y137.9012
G2 X35.4002 Y137.862 I-0.0139 J-3.0
G1 F400.0 Z0.0
G2 F1000.0 X37.9167 Y134.9012 I-0.4835 J-2.9608
G1 Y130.3912
G1 Y129.3912 Z2.0
G1 Y128.4163
G2 X37.7366 Y127.3926 I-3.0 J0.0
G2 X37.1359 Y126.3976 Z0.0 I-2.8199 J1.0237
G2 X34.9167 Y125.4163 I-2.2192 J2.0187
G1 X28.4167
G2 X25.4167 Y128.4163 I0.0 J3.0
G1 Y132.9452
G1 Y133.9452 Z2.0
G1 Y134.9313
G2 X25.5929 Y135.9444 I3.0 J0.0
G2 X26.1899 Y136.9416 Z0.0 I2.8238 J-1.0131
G2 X28.4305 Y137.9312 I2.2268 J-2.0104
G1 X34.9305 Y137.9012
G2 X35.4002 Y137.862 I-0.0139 J-3.0
G0 Z20.0
G0 X42.2119 Y135.8003
G0 Z10.0
G1 F400.0 Z6.0
G2 F1000.0 X45.0971 Y137.9312 I2.8714 J-0.8691
G1 X51.5971 Y137.9012
G2 X54.5833 Y134.9012 I-0.0139 J-3.0
G1 Y128.4163
G2 X51.5833 Y125.4163 I-3.0 J0.0
G1 X45.0833
G2 X42.0833 Y128.4163 I0.0 J3.0
G1 Y134.9313
G2 X42.2119 Y135.8003 I3.0 J0.0
G1 F400.0 Z3.0
G2 F1000.0 X45.0971 Y137.9312 I2.8714 J-0.8691
G1 X51.5971 Y137.9012
G2 X54.5833 Y134.9012 I-0.0139 J-3.0
G1 Y128.4163
G2 X51.5833 Y125.4163 I-3.0 J0.0
G1 X45.0833
G2 X42.0833 Y128.4163 I0.0 J3.0
G1 Y134.9313
G2 X42.2119 Y135.8003 I3.0 J0.0
G1 F400.0 Z2.0
G2 F1000.0 X42.2595 Y135.9444 I2.8714 J-0.8691
G2 X42.8565 Y136.9416 Z0.0 I2.8238 J-1.0131
G2 X45.0971 Y137.9312 I2.2268 J-2.0104
G1 X51.5971 Y137.9012
G2 X54.5833 Y134.9012 I-0.0139 J-3.0
G1 Y130.3912
G1 Y129.3912 Z2.0
G1 Y128.4163
G2 X54.4032 Y127.3926 I-3.0 J0.0
G2 X53.8025 Y126.3976 Z0.0 I-2.8199 J1.0237
G2 X51.5833 Y125.4163 I-2.2192 J2.0187
G1 X45.0833
G2 X42.0833 Y128.4163 I0.0 J3.0
G1 Y132.9452
G1 Y133.9452 Z2.0
G1 Y134.9313
G2 X42.2119 Y135.8003 I3.0 J0.0
G0 Z20.0
G0 X44.5985 Y121.2253
G0 Z10.0
G1 F400.0 Z6.0
G2 F1000.0 X45.0971 Y121.2646 I0.4848 J-2.9606
G1 X51.5971 Y121.2346
G2 X54.5833 Y118.2346 I-0.0139 J-3.0
G1 Y111.7497
G2 X51.5833 Y108.7497 I-3.0 J0.0
G1 X45.0833
G2 X42.0833 Y111.7497 I0.0 J3.0
G1 Y118.2647
G2 X44.5985 Y121.2253 I3.0 J0.0
G1 F400.0 Z3.0
G2 F1000.0 X45.0971 Y121.2646 I0.4848 J-2.9606
G1 X51.5971 Y121.2346
G2 X54.5833 Y118.2346 I-0.0139 J-3.0
G1 Y111.7497
G2 X51.5833 Y108.7497 I-3.0 J0.0
G1 X45.0833
G2 X42.0833 Y111.7497 I0.0 J3.0
G1 Y118.2647
G2 X44.5985 Y121.2253 I3.0 J0.0
G1 F400.0 Z0.0
G2 F1000.0 X45.0971 Y121.2646 I0.4848 J-2.9606
G1 X51.5971 Y121.2346
G2 X54.5833 Y118.2346 I-0.0139 J-3.0
G1 Y113.7246
G1 Y112.7246 Z2.0
G1 Y111.7497
G2 X54.4032 Y110.726 I-3.0 J0.0
G2 X53.8025 Y109.731 Z0.0 I-2.8199 J1.0237
G2 X51.5833 Y108.7497 I-2.2192 J2.0187
G1 X45.0833
G2 X42.0833 Y111.7497 I0.0 J3.0
G1 Y116.2786
G1 Y117.2786 Z2.0
G1 Y118.2647
G2 X42.2595 Y119.2778 I3.0 J0.0
G2 X42.8565 Y120.275 Z0.0 I2.8238 J-1.0131
G2 X44.5985 Y121.2253 I2.2268 J-2.0104
G0 Z20.0
G0 X37.783 Y119.12
G0 Z10.0
G1 F400.0 Z6.0
G2 F1000.0 X37.9167 Y118.2346 I-2.8664 J-0.8854
G1 Y111.7497
G2 X34.9167 Y108.7497 I-3.0 J0.0
G1 X28.4167
G2 X25.4167 Y111.7497 I0.0 J3.0
G1 Y118.2647
G2 X28.4305 Y121.2646 I3.0 J0.0
G1 X34.9305 Y121.2346
G2 X37.783 Y119.12 I-0.0139 J-3.0
G1 F400.0 Z3.0
G2 F1000.0 X37.9167 Y118.2346 I-2.8664 J-0.8854
G1 Y111.7497
G2 X34.9167 Y108.7497 I-3.0 J0.0
G1 X28.4167
G2 X25.4167 Y111.7497 I0.0 J3.0
G1 Y118.2647
G2 X28.4305 Y121.2646 I3.0 J0.0
G1 X34.9305 Y121.2346
G2 X37.783 Y119.12 I-0.0139 J-3.0
G1 F400.0 Z0.0
G2 F1000.0 X37.9167 Y118.2346 I-2.8664 J-0.8854
G1 Y113.7246
G1 Y112.7246 Z2.0
G1 Y111.7497
G2 X37.7366 Y110.726 I-3.0 J0.0
G2 X37.1359 Y109.731 Z0.0 I-2.8199 J1.0237
G2 X34.9167 Y108.7497 I-2.2192 J2.0187
G1 X28.4167
G2 X25.4167 Y111.7497 I0.0 J3.0
G1 Y116.2786
G1 Y117.2786 Z2.0
G1 Y118.2647
G2 X25.5929 Y119.2778 I3.0 J0.0
G2 X26.1899 Y120.275 Z0.0 I2.8238 J-1.0131
G2 X28.4305 Y121.2646 I2.2268 J-2.0104
G1 X34.9305 Y121.2346
G2 X37.783 Y119.12 I-0.0139 J-3.0
G0 Z20.0
G0 X35.4002 Y104.5288
G0 Z10.0
G1 F400.0 Z6.0
G2 F1000.0 X37.9167 Y101.568 I-0.4835 J-2.9608
G1 Y95.0831
G2 X34.9167 Y92.0831 I-3.0 J0.0
G1 X28.4167
G2 X25.4167 Y95.0831 I0.0 J3.0
G1 Y101.5981
G2 X28.4305 Y104.598 I3.0 J0.0
G1 X34.9305 Y104.568
G2 X35.4002 Y104.5288 I-0.0139 J-3.0
G1 F400.0 Z3.0
G2 F1000.0 X37.9167 Y101.568 I-0.4835 J-2.9608
G1 Y95.0831
G2 X34.9167 Y92.0831 I-3.0 J0.0
G1 X28.4167
G2 X25.4167 Y95.0831 I0.0 J3.0
G1 Y101.5981
G2 X28.4305 Y104.598 I3.0 J0.0
G1 X34.9305 Y104.568
G2 X35.4002 Y104.5288 I-0.0139 J-3.0
G1 F400.0 Z0.0
G2 F1000.0 X37.9167 Y101.568 I-0.4835 J-2.9608
G1 Y97.058
G1 Y96.058 Z2.0
G1 Y95.0831
G2 X37.7366 Y94.0594 I-3.0 J0.0
G2 X37.1359 Y93.0644 Z0.0 I-2.8199 J1.0237
G2 X34.9167 Y92.0831 I-2.2192 J2.0187
G1 X28.4167
G2 X25.4167 Y95.0831 I0.0 J3.0
G1 Y99.612
G1 Y100.612 Z2.0
G1 Y101.5981
G2 X25.5929 Y102.6112 I3.0 J0.0
G2 X26.1899 Y103.6084 Z0.0 I2.8238 J-1.0131
G2 X28.4305 Y104.598 I2.2268 J-2.0104
G1 X34.9305 Y104.568
G2 X35.4002 Y104.5288 I-0.0139 J-3.0
G0 Z20.0
G0 X42.2119 Y102.4671
G0 Z10.0
G1 F400.0 Z6.0
G2 F1000.0 X45.0971 Y104.598 I2.8714 J-0.8691
G1 X51.5971 Y104.568
G2 X54.5833 Y101.568 I-0.0139 J-3.0
G1 Y95.0831
G2 X51.5833 Y92.0831 I-3.0 J0.0
G1 X45.0833
G2 X42.0833 Y95.0831 I0.0 J3.0
G1 Y101.5981
G2 X42.2119 Y102.4671 I3.0 J0.0
G1 F400.0 Z3.0
G2 F1000.0 X45.0971 Y104.598 I2.8714 J-0.8691
G1 X51.5971 Y104.568
G2 X54.5833 Y101.568 I-0.0139 J-3.0
G1 Y95.0831
G2 X51.5833 Y92.0831 I-3.0 J0.0
G1 X45.0833
G2 X42.0833 Y95.0831 I0.0 J3.0
G1 Y101.5981
G2 X42.2119 Y102.4671 I3.0 J0.0
G1 F400.0 Z2.0
G2 F1000.0 X42.2595 Y102.6112 I2.8714 J-0.8691
G2 X42.8565 Y103.6084 Z0.0 I2.8238 J-1.0131
G2 X45.0971 Y104.598 I2.2268 J-2.0104
G1 X51.5971 Y104.568
G2 X54.5833 Y101.568 I-0.0139 J-3.0
G1 Y97.058
G1 Y96.058 Z2.0
G1 Y95.0831
G2 X54.4032 Y94.0594 I-3.0 J0.0
G2 X53.8025 Y93.0644 Z0.0 I-2.8199 J1.0237
G2 X51.5833 Y92.0831 I-2.2192 J2.0187
G1 X45.0833
G2 X42.0833 Y95.0831 I0.0 J3.0
G1 Y99.612
G1 Y100.612 Z2.0
G1 Y101.5981
G2 X42.2119 Y102.4671 I3.0 J0.0
G0 Z20.0
G0 X44.5985 Y87.8921
G0 Z10.0
G1 F400.0 Z6.0
G2 F1000.0 X45.0971 Y87.9314 I0.4848 J-2.9606
G1 X51.5971 Y87.9014
G2 X54.5833 Y84.9014 I-0.0139 J-3.0
G1 Y78.4165
G2 X51.5833 Y75.4165 I-3.0 J0.0
G1 X45.0833
G2 X42.0833 Y78.4165 I0.0 J3.0
G1 Y84.9315
G2 X44.5985 Y87.8921 I3.0 J0.0
G1 F400.0 Z3.0
G2 F1000.0 X45.0971 Y87.9314 I0.4848 J-2.9606
G1 X51.5971 Y87.9014
G2 X54.5833 Y84.9014 I-0.0139 J-3.0
G1 Y78.4165
G2 X51.5833 Y75.4165 I-3.0 J0.0
G1 X45.0833
G2 X42.0833 Y78.4165 I0.0 J3.0
G1 Y84.9315
G2 X44.5985 Y87.8921 I3.0 J0.0
G1 F400.0 Z0.0
G2 F1000.0 X45.0971 Y87.9314 I0.4848 J-2.9606
G1 X51.5971 Y87.9014
G2 X54.5833 Y84.9014 I-0.0139 J-3.0
G1 Y80.3914
G1 Y79.3914 Z2.0
G1 Y78.4165
G2 X54.4032 Y77.3928 I-3.0 J0.0
G2 X53.8025 Y76.3978 Z0.0 I-2.8199 J1.0237
G2 X51.5833 Y75.4165 I-2.2192 J2.0187
G1 X45.0833
G2 X42.0833 Y78.4165 I0.0 J3.0
G1 Y82.9454
G1 Y83.9454 Z2.0
G1 Y84.9315
G2 X42.2595 Y85.9446 I3.0 J0.0
G2 X42.8565 Y86.9418 Z0.0 I2.8238 J-1.0131
G2 X44.5985 Y87.8921 I2.2268 J-2.0104
G0 Z20.0
G0 X37.783 Y85.7868
G0 Z10.0
G1 F400.0 Z6.0
G2 F1000.0 X37.9167 Y84.9014 I-2.8664 J-0.8854
G1 Y78.4165
G2 X34.9167 Y75.4165 I-3.0 J0.0
G1 X28.4167
G2 X25.4167 Y78.4165 I0.0 J3.0
G1 Y84.9315
G2 X28.4305 Y87.9314 I3.0 J0.0
G1 X34.9305 Y87.9014
G2 X37.783 Y85.7868 I-0.0139 J-3.0
G1 F400.0 Z3.0
G2 F1000.0 X37.9167 Y84.9014 I-2.8664 J-0.8854
G1 Y78.4165
G2 X34.9167 Y75.4165 I-3.0 J0.0
G1 X28.4167
G2 X25.4167 Y78.4165 I0.0 J3.0
G1 Y84.9315
G2 X28.4305 Y87.9314 I3.0 J0.0
G1 X34.9305 Y87.9014
G2 X37.783 Y85.7868 I-0.0139 J-3.0
G1 F400.0 Z0.0
G2 F1000.0 X37.9167 Y84.9014 I-2.8664 J-0.8854
G1 Y80.3914
G1 Y79.3914 Z2.0
G1 Y78.4165
G2 X37.7366 Y77.3928 I-3.0 J0.0
G2 X37.1359 Y76.3978 Z0.0 I-2.8199 J1.0237
G2 X34.9167 Y75.4165 I-2.2192 J2.0187
G1 X28.4167
G2 X25.4167 Y78.4165 I0.0 J3.0
G1 Y82.9454
G1 Y83.9454 Z2.0
G1 Y84.9315
G2 X25.5929 Y85.9446 I3.0 J0.0
G2 X26.1899 Y86.9418 Z0.0 I2.8238 J-1.0131
G2 X28.4305 Y87.9314 I2.2268 J-2.0104
G1 X34.9305 Y87.9014
G2 X37.783 Y85.7868 I-0.0139 J-3.0
G0 Z20.0
G0 X35.4002 Y71.1956
G0 Z10.0
G1 F400.0 Z6.0
G2 F1000.0 X37.9167 Y68.2348 I-0.4835 J-2.9608
G1 Y61.7499
G2 X34.9167 Y58.7499 I-3.0 J0.0
G1 X28.4167
G2 X25.4167 Y61.7499 I0.0 J3.0
G1 Y68.2649
G2 X28.4305 Y71.2648 I3.0 J0.0
G1 X34.9305 Y71.2348
G2 X35.4002 Y71.1956 I-0.0139 J-3.0
G1 F400.0 Z3.0
G2 F1000.0 X37.9167 Y68.2348 I-0.4835 J-2.9608
G1 Y61.7499
G2 X34.9167 Y58.7499 I-3.0 J0.0
G1 X28.4167
G2 X25.4167 Y61.7499 I0.0 J3.0
G1 Y68.2649
G2 X28.4305 Y71.2648 I3.0 J0.0
G1 X34.9305 Y71.2348
G2 X35.4002 Y71.1956 I-0.0139 J-3.0
G1 F400.0 Z0.0
G2 F1000.0 X37.9167 Y68.2348 I-0.4835 J-2.9608
G1 Y63.7248
G1 Y62.7248 Z2.0
G1 Y61.7499
G2 X37.7366 Y60.7262 I-3.0 J0.0
G2 X37.1359 Y59.7312 Z0.0 I-2.8199 J1.0237
G2 X34.9167 Y58.7499 I-2.2192 J2.0187
G1 X28.4167
G2 X25.4167 Y61.7499 I0.0 J3.0
G1 Y66.2788
G1 Y67.2788 Z2.0
G1 Y68.2649
G2 X25.5929 Y69.278 I3.0 J0.0
G2 X26.1899 Y70.2752 Z0.0 I2.8238 J-1.0131
G2 X28.4305 Y71.2648 I2.2268 J-2.0104
G1 X34.9305 Y71.2348
G2 X35.4002 Y71.1956 I-0.0139 J-3.0
G0 Z20.0
G0 X42.2119 Y69.1339
G0 Z10.0
G1 F400.0 Z6.0
G2 F1000.0 X45.0971 Y71.2648 I2.8714 J-0.8691
G1 X51.5971 Y71.2348
G2 X54.5833 Y68.2348 I-0.0139 J-3.0
G1 Y61.7499
G2 X51.5833 Y58.7499 I-3.0 J0.0
G1 X45.0833
G2 X42.0833 Y61.7499 I0.0 J3.0
G1 Y68.2649
G2 X42.2119 Y69.1339 I3.0 J0.0
G1 F400.0 Z3.0
G2 F1000.0 X45.0971 Y71.2648 I2.8714 J-0.8691
G1 X51.5971 Y71.2348
G2 X54.5833 Y68.2348 I-0.0139 J-3.0
G1 Y61.7499
G2 X51.5833 Y58.7499 I-3.0 J0.0
G1 X45.0833
G2 X42.0833 Y61.7499 I0.0 J3.0
G1 Y68.2649
G2 X42.2119 Y69.1339 I3.0 J0.0
G1 F400.0 Z2.0
G2 F1000.0 X42.2595 Y69.278 I2.8714 J-0.8691
G2 X42.8565 Y70.2752 Z0.0 I2.8238 J-1.0131
G2 X45.0971 Y71.2648 I2.2268 J-2.0104
G1 X51.5971 Y71.2348
G2 X54.5833 Y68.2348 I-0.0139 J-3.0
G1 Y63.7248
G1 Y62.7248 Z2.0
G1 Y61.7499
G2 X54.4032 Y60.7262 I-3.0 J0.0
G2 X53.8025 Y59.7312 Z0.0 I-2.8199 J1.0237
G2 X51.5833 Y58.7499 I-2.2192 J2.0187
G1 X45.0833
G2 X42.0833 Y61.7499 I0.0 J3.0
G1 Y66.2788
G1 Y67.2788 Z2.0
G1 Y68.2649
G2 X42.2119 Y69.1339 I3.0 J0.0
G0 Z20.0
G0 X58.7528 Y68.3982
G0 Z10.0
G1 F400.0 Z6.0
G2 F1000.0 X61.7637 Y71.2648 I2.997 J-0.1333
G1 X68.2637 Y71.2348
G2 X71.2499 Y68.2348 I-0.0139 J-3.0
G1 Y61.7499
G2 X68.2499 Y58.7499 I-3.0 J0.0
G1 X61.7499
G2 X58.7499 Y61.7499 I0.0 J3.0
G1 Y68.2649
G2 X58.7528 Y68.3982 I3.0 J0.0
G1 F400.0 Z3.0
G2 F1000.0 X61.7637 Y71.2648 I2.997 J-0.1333
G1 X68.2637 Y71.2348
G2 X71.2499 Y68.2348 I-0.0139 J-3.0
G1 Y61.7499
G2 X68.2499 Y58.7499 I-3.0 J0.0
G1 X61.7499
G2 X58.7499 Y61.7499 I0.0 J3.0
G1 Y68.2649
G2 X58.7528 Y68.3982 I3.0 J0.0
G1 F400.0 Z2.0
G2 F1000.0 X58.9261 Y69.278 I2.997 J-0.1333
G2 X59.5231 Y70.2752 Z0.0 I2.8238 J-1.0131
G2 X61.7637 Y71.2648 I2.2268 J-2.0104
G1 X68.2637 Y71.2348
G2 X71.2499 Y68.2348 I-0.0139 J-3.0
G1 Y63.7248
G1 Y62.7248 Z2.0
G1 Y61.7499
G2 X71.0698 Y60.7262 I-3.0 J0.0
G2 X70.4691 Y59.7312 Z0.0 I-2.8199 J1.0237
G2 X68.2499 Y58.7499 I-2.2192 J2.0187
G1 X61.7499
G2 X58.7499 Y61.7499 I0.0 J3.0
G1 Y66.2788
G1 Y67.2788 Z2.0
G1 Y68.2649
G2 X58.7528 Y68.3982 I3.0 J0.0
G0 Z20.0
G0 X60.8901 Y75.5424
G0 Z10.0
G1 F400.0 Z6.0
G2 F1000.0 X58.7499 Y78.4165 I0.8598 J2.8741
G1 Y84.9315
G2 X61.7637 Y87.9314 I3.0 J0.0
G1 X68.2637 Y87.9014
G2 X71.2499 Y84.9014 I-0.0139 J-3.0
G1 Y78.4165
G2 X68.2499 Y75.4165 I-3.0 J0.0
G1 X61.7499
G2 X60.8901 Y75.5424 I0.0 J3.0
G1 F400.0 Z3.0
G2 F1000.0 X58.7499 Y78.4165 I0.8598 J2.8741
G1 Y84.9315
G2 X61.7637 Y87.9314 I3.0 J0.0
G1 X68.2637 Y87.9014
G2 X71.2499 Y84.9014 I-0.0139 J-3.0
G1 Y78.4165
G2 X68.2499 Y75.4165 I-3.0 J0.0
G1 X61.7499
G2 X60.8901 Y75.5424 I0.0 J3.0
G1 F400.0 Z0.0
G2 F1000.0 X58.7499 Y78.4165 I0.8598 J2.8741
G1 Y82.9454
G1 Y83.9454 Z2.0
G1 Y84.9315
G2 X58.9261 Y85.9446 I3.0 J0.0
G2 X59.5231 Y86.9418 Z0.0 I2.8238 J-1.0131
G2 X61.7637 Y87.9314 I2.2268 J-2.0104
G1 X68.2637 Y87.9014
G2 X71.2499 Y84.9014 I-0.0139 J-3.0
G1 Y80.3914
G1 Y79.3914 Z2.0
G1 Y78.4165
G2 X71.0698 Y77.3928 I-3.0 J0.0
G2 X70.4691 Y76.3978 Z0.0 I-2.8199 J1.0237
G2 X68.2499 Y75.4165 I-2.2192 J2.0187
G1 X61.7499
G2 X60.8901 Y75.5424 I0.0 J3.0
G0 Z20.0
G0 X75.456 Y77.931
G0 Z10.0
G1 F400.0 Z6.0
G2 F1000.0 X75.4165 Y78.4165 I2.9605 J0.4855
G1 Y84.9315
G2 X78.4303 Y87.9314 I3.0 J0.0
G1 X84.9303 Y87.9014
G2 X87.9165 Y84.9014 I-0.0139 J-3.0
G1 Y78.4165
G2 X84.9165 Y75.4165 I-3.0 J0.0
G1 X78.4165
G2 X75.456 Y77.931 I0.0 J3.0
G1 F400.0 Z3.0
G2 F1000.0 X75.4165 Y78.4165 I2.9605 J0.4855
G1 Y84.9315
G2 X78.4303 Y87.9314 I3.0 J0.0
G1 X84.9303 Y87.9014
G2 X87.9165 Y84.9014 I-0.0139 J-3.0
G1 Y78.4165
G2 X84.9165 Y75.4165 I-3.0 J0.0
G1 X78.4165
G2 X75.456 Y77.931 I0.0 J3.0
G1 F400.0 Z0.0
G2 F1000.0 X75.4165 Y78.4165 I2.9605 J0.4855
G1 Y82.9454
G1 Y83.9454 Z2.0
G1 Y84.9315
G2 X75.5927 Y85.9446 I3.0 J0.0
G2 X76.1897 Y86.9418 Z0.0 I2.8238 J-1.0131
G2 X78.4303 Y87.9314 I2.2268 J-2.0104
G1 X84.9303 Y87.9014
G2 X87.9165 Y84.9014 I-0.0139 J-3.0
G1 Y80.3914
G1 Y79.3914 Z2.0
G1 Y78.4165
G2 X87.7364 Y77.3928 I-3.0 J0.0
G2 X87.1357 Y76.3978 Z0.0 I-2.8199 J1.0237
G2 X84.9165 Y75.4165 I-2.2192 J2.0187
G1 X78.4165
G2 X75.456 Y77.931 I0.0 J3.0
G0 Z20.0
G0 X77.5379 Y71.1334
G0 Z10.0
G1 F400.0 Z6.0
G2 F1000.0 X78.4303 Y71.2648 I0.8785 J-2.8685
G1 X84.9303 Y71.2348
G2 X87.9165 Y68.2348 I-0.0139 J-3.0
G1 Y61.7499
G2 X84.9165 Y58.7499 I-3.0 J0.0
G1 X78.4165
G2 X75.4165 Y61.7499 I0.0 J3.0
G1 Y68.2649
G2 X77.5379 Y71.1334 I3.0 J0.0
G1 F400.0 Z3.0
G2 F1000.0 X78.4303 Y71.2648 I0.8785 J-2.8685
G1 X84.9303 Y71.2348
G2 X87.9165 Y68.2348 I-0.0139 J-3.0
G1 Y61.7499
G2 X84.9165 Y58.7499 I-3.0 J0.0
G1 X78.4165
G2 X75.4165 Y61.7499 I0.0 J3.0
G1 Y68.2649
G2 X77.5379 Y71.1334 I3.0 J0.0
G1 F400.0 Z0.0
G2 F1000.0 X78.4303 Y71.2648 I0.8785 J-2.8685
G1 X84.9303 Y71.2348
G2 X87.9165 Y68.2348 I-0.0139 J-3.0
G1 Y63.7248
G1 Y62.7248 Z2.0
G1 Y61.7499
G2 X87.7364 Y60.7262 I-3.0 J0.0
G2 X87.1357 Y59.7312 Z0.0 I-2.8199 J1.0237
G2 X84.9165 Y58.7499 I-2.2192 J2.0187
G1 X78.4165
G2 X75.4165 Y61.7499 I0.0 J3.0
G1 Y66.2788
G1 Y67.2788 Z2.0
G1 Y68.2649
G2 X75.5927 Y69.278 I3.0 J0.0
G2 X76.1897 Y70.2752 Z0.0 I2.8238 J-1.0131
G2 X77.5379 Y71.1334 I2.2268 J-2.0104
G0 Z20.0
G0 X92.1224 Y68.7489
G0 Z10.0
G1 F400.0 Z6.0
G2 F1000.0 X95.0969 Y71.2648 I2.9607 J-0.484
G1 X101.5969 Y71.2348
G2 X104.5831 Y68.2348 I-0.0139 J-3.0
G1 Y61.7499
G2 X101.5831 Y58.7499 I-3.0 J0.0
G1 X95.0831
G2 X92.0831 Y61.7499 I0.0 J3.0
G1 Y68.2649
G2 X92.1224 Y68.7489 I3.0 J0.0
G1 F400.0 Z3.0
G2 F1000.0 X95.0969 Y71.2648 I2.9607 J-0.484
G1 X101.5969 Y71.2348
G2 X104.5831 Y68.2348 I-0.0139 J-3.0
G1 Y61.7499
G2 X101.5831 Y58.7499 I-3.0 J0.0
G1 X95.0831
G2 X92.0831 Y61.7499 I0.0 J3.0
G1 Y68.2649
G2 X92.1224 Y68.7489 I3.0 J0.0
G1 F400.0 Z2.0
G2 F1000.0 X92.2593 Y69.278 I2.9607 J-0.484
G2 X92.8563 Y70.2752 Z0.0 I2.8238 J-1.0131
G2 X95.0969 Y71.2648 I2.2268 J-2.0104
G1 X101.5969 Y71.2348
G2 X104.5831 Y68.2348 I-0.0139 J-3.0
G1 Y63.7248
G1 Y62.7248 Z2.0
G1 Y61.7499
G2 X104.403 Y60.7262 I-3.0 J0.0
G2 X103.8023 Y59.7312 Z0.0 I-2.8199 J1.0237
G2 X101.5831 Y58.7499 I-2.2192 J2.0187
G1 X95.0831
G2 X92.0831 Y61.7499 I0.0 J3.0
G1 Y66.2788
G1 Y67.2788 Z2.0
G1 Y68.2649
G2 X92.1224 Y68.7489 I3.0 J0.0
G0 Z20.0
G0 X94.2046 Y75.548
G0 Z10.0
G1 F400.0 Z6.0
G2 F1000.0 X92.0831 Y78.4165 I0.8785 J2.8685
G1 Y84.9315
G2 X95.0969 Y87.9314 I3.0 J0.0
G1 X101.5969 Y87.9014
G2 X104.5831 Y84.9014 I-0.0139 J-3.0
G1 Y78.4165
G2 X101.5831 Y75.4165 I-3.0 J0.0
G1 X95.0831
G2 X94.2046 Y75.548 I0.0 J3.0
G1 F400.0 Z3.0
G2 F1000.0 X92.0831 Y78.4165 I0.8785 J2.8685
G1 Y84.9315
G2 X95.0969 Y87.9314 I3.0 J0.0
G1 X101.5969 Y87.9014
G2 X104.5831 Y84.9014 I-0.0139 J-3.0
G1 Y78.4165
G2 X101.5831 Y75.4165 I-3.0 J0.0
G1 X95.0831
G2 X94.2046 Y75.548 I0.0 J3.0
G1 F400.0 Z0.0
G2 F1000.0 X92.0831 Y78.4165 I0.8785 J2.8685
G1 Y82.9454
G1 Y83.9454 Z2.0
G1 Y84.9315
G2 X92.2593 Y85.9446 I3.0 J0.0
G2 X92.8563 Y86.9418 Z0.0 I2.8238 J-1.0131
G2 X95.0969 Y87.9314 I2.2268 J-2.0104
G1 X101.5969 Y87.9014
G2 X104.5831 Y84.9014 I-0.0139 J-3.0
G1 Y80.3914
G1 Y79.3914 Z2.0
G1 Y78.4165
G2 X104.403 Y77.3928 I-3.0 J0.0
G2 X103.8023 Y76.3978 Z0.0 I-2.8199 J1.0237
G2 X101.5831 Y75.4165 I-2.2192 J2.0187
G1 X95.0831
G2 X94.2046 Y75.548 I0.0 J3.0
G0 Z20.0
G0 X108.789 Y77.9324
G0 Z10.0
G1 F400.0 Z6.0
G2 F1000.0 X108.7497 Y78.4165 I2.9607 J0.4841
G1 Y84.9315
G2 X111.7635 Y87.9314 I3.0 J0.0
G1 X118.2635 Y87.9014
G2 X121.2497 Y84.9014 I-0.0139 J-3.0
G1 Y78.4165
G2 X118.2497 Y75.4165 I-3.0 J0.0
G1 X111.7497
G2 X108.789 Y77.9324 I0.0 J3.0
G1 F400.0 Z3.0
G2 F1000.0 X108.7497 Y78.4165 I2.9607 J0.4841
G1 Y84.9315
G2 X111.7635 Y87.9314 I3.0 J0.0
G1 X118.2635 Y87.9014
G2 X121.2497 Y84.9014 I-0.0139 J-3.0
G1 Y78.4165
G2 X118.2497 Y75.4165 I-3.0 J0.0
G1 X111.7497
G2 X108.789 Y77.9324 I0.0 J3.0
G1 F400.0 Z0.0
G2 F1000.0 X108.7497 Y78.4165 I2.9607 J0.4841
G1 Y82.9454
G1 Y83.9454 Z2.0
G1 Y84.9315
G2 X108.9259 Y85.9446 I3.0 J0.0
G2 X109.5229 Y86.9418 Z0.0 I2.8238 J-1.0131
G2 X111.7635 Y87.9314 I2.2268 J-2.0104
G1 X118.2635 Y87.9014
G2 X121.2497 Y84.9014 I-0.0139 J-3.0
G1 Y80.3914
G1 Y79.3914 Z2.0
G1 Y78.4165
G2 X121.0696 Y77.3928 I-3.0 J0.0
G2 X120.4689 Y76.3978 Z0.0 I-2.8199 J1.0237
G2 X118.2497 Y75.4165 I-2.2192 J2.0187
G1 X111.7497
G2 X108.789 Y77.9324 I0.0 J3.0
G0 Z20.0
G0 X110.8712 Y71.1334
G0 Z10.0
G1 F400.0 Z6.0
G2 F1000.0 X111.7635 Y71.2648 I0.8785 J-2.8685
G1 X118.2635 Y71.2348
G2 X121.2497 Y68.2348 I-0.0139 J-3.0
G1 Y61.7499
G2 X118.2497 Y58.7499 I-3.0 J0.0
G1 X111.7497
G2 X108.7497 Y61.7499 I0.0 J3.0
G1 Y68.2649
G2 X110.8712 Y71.1334 I3.0 J0.0
G1 F400.0 Z3.0
G2 F1000.0 X111.7635 Y71.2648 I0.8785 J-2.8685
G1 X118.2635 Y71.2348
G2 X121.2497 Y68.2348 I-0.0139 J-3.0
G1 Y61.7499
G2 X118.2497 Y58.7499 I-3.0 J0.0
G1 X111.7497
G2 X108.7497 Y61.7499 I0.0 J3.0
G1 Y68.2649
G2 X110.8712 Y71.1334 I3.0 J0.0
G1 F400.0 Z0.0
G2 F1000.0 X111.7635 Y71.2648 I0.8785 J-2.8685
G1 X118.2635 Y71.2348
G2 X121.2497 Y68.2348 I-0.0139 J-3.0
G1 Y63.7248
G1 Y62.7248 Z2.0
G1 Y61.7499
G2 X121.0696 Y60.7262 I-3.0 J0.0
G2 X120.4689 Y59.7312 Z0.0 I-2.8199 J1.0237
G2 X118.2497 Y58.7499 I-2.2192 J2.0187
G1 X111.7497
G2 X108.7497 Y61.7499 I0.0 J3.0
G1 Y66.2788
G1 Y67.2788 Z2.0
G1 Y68.2649
G2 X108.9259 Y69.278 I3.0 J0.0
G2 X109.5229 Y70.2752 Z0.0 I2.8238 J-1.0131
G2 X110.8712 Y71.1334 I2.2268 J-2.0104
G0 Z20.0
G0 X125.4556 Y68.7489
G0 Z10.0
G1 F400.0 Z6.0
G2 F1000.0 X128.4301 Y71.2648 I2.9607 J-0.4841
G1 X134.9301 Y71.2348
G2 X137.9163 Y68.2348 I-0.0139 J-3.0
G1 Y61.7499
G2 X134.9163 Y58.7499 I-3.0 J0.0
G1 X128.4163
G2 X125.4163 Y61.7499 I0.0 J3.0
G1 Y68.2649
G2 X125.4556 Y68.7489 I3.0 J0.0
G1 F400.0 Z3.0
G2 F1000.0 X128.4301 Y71.2648 I2.9607 J-0.4841
G1 X134.9301 Y71.2348
G2 X137.9163 Y68.2348 I-0.0139 J-3.0
G1 Y61.7499
G2 X134.9163 Y58.7499 I-3.0 J0.0
G1 X128.4163
G2 X125.4163 Y61.7499 I0.0 J3.0
G1 Y68.2649
G2 X125.4556 Y68.7489 I3.0 J0.0
G1 F400.0 Z2.0
G2 F1000.0 X125.5925 Y69.278 I2.9607 J-0.4841
G2 X126.1895 Y70.2752 Z0.0 I2.8238 J-1.0131
G2 X128.4301 Y71.2648 I2.2268 J-2.0104
G1 X134.9301 Y71.2348
G2 X137.9163 Y68.2348 I-0.0139 J-3.0
G1 Y63.7248
G1 Y62.7248 Z2.0
G1 Y61.7499
G2 X137.7362 Y60.7262 I-3.0 J0.0
G2 X137.1355 Y59.7312 Z0.0 I-2.8199 J1.0237
G2 X134.9163 Y58.7499 I-2.2192 J2.0187
G1 X128.4163
G2 X125.4163 Y61.7499 I0.0 J3.0
G1 Y66.2788
G1 Y67.2788 Z2.0
G1 Y68.2649
G2 X125.4556 Y68.7489 I3.0 J0.0
G0 Z20.0
G0 X127.5378 Y75.548
G0 Z10.0
G1 F400.0 Z6.0
G2 F1000.0 X125.4163 Y78.4165 I0.8785 J2.8685
G1 Y84.9315
G2 X128.4301 Y87.9314 I3.0 J0.0
G1 X134.9301 Y87.9014
G2 X137.9163 Y84.9014 I-0.0139 J-3.0
G1 Y78.4165
G2 X134.9163 Y75.4165 I-3.0 J0.0
G1 X128.4163
G2 X127.5378 Y75.548 I0.0 J3.0
G1 F400.0 Z3.0
G2 F1000.0 X125.4163 Y78.4165 I0.8785 J2.8685
G1 Y84.9315
G2 X128.4301 Y87.9314 I3.0 J0.0
G1 X134.9301 Y87.9014
G2 X137.9163 Y84.9014 I-0.0139 J-3.0
G1 Y78.4165
G2 X134.9163 Y75.4165 I-3.0 J0.0
G1 X128.4163
G2 X127.5378 Y75.548 I0.0 J3.0
G1 F400.0 Z0.0
G2 F1000.0 X125.4163 Y78.4165 I0.8785 J2.8685
G1 Y82.9454
G1 Y83.9454 Z2.0
G1 Y84.9315
G2 X125.5925 Y85.9446 I3.0 J0.0
G2 X126.1895 Y86.9418 Z0.0 I2.8238 J-1.0131
G2 X128.4301 Y87.9314 I2.2268 J-2.0104
G1 X134.9301 Y87.9014
G2 X137.9163 Y84.9014 I-0.0139 J-3.0
G1 Y80.3914
G1 Y79.3914 Z2.0
G1 Y78.4165
G2 X137.7362 Y77.3928 I-3.0 J0.0
G2 X137.1355 Y76.3978 Z0.0 I-2.8199 J1.0237
G2 X134.9163 Y75.4165 I-2.2192 J2.0187
G1 X128.4163
G2 X127.5378 Y75.548 I0.0 J3.0
G0 Z20.0
G0 X142.1222 Y77.9324
G0 Z10.0
G1 F400.0 Z6.0
G2 F1000.0 X142.0829 Y78.4165 I2.9607 J0.4841
G1 Y84.9315
G2 X145.0967 Y87.9314 I3.0 J0.0
G1 X151.5967 Y87.9014
G2 X154.5829 Y84.9014 I-0.0139 J-3.0
G1 Y78.4165
G2 X151.5829 Y75.4165 I-3.0 J0.0
G1 X145.0829
G2 X142.1222 Y77.9324 I0.0 J3.0
G1 F400.0 Z3.0
G2 F1000.0 X142.0829 Y78.4165 I2.9607 J0.4841
G1 Y84.9315
G2 X145.0967 Y87.9314 I3.0 J0.0
G1 X151.5967 Y87.9014
G2 X154.5829 Y84.9014 I-0.0139 J-3.0
G1 Y78.4165
G2 X151.5829 Y75.4165 I-3.0 J0.0
G1 X145.0829
G2 X142.1222 Y77.9324 I0.0 J3.0
G1 F400.0 Z0.0
G2 F1000.0 X142.0829 Y78.4165 I2.9607 J0.4841
G1 Y82.9454
G1 Y83.9454 Z2.0
G1 Y84.9315
G2 X142.2591 Y85.9446 I3.0 J0.0
G2 X142.8561 Y86.9418 Z0.0 I2.8238 J-1.0131
G2 X145.0967 Y87.9314 I2.2268 J-2.0104
G1 X151.5967 Y87.9014
G2 X154.5829 Y84.9014 I-0.0139 J-3.0
G1 Y80.3914
G1 Y79.3914 Z2.0
G1 Y78.4165
G2 X154.4028 Y77.3928 I-3.0 J0.0
G2 X153.8021 Y76.3978 Z0.0 I-2.8199 J1.0237
G2 X151.5829 Y75.4165 I-2.2192 J2.0187
G1 X145.0829
G2 X142.1222 Y77.9324 I0.0 J3.0
G0 Z20.0
G0 X144.2044 Y71.1334
G0 Z10.0
G1 F400.0 Z6.0
G2 F1000.0 X145.0967 Y71.2648 I0.8785 J-2.8685
G1 X151.5967 Y71.2348
G2 X154.5829 Y68.2348 I-0.0139 J-3.0
G1 Y61.7499
G2 X151.5829 Y58.7499 I-3.0 J0.0
G1 X145.0829
G2 X142.0829 Y61.7499 I0.0 J3.0
G1 Y68.2649
G2 X144.2044 Y71.1334 I3.0 J0.0
G1 F400.0 Z3.0
G2 F1000.0 X145.0967 Y71.2648 I0.8785 J-2.8685
G1 X151.5967 Y71.2348
G2 X154.5829 Y68.2348 I-0.0139 J-3.0
G1 Y61.7499
G2 X151.5829 Y58.7499 I-3.0 J0.0
G1 X145.0829
G2 X142.0829 Y61.7499 I0.0 J3.0
G1 Y68.2649
G2 X144.2044 Y71.1334 I3.0 J0.0
G1 F400.0 Z0.0
G2 F1000.0 X145.0967 Y71.2648 I0.8785 J-2.8685
G1 X151.5967 Y71.2348
G2 X154.5829 Y68.2348 I-0.0139 J-3.0
G1 Y63.7248
G1 Y62.7248 Z2.0
G1 Y61.7499
G2 X154.4028 Y60.7262 I-3.0 J0.0
G2 X153.8021 Y59.7312 Z0.0 I-2.8199 J1.0237
G2 X151.5829 Y58.7499 I-2.2192 J2.0187
G1 X145.0829
G2 X142.0829 Y61.7499 I0.0 J3.0
G1 Y66.2788
G1 Y67.2788 Z2.0
G1 Y68.2649
G2 X142.2591 Y69.278 I3.0 J0.0
G2 X142.8561 Y70.2752 Z0.0 I2.8238 J-1.0131
G2 X144.2044 Y71.1334 I2.2268 J-2.0104
G0 Z20.0
G0 X158.7888 Y68.7489
G0 Z10.0
G1 F400.0 Z6.0
G2 F1000.0 X161.7633 Y71.2648 I2.9607 J-0.4841
G1 X168.2633 Y71.2348
G2 X171.2495 Y68.2348 I-0.0139 J-3.0
G1 Y61.7499
G2 X168.2495 Y58.7499 I-3.0 J0.0
G1 X161.7495
G2 X158.7495 Y61.7499 I0.0 J3.0
G1 Y68.2649
G2 X158.7888 Y68.7489 I3.0 J0.0
G1 F400.0 Z3.0
G2 F1000.0 X161.7633 Y71.2648 I2.9607 J-0.4841
G1 X168.2633 Y71.2348
G2 X171.2495 Y68.2348 I-0.0139 J-3.0
G1 Y61.7499
G2 X168.2495 Y58.7499 I-3.0 J0.0
G1 X161.7495
G2 X158.7495 Y61.7499 I0.0 J3.0
G1 Y68.2649
G2 X158.7888 Y68.7489 I3.0 J0.0
G1 F400.0 Z2.0
G2 F1000.0 X158.9257 Y69.278 I2.9607 J-0.4841
G2 X159.5227 Y70.2752 Z0.0 I2.8238 J-1.0131
G2 X161.7633 Y71.2648 I2.2268 J-2.0104
G1 X168.2633 Y71.2348
G2 X171.2495 Y68.2348 I-0.0139 J-3.0
G1 Y63.7248
G1 Y62.7248 Z2.0
G1 Y61.7499
G2 X171.0694 Y60.7262 I-3.0 J0.0
G2 X170.4687 Y59.7312 Z0.0 I-2.8199 J1.0237
G2 X168.2495 Y58.7499 I-2.2192 J2.0187
G1 X161.7495
G2 X158.7495 Y61.7499 I0.0 J3.0
G1 Y66.2788
G1 Y67.2788 Z2.0
G1 Y68.2649
G2 X158.7888 Y68.7489 I3.0 J0.0
G0 Z20.0
G0 X160.871 Y75.548
G0 Z10.0
G1 F400.0 Z6.0
G2 F1000.0 X158.7495 Y78.4165 I0.8785 J2.8685
G1 Y84.9315
G2 X161.7633 Y87.9314 I3.0 J0.0
G1 X168.2633 Y87.9014
G2 X171.2495 Y84.9014 I-0.0139 J-3.0
G1 Y78.4165
G2 X168.2495 Y75.4165 I-3.0 J0.0
G1 X161.7495
G2 X160.871 Y75.548 I0.0 J3.0
G1 F400.0 Z3.0
G2 F1000.0 X158.7495 Y78.4165 I0.8785 J2.8685
G1 Y84.9315
G2 X161.7633 Y87.9314 I3.0 J0.0
G1 X168.2633 Y87.9014
G2 X171.2495 Y84.9014 I-0.0139 J-3.0
G1 Y78.4165
G2 X168.2495 Y75.4165 I-3.0 J0.0
G1 X161.7495
G2 X160.871 Y75.548 I0.0 J3.0
G1 F400.0 Z0.0
G2 F1000.0 X158.7495 Y78.4165 I0.8785 J2.8685
G1 Y82.9454
G1 Y83.9454 Z2.0
G1 Y84.9315
G2 X158.9257 Y85.9446 I3.0 J0.0
G2 X159.5227 Y86.9418 Z0.0 I2.8238 J-1.0131
G2 X161.7633 Y87.9314 I2.2268 J-2.0104
G1 X168.2633 Y87.9014
G2 X171.2495 Y84.9014 I-0.0139 J-3.0
G1 Y80.3914
G1 Y79.3914 Z2.0
G1 Y78.4165
G2 X171.0694 Y77.3928 I-3.0 J0.0
G2 X170.4687 Y76.3978 Z0.0 I-2.8199 J1.0237
G2 X168.2495 Y75.4165 I-2.2192 J2.0187
G1 X161.7495
G2 X160.871 Y75.548 I0.0 J3.0
G0 Z20.0
G0 X161.6147 Y92.0861
G0 Z10.0
G1 F400.0 Z6.0
G2 F1000.0 X158.7495 Y95.0831 I0.1348 J2.997
G1 Y101.5981
G2 X161.7633 Y104.598 I3.0 J0.0
G1 X168.2633 Y104.568
G2 X171.2495 Y101.568 I-0.0139 J-3.0
G1 Y95.0831
G2 X168.2495 Y92.0831 I-3.0 J0.0
G1 X161.7495
G2 X161.6147 Y92.0861 I0.0 J3.0
G1 F400.0 Z3.0
G2 F1000.0 X158.7495 Y95.0831 I0.1348 J2.997
G1 Y101.5981
G2 X161.7633 Y104.598 I3.0 J0.0
G1 X168.2633 Y104.568
G2 X171.2495 Y101.568 I-0.0139 J-3.0
G1 Y95.0831
G2 X168.2495 Y92.0831 I-3.0 J0.0
G1 X161.7495
G2 X161.6147 Y92.0861 I0.0 J3.0
G1 F400.0 Z0.0
G2 F1000.0 X158.7495 Y95.0831 I0.1348 J2.997
G1 Y99.612
G1 Y100.612 Z2.0
G1 Y101.5981
G2 X158.9257 Y102.6112 I3.0 J0.0
G2 X159.5227 Y103.6084 Z0.0 I2.8238 J-1.0131
G2 X161.7633 Y104.598 I2.2268 J-2.0104
G1 X168.2633 Y104.568
G2 X171.2495 Y101.568 I-0.0139 J-3.0
G1 Y97.058
G1 Y96.058 Z2.0
G1 Y95.0831
G2 X171.0694 Y94.0594 I-3.0 J0.0
G2 X170.4687 Y93.0644 Z0.0 I-2.8199 J1.0237
G2 X168.2495 Y92.0831 I-2.2192 J2.0187
G1 X161.7495
G2 X161.6147 Y92.0861 I0.0 J3.0
G0 Z20.0
G0 X154.4573 Y94.2244
G0 Z10.0
G1 F400.0 Z6.0
G2 F1000.0 X151.5829 Y92.0831 I-2.8745 J0.8587
G1 X145.0829
G2 X142.0829 Y95.0831 I0.0 J3.0
G1 Y101.5981
G2 X145.0967 Y104.598 I3.0 J0.0
G1 X151.5967 Y104.568
G2 X154.5829 Y101.568 I-0.0139 J-3.0
G1 Y95.0831
G2 X154.4573 Y94.2244 I-3.0 J0.0
G1 F400.0 Z3.0
G2 F1000.0 X151.5829 Y92.0831 I-2.8745 J0.8587
G1 X145.0829
G2 X142.0829 Y95.0831 I0.0 J3.0
G1 Y101.5981
G2 X145.0967 Y104.598 I3.0 J0.0
G1 X151.5967 Y104.568
G2 X154.5829 Y101.568 I-0.0139 J-3.0
G1 Y95.0831
G2 X154.4573 Y94.2244 I-3.0 J0.0
G1 F400.0 Z2.0
G2 F1000.0 X154.4028 Y94.0594 I-2.8745 J0.8587
G2 X153.8021 Y93.0644 Z0.0 I-2.8199 J1.0237
G2 X151.5829 Y92.0831 I-2.2192 J2.0187
G1 X145.0829
G2 X142.0829 Y95.0831 I0.0 J3.0
G1 Y99.612
G1 Y100.612 Z2.0
G1 Y101.5981
G2 X142.2591 Y102.6112 I3.0 J0.0
G2 X142.8561 Y103.6084 Z0.0 I2.8238 J-1.0131
G2 X145.0967 Y104.598 I2.2268 J-2.0104
G1 X151.5967 Y104.568
G2 X154.5829 Y101.568 I-0.0139 J-3.0
G1 Y97.058
G1 Y96.058 Z2.0
G1 Y95.0831
G2 X154.4573 Y94.2244 I-3.0 J0.0
G0 Z20.0
G0 X152.0684 Y108.7893
G0 Z10.0
G1 F400.0 Z6.0
G2 F1000.0 X151.5829 Y108.7497 I-0.4856 J2.9604
G1 X145.0829
G2 X142.0829 Y111.7497 I0.0 J3.0
G1 Y118.2647
G2 X145.0967 Y121.2646 I3.0 J0.0
G1 X151.5967 Y121.2346
G2 X154.5829 Y118.2346 I-0.0139 J-3.0
G1 Y111.7497
G2 X152.0684 Y108.7893 I-3.0 J0.0
G1 F400.0 Z3.0
G2 F1000.0 X151.5829 Y108.7497 I-0.4856 J2.9604
G1 X145.0829
G2 X142.0829 Y111.7497 I0.0 J3.0
G1 Y118.2647
G2 X145.0967 Y121.2646 I3.0 J0.0
G1 X151.5967 Y121.2346
G2 X154.5829 Y118.2346 I-0.0139 J-3.0
G1 Y111.7497
G2 X152.0684 Y108.7893 I-3.0 J0.0
G1 F400.0 Z0.0
G2 F1000.0 X151.5829 Y108.7497 I-0.4856 J2.9604
G1 X145.0829
G2 X142.0829 Y111.7497 I0.0 J3.0
G1 Y116.2786
G1 Y117.2786 Z2.0
G1 Y118.2647
G2 X142.2591 Y119.2778 I3.0 J0.0
G2 X142.8561 Y120.275 Z0.0 I2.8238 J-1.0131
G2 X145.0967 Y121.2646 I2.2268 J-2.0104
G1 X151.5967 Y121.2346
G2 X154.5829 Y118.2346 I-0.0139 J-3.0
G1 Y113.7246
G1 Y112.7246 Z2.0
G1 Y111.7497
G2 X154.4028 Y110.726 I-3.0 J0.0
G2 X153.8021 Y109.731 Z0.0 I-2.8199 J1.0237
G2 X152.0684 Y108.7893 I-2.2192 J2.0187
G0 Z20.0
G0 X158.8806 Y110.8724
G0 Z10.0
G1 F400.0 Z6.0
G2 F1000.0 X158.7495 Y111.7497 I2.8689 J0.8773
G1 Y118.2647
G2 X161.7633 Y121.2646 I3.0 J0.0
G1 X168.2633 Y121.2346
G2 X171.2495 Y118.2346 I-0.0139 J-3.0
G1 Y111.7497
G2 X168.2495 Y108.7497 I-3.0 J0.0
G1 X161.7495
G2 X158.8806 Y110.8724 I0.0 J3.0
G1 F400.0 Z3.0
G2 F1000.0 X158.7495 Y111.7497 I2.8689 J0.8773
G1 Y118.2647
G2 X161.7633 Y121.2646 I3.0 J0.0
G1 X168.2633 Y121.2346
G2 X171.2495 Y118.2346 I-0.0139 J-3.0
G1 Y111.7497
G2 X168.2495 Y108.7497 I-3.0 J0.0
G1 X161.7495
G2 X158.8806 Y110.8724 I0.0 J3.0
G1 F400.0 Z0.0
G2 F1000.0 X158.7495 Y111.7497 I2.8689 J0.8773
G1 Y116.2786
G1 Y117.2786 Z2.0
G1 Y118.2647
G2 X158.9257 Y119.2778 I3.0 J0.0
G2 X159.5227 Y120.275 Z0.0 I2.8238 J-1.0131
G2 X161.7633 Y121.2646 I2.2268 J-2.0104
G1 X168.2633 Y121.2346
G2 X171.2495 Y118.2346 I-0.0139 J-3.0
G1 Y113.7246
G1 Y112.7246 Z2.0
G1 Y111.7497
G2 X171.0694 Y110.726 I-3.0 J0.0
G2 X170.4687 Y109.731 Z0.0 I-2.8199 J1.0237
G2 X168.2495 Y108.7497 I-2.2192 J2.0187
G1 X161.7495
G2 X158.8806 Y110.8724 I0.0 J3.0
G0 Z20.0
G0 X161.2653 Y125.4556
G0 Z10.0
G1 F400.0 Z6.0
G2 F1000.0 X158.7495 Y128.4163 I0.4841 J2.9607
G1 Y134.9313
G2 X161.7633 Y137.9312 I3.0 J0.0
G1 X168.2633 Y137.9012
G2 X171.2495 Y134.9012 I-0.0139 J-3.0
G1 Y128.4163
G2 X168.2495 Y125.4163 I-3.0 J0.0
G1 X161.7495
G2 X161.2653 Y125.4556 I0.0 J3.0
G1 F400.0 Z3.0
G2 F1000.0 X158.7495 Y128.4163 I0.4841 J2.9607
G1 Y134.9313
G2 X161.7633 Y137.9312 I3.0 J0.0
G1 X168.2633 Y137.9012
G2 X171.2495 Y134.9012 I-0.0139 J-3.0
G1 Y128.4163
G2 X168.2495 Y125.4163 I-3.0 J0.0
G1 X161.7495
G2 X161.2653 Y125.4556 I0.0 J3.0
G1 F400.0 Z0.0
G2 F1000.0 X158.7495 Y128.4163 I0.4841 J2.9607
G1 Y132.9452
G1 Y133.9452 Z2.0
G1 Y134.9313
G2 X158.9257 Y135.9444 I3.0 J0.0
G2 X159.5227 Y136.9416 Z0.0 I2.8238 J-1.0131
G2 X161.7633 Y137.9312 I2.2268 J-2.0104
G1 X168.2633 Y137.9012
G2 X171.2495 Y134.9012 I-0.0139 J-3.0
G1 Y130.3912
G1 Y129.3912 Z2.0
G1 Y128.4163
G2 X171.0694 Y127.3926 I-3.0 J0.0
G2 X170.4687 Y126.3976 Z0.0 I-2.8199 J1.0237
G2 X168.2495 Y125.4163 I-2.2192 J2.0187
G1 X161.7495
G2 X161.2653 Y125.4556 I0.0 J3.0
G0 Z20.0
G0 X154.4517 Y127.5391
G0 Z10.0
G1 F400.0 Z6.0
G2 F1000.0 X151.5829 Y125.4163 I-2.8689 J0.8772
G1 X145.0829
G2 X142.0829 Y128.4163 I0.0 J3.0
G1 Y134.9313
G2 X145.0967 Y137.9312 I3.0 J0.0
G1 X151.5967 Y137.9012
G2 X154.5829 Y134.9012 I-0.0139 J-3.0
G1 Y128.4163
G2 X154.4517 Y127.5391 I-3.0 J0.0
G1 F400.0 Z3.0
G2 F1000.0 X151.5829 Y125.4163 I-2.8689 J0.8772
G1 X145.0829
G2 X142.0829 Y128.4163 I0.0 J3.0
G1 Y134.9313
G2 X145.0967 Y137.9312 I3.0 J0.0
G1 X151.5967 Y137.9012
G2 X154.5829 Y134.9012 I-0.0139 J-3.0
G1 Y128.4163
G2 X154.4517 Y127.5391 I-3.0 J0.0
G1 F400.0 Z2.0
G2 F1000.0 X154.4028 Y127.3926 I-2.8689 J0.8772
G2 X153.8021 Y126.3976 Z0.0 I-2.8199 J1.0237
G2 X151.5829 Y125.4163 I-2.2192 J2.0187
G1 X145.0829
G2 X142.0829 Y128.4163 I0.0 J3.0
G1 Y132.9452
G1 Y133.9452 Z2.0
G1 Y134.9313
G2 X142.2591 Y135.9444 I3.0 J0.0
G2 X142.8561 Y136.9416 Z0.0 I2.8238 J-1.0131
G2 X145.0967 Y137.9312 I2.2268 J-2.0104
G1 X151.5967 Y137.9012
G2 X154.5829 Y134.9012 I-0.0139 J-3.0
G1 Y130.3912
G1 Y129.3912 Z2.0
G1 Y128.4163
G2 X154.4517 Y127.5391 I-3.0 J0.0
G0 Z20.0
G0 X152.067 Y142.1222
G0 Z10.0
G1 F400.0 Z6.0
G2 F1000.0 X151.5829 Y142.0829 I-0.4841 J2.9607
G1 X145.0829
G2 X142.0829 Y145.0829 I0.0 J3.0
G1 Y151.5979
G2 X145.0967 Y154.5978 I3.0 J0.0
G1 X151.5967 Y154.5678
G2 X154.5829 Y151.5678 I-0.0139 J-3.0
G1 Y145.0829
G2 X152.067 Y142.1222 I-3.0 J0.0
G1 F400.0 Z3.0
G2 F1000.0 X151.5829 Y142.0829 I-0.4841 J2.9607
G1 X145.0829
G2 X142.0829 Y145.0829 I0.0 J3.0
G1 Y151.5979
G2 X145.0967 Y154.5978 I3.0 J0.0
G1 X151.5967 Y154.5678
G2 X154.5829 Y151.5678 I-0.0139 J-3.0
G1 Y145.0829
G2 X152.067 Y142.1222 I-3.0 J0.0
G1 F400.0 Z0.0
G2 F1000.0 X151.5829 Y142.0829 I-0.4841 J2.9607
G1 X145.0829
G2 X142.0829 Y145.0829 I0.0 J3.0
G1 Y149.6118
G1 Y150.6118 Z2.0
G1 Y151.5979
G2 X142.2591 Y152.611 I3.0 J0.0
G2 X142.8561 Y153.6082 Z0.0 I2.8238 J-1.0131
G2 X145.0967 Y154.5978 I2.2268 J-2.0104
G1 X151.5967 Y154.5678
G2 X154.5829 Y151.5678 I-0.0139 J-3.0
G1 Y147.0578
G1 Y146.0578 Z2.0
G1 Y145.0829
G2 X154.4028 Y144.0592 I-3.0 J0.0
G2 X153.8021 Y143.0642 Z0.0 I-2.8199 J1.0237
G2 X152.067 Y142.1222 I-2.2192 J2.0187
G0 Z20.0
G0 X158.8806 Y144.2057
G0 Z10.0
G1 F400.0 Z6.0
G2 F1000.0 X158.7495 Y145.0829 I2.8689 J0.8772
G1 Y151.5979
G2 X161.7633 Y154.5978 I3.0 J0.0
G1 X168.2633 Y154.5678
G2 X171.2495 Y151.5678 I-0.0139 J-3.0
G1 Y145.0829
G2 X168.2495 Y142.0829 I-3.0 J0.0
G1 X161.7495
G2 X158.8806 Y144.2057 I0.0 J3.0
G1 F400.0 Z3.0
G2 F1000.0 X158.7495 Y145.0829 I2.8689 J0.8772
G1 Y151.5979
G2 X161.7633 Y154.5978 I3.0 J0.0
G1 X168.2633 Y154.5678
G2 X171.2495 Y151.5678 I-0.0139 J-3.0
G1 Y145.0829
G2 X168.2495 Y142.0829 I-3.0 J0.0
G1 X161.7495
G2 X158.8806 Y144.2057 I0.0 J3.0
G1 F400.0 Z0.0
G2 F1000.0 X158.7495 Y145.0829 I2.8689 J0.8772
G1 Y149.6118
G1 Y150.6118 Z2.0
G1 Y151.5979
G2 X158.9257 Y152.611 I3.0 J0.0
G2 X159.5227 Y153.6082 Z0.0 I2.8238 J-1.0131
G2 X161.7633 Y154.5978 I2.2268 J-2.0104
G1 X168.2633 Y154.5678
G2 X171.2495 Y151.5678 I-0.0139 J-3.0
G1 Y147.0578
G1 Y146.0578 Z2.0
G1 Y145.0829
G2 X171.0694 Y144.0592 I-3.0 J0.0
G2 X170.4687 Y143.0642 Z0.0 I-2.8199 J1.0237
G2 X168.2495 Y142.0829 I-2.2192 J2.0187
G1 X161.7495
G2 X158.8806 Y144.2057 I0.0 J3.0
G0 Z20.0
G0 X161.2653 Y158.7888
G0 Z10.0
G1 F400.0 Z6.0
G2 F1000.0 X158.7495 Y161.7495 I0.4841 J2.9607
G1 Y168.2645
G2 X161.7633 Y171.2644 I3.0 J0.0
G1 X168.2633 Y171.2344
G2 X171.2495 Y168.2344 I-0.0139 J-3.0
G1 Y161.7495
G2 X168.2495 Y158.7495 I-3.0 J0.0
G1 X161.7495
G2 X161.2653 Y158.7888 I0.0 J3.0
G1 F400.0 Z3.0
G2 F1000.0 X158.7495 Y161.7495 I0.4841 J2.9607
G1 Y168.2645
G2 X161.7633 Y171.2644 I3.0 J0.0
G1 X168.2633 Y171.2344
G2 X171.2495 Y168.2344 I-0.0139 J-3.0
G1 Y161.7495
G2 X168.2495 Y158.7495 I-3.0 J0.0
G1 X161.7495
G2 X161.2653 Y158.7888 I0.0 J3.0
G1 F400.0 Z0.0
G2 F1000.0 X158.7495 Y161.7495 I0.4841 J2.9607
G1 Y166.2784
G1 Y167.2784 Z2.0
G1 Y168.2645
G2 X158.9257 Y169.2776 I3.0 J0.0
G2 X159.5227 Y170.2748 Z0.0 I2.8238 J-1.0131
G2 X161.7633 Y171.2644 I2.2268 J-2.0104
G1 X168.2633 Y171.2344
G2 X171.2495 Y168.2344 I-0.0139 J-3.0
G1 Y163.7244
G1 Y162.7244 Z2.0
G1 Y161.7495
G2 X171.0694 Y160.7258 I-3.0 J0.0
G2 X170.4687 Y159.7308 Z0.0 I-2.8199 J1.0237
G2 X168.2495 Y158.7495 I-2.2192 J2.0187
G1 X161.7495
G2 X161.2653 Y158.7888 I0.0 J3.0
G0 Z20.0
G0 X154.4517 Y160.8723
G0 Z10.0
G1 F400.0 Z6.0
G2 F1000.0 X151.5829 Y158.7495 I-2.8689 J0.8772
G1 X145.0829
G2 X142.0829 Y161.7495 I0.0 J3.0
G1 Y168.2645
G2 X145.0967 Y171.2644 I3.0 J0.0
G1 X151.5967 Y171.2344
G2 X154.5829 Y168.2344 I-0.0139 J-3.0
G1 Y161.7495
G2 X154.4517 Y160.8723 I-3.0 J0.0
G1 F400.0 Z3.0
G2 F1000.0 X151.5829 Y158.7495 I-2.8689 J0.8772
G1 X145.0829
G2 X142.0829 Y161.7495 I0.0 J3.0
G1 Y168.2645
G2 X145.0967 Y171.2644 I3.0 J0.0
G1 X151.5967 Y171.2344
G2 X154.5829 Y168.2344 I-0.0139 J-3.0
G1 Y161.7495
G2 X154.4517 Y160.8723 I-3.0 J0.0
G1 F400.0 Z2.0
G2 F1000.0 X154.4028 Y160.7258 I-2.8689 J0.8772
G2 X153.8021 Y159.7308 Z0.0 I-2.8199 J1.0237
G2 X151.5829 Y158.7495 I-2.2192 J2.0187
G1 X145.0829
G2 X142.0829 Y161.7495 I0.0 J3.0
G1 Y166.2784
G1 Y167.2784 Z2.0
G1 Y168.2645
G2 X142.2591 Y169.2776 I3.0 J0.0
G2 X142.8561 Y170.2748 Z0.0 I2.8238 J-1.0131
G2 X145.0967 Y171.2644 I2.2268 J-2.0104
G1 X151.5967 Y171.2344
G2 X154.5829 Y168.2344 I-0.0139 J-3.0
G1 Y163.7244
G1 Y162.7244 Z2.0
G1 Y161.7495
G2 X154.4517 Y160.8723 I-3.0 J0.0
G0 Z20.0
G0 X137.9132 Y161.6149
G0 Z10.0
G1 F400.0 Z6.0
G2 F1000.0 X134.9163 Y158.7495 I-2.997 J0.1346
G1 X128.4163
G2 X125.4163 Y161.7495 I0.0 J3.0
G1 Y168.2645
G2 X128.4301 Y171.2644 I3.0 J0.0
G1 X134.9301 Y171.2344
G2 X137.9163 Y168.2344 I-0.0139 J-3.0
G1 Y161.7495
G2 X137.9132 Y161.6149 I-3.0 J0.0
G1 F400.0 Z3.0
G2 F1000.0 X134.9163 Y158.7495 I-2.997 J0.1346
G1 X128.4163
G2 X125.4163 Y161.7495 I0.0 J3.0
G1 Y168.2645
G2 X128.4301 Y171.2644 I3.0 J0.0
G1 X134.9301 Y171.2344
G2 X137.9163 Y168.2344 I-0.0139 J-3.0
G1 Y161.7495
G2 X137.9132 Y161.6149 I-3.0 J0.0
G1 F400.0 Z2.0
G2 F1000.0 X137.7362 Y160.7258 I-2.997 J0.1346
G2 X137.1355 Y159.7308 Z0.0 I-2.8199 J1.0237
G2 X134.9163 Y158.7495 I-2.2192 J2.0187
G1 X128.4163
G2 X125.4163 Y161.7495 I0.0 J3.0
G1 Y166.2784
G1 Y167.2784 Z2.0
G1 Y168.2645
G2 X125.5925 Y169.2776 I3.0 J0.0
G2 X126.1895 Y170.2748 Z0.0 I2.8238 J-1.0131
G2 X128.4301 Y171.2644 I2.2268 J-2.0104
G1 X134.9301 Y171.2344
G2 X137.9163 Y168.2344 I-0.0139 J-3.0
G1 Y163.7244
G1 Y162.7244 Z2.0
G1 Y161.7495
G2 X137.9132 Y161.6149 I-3.0 J0.0
G0 Z20.0
G0 X135.7738 Y154.4427
G0 Z10.0
G1 F400.0 Z6.0
