( Made using CamBam - http://www.cambam.co.uk )
( gatenboard_groot_13x13_half 12/6/2017 5:58:29 PM )
( T0 : 2.0 )
(G21 G90 G64 G40)
G0 Z20.0
( gaten7x2 )
G64 G17
M8
M3 S10000
G0 X195.0 Y3.0
G0 Z13.0
G1 F300.0 Z8.0
G1 F1000.0 X15.0
G0 Z20.0
G0 Y13.0
G0 Z13.0
G1 F300.0 Z8.0
G1 F1000.0 X11.333
G2 X4.333 Y20.0 I0.0 J7.0
G1 Y32.0
G2 X11.333 Y39.0 I7.0 J0.0
G1 X23.333
G2 X30.333 Y32.0 I0.0 J-7.0
G1 Y20.0
G2 X23.333 Y13.0 I-7.0 J0.0
G1 X15.0
G1 F300.0 Z4.0
G1 F1000.0 X11.333
G2 X4.333 Y20.0 I0.0 J7.0
G1 Y32.0
G2 X11.333 Y39.0 I7.0 J0.0
G1 X23.333
G2 X30.333 Y32.0 I0.0 J-7.0
G1 Y20.0
G2 X23.333 Y13.0 I-7.0 J0.0
G1 X15.0
G1 F300.0 Z2.0
G1 F1000.0 X14.145
G1 X12.645 Z0.0
G1 X11.333
G2 X4.333 Y20.0 I0.0 J7.0
G1 Y32.0
G2 X4.449 Y33.267 I7.0 J0.0
G2 X4.896 Y34.751 Z2.0 I6.884 J-1.267
G2 X5.937 Y36.459 I6.437 J-2.751
G2 X7.05 Y37.537 Z0.0 I5.396 J-4.459
G2 X11.333 Y39.0 I4.283 J-5.537
G1 X23.333
G2 X29.872 Y34.5 I0.0 J-7.0
G2 X30.262 Y33.0 Z2.0 I-6.538 J-2.5
G2 X30.333 Y32.0 I-6.928 J-1.0
G1 Y31.0
G1 Y29.5 Z0.0
G1 Y20.0
G2 X23.333 Y13.0 I-7.0 J0.0
G1 X17.645
G1 X16.145 Z2.0
G1 X15.0
G0 Z20.0
G0 X195.0 Y3.0
G0 Z9.0
G1 F300.0 Z4.0
G1 F1000.0 X15.0
G0 Z20.0
G0 X195.0
G0 Z5.0
G1 F300.0 Z2.0
G1 F1000.0 X194.0
G1 X192.5 Z0.0
G1 X157.5
G1 X156.0 Z2.0
G1 X154.0
G1 X152.5 Z0.0
G1 X117.5
G1 X116.0 Z2.0
G1 X114.0
G1 X112.5 Z0.0
G1 X77.5
G1 X76.0 Z2.0
G1 X74.0
G1 X72.5 Z0.0
G1 X37.5
G1 X36.0 Z2.0
G1 X34.0
G1 X32.5 Z0.0
G1 X15.0
G0 Z20.0
G0 X-4.212 Y16.064
G0 Z13.0
G1 F300.0 Z8.0
G2 F1000.0 X-10.0 Y13.0 I-5.788 J3.936
G1 X-22.0
G2 X-29.0 Y20.0 I0.0 J7.0
G1 Y32.0
G2 X-22.0 Y39.0 I7.0 J0.0
G1 X-10.0
G2 X-3.0 Y32.0 I0.0 J-7.0
G1 Y20.0
G2 X-4.212 Y16.064 I-7.0 J0.0
G0 Z20.0
G0 X-16.0 Y39.0
G0 Z13.0
G1 F300.0 Z8.0
G1 F1000.0 X-10.0
G2 X-3.0 Y32.0 I0.0 J-7.0
G1 Y20.0
G2 X-10.0 Y13.0 I-7.0 J0.0
G1 X-16.0
G1 F300.0 Z4.0
G1 F1000.0 X-22.0
G2 X-29.0 Y20.0 I0.0 J7.0
G1 Y32.0
G2 X-22.0 Y39.0 I7.0 J0.0
G1 X-10.0
G2 X-3.0 Y32.0 I0.0 J-7.0
G1 Y20.0
G2 X-10.0 Y13.0 I-7.0 J0.0
G1 X-16.0
G0 Z20.0
G0 Y39.0
G0 Z9.0
G1 F300.0 Z4.0
G1 F1000.0 X-10.0
G2 X-3.0 Y32.0 I0.0 J-7.0
G1 Y20.0
G2 X-10.0 Y13.0 I-7.0 J0.0
G1 X-16.0
G1 F300.0 Z0.0
G1 F1000.0 X-22.0
G2 X-29.0 Y20.0 I0.0 J7.0
G1 Y27.844
G1 Y29.344 Z2.0
G1 Y31.344
G1 Y32.0 Z1.126
G2 X-28.949 Y32.844 Z0.0 I7.0 J0.0
G2 X-22.0 Y39.0 I6.949 J-0.844
G1 X-10.0
G2 X-3.462 Y34.5 I0.0 J-7.0
G2 X-3.072 Y33.0 Z2.0 I-6.538 J-2.5
G2 X-3.0 Y32.0 I-6.928 J-1.0
G1 Y31.0
G1 Y29.5 Z0.0
G1 Y20.0
G2 X-6.837 Y13.755 I-7.0 J0.0
G2 X-8.289 Y13.212 Z2.0 I-3.163 J6.245
G2 X-10.0 Y13.0 I-1.711 J6.788
G1 X-10.277
G1 X-11.785 Z0.0
G1 X-16.0
G0 Z20.0
G0 Y39.0
G0 Z5.0
G1 F300.0 Z0.0
G1 F1000.0 X-10.0
G2 X-3.462 Y34.5 I0.0 J-7.0
G2 X-3.072 Y33.0 Z2.0 I-6.538 J-2.5
G2 X-3.0 Y32.0 I-6.928 J-1.0
G1 Y31.0
G1 Y29.5 Z0.0
G1 Y20.0
G2 X-6.837 Y13.755 I-7.0 J0.0
G2 X-8.289 Y13.212 Z2.0 I-3.163 J6.245
G2 X-10.0 Y13.0 I-1.711 J6.788
G1 X-10.277
G1 X-11.785 Z0.0
G1 X-16.0
G0 Z20.0
G0 Y46.333
G0 Z13.0
G1 F300.0 Z8.0
G1 F1000.0 X-22.0
G2 X-29.0 Y53.333 I0.0 J7.0
G1 Y65.333
G2 X-22.0 Y72.333 I7.0 J0.0
G1 X-10.0
G2 X-3.0 Y65.333 I0.0 J-7.0
G1 Y53.333
G2 X-10.0 Y46.333 I-7.0 J0.0
G1 X-16.0
G1 F300.0 Z4.0
G1 F1000.0 X-22.0
G2 X-29.0 Y53.333 I0.0 J7.0
G1 Y65.333
G2 X-22.0 Y72.333 I7.0 J0.0
G1 X-10.0
G2 X-3.0 Y65.333 I0.0 J-7.0
G1 Y53.333
G2 X-10.0 Y46.333 I-7.0 J0.0
G1 X-16.0
G1 F300.0 Z0.0
G1 F1000.0 X-22.0
G2 X-29.0 Y53.333 I0.0 J7.0
G1 Y54.645
G1 Y56.145 Z2.0
G1 Y58.145
G1 Y59.645 Z0.0
G1 Y65.333
G2 X-22.0 Y72.333 I7.0 J0.0
G1 X-12.5
G1 X-11.0 Z2.0
G1 X-10.0
G2 X-9.0 Y72.262 I0.0 J-7.0
G2 X-7.5 Y71.872 Z0.0 I-1.0 J-6.928
G2 X-3.0 Y65.333 I-2.5 J-6.538
G1 Y53.333
G2 X-4.463 Y49.05 I-7.0 J0.0
G2 X-5.541 Y47.937 Z2.0 I-5.537 J4.283
G2 X-7.249 Y46.896 I-4.459 J5.396
G2 X-8.733 Y46.449 Z0.0 I-2.751 J6.437
G2 X-10.0 Y46.333 I-1.267 J6.884
G1 X-16.0
G0 Z20.0
G0 X4.552 Y51.597
G0 Z13.0
G1 F300.0 Z8.0
G2 F1000.0 X4.333 Y53.333 I6.781 J1.737
G1 Y65.333
G2 X11.333 Y72.333 I7.0 J0.0
G1 X23.333
G2 X30.333 Y65.333 I0.0 J-7.0
G1 Y53.333
G2 X23.333 Y46.333 I-7.0 J0.0
G1 X11.333
G2 X4.552 Y51.597 I0.0 J7.0
G1 F300.0 Z4.0
G2 F1000.0 X4.333 Y53.333 I6.781 J1.737
G1 Y65.333
G2 X11.333 Y72.333 I7.0 J0.0
G1 X23.333
G2 X30.333 Y65.333 I0.0 J-7.0
G1 Y53.333
G2 X23.333 Y46.333 I-7.0 J0.0
G1 X11.333
G2 X4.552 Y51.597 I0.0 J7.0
G1 F300.0 Z0.0
G2 F1000.0 X4.333 Y53.333 I6.781 J1.737
G1 Y54.645
G1 Y56.145 Z2.0
G1 Y58.145
G1 Y59.645 Z0.0
G1 Y65.333
G2 X11.333 Y72.333 I7.0 J0.0
G1 X20.833
G1 X22.333 Z2.0
G1 X23.333
G2 X24.333 Y72.262 I0.0 J-7.0
G2 X25.833 Y71.872 Z0.0 I-1.0 J-6.928
G2 X30.333 Y65.333 I-2.5 J-6.538
G1 Y53.333
G2 X28.87 Y49.05 I-7.0 J0.0
G2 X27.792 Y47.937 Z2.0 I-5.537 J4.283
G2 X26.084 Y46.896 I-4.459 J5.396
G2 X24.6 Y46.449 Z0.0 I-2.751 J6.437
G2 X23.333 Y46.333 I-1.267 J6.884
G1 X11.333
G2 X4.552 Y51.597 I0.0 J7.0
G0 Z20.0
G0 X37.673 Y53.031
G0 Z13.0
G1 F300.0 Z8.0
G2 F1000.0 X37.667 Y53.333 I6.993 J0.303
G1 Y65.333
G2 X44.667 Y72.333 I7.0 J0.0
G1 X56.667
G2 X63.667 Y65.333 I0.0 J-7.0
G1 Y53.333
G2 X56.667 Y46.333 I-7.0 J0.0
G1 X44.667
G2 X37.673 Y53.031 I0.0 J7.0
G1 F300.0 Z4.0
G2 F1000.0 X37.667 Y53.333 I6.993 J0.303
G1 Y65.333
G2 X44.667 Y72.333 I7.0 J0.0
G1 X56.667
G2 X63.667 Y65.333 I0.0 J-7.0
G1 Y53.333
G2 X56.667 Y46.333 I-7.0 J0.0
G1 X44.667
G2 X37.673 Y53.031 I0.0 J7.0
G1 F300.0 Z0.0
G2 F1000.0 X37.667 Y53.333 I6.993 J0.303
G1 Y65.333
G2 X37.782 Y66.6 I7.0 J0.0
G2 X38.23 Y68.084 Z2.0 I6.884 J-1.267
G2 X39.27 Y69.792 I6.437 J-2.751
G2 X40.384 Y70.87 Z0.0 I5.396 J-4.459
G2 X44.667 Y72.333 I4.283 J-5.537
G1 X56.667
G2 X63.205 Y67.833 I0.0 J-7.0
G2 X63.595 Y66.333 Z2.0 I-6.538 J-2.5
G2 X63.667 Y65.333 I-6.928 J-1.0
G1 Y64.333
G1 Y62.833 Z0.0
G1 Y53.333
G2 X56.667 Y46.333 I-7.0 J0.0
G1 X50.978
G1 X49.478 Z2.0
G1 X47.478
G1 X45.978 Z0.0
G1 X44.667
G2 X37.673 Y53.031 I0.0 J7.0
G0 Z20.0
G0 X42.458 Y38.642
G0 Z13.0
G1 F300.0 Z8.0
G2 F1000.0 X44.667 Y39.0 I2.209 J-6.642
G1 X56.667
G2 X63.667 Y32.0 I0.0 J-7.0
G1 Y20.0
G2 X56.667 Y13.0 I-7.0 J0.0
G1 X44.667
G2 X37.667 Y20.0 I0.0 J7.0
G1 Y32.0
G2 X42.458 Y38.642 I7.0 J0.0
G1 F300.0 Z4.0
G2 F1000.0 X44.667 Y39.0 I2.209 J-6.642
G1 X56.667
G2 X63.667 Y32.0 I0.0 J-7.0
G1 Y20.0
G2 X56.667 Y13.0 I-7.0 J0.0
G1 X44.667
G2 X37.667 Y20.0 I0.0 J7.0
G1 Y32.0
G2 X42.458 Y38.642 I7.0 J0.0
G1 F300.0 Z0.0
G2 F1000.0 X44.667 Y39.0 I2.209 J-6.642
G1 X45.978
G1 X47.478 Z2.0
G1 X49.478
G1 X50.978 Z0.0
G1 X56.667
G2 X63.667 Y32.0 I0.0 J-7.0
G1 Y22.5
G1 Y21.0 Z2.0
G1 Y20.0
G2 X63.595 Y19.0 I-7.0 J0.0
G2 X63.205 Y17.5 Z0.0 I-6.928 J1.0
G2 X56.667 Y13.0 I-6.538 J2.5
G1 X44.667
G2 X40.384 Y14.463 I0.0 J7.0
G2 X39.27 Y15.541 Z2.0 I4.283 J5.537
G2 X38.23 Y17.249 I5.396 J4.459
G2 X37.782 Y18.733 Z0.0 I6.437 J2.751
G2 X37.667 Y20.0 I6.884 J1.267
G1 Y32.0
G2 X42.458 Y38.642 I7.0 J0.0
G0 Z20.0
G0 X71.119 Y33.286
G0 Z13.0
G1 F300.0 Z8.0
G2 F1000.0 X78.0 Y39.0 I6.881 J-1.286
G1 X90.0
G2 X97.0 Y32.0 I0.0 J-7.0
G1 Y20.0
G2 X90.0 Y13.0 I-7.0 J0.0
G1 X78.0
G2 X71.0 Y20.0 I0.0 J7.0
G1 Y32.0
G2 X71.119 Y33.286 I7.0 J0.0
G1 F300.0 Z4.0
G2 F1000.0 X78.0 Y39.0 I6.881 J-1.286
G1 X90.0
G2 X97.0 Y32.0 I0.0 J-7.0
G1 Y20.0
G2 X90.0 Y13.0 I-7.0 J0.0
G1 X78.0
G2 X71.0 Y20.0 I0.0 J7.0
G1 Y32.0
G2 X71.119 Y33.286 I7.0 J0.0
G1 F300.0 Z0.026
G2 F1000.0 X71.563 Y34.751 Z2.0 I6.881 J-1.286
G2 X72.604 Y36.459 I6.437 J-2.751
G2 X73.717 Y37.537 Z0.0 I5.396 J-4.459
G2 X78.0 Y39.0 I4.283 J-5.537
G1 X90.0
G2 X96.538 Y34.5 I0.0 J-7.0
G2 X96.928 Y33.0 Z2.0 I-6.538 J-2.5
G2 X97.0 Y32.0 I-6.928 J-1.0
G1 Y31.0
G1 Y29.5 Z0.0
G1 Y20.0
G2 X90.0 Y13.0 I-7.0 J0.0
G1 X84.311
G1 X82.811 Z2.0
G1 X80.811
G1 X79.311 Z0.0
G1 X78.0
G2 X71.0 Y20.0 I0.0 J7.0
G1 Y32.0
G2 X71.116 Y33.267 I7.0 J0.0
G1 X71.119 Y33.286 Z0.026
G0 Z20.0
G0 X75.728 Y46.712
G0 Z13.0
G1 F300.0 Z8.0
G2 F1000.0 X71.0 Y53.333 I2.272 J6.621
G1 Y65.333
G2 X78.0 Y72.333 I7.0 J0.0
G1 X90.0
G2 X97.0 Y65.333 I0.0 J-7.0
G1 Y53.333
G2 X90.0 Y46.333 I-7.0 J0.0
G1 X78.0
G2 X75.728 Y46.712 I0.0 J7.0
G1 F300.0 Z4.0
G2 F1000.0 X71.0 Y53.333 I2.272 J6.621
G1 Y65.333
G2 X78.0 Y72.333 I7.0 J0.0
G1 X90.0
G2 X97.0 Y65.333 I0.0 J-7.0
G1 Y53.333
G2 X90.0 Y46.333 I-7.0 J0.0
G1 X78.0
G2 X75.728 Y46.712 I0.0 J7.0
G1 F300.0 Z0.0
G2 F1000.0 X71.0 Y53.333 I2.272 J6.621
G1 Y65.333
G2 X71.116 Y66.6 I7.0 J0.0
G2 X71.563 Y68.084 Z2.0 I6.884 J-1.267
G2 X72.604 Y69.792 I6.437 J-2.751
G2 X73.717 Y70.87 Z0.0 I5.396 J-4.459
G2 X78.0 Y72.333 I4.283 J-5.537
G1 X90.0
G2 X96.538 Y67.833 I0.0 J-7.0
G2 X96.928 Y66.333 Z2.0 I-6.538 J-2.5
G2 X97.0 Y65.333 I-6.928 J-1.0
G1 Y64.333
G1 Y62.833 Z0.0
G1 Y53.333
G2 X90.0 Y46.333 I-7.0 J0.0
G1 X84.311
G1 X82.811 Z2.0
G1 X80.811
G1 X79.311 Z0.0
G1 X78.0
G2 X75.728 Y46.712 I0.0 J7.0
G0 Z20.0
G0 X104.451 Y52.054
G0 Z13.0
G1 F300.0 Z8.0
G2 F1000.0 X104.333 Y53.333 I6.882 J1.28
G1 Y65.333
G2 X111.333 Y72.333 I7.0 J0.0
G1 X123.333
G2 X130.333 Y65.333 I0.0 J-7.0
G1 Y53.333
G2 X123.333 Y46.333 I-7.0 J0.0
G1 X111.333
G2 X104.451 Y52.054 I0.0 J7.0
G1 F300.0 Z4.0
G2 F1000.0 X104.333 Y53.333 I6.882 J1.28
G1 Y65.333
G2 X111.333 Y72.333 I7.0 J0.0
G1 X123.333
G2 X130.333 Y65.333 I0.0 J-7.0
G1 Y53.333
G2 X123.333 Y46.333 I-7.0 J0.0
G1 X111.333
G2 X104.451 Y52.054 I0.0 J7.0
G1 F300.0 Z0.0
G2 F1000.0 X104.333 Y53.333 I6.882 J1.28
G1 Y65.333
G2 X104.449 Y66.6 I7.0 J0.0
G2 X104.896 Y68.084 Z2.0 I6.884 J-1.267
G2 X105.937 Y69.792 I6.437 J-2.751
G2 X107.05 Y70.87 Z0.0 I5.396 J-4.459
G2 X111.333 Y72.333 I4.283 J-5.537
G1 X123.333
G2 X129.872 Y67.833 I0.0 J-7.0
G2 X130.262 Y66.333 Z2.0 I-6.538 J-2.5
G2 X130.333 Y65.333 I-6.928 J-1.0
G1 Y64.333
G1 Y62.833 Z0.0
G1 Y53.333
G2 X123.333 Y46.333 I-7.0 J0.0
G1 X117.645
G1 X116.145 Z2.0
G1 X114.145
G1 X112.645 Z0.0
G1 X111.333
G2 X104.451 Y52.054 I0.0 J7.0
G0 Z20.0
G0 X109.061 Y38.621
G0 Z13.0
G1 F300.0 Z8.0
G2 F1000.0 X111.333 Y39.0 I2.272 J-6.621
G1 X123.333
G2 X130.333 Y32.0 I0.0 J-7.0
G1 Y20.0
G2 X123.333 Y13.0 I-7.0 J0.0
G1 X111.333
G2 X104.333 Y20.0 I0.0 J7.0
G1 Y32.0
G2 X109.061 Y38.621 I7.0 J0.0
G1 F300.0 Z4.0
G2 F1000.0 X111.333 Y39.0 I2.272 J-6.621
G1 X123.333
G2 X130.333 Y32.0 I0.0 J-7.0
G1 Y20.0
G2 X123.333 Y13.0 I-7.0 J0.0
G1 X111.333
G2 X104.333 Y20.0 I0.0 J7.0
G1 Y32.0
G2 X109.061 Y38.621 I7.0 J0.0
G1 F300.0 Z0.0
G2 F1000.0 X111.333 Y39.0 I2.272 J-6.621
G1 X123.333
G2 X129.872 Y34.5 I0.0 J-7.0
G2 X130.262 Y33.0 Z2.0 I-6.538 J-2.5
G2 X130.333 Y32.0 I-6.928 J-1.0
G1 Y31.0
G1 Y29.5 Z0.0
G1 Y20.0
G2 X123.333 Y13.0 I-7.0 J0.0
G1 X117.645
G1 X116.145 Z2.0
G1 X114.145
G1 X112.645 Z0.0
G1 X111.333
G2 X104.333 Y20.0 I0.0 J7.0
G1 Y32.0
G2 X104.449 Y33.267 I7.0 J0.0
G2 X104.896 Y34.751 Z2.0 I6.884 J-1.267
G2 X105.937 Y36.459 I6.437 J-2.751
G2 X107.05 Y37.537 Z0.0 I5.396 J-4.459
G2 X109.061 Y38.621 I4.283 J-5.537
G0 Z20.0
G0 X137.785 Y33.28
G0 Z13.0
G1 F300.0 Z8.0
G2 F1000.0 X144.667 Y39.0 I6.882 J-1.28
G1 X156.667
G2 X163.667 Y32.0 I0.0 J-7.0
G1 Y20.0
G2 X156.667 Y13.0 I-7.0 J0.0
G1 X144.667
G2 X137.667 Y20.0 I0.0 J7.0
G1 Y32.0
G2 X137.785 Y33.28 I7.0 J0.0
G1 F300.0 Z4.0
G2 F1000.0 X144.667 Y39.0 I6.882 J-1.28
G1 X156.667
G2 X163.667 Y32.0 I0.0 J-7.0
G1 Y20.0
G2 X156.667 Y13.0 I-7.0 J0.0
G1 X144.667
G2 X137.667 Y20.0 I0.0 J7.0
G1 Y32.0
G2 X137.785 Y33.28 I7.0 J0.0
G1 F300.0 Z0.017
G2 F1000.0 X138.23 Y34.751 Z2.0 I6.882 J-1.28
G2 X139.27 Y36.459 I6.437 J-2.751
G2 X140.384 Y37.537 Z0.0 I5.396 J-4.459
G2 X144.667 Y39.0 I4.283 J-5.537
G1 X156.667
G2 X163.205 Y34.5 I0.0 J-7.0
G2 X163.595 Y33.0 Z2.0 I-6.538 J-2.5
G2 X163.667 Y32.0 I-6.928 J-1.0
G1 Y31.0
G1 Y29.5 Z0.0
G1 Y20.0
G2 X156.667 Y13.0 I-7.0 J0.0
G1 X150.978
G1 X149.478 Z2.0
G1 X147.478
G1 X145.978 Z0.0
G1 X144.667
G2 X137.667 Y20.0 I0.0 J7.0
G1 Y32.0
G2 X137.782 Y33.267 I7.0 J0.0
G1 X137.785 Y33.28 Z0.017
G0 Z20.0
G0 X142.394 Y46.712
G0 Z13.0
G1 F300.0 Z8.0
G2 F1000.0 X137.667 Y53.333 I2.272 J6.621
G1 Y65.333
G2 X144.667 Y72.333 I7.0 J0.0
G1 X156.667
G2 X163.667 Y65.333 I0.0 J-7.0
G1 Y53.333
G2 X156.667 Y46.333 I-7.0 J0.0
G1 X144.667
G2 X142.394 Y46.712 I0.0 J7.0
G1 F300.0 Z4.0
G2 F1000.0 X137.667 Y53.333 I2.272 J6.621
G1 Y65.333
G2 X144.667 Y72.333 I7.0 J0.0
G1 X156.667
G2 X163.667 Y65.333 I0.0 J-7.0
G1 Y53.333
G2 X156.667 Y46.333 I-7.0 J0.0
G1 X144.667
G2 X142.394 Y46.712 I0.0 J7.0
G1 F300.0 Z0.0
G2 F1000.0 X137.667 Y53.333 I2.272 J6.621
G1 Y65.333
G2 X137.782 Y66.6 I7.0 J0.0
G2 X138.23 Y68.084 Z2.0 I6.884 J-1.267
G2 X139.27 Y69.792 I6.437 J-2.751
G2 X140.384 Y70.87 Z0.0 I5.396 J-4.459
G2 X144.667 Y72.333 I4.283 J-5.537
G1 X156.667
G2 X163.205 Y67.833 I0.0 J-7.0
G2 X163.595 Y66.333 Z2.0 I-6.538 J-2.5
G2 X163.667 Y65.333 I-6.928 J-1.0
G1 Y64.333
G1 Y62.833 Z0.0
G1 Y53.333
G2 X156.667 Y46.333 I-7.0 J0.0
G1 X150.978
G1 X149.478 Z2.0
G1 X147.478
G1 X145.978 Z0.0
G1 X144.667
G2 X142.394 Y46.712 I0.0 J7.0
G0 Z20.0
G0 X171.118 Y52.054
G0 Z13.0
G1 F300.0 Z8.0
G2 F1000.0 X171.0 Y53.333 I6.882 J1.28
G1 Y65.333
G2 X178.0 Y72.333 I7.0 J0.0
G1 X190.0
G2 X197.0 Y65.333 I0.0 J-7.0
G1 Y53.333
G2 X190.0 Y46.333 I-7.0 J0.0
G1 X178.0
G2 X171.118 Y52.054 I0.0 J7.0
G1 F300.0 Z4.0
G2 F1000.0 X171.0 Y53.333 I6.882 J1.28
G1 Y65.333
G2 X178.0 Y72.333 I7.0 J0.0
G1 X190.0
G2 X197.0 Y65.333 I0.0 J-7.0
G1 Y53.333
G2 X190.0 Y46.333 I-7.0 J0.0
G1 X178.0
G2 X171.118 Y52.054 I0.0 J7.0
G1 F300.0 Z0.0
G2 F1000.0 X171.0 Y53.333 I6.882 J1.28
G1 Y65.333
G2 X171.116 Y66.6 I7.0 J0.0
G2 X171.563 Y68.084 Z2.0 I6.884 J-1.267
G2 X172.604 Y69.792 I6.437 J-2.751
G2 X173.717 Y70.87 Z0.0 I5.396 J-4.459
G2 X178.0 Y72.333 I4.283 J-5.537
G1 X190.0
G2 X196.538 Y67.833 I0.0 J-7.0
G2 X196.928 Y66.333 Z2.0 I-6.538 J-2.5
G2 X197.0 Y65.333 I-6.928 J-1.0
G1 Y64.333
G1 Y62.833 Z0.0
G1 Y53.333
G2 X190.0 Y46.333 I-7.0 J0.0
G1 X184.311
G1 X182.811 Z2.0
G1 X180.811
G1 X179.311 Z0.0
G1 X178.0
G2 X171.118 Y52.054 I0.0 J7.0
G0 Z20.0
G0 X175.728 Y38.621
G0 Z13.0
G1 F300.0 Z8.0
G2 F1000.0 X178.0 Y39.0 I2.272 J-6.621
G1 X190.0
G2 X197.0 Y32.0 I0.0 J-7.0
G1 Y20.0
G2 X190.0 Y13.0 I-7.0 J0.0
G1 X178.0
G2 X171.0 Y20.0 I0.0 J7.0
G1 Y32.0
G2 X175.728 Y38.621 I7.0 J0.0
G1 F300.0 Z4.0
G2 F1000.0 X178.0 Y39.0 I2.272 J-6.621
G1 X190.0
G2 X197.0 Y32.0 I0.0 J-7.0
G1 Y20.0
G2 X190.0 Y13.0 I-7.0 J0.0
G1 X178.0
G2 X171.0 Y20.0 I0.0 J7.0
G1 Y32.0
G2 X175.728 Y38.621 I7.0 J0.0
G1 F300.0 Z0.0
G2 F1000.0 X178.0 Y39.0 I2.272 J-6.621
G1 X190.0
G2 X196.538 Y34.5 I0.0 J-7.0
G2 X196.928 Y33.0 Z2.0 I-6.538 J-2.5
G2 X197.0 Y32.0 I-6.928 J-1.0
G1 Y31.0
G1 Y29.5 Z0.0
G1 Y20.0
G2 X190.0 Y13.0 I-7.0 J0.0
G1 X184.311
G1 X182.811 Z2.0
G1 X180.811
G1 X179.311 Z0.0
G1 X178.0
G2 X171.0 Y20.0 I0.0 J7.0
G1 Y32.0
G2 X171.116 Y33.267 I7.0 J0.0
G2 X171.563 Y34.751 Z2.0 I6.884 J-1.267
G2 X172.604 Y36.459 I6.437 J-2.751
G2 X173.717 Y37.537 Z0.0 I5.396 J-4.459
G2 X175.728 Y38.621 I4.283 J-5.537
G0 Z20.0
G0 X235.0 Y16.0
G0 Z13.0
G1 F300.0 Z8.0
G1 F1000.0 X211.0
G1 Y300.0
G0 Z20.0
G0 X235.0 Y16.0
G0 Z9.0
G1 F300.0 Z4.0
G1 F1000.0 X211.0
G1 Y300.0
G0 Z20.0
G0 X235.0 Y16.0
G0 Z5.0
G1 F300.0 Z0.0
G1 F1000.0 X227.296
G1 X225.796 Z2.0
G1 X223.796
G1 X222.296 Z0.0
G1 X211.0
G1 Y65.0
G1 Y66.5 Z2.0
G1 Y68.5
G1 Y70.0 Z0.0
G1 Y116.667
G1 Y118.167 Z2.0
G1 Y120.167
G1 Y121.667 Z0.0
G1 Y168.333
G1 Y169.833 Z2.0
G1 Y171.833
G1 Y173.333 Z0.0
G1 Y220.0
G1 Y221.5 Z2.0
G1 Y223.5
G1 Y225.0 Z0.0
G1 Y271.667
G1 Y273.167 Z2.0
G1 Y275.167
G1 Y276.667 Z0.0
G1 Y300.0
M9
G0 Z20.0
M5
M30
