( Made using CamBam - http://www.cambam.co.uk )
( gatenboard_groot_13x13_half 11/1/2017 9:37:00 PM )
( T0 : 2.0 )
(G21 G90 G64 G40)
G0 Z20.0
( gaten )
G64 G17
M3 S1000
G0 X20.3333 Y311.6667
G0 Z10.0
G1 F300.0 Z6.0
G1 F800.0 Y323.6667
G2 X27.3333 Y330.6667 I7.0 J0.0
G1 X39.3333
G2 X46.3333 Y323.6667 I0.0 J-7.0
G1 Y311.6667
G2 X39.3333 Y304.6667 I-7.0 J0.0
G1 X27.3333
G2 X20.3333 Y311.6667 I0.0 J7.0
G1 F300.0 Z3.0
G1 F800.0 Y323.6667
G2 X27.3333 Y330.6667 I7.0 J0.0
G1 X39.3333
G2 X46.3333 Y323.6667 I0.0 J-7.0
G1 Y311.6667
G2 X39.3333 Y304.6667 I-7.0 J0.0
G1 X27.3333
G2 X20.3333 Y311.6667 I0.0 J7.0
G1 F300.0 Z0.0
G1 F800.0 Y323.6667
G2 X20.4489 Y324.9336 I7.0 J0.0
G2 X20.8964 Y326.4174 Z2.0 I6.8844 J-1.2669
G2 X21.937 Y328.1254 I6.4369 J-2.7507
G2 X23.0504 Y329.2035 Z0.0 I5.3963 J-4.4587
G2 X27.3333 Y330.6667 I4.2829 J-5.5368
G1 X39.3333
G2 X45.8717 Y326.1667 I0.0 J-7.0
G2 X46.2615 Y324.6667 Z2.0 I-6.5383 J-2.5
G2 X46.3333 Y323.6667 I-6.9282 J-1.0
G1 Y322.6667
G1 Y321.1667 Z0.0
G1 Y311.6667
G2 X39.3333 Y304.6667 I-7.0 J0.0
G1 X33.6445
G1 X32.1445 Z2.0
G1 X30.1445
G1 X28.6445 Z0.0
G1 X27.3333
G2 X20.3333 Y311.6667 I0.0 J7.0
G0 Z20.0
G0 X25.1509 Y296.9844
G0 Z10.0
G1 F300.0 Z6.0
G2 F800.0 X27.3333 Y297.3333 I2.1824 J-6.6511
G1 X39.3333
G2 X46.3333 Y290.3333 I0.0 J-7.0
G1 Y278.3333
G2 X39.3333 Y271.3333 I-7.0 J0.0
G1 X27.3333
G2 X20.3333 Y278.3333 I0.0 J7.0
G1 Y290.3333
G2 X25.1509 Y296.9844 I7.0 J0.0
G1 F300.0 Z3.0
G2 F800.0 X27.3333 Y297.3333 I2.1824 J-6.6511
G1 X39.3333
G2 X46.3333 Y290.3333 I0.0 J-7.0
G1 Y278.3333
G2 X39.3333 Y271.3333 I-7.0 J0.0
G1 X27.3333
G2 X20.3333 Y278.3333 I0.0 J7.0
G1 Y290.3333
G2 X25.1509 Y296.9844 I7.0 J0.0
G1 F300.0 Z0.0
G2 F800.0 X27.3333 Y297.3333 I2.1824 J-6.6511
G1 X39.3333
G2 X45.8717 Y292.8333 I0.0 J-7.0
G2 X46.2615 Y291.3333 Z2.0 I-6.5383 J-2.5
G2 X46.3333 Y290.3333 I-6.9282 J-1.0
G1 Y289.3333
G1 Y287.8333 Z0.0
G1 Y278.3333
G2 X39.3333 Y271.3333 I-7.0 J0.0
G1 X33.6445
G1 X32.1445 Z2.0
G1 X30.1445
G1 X28.6445 Z0.0
G1 X27.3333
G2 X20.3333 Y278.3333 I0.0 J7.0
G1 Y290.3333
G2 X20.4489 Y291.6002 I7.0 J0.0
G2 X20.8964 Y293.0841 Z2.0 I6.8844 J-1.2669
G2 X21.937 Y294.792 I6.4369 J-2.7507
G2 X23.0504 Y295.8702 Z0.0 I5.3963 J-4.4587
G2 X25.1509 Y296.9844 I4.2829 J-5.5368
G0 Z20.0
G0 X53.7863 Y291.6218
G0 Z10.0
G1 F300.0 Z6.0
G2 F800.0 X60.6667 Y297.3333 I6.8804 J-1.2885
G1 X72.6667
G2 X79.6667 Y290.3333 I0.0 J-7.0
G1 Y278.3333
G2 X72.6667 Y271.3333 I-7.0 J0.0
G1 X60.6667
G2 X53.6667 Y278.3333 I0.0 J7.0
G1 Y290.3333
G2 X53.7863 Y291.6218 I7.0 J0.0
G1 F300.0 Z3.0
G2 F800.0 X60.6667 Y297.3333 I6.8804 J-1.2885
G1 X72.6667
G2 X79.6667 Y290.3333 I0.0 J-7.0
G1 Y278.3333
G2 X72.6667 Y271.3333 I-7.0 J0.0
G1 X60.6667
G2 X53.6667 Y278.3333 I0.0 J7.0
G1 Y290.3333
G2 X53.7863 Y291.6218 I7.0 J0.0
G1 F300.0 Z0.0293
G2 F800.0 X54.2298 Y293.0841 Z2.0 I6.8804 J-1.2885
G2 X55.2704 Y294.792 I6.4369 J-2.7507
G2 X56.3837 Y295.8702 Z0.0 I5.3963 J-4.4587
G2 X60.6667 Y297.3333 I4.2829 J-5.5368
G1 X72.6667
G2 X79.205 Y292.8333 I0.0 J-7.0
G2 X79.5949 Y291.3333 Z2.0 I-6.5383 J-2.5
G2 X79.6667 Y290.3333 I-6.9282 J-1.0
G1 Y289.3333
G1 Y287.8333 Z0.0
G1 Y278.3333
G2 X72.6667 Y271.3333 I-7.0 J0.0
G1 X66.9779
G1 X65.4779 Z2.0
G1 X63.4779
G1 X61.9779 Z0.0
G1 X60.6667
G2 X53.6667 Y278.3333 I0.0 J7.0
G1 Y290.3333
G2 X53.7823 Y291.6002 I7.0 J0.0
G1 X53.7863 Y291.6218 Z0.0293
G0 Z20.0
G0 X58.3941 Y305.0458
G0 Z10.0
G1 F300.0 Z6.0
G2 F800.0 X53.6667 Y311.6667 I2.2726 J6.6208
G1 Y323.6667
G2 X60.6667 Y330.6667 I7.0 J0.0
G1 X72.6667
G2 X79.6667 Y323.6667 I0.0 J-7.0
G1 Y311.6667
G2 X72.6667 Y304.6667 I-7.0 J0.0
G1 X60.6667
G2 X58.3941 Y305.0458 I0.0 J7.0
G1 F300.0 Z3.0
G2 F800.0 X53.6667 Y311.6667 I2.2726 J6.6208
G1 Y323.6667
G2 X60.6667 Y330.6667 I7.0 J0.0
G1 X72.6667
G2 X79.6667 Y323.6667 I0.0 J-7.0
G1 Y311.6667
G2 X72.6667 Y304.6667 I-7.0 J0.0
G1 X60.6667
G2 X58.3941 Y305.0458 I0.0 J7.0
G1 F300.0 Z0.0
G2 F800.0 X53.6667 Y311.6667 I2.2726 J6.6208
G1 Y323.6667
G2 X53.7823 Y324.9336 I7.0 J0.0
G2 X54.2298 Y326.4174 Z2.0 I6.8844 J-1.2669
G2 X55.2704 Y328.1254 I6.4369 J-2.7507
G2 X56.3837 Y329.2035 Z0.0 I5.3963 J-4.4587
G2 X60.6667 Y330.6667 I4.2829 J-5.5368
G1 X72.6667
G2 X79.205 Y326.1667 I0.0 J-7.0
G2 X79.5949 Y324.6667 Z2.0 I-6.5383 J-2.5
G2 X79.6667 Y323.6667 I-6.9282 J-1.0
G1 Y322.6667
G1 Y321.1667 Z0.0
G1 Y311.6667
G2 X72.6667 Y304.6667 I-7.0 J0.0
G1 X66.9779
G1 X65.4779 Z2.0
G1 X63.4779
G1 X61.9779 Z0.0
G1 X60.6667
G2 X58.3941 Y305.0458 I0.0 J7.0
G0 Z20.0
G0 X87.118 Y310.387
G0 Z10.0
G1 F300.0 Z6.0
G2 F800.0 X87.0 Y311.6667 I6.882 J1.2797
G1 Y323.6667
G2 X94.0 Y330.6667 I7.0 J0.0
G1 X106.0
G2 X113.0 Y323.6667 I0.0 J-7.0
G1 Y311.6667
G2 X106.0 Y304.6667 I-7.0 J0.0
G1 X94.0
G2 X87.118 Y310.387 I0.0 J7.0
G1 F300.0 Z3.0
G2 F800.0 X87.0 Y311.6667 I6.882 J1.2797
G1 Y323.6667
G2 X94.0 Y330.6667 I7.0 J0.0
G1 X106.0
G2 X113.0 Y323.6667 I0.0 J-7.0
G1 Y311.6667
G2 X106.0 Y304.6667 I-7.0 J0.0
G1 X94.0
G2 X87.118 Y310.387 I0.0 J7.0
G1 F300.0 Z0.0
G2 F800.0 X87.0 Y311.6667 I6.882 J1.2797
G1 Y323.6667
G2 X87.1156 Y324.9336 I7.0 J0.0
G2 X87.5631 Y326.4174 Z2.0 I6.8844 J-1.2669
G2 X88.6037 Y328.1254 I6.4369 J-2.7507
G2 X89.7171 Y329.2035 Z0.0 I5.3963 J-4.4587
G2 X94.0 Y330.6667 I4.2829 J-5.5368
G1 X106.0
G2 X112.5383 Y326.1667 I0.0 J-7.0
G2 X112.9282 Y324.6667 Z2.0 I-6.5383 J-2.5
G2 X113.0 Y323.6667 I-6.9282 J-1.0
G1 Y322.6667
G1 Y321.1667 Z0.0
G1 Y311.6667
G2 X106.0 Y304.6667 I-7.0 J0.0
G1 X100.3112
G1 X98.8112 Z2.0
G1 X96.8112
G1 X95.3112 Z0.0
G1 X94.0
G2 X87.118 Y310.387 I0.0 J7.0
G0 Z20.0
G0 X91.7278 Y296.9543
G0 Z10.0
G1 F300.0 Z6.0
G2 F800.0 X94.0 Y297.3333 I2.2722 J-6.621
G1 X106.0
G2 X113.0 Y290.3333 I0.0 J-7.0
G1 Y278.3333
G2 X106.0 Y271.3333 I-7.0 J0.0
G1 X94.0
G2 X87.0 Y278.3333 I0.0 J7.0
G1 Y290.3333
G2 X91.7278 Y296.9543 I7.0 J0.0
G1 F300.0 Z3.0
G2 F800.0 X94.0 Y297.3333 I2.2722 J-6.621
G1 X106.0
G2 X113.0 Y290.3333 I0.0 J-7.0
G1 Y278.3333
G2 X106.0 Y271.3333 I-7.0 J0.0
G1 X94.0
G2 X87.0 Y278.3333 I0.0 J7.0
G1 Y290.3333
G2 X91.7278 Y296.9543 I7.0 J0.0
G1 F300.0 Z0.0
G2 F800.0 X94.0 Y297.3333 I2.2722 J-6.621
G1 X106.0
G2 X112.5383 Y292.8333 I0.0 J-7.0
G2 X112.9282 Y291.3333 Z2.0 I-6.5383 J-2.5
G2 X113.0 Y290.3333 I-6.9282 J-1.0
G1 Y289.3333
G1 Y287.8333 Z0.0
G1 Y278.3333
G2 X106.0 Y271.3333 I-7.0 J0.0
G1 X100.3112
G1 X98.8112 Z2.0
G1 X96.8112
G1 X95.3112 Z0.0
G1 X94.0
G2 X87.0 Y278.3333 I0.0 J7.0
G1 Y290.3333
G2 X87.1156 Y291.6002 I7.0 J0.0
G2 X87.5631 Y293.0841 Z2.0 I6.8844 J-1.2669
G2 X88.6037 Y294.792 I6.4369 J-2.7507
G2 X89.7171 Y295.8702 Z0.0 I5.3963 J-4.4587
G2 X91.7278 Y296.9543 I4.2829 J-5.5368
G0 Z20.0
G0 X120.4513 Y291.6131
G0 Z10.0
G1 F300.0 Z6.0
G2 F800.0 X127.3333 Y297.3333 I6.882 J-1.2797
G1 X139.3333
G2 X146.3333 Y290.3333 I0.0 J-7.0
G1 Y278.3333
G2 X139.3333 Y271.3333 I-7.0 J0.0
G1 X127.3333
G2 X120.3333 Y278.3333 I0.0 J7.0
G1 Y290.3333
G2 X120.4513 Y291.6131 I7.0 J0.0
G1 F300.0 Z3.0
G2 F800.0 X127.3333 Y297.3333 I6.882 J-1.2797
G1 X139.3333
G2 X146.3333 Y290.3333 I0.0 J-7.0
G1 Y278.3333
G2 X139.3333 Y271.3333 I-7.0 J0.0
G1 X127.3333
G2 X120.3333 Y278.3333 I0.0 J7.0
G1 Y290.3333
G2 X120.4513 Y291.6131 I7.0 J0.0
G1 F300.0 Z0.0174
G2 F800.0 X120.8964 Y293.0841 Z2.0 I6.882 J-1.2797
G2 X121.937 Y294.792 I6.4369 J-2.7507
G2 X123.0504 Y295.8702 Z0.0 I5.3963 J-4.4587
G2 X127.3333 Y297.3333 I4.2829 J-5.5368
G1 X139.3333
G2 X145.8717 Y292.8333 I0.0 J-7.0
G2 X146.2615 Y291.3333 Z2.0 I-6.5383 J-2.5
G2 X146.3333 Y290.3333 I-6.9282 J-1.0
G1 Y289.3333
G1 Y287.8333 Z0.0
G1 Y278.3333
G2 X139.3333 Y271.3333 I-7.0 J0.0
G1 X133.6445
G1 X132.1445 Z2.0
G1 X130.1445
G1 X128.6445 Z0.0
G1 X127.3333
G2 X120.3333 Y278.3333 I0.0 J7.0
G1 Y290.3333
G2 X120.4489 Y291.6002 I7.0 J0.0
G1 X120.4513 Y291.6131 Z0.0174
G0 Z20.0
G0 X125.0611 Y305.0457
G0 Z10.0
G1 F300.0 Z6.0
G2 F800.0 X120.3333 Y311.6667 I2.2722 J6.621
G1 Y323.6667
G2 X127.3333 Y330.6667 I7.0 J0.0
G1 X139.3333
G2 X146.3333 Y323.6667 I0.0 J-7.0
G1 Y311.6667
G2 X139.3333 Y304.6667 I-7.0 J0.0
G1 X127.3333
G2 X125.0611 Y305.0457 I0.0 J7.0
G1 F300.0 Z3.0
G2 F800.0 X120.3333 Y311.6667 I2.2722 J6.621
G1 Y323.6667
G2 X127.3333 Y330.6667 I7.0 J0.0
G1 X139.3333
G2 X146.3333 Y323.6667 I0.0 J-7.0
G1 Y311.6667
G2 X139.3333 Y304.6667 I-7.0 J0.0
G1 X127.3333
G2 X125.0611 Y305.0457 I0.0 J7.0
G1 F300.0 Z0.0
G2 F800.0 X120.3333 Y311.6667 I2.2722 J6.621
G1 Y323.6667
G2 X120.4489 Y324.9336 I7.0 J0.0
G2 X120.8964 Y326.4174 Z2.0 I6.8844 J-1.2669
G2 X121.937 Y328.1254 I6.4369 J-2.7507
G2 X123.0504 Y329.2035 Z0.0 I5.3963 J-4.4587
G2 X127.3333 Y330.6667 I4.2829 J-5.5368
G1 X139.3333
G2 X145.8717 Y326.1667 I0.0 J-7.0
G2 X146.2615 Y324.6667 Z2.0 I-6.5383 J-2.5
G2 X146.3333 Y323.6667 I-6.9282 J-1.0
G1 Y322.6667
G1 Y321.1667 Z0.0
G1 Y311.6667
G2 X139.3333 Y304.6667 I-7.0 J0.0
G1 X133.6445
G1 X132.1445 Z2.0
G1 X130.1445
G1 X128.6445 Z0.0
G1 X127.3333
G2 X125.0611 Y305.0457 I0.0 J7.0
G0 Z20.0
G0 X153.7846 Y310.3869
G0 Z10.0
G1 F300.0 Z6.0
G2 F800.0 X153.6667 Y311.6667 I6.882 J1.2797
G1 Y323.6667
G2 X160.6667 Y330.6667 I7.0 J0.0
G1 X172.6667
G2 X179.6667 Y323.6667 I0.0 J-7.0
G1 Y311.6667
G2 X172.6667 Y304.6667 I-7.0 J0.0
G1 X160.6667
G2 X153.7846 Y310.3869 I0.0 J7.0
G1 F300.0 Z3.0
G2 F800.0 X153.6667 Y311.6667 I6.882 J1.2797
G1 Y323.6667
G2 X160.6667 Y330.6667 I7.0 J0.0
G1 X172.6667
G2 X179.6667 Y323.6667 I0.0 J-7.0
G1 Y311.6667
G2 X172.6667 Y304.6667 I-7.0 J0.0
G1 X160.6667
G2 X153.7846 Y310.3869 I0.0 J7.0
G1 F300.0 Z0.0
G2 F800.0 X153.6667 Y311.6667 I6.882 J1.2797
G1 Y323.6667
G2 X153.7823 Y324.9336 I7.0 J0.0
G2 X154.2298 Y326.4174 Z2.0 I6.8844 J-1.2669
G2 X155.2704 Y328.1254 I6.4369 J-2.7507
G2 X156.3837 Y329.2035 Z0.0 I5.3963 J-4.4587
G2 X160.6667 Y330.6667 I4.2829 J-5.5368
G1 X172.6667
G2 X179.205 Y326.1667 I0.0 J-7.0
G2 X179.5949 Y324.6667 Z2.0 I-6.5383 J-2.5
G2 X179.6667 Y323.6667 I-6.9282 J-1.0
G1 Y322.6667
G1 Y321.1667 Z0.0
G1 Y311.6667
G2 X172.6667 Y304.6667 I-7.0 J0.0
G1 X166.9779
G1 X165.4779 Z2.0
G1 X163.4779
G1 X161.9779 Z0.0
G1 X160.6667
G2 X153.7846 Y310.3869 I0.0 J7.0
G0 Z20.0
G0 X158.3945 Y296.9543
G0 Z10.0
G1 F300.0 Z6.0
G2 F800.0 X160.6667 Y297.3333 I2.2722 J-6.621
G1 X172.6667
G2 X179.6667 Y290.3333 I0.0 J-7.0
G1 Y278.3333
G2 X172.6667 Y271.3333 I-7.0 J0.0
G1 X160.6667
G2 X153.6667 Y278.3333 I0.0 J7.0
G1 Y290.3333
G2 X158.3945 Y296.9543 I7.0 J0.0
G1 F300.0 Z3.0
G2 F800.0 X160.6667 Y297.3333 I2.2722 J-6.621
G1 X172.6667
G2 X179.6667 Y290.3333 I0.0 J-7.0
G1 Y278.3333
G2 X172.6667 Y271.3333 I-7.0 J0.0
G1 X160.6667
G2 X153.6667 Y278.3333 I0.0 J7.0
G1 Y290.3333
G2 X158.3945 Y296.9543 I7.0 J0.0
G1 F300.0 Z0.0
G2 F800.0 X160.6667 Y297.3333 I2.2722 J-6.621
G1 X172.6667
G2 X179.205 Y292.8333 I0.0 J-7.0
G2 X179.5949 Y291.3333 Z2.0 I-6.5383 J-2.5
G2 X179.6667 Y290.3333 I-6.9282 J-1.0
G1 Y289.3333
G1 Y287.8333 Z0.0
G1 Y278.3333
G2 X172.6667 Y271.3333 I-7.0 J0.0
G1 X166.9779
G1 X165.4779 Z2.0
G1 X163.4779
G1 X161.9779 Z0.0
G1 X160.6667
G2 X153.6667 Y278.3333 I0.0 J7.0
G1 Y290.3333
G2 X153.7823 Y291.6002 I7.0 J0.0
G2 X154.2298 Y293.0841 Z2.0 I6.8844 J-1.2669
G2 X155.2704 Y294.792 I6.4369 J-2.7507
G2 X156.3837 Y295.8702 Z0.0 I5.3963 J-4.4587
G2 X158.3945 Y296.9543 I4.2829 J-5.5368
G0 Z20.0
G0 X187.118 Y291.6131
G0 Z10.0
G1 F300.0 Z6.0
G2 F800.0 X194.0 Y297.3333 I6.882 J-1.2797
G1 X206.0
G2 X213.0 Y290.3333 I0.0 J-7.0
G1 Y278.3333
G2 X206.0 Y271.3333 I-7.0 J0.0
G1 X194.0
G2 X187.0 Y278.3333 I0.0 J7.0
G1 Y290.3333
G2 X187.118 Y291.6131 I7.0 J0.0
G1 F300.0 Z3.0
G2 F800.0 X194.0 Y297.3333 I6.882 J-1.2797
G1 X206.0
G2 X213.0 Y290.3333 I0.0 J-7.0
G1 Y278.3333
G2 X206.0 Y271.3333 I-7.0 J0.0
G1 X194.0
G2 X187.0 Y278.3333 I0.0 J7.0
G1 Y290.3333
G2 X187.118 Y291.6131 I7.0 J0.0
G1 F300.0 Z0.0174
G2 F800.0 X187.5631 Y293.0841 Z2.0 I6.882 J-1.2797
G2 X188.6037 Y294.792 I6.4369 J-2.7507
G2 X189.7171 Y295.8702 Z0.0 I5.3963 J-4.4587
G2 X194.0 Y297.3333 I4.2829 J-5.5368
G1 X206.0
G2 X212.5383 Y292.8333 I0.0 J-7.0
G2 X212.9282 Y291.3333 Z2.0 I-6.5383 J-2.5
G2 X213.0 Y290.3333 I-6.9282 J-1.0
G1 Y289.3333
G1 Y287.8333 Z0.0
G1 Y278.3333
G2 X206.0 Y271.3333 I-7.0 J0.0
G1 X200.3112
G1 X198.8112 Z2.0
G1 X196.8112
G1 X195.3112 Z0.0
G1 X194.0
G2 X187.0 Y278.3333 I0.0 J7.0
G1 Y290.3333
G2 X187.1156 Y291.6002 I7.0 J0.0
G1 X187.118 Y291.6131 Z0.0174
G0 Z20.0
G0 X191.7278 Y305.0457
G0 Z10.0
G1 F300.0 Z6.0
G2 F800.0 X187.0 Y311.6667 I2.2722 J6.621
G1 Y323.6667
G2 X194.0 Y330.6667 I7.0 J0.0
G1 X206.0
G2 X213.0 Y323.6667 I0.0 J-7.0
G1 Y311.6667
G2 X206.0 Y304.6667 I-7.0 J0.0
G1 X194.0
G2 X191.7278 Y305.0457 I0.0 J7.0
G1 F300.0 Z3.0
G2 F800.0 X187.0 Y311.6667 I2.2722 J6.621
G1 Y323.6667
G2 X194.0 Y330.6667 I7.0 J0.0
G1 X206.0
G2 X213.0 Y323.6667 I0.0 J-7.0
G1 Y311.6667
G2 X206.0 Y304.6667 I-7.0 J0.0
G1 X194.0
G2 X191.7278 Y305.0457 I0.0 J7.0
G1 F300.0 Z0.0
G2 F800.0 X187.0 Y311.6667 I2.2722 J6.621
G1 Y323.6667
G2 X187.1156 Y324.9336 I7.0 J0.0
G2 X187.5631 Y326.4174 Z2.0 I6.8844 J-1.2669
G2 X188.6037 Y328.1254 I6.4369 J-2.7507
G2 X189.7171 Y329.2035 Z0.0 I5.3963 J-4.4587
G2 X194.0 Y330.6667 I4.2829 J-5.5368
G1 X206.0
G2 X212.5383 Y326.1667 I0.0 J-7.0
G2 X212.9282 Y324.6667 Z2.0 I-6.5383 J-2.5
G2 X213.0 Y323.6667 I-6.9282 J-1.0
G1 Y322.6667
G1 Y321.1667 Z0.0
G1 Y311.6667
G2 X206.0 Y304.6667 I-7.0 J0.0
G1 X200.3112
G1 X198.8112 Z2.0
G1 X196.8112
G1 X195.3112 Z0.0
G1 X194.0
G2 X191.7278 Y305.0457 I0.0 J7.0
G0 Z20.0
G0 X193.6026 Y338.0113
G0 Z10.0
G1 F300.0 Z6.0
G2 F800.0 X187.0 Y345.0 I0.3974 J6.9887
G1 Y357.0
G2 X194.0 Y364.0 I7.0 J0.0
G1 X206.0
G2 X213.0 Y357.0 I0.0 J-7.0
G1 Y345.0
G2 X206.0 Y338.0 I-7.0 J0.0
G1 X194.0
G2 X193.6026 Y338.0113 I0.0 J7.0
G1 F300.0 Z3.0
G2 F800.0 X187.0 Y345.0 I0.3974 J6.9887
G1 Y357.0
G2 X194.0 Y364.0 I7.0 J0.0
G1 X206.0
G2 X213.0 Y357.0 I0.0 J-7.0
G1 Y345.0
G2 X206.0 Y338.0 I-7.0 J0.0
G1 X194.0
G2 X193.6026 Y338.0113 I0.0 J7.0
G1 F300.0 Z0.0
G2 F800.0 X187.0 Y345.0 I0.3974 J6.9887
G1 Y357.0
G2 X187.1156 Y358.2669 I7.0 J0.0
G2 X187.5631 Y359.7507 Z2.0 I6.8844 J-1.2669
G2 X188.6037 Y361.4587 I6.4369 J-2.7507
G2 X189.7171 Y362.5368 Z0.0 I5.3963 J-4.4587
G2 X194.0 Y364.0 I4.2829 J-5.5368
G1 X206.0
G2 X212.5383 Y359.5 I0.0 J-7.0
G2 X212.9282 Y358.0 Z2.0 I-6.5383 J-2.5
G2 X213.0 Y357.0 I-6.9282 J-1.0
G1 Y356.0
G1 Y354.5 Z0.0
G1 Y345.0
G2 X206.0 Y338.0 I-7.0 J0.0
G1 X200.3112
G1 X198.8112 Z2.0
G1 X196.8112
G1 X195.3112 Z0.0
G1 X194.0
G2 X193.6026 Y338.0113 I0.0 J7.0
G0 Z20.0
G0 X179.3065 Y342.7835
G0 Z10.0
G1 F300.0 Z6.0
G2 F800.0 X172.6667 Y338.0 I-6.6398 J2.2165
G1 X160.6667
G2 X153.6667 Y345.0 I0.0 J7.0
G1 Y357.0
G2 X160.6667 Y364.0 I7.0 J0.0
G1 X172.6667
G2 X179.6667 Y357.0 I0.0 J-7.0
G1 Y345.0
G2 X179.3065 Y342.7835 I-7.0 J0.0
G1 F300.0 Z3.0
G2 F800.0 X172.6667 Y338.0 I-6.6398 J2.2165
G1 X160.6667
G2 X153.6667 Y345.0 I0.0 J7.0
G1 Y357.0
G2 X160.6667 Y364.0 I7.0 J0.0
G1 X172.6667
G2 X179.6667 Y357.0 I0.0 J-7.0
G1 Y345.0
G2 X179.3065 Y342.7835 I-7.0 J0.0
G1 F300.0 Z0.0
G2 F800.0 X172.6667 Y338.0 I-6.6398 J2.2165
G1 X166.9779
G1 X165.4779 Z2.0
G1 X163.4779
G1 X161.9779 Z0.0
G1 X160.6667
G2 X153.6667 Y345.0 I0.0 J7.0
G1 Y357.0
G2 X153.7823 Y358.2669 I7.0 J0.0
G2 X154.2298 Y359.7507 Z2.0 I6.8844 J-1.2669
G2 X155.2704 Y361.4587 I6.4369 J-2.7507
G2 X156.3837 Y362.5368 Z0.0 I5.3963 J-4.4587
G2 X160.6667 Y364.0 I4.2829 J-5.5368
G1 X172.6667
G2 X179.205 Y359.5 I0.0 J-7.0
G2 X179.5949 Y358.0 Z2.0 I-6.5383 J-2.5
G2 X179.6667 Y357.0 I-6.9282 J-1.0
G1 Y356.0
G1 Y354.5 Z0.0
G1 Y345.0
G2 X179.3065 Y342.7835 I-7.0 J0.0
G0 Z20.0
G0 X173.9519 Y371.4523
G0 Z10.0
G1 F300.0 Z6.0
G2 F800.0 X172.6667 Y371.3333 I-1.2852 J6.881
G1 X160.6667
G2 X153.6667 Y378.3333 I0.0 J7.0
G1 Y390.3333
G2 X160.6667 Y397.3333 I7.0 J0.0
G1 X172.6667
G2 X179.6667 Y390.3333 I0.0 J-7.0
G1 Y378.3333
G2 X173.9519 Y371.4523 I-7.0 J0.0
G1 F300.0 Z3.0
G2 F800.0 X172.6667 Y371.3333 I-1.2852 J6.881
G1 X160.6667
G2 X153.6667 Y378.3333 I0.0 J7.0
G1 Y390.3333
G2 X160.6667 Y397.3333 I7.0 J0.0
G1 X172.6667
G2 X179.6667 Y390.3333 I0.0 J-7.0
G1 Y378.3333
G2 X173.9519 Y371.4523 I-7.0 J0.0
G1 F300.0 Z0.0
G2 F800.0 X172.6667 Y371.3333 I-1.2852 J6.881
G1 X166.9779
G1 X165.4779 Z2.0
G1 X163.4779
G1 X161.9779 Z0.0
G1 X160.6667
G2 X153.6667 Y378.3333 I0.0 J7.0
G1 Y390.3333
G2 X153.7823 Y391.6002 I7.0 J0.0
G2 X154.2298 Y393.0841 Z2.0 I6.8844 J-1.2669
G2 X155.2704 Y394.792 I6.4369 J-2.7507
G2 X156.3837 Y395.8702 Z0.0 I5.3963 J-4.4587
G2 X160.6667 Y397.3333 I4.2829 J-5.5368
G1 X172.6667
G2 X179.205 Y392.8333 I0.0 J-7.0
G2 X179.5949 Y391.3333 Z2.0 I-6.5383 J-2.5
G2 X179.6667 Y390.3333 I-6.9282 J-1.0
G1 Y389.3333
G1 Y387.8333 Z0.0
G1 Y378.3333
G2 X173.9519 Y371.4523 I-7.0 J0.0
G0 Z20.0
G0 X187.3791 Y376.0609
G0 Z10.0
G1 F300.0 Z6.0
G2 F800.0 X187.0 Y378.3333 I6.6209 J2.2724
G1 Y390.3333
G2 X194.0 Y397.3333 I7.0 J0.0
G1 X206.0
G2 X213.0 Y390.3333 I0.0 J-7.0
G1 Y378.3333
G2 X206.0 Y371.3333 I-7.0 J0.0
G1 X194.0
G2 X187.3791 Y376.0609 I0.0 J7.0
G1 F300.0 Z3.0
G2 F800.0 X187.0 Y378.3333 I6.6209 J2.2724
G1 Y390.3333
G2 X194.0 Y397.3333 I7.0 J0.0
G1 X206.0
G2 X213.0 Y390.3333 I0.0 J-7.0
G1 Y378.3333
G2 X206.0 Y371.3333 I-7.0 J0.0
G1 X194.0
G2 X187.3791 Y376.0609 I0.0 J7.0
G1 F300.0 Z0.0
G2 F800.0 X187.0 Y378.3333 I6.6209 J2.2724
G1 Y390.3333
G2 X187.1156 Y391.6002 I7.0 J0.0
G2 X187.5631 Y393.0841 Z2.0 I6.8844 J-1.2669
G2 X188.6037 Y394.792 I6.4369 J-2.7507
G2 X189.7171 Y395.8702 Z0.0 I5.3963 J-4.4587
G2 X194.0 Y397.3333 I4.2829 J-5.5368
G1 X206.0
G2 X212.5383 Y392.8333 I0.0 J-7.0
G2 X212.9282 Y391.3333 Z2.0 I-6.5383 J-2.5
G2 X213.0 Y390.3333 I-6.9282 J-1.0
G1 Y389.3333
G1 Y387.8333 Z0.0
G1 Y378.3333
G2 X206.0 Y371.3333 I-7.0 J0.0
G1 X200.3112
G1 X198.8112 Z2.0
G1 X196.8112
G1 X195.3112 Z0.0
G1 X194.0
G2 X187.3791 Y376.0609 I0.0 J7.0
G0 Z20.0
G0 X192.7203 Y404.7846
G0 Z10.0
G1 F300.0 Z6.0
G2 F800.0 X187.0 Y411.6667 I1.2797 J6.882
G1 Y423.6667
G2 X194.0 Y430.6667 I7.0 J0.0
G1 X206.0
G2 X213.0 Y423.6667 I0.0 J-7.0
G1 Y411.6667
G2 X206.0 Y404.6667 I-7.0 J0.0
G1 X194.0
G2 X192.7203 Y404.7846 I0.0 J7.0
G1 F300.0 Z3.0
G2 F800.0 X187.0 Y411.6667 I1.2797 J6.882
G1 Y423.6667
G2 X194.0 Y430.6667 I7.0 J0.0
G1 X206.0
G2 X213.0 Y423.6667 I0.0 J-7.0
G1 Y411.6667
G2 X206.0 Y404.6667 I-7.0 J0.0
G1 X194.0
G2 X192.7203 Y404.7846 I0.0 J7.0
G1 F300.0 Z0.0
G2 F800.0 X187.0 Y411.6667 I1.2797 J6.882
G1 Y423.6667
G2 X187.1156 Y424.9336 I7.0 J0.0
G2 X187.5631 Y426.4174 Z2.0 I6.8844 J-1.2669
G2 X188.6037 Y428.1254 I6.4369 J-2.7507
G2 X189.7171 Y429.2035 Z0.0 I5.3963 J-4.4587
G2 X194.0 Y430.6667 I4.2829 J-5.5368
G1 X206.0
G2 X212.5383 Y426.1667 I0.0 J-7.0
G2 X212.9282 Y424.6667 Z2.0 I-6.5383 J-2.5
G2 X213.0 Y423.6667 I-6.9282 J-1.0
G1 Y422.6667
G1 Y421.1667 Z0.0
G1 Y411.6667
G2 X206.0 Y404.6667 I-7.0 J0.0
G1 X200.3112
G1 X198.8112 Z2.0
G1 X196.8112
G1 X195.3112 Z0.0
G1 X194.0
G2 X192.7203 Y404.7846 I0.0 J7.0
G0 Z20.0
G0 X179.2876 Y409.3945
G0 Z10.0
G1 F300.0 Z6.0
G2 F800.0 X172.6667 Y404.6667 I-6.621 J2.2722
G1 X160.6667
G2 X153.6667 Y411.6667 I0.0 J7.0
G1 Y423.6667
G2 X160.6667 Y430.6667 I7.0 J0.0
G1 X172.6667
G2 X179.6667 Y423.6667 I0.0 J-7.0
G1 Y411.6667
G2 X179.2876 Y409.3945 I-7.0 J0.0
G1 F300.0 Z3.0
G2 F800.0 X172.6667 Y404.6667 I-6.621 J2.2722
G1 X160.6667
G2 X153.6667 Y411.6667 I0.0 J7.0
G1 Y423.6667
G2 X160.6667 Y430.6667 I7.0 J0.0
G1 X172.6667
G2 X179.6667 Y423.6667 I0.0 J-7.0
G1 Y411.6667
G2 X179.2876 Y409.3945 I-7.0 J0.0
G1 F300.0 Z0.0
G2 F800.0 X172.6667 Y404.6667 I-6.621 J2.2722
G1 X166.9779
G1 X165.4779 Z2.0
G1 X163.4779
G1 X161.9779 Z0.0
G1 X160.6667
G2 X153.6667 Y411.6667 I0.0 J7.0
G1 Y423.6667
G2 X153.7823 Y424.9336 I7.0 J0.0
G2 X154.2298 Y426.4174 Z2.0 I6.8844 J-1.2669
G2 X155.2704 Y428.1254 I6.4369 J-2.7507
G2 X156.3837 Y429.2035 Z0.0 I5.3963 J-4.4587
G2 X160.6667 Y430.6667 I4.2829 J-5.5368
G1 X172.6667
G2 X179.205 Y426.1667 I0.0 J-7.0
G2 X179.5949 Y424.6667 Z2.0 I-6.5383 J-2.5
G2 X179.6667 Y423.6667 I-6.9282 J-1.0
G1 Y422.6667
G1 Y421.1667 Z0.0
G1 Y411.6667
G2 X179.2876 Y409.3945 I-7.0 J0.0
G0 Z20.0
G0 X173.9464 Y438.118
G0 Z10.0
G1 F300.0 Z6.0
G2 F800.0 X172.6667 Y438.0 I-1.2797 J6.882
G1 X160.6667
G2 X153.6667 Y445.0 I0.0 J7.0
G1 Y457.0
G2 X160.6667 Y464.0 I7.0 J0.0
G1 X172.6667
G2 X179.6667 Y457.0 I0.0 J-7.0
G1 Y445.0
G2 X173.9464 Y438.118 I-7.0 J0.0
G1 F300.0 Z3.0
G2 F800.0 X172.6667 Y438.0 I-1.2797 J6.882
G1 X160.6667
G2 X153.6667 Y445.0 I0.0 J7.0
G1 Y457.0
G2 X160.6667 Y464.0 I7.0 J0.0
G1 X172.6667
G2 X179.6667 Y457.0 I0.0 J-7.0
G1 Y445.0
G2 X173.9464 Y438.118 I-7.0 J0.0
G1 F300.0 Z0.0
G2 F800.0 X172.6667 Y438.0 I-1.2797 J6.882
G1 X166.9779
G1 X165.4779 Z2.0
G1 X163.4779
G1 X161.9779 Z0.0
G1 X160.6667
G2 X153.6667 Y445.0 I0.0 J7.0
G1 Y457.0
G2 X153.7823 Y458.2669 I7.0 J0.0
G2 X154.2298 Y459.7507 Z2.0 I6.8844 J-1.2669
G2 X155.2704 Y461.4587 I6.4369 J-2.7507
G2 X156.3837 Y462.5368 Z0.0 I5.3963 J-4.4587
G2 X160.6667 Y464.0 I4.2829 J-5.5368
G1 X172.6667
G2 X179.205 Y459.5 I0.0 J-7.0
G2 X179.5949 Y458.0 Z2.0 I-6.5383 J-2.5
G2 X179.6667 Y457.0 I-6.9282 J-1.0
G1 Y456.0
G1 Y454.5 Z0.0
G1 Y445.0
G2 X173.9464 Y438.118 I-7.0 J0.0
G0 Z20.0
G0 X187.379 Y442.7278
G0 Z10.0
G1 F300.0 Z6.0
G2 F800.0 X187.0 Y445.0 I6.621 J2.2722
G1 Y457.0
G2 X194.0 Y464.0 I7.0 J0.0
G1 X206.0
G2 X213.0 Y457.0 I0.0 J-7.0
G1 Y445.0
G2 X206.0 Y438.0 I-7.0 J0.0
G1 X194.0
G2 X187.379 Y442.7278 I0.0 J7.0
G1 F300.0 Z3.0
G2 F800.0 X187.0 Y445.0 I6.621 J2.2722
G1 Y457.0
G2 X194.0 Y464.0 I7.0 J0.0
G1 X206.0
G2 X213.0 Y457.0 I0.0 J-7.0
G1 Y445.0
G2 X206.0 Y438.0 I-7.0 J0.0
G1 X194.0
G2 X187.379 Y442.7278 I0.0 J7.0
G1 F300.0 Z0.0
G2 F800.0 X187.0 Y445.0 I6.621 J2.2722
G1 Y457.0
G2 X187.1156 Y458.2669 I7.0 J0.0
G2 X187.5631 Y459.7507 Z2.0 I6.8844 J-1.2669
G2 X188.6037 Y461.4587 I6.4369 J-2.7507
G2 X189.7171 Y462.5368 Z0.0 I5.3963 J-4.4587
G2 X194.0 Y464.0 I4.2829 J-5.5368
G1 X206.0
G2 X212.5383 Y459.5 I0.0 J-7.0
G2 X212.9282 Y458.0 Z2.0 I-6.5383 J-2.5
G2 X213.0 Y457.0 I-6.9282 J-1.0
G1 Y456.0
G1 Y454.5 Z0.0
G1 Y445.0
G2 X206.0 Y438.0 I-7.0 J0.0
G1 X200.3112
G1 X198.8112 Z2.0
G1 X196.8112
G1 X195.3112 Z0.0
G1 X194.0
G2 X187.379 Y442.7278 I0.0 J7.0
G0 Z20.0
G0 X146.3255 Y444.6693
G0 Z10.0
G1 F300.0 Z6.0
G2 F800.0 X139.3333 Y438.0 I-6.9922 J0.3307
G1 X127.3333
G2 X120.3333 Y445.0 I0.0 J7.0
G1 Y457.0
G2 X127.3333 Y464.0 I7.0 J0.0
G1 X139.3333
G2 X146.3333 Y457.0 I0.0 J-7.0
G1 Y445.0
G2 X146.3255 Y444.6693 I-7.0 J0.0
G1 F300.0 Z3.0
G2 F800.0 X139.3333 Y438.0 I-6.9922 J0.3307
G1 X127.3333
G2 X120.3333 Y445.0 I0.0 J7.0
G1 Y457.0
G2 X127.3333 Y464.0 I7.0 J0.0
G1 X139.3333
G2 X146.3333 Y457.0 I0.0 J-7.0
G1 Y445.0
G2 X146.3255 Y444.6693 I-7.0 J0.0
G1 F300.0 Z0.0
G2 F800.0 X139.3333 Y438.0 I-6.9922 J0.3307
G1 X133.6445
G1 X132.1445 Z2.0
G1 X130.1445
G1 X128.6445 Z0.0
G1 X127.3333
G2 X120.3333 Y445.0 I0.0 J7.0
G1 Y457.0
G2 X120.4489 Y458.2669 I7.0 J0.0
G2 X120.8964 Y459.7507 Z2.0 I6.8844 J-1.2669
G2 X121.937 Y461.4587 I6.4369 J-2.7507
G2 X123.0504 Y462.5368 Z0.0 I5.3963 J-4.4587
G2 X127.3333 Y464.0 I4.2829 J-5.5368
G1 X139.3333
G2 X145.8717 Y459.5 I0.0 J-7.0
G2 X146.2615 Y458.0 Z2.0 I-6.5383 J-2.5
G2 X146.3333 Y457.0 I-6.9282 J-1.0
G1 Y456.0
G1 Y454.5 Z0.0
G1 Y445.0
G2 X146.3255 Y444.6693 I-7.0 J0.0
G0 Z20.0
G0 X141.5445 Y430.3083
G0 Z10.0
G1 F300.0 Z6.0
G2 F800.0 X146.3333 Y423.6667 I-2.2111 J-6.6416
G1 Y411.6667
G2 X139.3333 Y404.6667 I-7.0 J0.0
G1 X127.3333
G2 X120.3333 Y411.6667 I0.0 J7.0
G1 Y423.6667
G2 X127.3333 Y430.6667 I7.0 J0.0
G1 X139.3333
G2 X141.5445 Y430.3083 I0.0 J-7.0
G1 F300.0 Z3.0
G2 F800.0 X146.3333 Y423.6667 I-2.2111 J-6.6416
G1 Y411.6667
G2 X139.3333 Y404.6667 I-7.0 J0.0
G1 X127.3333
G2 X120.3333 Y411.6667 I0.0 J7.0
G1 Y423.6667
G2 X127.3333 Y430.6667 I7.0 J0.0
G1 X139.3333
G2 X141.5445 Y430.3083 I0.0 J-7.0
G1 F300.0 Z0.0
G2 F800.0 X145.8717 Y426.1667 I-2.2111 J-6.6416
G2 X146.2615 Y424.6667 Z2.0 I-6.5383 J-2.5
G2 X146.3333 Y423.6667 I-6.9282 J-1.0
G1 Y422.6667
G1 Y421.1667 Z0.0
G1 Y411.6667
G2 X139.3333 Y404.6667 I-7.0 J0.0
G1 X133.6445
G1 X132.1445 Z2.0
G1 X130.1445
G1 X128.6445 Z0.0
G1 X127.3333
G2 X120.3333 Y411.6667 I0.0 J7.0
G1 Y423.6667
G2 X120.4489 Y424.9336 I7.0 J0.0
G2 X120.8964 Y426.4174 Z2.0 I6.8844 J-1.2669
G2 X121.937 Y428.1254 I6.4369 J-2.7507
G2 X123.0504 Y429.2035 Z0.0 I5.3963 J-4.4587
G2 X127.3333 Y430.6667 I4.2829 J-5.5368
G1 X139.3333
G2 X141.5445 Y430.3083 I0.0 J-7.0
G0 Z20.0
G0 X112.8809 Y424.9524
G0 Z10.0
G1 F300.0 Z6.0
G2 F800.0 X113.0 Y423.6667 I-6.8809 J-1.2857
G1 Y411.6667
G2 X106.0 Y404.6667 I-7.0 J0.0
G1 X94.0
G2 X87.0 Y411.6667 I0.0 J7.0
G1 Y423.6667
G2 X94.0 Y430.6667 I7.0 J0.0
G1 X106.0
G2 X112.8809 Y424.9524 I0.0 J-7.0
G1 F300.0 Z3.0
G2 F800.0 X113.0 Y423.6667 I-6.8809 J-1.2857
G1 Y411.6667
G2 X106.0 Y404.6667 I-7.0 J0.0
G1 X94.0
G2 X87.0 Y411.6667 I0.0 J7.0
G1 Y423.6667
G2 X94.0 Y430.6667 I7.0 J0.0
G1 X106.0
G2 X112.8809 Y424.9524 I0.0 J-7.0
G1 F300.0 Z1.6822
G2 F800.0 X112.9282 Y424.6667 Z2.0 I-6.8809 J-1.2857
G2 X113.0 Y423.6667 I-6.9282 J-1.0
G1 Y422.6667
G1 Y421.1667 Z0.0
G1 Y411.6667
G2 X106.0 Y404.6667 I-7.0 J0.0
G1 X100.3112
G1 X98.8112 Z2.0
G1 X96.8112
G1 X95.3112 Z0.0
G1 X94.0
G2 X87.0 Y411.6667 I0.0 J7.0
G1 Y423.6667
G2 X87.1156 Y424.9336 I7.0 J0.0
G2 X87.5631 Y426.4174 Z2.0 I6.8844 J-1.2669
G2 X88.6037 Y428.1254 I6.4369 J-2.7507
G2 X89.7171 Y429.2035 Z0.0 I5.3963 J-4.4587
G2 X94.0 Y430.6667 I4.2829 J-5.5368
G1 X106.0
G2 X112.5383 Y426.1667 I0.0 J-7.0
G2 X112.8809 Y424.9524 Z1.6822 I-6.5383 J-2.5
G0 Z20.0
G0 X108.2725 Y438.3791
G0 Z10.0
G1 F300.0 Z6.0
G2 F800.0 X106.0 Y438.0 I-2.2725 J6.6209
G1 X94.0
G2 X87.0 Y445.0 I0.0 J7.0
G1 Y457.0
G2 X94.0 Y464.0 I7.0 J0.0
G1 X106.0
G2 X113.0 Y457.0 I0.0 J-7.0
G1 Y445.0
G2 X108.2725 Y438.3791 I-7.0 J0.0
G1 F300.0 Z3.0
G2 F800.0 X106.0 Y438.0 I-2.2725 J6.6209
G1 X94.0
G2 X87.0 Y445.0 I0.0 J7.0
G1 Y457.0
G2 X94.0 Y464.0 I7.0 J0.0
G1 X106.0
G2 X113.0 Y457.0 I0.0 J-7.0
G1 Y445.0
G2 X108.2725 Y438.3791 I-7.0 J0.0
G1 F300.0 Z0.0
G2 F800.0 X106.0 Y438.0 I-2.2725 J6.6209
G1 X100.3112
G1 X98.8112 Z2.0
G1 X96.8112
G1 X95.3112 Z0.0
G1 X94.0
G2 X87.0 Y445.0 I0.0 J7.0
G1 Y457.0
G2 X87.1156 Y458.2669 I7.0 J0.0
G2 X87.5631 Y459.7507 Z2.0 I6.8844 J-1.2669
G2 X88.6037 Y461.4587 I6.4369 J-2.7507
G2 X89.7171 Y462.5368 Z0.0 I5.3963 J-4.4587
G2 X94.0 Y464.0 I4.2829 J-5.5368
G1 X106.0
G2 X112.5383 Y459.5 I0.0 J-7.0
G2 X112.9282 Y458.0 Z2.0 I-6.5383 J-2.5
G2 X113.0 Y457.0 I-6.9282 J-1.0
G1 Y456.0
G1 Y454.5 Z0.0
G1 Y445.0
G2 X108.2725 Y438.3791 I-7.0 J0.0
G0 Z20.0
G0 X79.5487 Y443.7203
G0 Z10.0
G1 F300.0 Z6.0
G2 F800.0 X72.6667 Y438.0 I-6.882 J1.2797
G1 X60.6667
G2 X53.6667 Y445.0 I0.0 J7.0
G1 Y457.0
G2 X60.6667 Y464.0 I7.0 J0.0
G1 X72.6667
G2 X79.6667 Y457.0 I0.0 J-7.0
G1 Y445.0
G2 X79.5487 Y443.7203 I-7.0 J0.0
G1 F300.0 Z3.0
G2 F800.0 X72.6667 Y438.0 I-6.882 J1.2797
G1 X60.6667
G2 X53.6667 Y445.0 I0.0 J7.0
G1 Y457.0
G2 X60.6667 Y464.0 I7.0 J0.0
G1 X72.6667
G2 X79.6667 Y457.0 I0.0 J-7.0
G1 Y445.0
G2 X79.5487 Y443.7203 I-7.0 J0.0
G1 F300.0 Z0.0
G2 F800.0 X72.6667 Y438.0 I-6.882 J1.2797
G1 X66.9779
G1 X65.4779 Z2.0
G1 X63.4779
G1 X61.9779 Z0.0
G1 X60.6667
G2 X53.6667 Y445.0 I0.0 J7.0
G1 Y457.0
G2 X53.7823 Y458.2669 I7.0 J0.0
G2 X54.2298 Y459.7507 Z2.0 I6.8844 J-1.2669
G2 X55.2704 Y461.4587 I6.4369 J-2.7507
G2 X56.3837 Y462.5368 Z0.0 I5.3963 J-4.4587
G2 X60.6667 Y464.0 I4.2829 J-5.5368
G1 X72.6667
G2 X79.205 Y459.5 I0.0 J-7.0
G2 X79.5949 Y458.0 Z2.0 I-6.5383 J-2.5
G2 X79.6667 Y457.0 I-6.9282 J-1.0
G1 Y456.0
G1 Y454.5 Z0.0
G1 Y445.0
G2 X79.5487 Y443.7203 I-7.0 J0.0
G0 Z20.0
G0 X74.9389 Y430.2876
G0 Z10.0
G1 F300.0 Z6.0
G2 F800.0 X79.6667 Y423.6667 I-2.2722 J-6.621
G1 Y411.6667
G2 X72.6667 Y404.6667 I-7.0 J0.0
G1 X60.6667
G2 X53.6667 Y411.6667 I0.0 J7.0
G1 Y423.6667
G2 X60.6667 Y430.6667 I7.0 J0.0
G1 X72.6667
G2 X74.9389 Y430.2876 I0.0 J-7.0
G1 F300.0 Z3.0
G2 F800.0 X79.6667 Y423.6667 I-2.2722 J-6.621
G1 Y411.6667
G2 X72.6667 Y404.6667 I-7.0 J0.0
G1 X60.6667
G2 X53.6667 Y411.6667 I0.0 J7.0
G1 Y423.6667
G2 X60.6667 Y430.6667 I7.0 J0.0
G1 X72.6667
G2 X74.9389 Y430.2876 I0.0 J-7.0
G1 F300.0 Z0.0
G2 F800.0 X79.205 Y426.1667 I-2.2722 J-6.621
G2 X79.5949 Y424.6667 Z2.0 I-6.5383 J-2.5
G2 X79.6667 Y423.6667 I-6.9282 J-1.0
G1 Y422.6667
G1 Y421.1667 Z0.0
G1 Y411.6667
G2 X72.6667 Y404.6667 I-7.0 J0.0
G1 X66.9779
G1 X65.4779 Z2.0
G1 X63.4779
G1 X61.9779 Z0.0
G1 X60.6667
G2 X53.6667 Y411.6667 I0.0 J7.0
G1 Y423.6667
G2 X53.7823 Y424.9336 I7.0 J0.0
G2 X54.2298 Y426.4174 Z2.0 I6.8844 J-1.2669
G2 X55.2704 Y428.1254 I6.4369 J-2.7507
G2 X56.3837 Y429.2035 Z0.0 I5.3963 J-4.4587
G2 X60.6667 Y430.6667 I4.2829 J-5.5368
G1 X72.6667
G2 X74.9389 Y430.2876 I0.0 J-7.0
G0 Z20.0
G0 X46.2154 Y424.9464
G0 Z10.0
G1 F300.0 Z6.0
G2 F800.0 X46.3333 Y423.6667 I-6.882 J-1.2797
G1 Y411.6667
G2 X39.3333 Y404.6667 I-7.0 J0.0
G1 X27.3333
G2 X20.3333 Y411.6667 I0.0 J7.0
G1 Y423.6667
G2 X27.3333 Y430.6667 I7.0 J0.0
G1 X39.3333
G2 X46.2154 Y424.9464 I0.0 J-7.0
G1 F300.0 Z3.0
G2 F800.0 X46.3333 Y423.6667 I-6.882 J-1.2797
G1 Y411.6667
G2 X39.3333 Y404.6667 I-7.0 J0.0
G1 X27.3333
G2 X20.3333 Y411.6667 I0.0 J7.0
G1 Y423.6667
G2 X27.3333 Y430.6667 I7.0 J0.0
G1 X39.3333
G2 X46.2154 Y424.9464 I0.0 J-7.0
G1 F300.0 Z1.6903
G2 F800.0 X46.2615 Y424.6667 Z2.0 I-6.882 J-1.2797
G2 X46.3333 Y423.6667 I-6.9282 J-1.0
G1 Y422.6667
G1 Y421.1667 Z0.0
G1 Y411.6667
G2 X39.3333 Y404.6667 I-7.0 J0.0
G1 X33.6445
G1 X32.1445 Z2.0
G1 X30.1445
G1 X28.6445 Z0.0
G1 X27.3333
G2 X20.3333 Y411.6667 I0.0 J7.0
G1 Y423.6667
G2 X20.4489 Y424.9336 I7.0 J0.0
G2 X20.8964 Y426.4174 Z2.0 I6.8844 J-1.2669
G2 X21.937 Y428.1254 I6.4369 J-2.7507
G2 X23.0504 Y429.2035 Z0.0 I5.3963 J-4.4587
G2 X27.3333 Y430.6667 I4.2829 J-5.5368
G1 X39.3333
G2 X45.8717 Y426.1667 I0.0 J-7.0
G2 X46.2154 Y424.9464 Z1.6903 I-6.5383 J-2.5
G0 Z20.0
G0 X41.6055 Y438.379
G0 Z10.0
G1 F300.0 Z6.0
G2 F800.0 X39.3333 Y438.0 I-2.2722 J6.621
G1 X27.3333
G2 X20.3333 Y445.0 I0.0 J7.0
G1 Y457.0
G2 X27.3333 Y464.0 I7.0 J0.0
G1 X39.3333
G2 X46.3333 Y457.0 I0.0 J-7.0
G1 Y445.0
G2 X41.6055 Y438.379 I-7.0 J0.0
G1 F300.0 Z3.0
G2 F800.0 X39.3333 Y438.0 I-2.2722 J6.621
G1 X27.3333
G2 X20.3333 Y445.0 I0.0 J7.0
G1 Y457.0
G2 X27.3333 Y464.0 I7.0 J0.0
G1 X39.3333
G2 X46.3333 Y457.0 I0.0 J-7.0
G1 Y445.0
G2 X41.6055 Y438.379 I-7.0 J0.0
G1 F300.0 Z0.0
G2 F800.0 X39.3333 Y438.0 I-2.2722 J6.621
G1 X33.6445
G1 X32.1445 Z2.0
G1 X30.1445
G1 X28.6445 Z0.0
G1 X27.3333
G2 X20.3333 Y445.0 I0.0 J7.0
G1 Y457.0
G2 X20.4489 Y458.2669 I7.0 J0.0
G2 X20.8964 Y459.7507 Z2.0 I6.8844 J-1.2669
G2 X21.937 Y461.4587 I6.4369 J-2.7507
G2 X23.0504 Y462.5368 Z0.0 I5.3963 J-4.4587
G2 X27.3333 Y464.0 I4.2829 J-5.5368
G1 X39.3333
G2 X45.8717 Y459.5 I0.0 J-7.0
G2 X46.2615 Y458.0 Z2.0 I-6.5383 J-2.5
G2 X46.3333 Y457.0 I-6.9282 J-1.0
G1 Y456.0
G1 Y454.5 Z0.0
G1 Y445.0
G2 X41.6055 Y438.379 I-7.0 J0.0
G0 Z20.0
G0 X39.664 Y397.3255
G0 Z10.0
G1 F300.0 Z6.0
G2 F800.0 X46.3333 Y390.3333 I-0.3307 J-6.9922
G1 Y378.3333
G2 X39.3333 Y371.3333 I-7.0 J0.0
G1 X27.3333
G2 X20.3333 Y378.3333 I0.0 J7.0
G1 Y390.3333
G2 X27.3333 Y397.3333 I7.0 J0.0
G1 X39.3333
G2 X39.664 Y397.3255 I0.0 J-7.0
G1 F300.0 Z3.0
G2 F800.0 X46.3333 Y390.3333 I-0.3307 J-6.9922
G1 Y378.3333
G2 X39.3333 Y371.3333 I-7.0 J0.0
G1 X27.3333
G2 X20.3333 Y378.3333 I0.0 J7.0
G1 Y390.3333
G2 X27.3333 Y397.3333 I7.0 J0.0
G1 X39.3333
G2 X39.664 Y397.3255 I0.0 J-7.0
G1 F300.0 Z0.0
G2 F800.0 X45.8717 Y392.8333 I-0.3307 J-6.9922
G2 X46.2615 Y391.3333 Z2.0 I-6.5383 J-2.5
G2 X46.3333 Y390.3333 I-6.9282 J-1.0
G1 Y389.3333
G1 Y387.8333 Z0.0
G1 Y378.3333
G2 X39.3333 Y371.3333 I-7.0 J0.0
G1 X33.6445
G1 X32.1445 Z2.0
G1 X30.1445
G1 X28.6445 Z0.0
G1 X27.3333
G2 X20.3333 Y378.3333 I0.0 J7.0
G1 Y390.3333
G2 X20.4489 Y391.6002 I7.0 J0.0
G2 X20.8964 Y393.0841 Z2.0 I6.8844 J-1.2669
G2 X21.937 Y394.792 I6.4369 J-2.7507
G2 X23.0504 Y395.8702 Z0.0 I5.3963 J-4.4587
G2 X27.3333 Y397.3333 I4.2829 J-5.5368
G1 X39.3333
G2 X39.664 Y397.3255 I0.0 J-7.0
G0 Z20.0
G0 X54.0251 Y392.5445
G0 Z10.0
G1 F300.0 Z6.0
G2 F800.0 X60.6667 Y397.3333 I6.6416 J-2.2111
G1 X72.6667
G2 X79.6667 Y390.3333 I0.0 J-7.0
G1 Y378.3333
G2 X72.6667 Y371.3333 I-7.0 J0.0
G1 X60.6667
G2 X53.6667 Y378.3333 I0.0 J7.0
G1 Y390.3333
G2 X54.0251 Y392.5445 I7.0 J0.0
G1 F300.0 Z3.0
G2 F800.0 X60.6667 Y397.3333 I6.6416 J-2.2111
G1 X72.6667
G2 X79.6667 Y390.3333 I0.0 J-7.0
G1 Y378.3333
G2 X72.6667 Y371.3333 I-7.0 J0.0
G1 X60.6667
G2 X53.6667 Y378.3333 I0.0 J7.0
G1 Y390.3333
G2 X54.0251 Y392.5445 I7.0 J0.0
G1 F300.0 Z1.2999
G2 F800.0 X54.2298 Y393.0841 Z2.0 I6.6416 J-2.2111
G2 X55.2704 Y394.792 I6.4369 J-2.7507
G2 X56.3837 Y395.8702 Z0.0 I5.3963 J-4.4587
G2 X60.6667 Y397.3333 I4.2829 J-5.5368
G1 X72.6667
G2 X79.205 Y392.8333 I0.0 J-7.0
G2 X79.5949 Y391.3333 Z2.0 I-6.5383 J-2.5
G2 X79.6667 Y390.3333 I-6.9282 J-1.0
G1 Y389.3333
G1 Y387.8333 Z0.0
G1 Y378.3333
G2 X72.6667 Y371.3333 I-7.0 J0.0
G1 X66.9779
G1 X65.4779 Z2.0
G1 X63.4779
G1 X61.9779 Z0.0
G1 X60.6667
G2 X53.6667 Y378.3333 I0.0 J7.0
G1 Y390.3333
G2 X53.7823 Y391.6002 I7.0 J0.0
G2 X54.0251 Y392.5445 Z1.2999 I6.8844 J-1.2669
G0 Z20.0
G0 X59.3809 Y363.8809
G0 Z10.0
G1 F300.0 Z6.0
G2 F800.0 X60.6667 Y364.0 I1.2857 J-6.8809
G1 X72.6667
G2 X79.6667 Y357.0 I0.0 J-7.0
G1 Y345.0
G2 X72.6667 Y338.0 I-7.0 J0.0
G1 X60.6667
G2 X53.6667 Y345.0 I0.0 J7.0
G1 Y357.0
G2 X59.3809 Y363.8809 I7.0 J0.0
G1 F300.0 Z3.0
G2 F800.0 X60.6667 Y364.0 I1.2857 J-6.8809
G1 X72.6667
G2 X79.6667 Y357.0 I0.0 J-7.0
G1 Y345.0
G2 X72.6667 Y338.0 I-7.0 J0.0
G1 X60.6667
G2 X53.6667 Y345.0 I0.0 J7.0
G1 Y357.0
G2 X59.3809 Y363.8809 I7.0 J0.0
G1 F300.0 Z0.0
G2 F800.0 X60.6667 Y364.0 I1.2857 J-6.8809
G1 X72.6667
G2 X79.205 Y359.5 I0.0 J-7.0
G2 X79.5949 Y358.0 Z2.0 I-6.5383 J-2.5
G2 X79.6667 Y357.0 I-6.9282 J-1.0
G1 Y356.0
G1 Y354.5 Z0.0
G1 Y345.0
G2 X72.6667 Y338.0 I-7.0 J0.0
G1 X66.9779
G1 X65.4779 Z2.0
G1 X63.4779
G1 X61.9779 Z0.0
G1 X60.6667
G2 X53.6667 Y345.0 I0.0 J7.0
G1 Y357.0
G2 X53.7823 Y358.2669 I7.0 J0.0
G2 X54.2298 Y359.7507 Z2.0 I6.8844 J-1.2669
G2 X55.2704 Y361.4587 I6.4369 J-2.7507
G2 X56.3837 Y362.5368 Z0.0 I5.3963 J-4.4587
G2 X59.3809 Y363.8809 I4.2829 J-5.5368
G0 Z20.0
G0 X45.9542 Y359.2725
G0 Z10.0
G1 F300.0 Z6.0
G2 F800.0 X46.3333 Y357.0 I-6.6209 J-2.2725
G1 Y345.0
G2 X39.3333 Y338.0 I-7.0 J0.0
G1 X27.3333
G2 X20.3333 Y345.0 I0.0 J7.0
G1 Y357.0
G2 X27.3333 Y364.0 I7.0 J0.0
G1 X39.3333
G2 X45.9542 Y359.2725 I0.0 J-7.0
G1 F300.0 Z3.0
G2 F800.0 X46.3333 Y357.0 I-6.6209 J-2.2725
G1 Y345.0
G2 X39.3333 Y338.0 I-7.0 J0.0
G1 X27.3333
G2 X20.3333 Y345.0 I0.0 J7.0
G1 Y357.0
G2 X27.3333 Y364.0 I7.0 J0.0
G1 X39.3333
G2 X45.9542 Y359.2725 I0.0 J-7.0
G1 F300.0 Z0.3227
G2 F800.0 X46.2615 Y358.0 Z2.0 I-6.6209 J-2.2725
G2 X46.3333 Y357.0 I-6.9282 J-1.0
G1 Y356.0
G1 Y354.5 Z0.0
G1 Y345.0
G2 X39.3333 Y338.0 I-7.0 J0.0
G1 X33.6445
G1 X32.1445 Z2.0
G1 X30.1445
G1 X28.6445 Z0.0
G1 X27.3333
G2 X20.3333 Y345.0 I0.0 J7.0
G1 Y357.0
G2 X20.4489 Y358.2669 I7.0 J0.0
G2 X20.8964 Y359.7507 Z2.0 I6.8844 J-1.2669
G2 X21.937 Y361.4587 I6.4369 J-2.7507
G2 X23.0504 Y362.5368 Z0.0 I5.3963 J-4.4587
G2 X27.3333 Y364.0 I4.2829 J-5.5368
G1 X39.3333
G2 X45.8717 Y359.5 I0.0 J-7.0
G2 X45.9542 Y359.2725 Z0.3227 I-6.5383 J-2.5
G0 Z20.0
G0 X87.0078 Y357.3307
G0 Z10.0
G1 F300.0 Z6.0
G2 F800.0 X94.0 Y364.0 I6.9922 J-0.3307
G1 X106.0
G2 X113.0 Y357.0 I0.0 J-7.0
G1 Y345.0
G2 X106.0 Y338.0 I-7.0 J0.0
G1 X94.0
G2 X87.0 Y345.0 I0.0 J7.0
G1 Y357.0
G2 X87.0078 Y357.3307 I7.0 J0.0
G1 F300.0 Z3.0
G2 F800.0 X94.0 Y364.0 I6.9922 J-0.3307
G1 X106.0
G2 X113.0 Y357.0 I0.0 J-7.0
G1 Y345.0
G2 X106.0 Y338.0 I-7.0 J0.0
G1 X94.0
G2 X87.0 Y345.0 I0.0 J7.0
G1 Y357.0
G2 X87.0078 Y357.3307 I7.0 J0.0
G1 F300.0 Z0.0
G2 F800.0 X87.1156 Y358.2669 I6.9922 J-0.3307
G2 X87.5631 Y359.7507 Z2.0 I6.8844 J-1.2669
G2 X88.6037 Y361.4587 I6.4369 J-2.7507
G2 X89.7171 Y362.5368 Z0.0 I5.3963 J-4.4587
G2 X94.0 Y364.0 I4.2829 J-5.5368
G1 X106.0
G2 X112.5383 Y359.5 I0.0 J-7.0
G2 X112.9282 Y358.0 Z2.0 I-6.5383 J-2.5
G2 X113.0 Y357.0 I-6.9282 J-1.0
G1 Y356.0
G1 Y354.5 Z0.0
G1 Y345.0
G2 X106.0 Y338.0 I-7.0 J0.0
G1 X100.3112
G1 X98.8112 Z2.0
G1 X96.8112
G1 X95.3112 Z0.0
G1 X94.0
G2 X87.0 Y345.0 I0.0 J7.0
G1 Y357.0
G2 X87.0078 Y357.3307 I7.0 J0.0
G0 Z20.0
G0 X91.7889 Y371.6917
G0 Z10.0
G1 F300.0 Z6.0
G2 F800.0 X87.0 Y378.3333 I2.2111 J6.6416
G1 Y390.3333
G2 X94.0 Y397.3333 I7.0 J0.0
G1 X106.0
G2 X113.0 Y390.3333 I0.0 J-7.0
G1 Y378.3333
G2 X106.0 Y371.3333 I-7.0 J0.0
G1 X94.0
G2 X91.7889 Y371.6917 I0.0 J7.0
G1 F300.0 Z3.0
G2 F800.0 X87.0 Y378.3333 I2.2111 J6.6416
G1 Y390.3333
G2 X94.0 Y397.3333 I7.0 J0.0
G1 X106.0
G2 X113.0 Y390.3333 I0.0 J-7.0
G1 Y378.3333
G2 X106.0 Y371.3333 I-7.0 J0.0
G1 X94.0
G2 X91.7889 Y371.6917 I0.0 J7.0
G1 F300.0 Z0.0
G2 F800.0 X87.0 Y378.3333 I2.2111 J6.6416
G1 Y390.3333
G2 X87.1156 Y391.6002 I7.0 J0.0
G2 X87.5631 Y393.0841 Z2.0 I6.8844 J-1.2669
G2 X88.6037 Y394.792 I6.4369 J-2.7507
G2 X89.7171 Y395.8702 Z0.0 I5.3963 J-4.4587
G2 X94.0 Y397.3333 I4.2829 J-5.5368
G1 X106.0
G2 X112.5383 Y392.8333 I0.0 J-7.0
G2 X112.9282 Y391.3333 Z2.0 I-6.5383 J-2.5
G2 X113.0 Y390.3333 I-6.9282 J-1.0
G1 Y389.3333
G1 Y387.8333 Z0.0
G1 Y378.3333
G2 X106.0 Y371.3333 I-7.0 J0.0
G1 X100.3112
G1 X98.8112 Z2.0
G1 X96.8112
G1 X95.3112 Z0.0
G1 X94.0
G2 X91.7889 Y371.6917 I0.0 J7.0
G0 Z20.0
G0 X120.4524 Y377.0476
G0 Z10.0
G1 F300.0 Z6.0
G2 F800.0 X120.3333 Y378.3333 I6.8809 J1.2857
G1 Y390.3333
G2 X127.3333 Y397.3333 I7.0 J0.0
G1 X139.3333
G2 X146.3333 Y390.3333 I0.0 J-7.0
G1 Y378.3333
G2 X139.3333 Y371.3333 I-7.0 J0.0
G1 X127.3333
G2 X120.4524 Y377.0476 I0.0 J7.0
G1 F300.0 Z3.0
G2 F800.0 X120.3333 Y378.3333 I6.8809 J1.2857
G1 Y390.3333
G2 X127.3333 Y397.3333 I7.0 J0.0
G1 X139.3333
G2 X146.3333 Y390.3333 I0.0 J-7.0
G1 Y378.3333
G2 X139.3333 Y371.3333 I-7.0 J0.0
G1 X127.3333
G2 X120.4524 Y377.0476 I0.0 J7.0
G1 F300.0 Z0.0
G2 F800.0 X120.3333 Y378.3333 I6.8809 J1.2857
G1 Y390.3333
G2 X120.4489 Y391.6002 I7.0 J0.0
G2 X120.8964 Y393.0841 Z2.0 I6.8844 J-1.2669
G2 X121.937 Y394.792 I6.4369 J-2.7507
G2 X123.0504 Y395.8702 Z0.0 I5.3963 J-4.4587
G2 X127.3333 Y397.3333 I4.2829 J-5.5368
G1 X139.3333
G2 X145.8717 Y392.8333 I0.0 J-7.0
G2 X146.2615 Y391.3333 Z2.0 I-6.5383 J-2.5
G2 X146.3333 Y390.3333 I-6.9282 J-1.0
G1 Y389.3333
G1 Y387.8333 Z0.0
G1 Y378.3333
G2 X139.3333 Y371.3333 I-7.0 J0.0
G1 X133.6445
G1 X132.1445 Z2.0
G1 X130.1445
G1 X128.6445 Z0.0
G1 X127.3333
G2 X120.4524 Y377.0476 I0.0 J7.0
G0 Z20.0
G0 X125.0609 Y363.6209
G0 Z10.0
G1 F300.0 Z6.0
G2 F800.0 X127.3333 Y364.0 I2.2725 J-6.6209
G1 X139.3333
G2 X146.3333 Y357.0 I0.0 J-7.0
G1 Y345.0
G2 X139.3333 Y338.0 I-7.0 J0.0
G1 X127.3333
G2 X120.3333 Y345.0 I0.0 J7.0
G1 Y357.0
G2 X125.0609 Y363.6209 I7.0 J0.0
G1 F300.0 Z3.0
G2 F800.0 X127.3333 Y364.0 I2.2725 J-6.6209
G1 X139.3333
G2 X146.3333 Y357.0 I0.0 J-7.0
G1 Y345.0
G2 X139.3333 Y338.0 I-7.0 J0.0
G1 X127.3333
G2 X120.3333 Y345.0 I0.0 J7.0
G1 Y357.0
G2 X125.0609 Y363.6209 I7.0 J0.0
G1 F300.0 Z0.0
G2 F800.0 X127.3333 Y364.0 I2.2725 J-6.6209
G1 X139.3333
G2 X145.8717 Y359.5 I0.0 J-7.0
G2 X146.2615 Y358.0 Z2.0 I-6.5383 J-2.5
G2 X146.3333 Y357.0 I-6.9282 J-1.0
G1 Y356.0
G1 Y354.5 Z0.0
G1 Y345.0
G2 X139.3333 Y338.0 I-7.0 J0.0
G1 X133.6445
G1 X132.1445 Z2.0
G1 X130.1445
G1 X128.6445 Z0.0
G1 X127.3333
G2 X120.3333 Y345.0 I0.0 J7.0
G1 Y357.0
G2 X120.4489 Y358.2669 I7.0 J0.0
G2 X120.8964 Y359.7507 Z2.0 I6.8844 J-1.2669
G2 X121.937 Y361.4587 I6.4369 J-2.7507
G2 X123.0504 Y362.5368 Z0.0 I5.3963 J-4.4587
G2 X125.0609 Y363.6209 I4.2829 J-5.5368
G0 Z20.0
G0 X127.1842 Y263.9984
G0 Z10.0
G1 F300.0 Z6.0
G2 F800.0 X127.3333 Y264.0 I0.1492 J-6.9984
G1 X139.3333
G2 X146.3333 Y257.0 I0.0 J-7.0
G1 Y245.0
G2 X139.3333 Y238.0 I-7.0 J0.0
G1 X127.3333
G2 X120.3333 Y245.0 I0.0 J7.0
G1 Y257.0
G2 X127.1842 Y263.9984 I7.0 J0.0
G1 F300.0 Z3.0
G2 F800.0 X127.3333 Y264.0 I0.1492 J-6.9984
G1 X139.3333
G2 X146.3333 Y257.0 I0.0 J-7.0
G1 Y245.0
G2 X139.3333 Y238.0 I-7.0 J0.0
G1 X127.3333
G2 X120.3333 Y245.0 I0.0 J7.0
G1 Y257.0
G2 X127.1842 Y263.9984 I7.0 J0.0
G1 F300.0 Z0.0
G2 F800.0 X127.3333 Y264.0 I0.1492 J-6.9984
G1 X139.3333
G2 X145.8717 Y259.5 I0.0 J-7.0
G2 X146.2615 Y258.0 Z2.0 I-6.5383 J-2.5
G2 X146.3333 Y257.0 I-6.9282 J-1.0
G1 Y256.0
G1 Y254.5 Z0.0
G1 Y245.0
G2 X139.3333 Y238.0 I-7.0 J0.0
G1 X133.6445
G1 X132.1445 Z2.0
G1 X130.1445
G1 X128.6445 Z0.0
G1 X127.3333
G2 X120.3333 Y245.0 I0.0 J7.0
G1 Y257.0
G2 X120.4489 Y258.2669 I7.0 J0.0
G2 X120.8964 Y259.7507 Z2.0 I6.8844 J-1.2669
G2 X121.937 Y261.4587 I6.4369 J-2.7507
G2 X123.0504 Y262.5368 Z0.0 I5.3963 J-4.4587
G2 X127.1842 Y263.9984 I4.2829 J-5.5368
G0 Z20.0
G0 X112.6467 Y259.1958
G0 Z10.0
G1 F300.0 Z6.0
G2 F800.0 X113.0 Y257.0 I-6.6467 J-2.1958
G1 Y245.0
G2 X106.0 Y238.0 I-7.0 J0.0
G1 X94.0
G2 X87.0 Y245.0 I0.0 J7.0
G1 Y257.0
G2 X94.0 Y264.0 I7.0 J0.0
G1 X106.0
G2 X112.6467 Y259.1958 I0.0 J-7.0
G1 F300.0 Z3.0
G2 F800.0 X113.0 Y257.0 I-6.6467 J-2.1958
G1 Y245.0
G2 X106.0 Y238.0 I-7.0 J0.0
G1 X94.0
G2 X87.0 Y245.0 I0.0 J7.0
G1 Y257.0
G2 X94.0 Y264.0 I7.0 J0.0
G1 X106.0
G2 X112.6467 Y259.1958 I0.0 J-7.0
G1 F300.0 Z0.4306
G2 F800.0 X112.9282 Y258.0 Z2.0 I-6.6467 J-2.1958
G2 X113.0 Y257.0 I-6.9282 J-1.0
G1 Y256.0
G1 Y254.5 Z0.0
G1 Y245.0
G2 X106.0 Y238.0 I-7.0 J0.0
G1 X100.3112
G1 X98.8112 Z2.0
G1 X96.8112
G1 X95.3112 Z0.0
G1 X94.0
G2 X87.0 Y245.0 I0.0 J7.0
G1 Y257.0
G2 X87.1156 Y258.2669 I7.0 J0.0
G2 X87.5631 Y259.7507 Z2.0 I6.8844 J-1.2669
G2 X88.6037 Y261.4587 I6.4369 J-2.7507
G2 X89.7171 Y262.5368 Z0.0 I5.3963 J-4.4587
G2 X94.0 Y264.0 I4.2829 J-5.5368
G1 X106.0
G2 X112.5383 Y259.5 I0.0 J-7.0
G2 X112.6467 Y259.1958 Z0.4306 I-6.5383 J-2.5
G0 Z20.0
G0 X107.2872 Y230.5473
G0 Z10.0
G1 F300.0 Z6.0
G2 F800.0 X113.0 Y223.6667 I-1.2872 J-6.8806
G1 Y211.6667
G2 X106.0 Y204.6667 I-7.0 J0.0
G1 X94.0
G2 X87.0 Y211.6667 I0.0 J7.0
G1 Y223.6667
G2 X94.0 Y230.6667 I7.0 J0.0
G1 X106.0
G2 X107.2872 Y230.5473 I0.0 J-7.0
G1 F300.0 Z3.0
G2 F800.0 X113.0 Y223.6667 I-1.2872 J-6.8806
G1 Y211.6667
G2 X106.0 Y204.6667 I-7.0 J0.0
G1 X94.0
G2 X87.0 Y211.6667 I0.0 J7.0
G1 Y223.6667
G2 X94.0 Y230.6667 I7.0 J0.0
G1 X106.0
G2 X107.2872 Y230.5473 I0.0 J-7.0
G1 F300.0 Z0.0
G2 F800.0 X112.5383 Y226.1667 I-1.2872 J-6.8806
G2 X112.9282 Y224.6667 Z2.0 I-6.5383 J-2.5
G2 X113.0 Y223.6667 I-6.9282 J-1.0
G1 Y222.6667
G1 Y221.1667 Z0.0
G1 Y211.6667
G2 X106.0 Y204.6667 I-7.0 J0.0
G1 X100.3112
G1 X98.8112 Z2.0
G1 X96.8112
G1 X95.3112 Z0.0
G1 X94.0
G2 X87.0 Y211.6667 I0.0 J7.0
G1 Y223.6667
G2 X87.1156 Y224.9336 I7.0 J0.0
G2 X87.5631 Y226.4174 Z2.0 I6.8844 J-1.2669
G2 X88.6037 Y228.1254 I6.4369 J-2.7507
G2 X89.7171 Y229.2035 Z0.0 I5.3963 J-4.4587
G2 X94.0 Y230.6667 I4.2829 J-5.5368
G1 X106.0
G2 X107.2872 Y230.5473 I0.0 J-7.0
G0 Z20.0
G0 X120.7125 Y225.9392
G0 Z10.0
G1 F300.0 Z6.0
G2 F800.0 X127.3333 Y230.6667 I6.6208 J-2.2725
G1 X139.3333
G2 X146.3333 Y223.6667 I0.0 J-7.0
G1 Y211.6667
G2 X139.3333 Y204.6667 I-7.0 J0.0
G1 X127.3333
G2 X120.3333 Y211.6667 I0.0 J7.0
G1 Y223.6667
G2 X120.7125 Y225.9392 I7.0 J0.0
G1 F300.0 Z3.0
G2 F800.0 X127.3333 Y230.6667 I6.6208 J-2.2725
G1 X139.3333
G2 X146.3333 Y223.6667 I0.0 J-7.0
G1 Y211.6667
G2 X139.3333 Y204.6667 I-7.0 J0.0
G1 X127.3333
G2 X120.3333 Y211.6667 I0.0 J7.0
G1 Y223.6667
G2 X120.7125 Y225.9392 I7.0 J0.0
G1 F300.0 Z1.3861
G2 F800.0 X120.8964 Y226.4174 Z2.0 I6.6208 J-2.2725
G2 X121.937 Y228.1254 I6.4369 J-2.7507
G2 X123.0504 Y229.2035 Z0.0 I5.3963 J-4.4587
G2 X127.3333 Y230.6667 I4.2829 J-5.5368
G1 X139.3333
G2 X145.8717 Y226.1667 I0.0 J-7.0
G2 X146.2615 Y224.6667 Z2.0 I-6.5383 J-2.5
G2 X146.3333 Y223.6667 I-6.9282 J-1.0
G1 Y222.6667
G1 Y221.1667 Z0.0
G1 Y211.6667
G2 X139.3333 Y204.6667 I-7.0 J0.0
G1 X133.6445
G1 X132.1445 Z2.0
G1 X130.1445
G1 X128.6445 Z0.0
G1 X127.3333
G2 X120.3333 Y211.6667 I0.0 J7.0
G1 Y223.6667
G2 X120.4489 Y224.9336 I7.0 J0.0
G2 X120.7125 Y225.9392 Z1.3861 I6.8844 J-1.2669
G0 Z20.0
G0 X126.0536 Y197.2154
G0 Z10.0
G1 F300.0 Z6.0
G2 F800.0 X127.3333 Y197.3333 I1.2797 J-6.882
G1 X139.3333
G2 X146.3333 Y190.3333 I0.0 J-7.0
G1 Y178.3333
G2 X139.3333 Y171.3333 I-7.0 J0.0
G1 X127.3333
G2 X120.3333 Y178.3333 I0.0 J7.0
G1 Y190.3333
G2 X126.0536 Y197.2154 I7.0 J0.0
G1 F300.0 Z3.0
G2 F800.0 X127.3333 Y197.3333 I1.2797 J-6.882
G1 X139.3333
G2 X146.3333 Y190.3333 I0.0 J-7.0
G1 Y178.3333
G2 X139.3333 Y171.3333 I-7.0 J0.0
G1 X127.3333
G2 X120.3333 Y178.3333 I0.0 J7.0
G1 Y190.3333
G2 X126.0536 Y197.2154 I7.0 J0.0
G1 F300.0 Z0.0
G2 F800.0 X127.3333 Y197.3333 I1.2797 J-6.882
G1 X139.3333
G2 X145.8717 Y192.8333 I0.0 J-7.0
G2 X146.2615 Y191.3333 Z2.0 I-6.5383 J-2.5
G2 X146.3333 Y190.3333 I-6.9282 J-1.0
G1 Y189.3333
G1 Y187.8333 Z0.0
G1 Y178.3333
G2 X139.3333 Y171.3333 I-7.0 J0.0
G1 X133.6445
G1 X132.1445 Z2.0
G1 X130.1445
G1 X128.6445 Z0.0
G1 X127.3333
G2 X120.3333 Y178.3333 I0.0 J7.0
G1 Y190.3333
G2 X120.4489 Y191.6002 I7.0 J0.0
G2 X120.8964 Y193.0841 Z2.0 I6.8844 J-1.2669
G2 X121.937 Y194.792 I6.4369 J-2.7507
G2 X123.0504 Y195.8702 Z0.0 I5.3963 J-4.4587
G2 X126.0536 Y197.2154 I4.2829 J-5.5368
G0 Z20.0
G0 X112.621 Y192.6055
G0 Z10.0
G1 F300.0 Z6.0
G2 F800.0 X113.0 Y190.3333 I-6.621 J-2.2722
G1 Y178.3333
G2 X106.0 Y171.3333 I-7.0 J0.0
G1 X94.0
G2 X87.0 Y178.3333 I0.0 J7.0
G1 Y190.3333
G2 X94.0 Y197.3333 I7.0 J0.0
G1 X106.0
G2 X112.621 Y192.6055 I0.0 J-7.0
G1 F300.0 Z3.0
G2 F800.0 X113.0 Y190.3333 I-6.621 J-2.2722
G1 Y178.3333
G2 X106.0 Y171.3333 I-7.0 J0.0
G1 X94.0
G2 X87.0 Y178.3333 I0.0 J7.0
G1 Y190.3333
G2 X94.0 Y197.3333 I7.0 J0.0
G1 X106.0
G2 X112.621 Y192.6055 I0.0 J-7.0
G1 F300.0 Z0.3231
G2 F800.0 X112.9282 Y191.3333 Z2.0 I-6.621 J-2.2722
G2 X113.0 Y190.3333 I-6.9282 J-1.0
G1 Y189.3333
G1 Y187.8333 Z0.0
G1 Y178.3333
G2 X106.0 Y171.3333 I-7.0 J0.0
G1 X100.3112
G1 X98.8112 Z2.0
G1 X96.8112
G1 X95.3112 Z0.0
G1 X94.0
G2 X87.0 Y178.3333 I0.0 J7.0
G1 Y190.3333
G2 X87.1156 Y191.6002 I7.0 J0.0
G2 X87.5631 Y193.0841 Z2.0 I6.8844 J-1.2669
G2 X88.6037 Y194.792 I6.4369 J-2.7507
G2 X89.7171 Y195.8702 Z0.0 I5.3963 J-4.4587
G2 X94.0 Y197.3333 I4.2829 J-5.5368
G1 X106.0
G2 X112.5383 Y192.8333 I0.0 J-7.0
G2 X112.621 Y192.6055 Z0.3231 I-6.5383 J-2.5
G0 Z20.0
G0 X107.2797 Y163.882
G0 Z10.0
G1 F300.0 Z6.0
G2 F800.0 X113.0 Y157.0 I-1.2797 J-6.882
G1 Y145.0
G2 X106.0 Y138.0 I-7.0 J0.0
G1 X94.0
G2 X87.0 Y145.0 I0.0 J7.0
G1 Y157.0
G2 X94.0 Y164.0 I7.0 J0.0
G1 X106.0
G2 X107.2797 Y163.882 I0.0 J-7.0
G1 F300.0 Z3.0
G2 F800.0 X113.0 Y157.0 I-1.2797 J-6.882
G1 Y145.0
G2 X106.0 Y138.0 I-7.0 J0.0
G1 X94.0
G2 X87.0 Y145.0 I0.0 J7.0
G1 Y157.0
G2 X94.0 Y164.0 I7.0 J0.0
G1 X106.0
G2 X107.2797 Y163.882 I0.0 J-7.0
G1 F300.0 Z0.0
G2 F800.0 X112.5383 Y159.5 I-1.2797 J-6.882
G2 X112.9282 Y158.0 Z2.0 I-6.5383 J-2.5
G2 X113.0 Y157.0 I-6.9282 J-1.0
G1 Y156.0
G1 Y154.5 Z0.0
G1 Y145.0
G2 X106.0 Y138.0 I-7.0 J0.0
G1 X100.3112
G1 X98.8112 Z2.0
G1 X96.8112
G1 X95.3112 Z0.0
G1 X94.0
G2 X87.0 Y145.0 I0.0 J7.0
G1 Y157.0
G2 X87.1156 Y158.2669 I7.0 J0.0
G2 X87.5631 Y159.7507 Z2.0 I6.8844 J-1.2669
G2 X88.6037 Y161.4587 I6.4369 J-2.7507
G2 X89.7171 Y162.5368 Z0.0 I5.3963 J-4.4587
G2 X94.0 Y164.0 I4.2829 J-5.5368
G1 X106.0
G2 X107.2797 Y163.882 I0.0 J-7.0
G0 Z20.0
G0 X120.7124 Y159.2722
G0 Z10.0
G1 F300.0 Z6.0
G2 F800.0 X127.3333 Y164.0 I6.621 J-2.2722
G1 X139.3333
G2 X146.3333 Y157.0 I0.0 J-7.0
G1 Y145.0
G2 X139.3333 Y138.0 I-7.0 J0.0
G1 X127.3333
G2 X120.3333 Y145.0 I0.0 J7.0
G1 Y157.0
G2 X120.7124 Y159.2722 I7.0 J0.0
G1 F300.0 Z3.0
G2 F800.0 X127.3333 Y164.0 I6.621 J-2.2722
G1 X139.3333
G2 X146.3333 Y157.0 I0.0 J-7.0
G1 Y145.0
G2 X139.3333 Y138.0 I-7.0 J0.0
G1 X127.3333
G2 X120.3333 Y145.0 I0.0 J7.0
G1 Y157.0
G2 X120.7124 Y159.2722 I7.0 J0.0
G1 F300.0 Z1.3856
G2 F800.0 X120.8964 Y159.7507 Z2.0 I6.621 J-2.2722
G2 X121.937 Y161.4587 I6.4369 J-2.7507
G2 X123.0504 Y162.5368 Z0.0 I5.3963 J-4.4587
G2 X127.3333 Y164.0 I4.2829 J-5.5368
G1 X139.3333
G2 X145.8717 Y159.5 I0.0 J-7.0
G2 X146.2615 Y158.0 Z2.0 I-6.5383 J-2.5
G2 X146.3333 Y157.0 I-6.9282 J-1.0
G1 Y156.0
G1 Y154.5 Z0.0
G1 Y145.0
G2 X139.3333 Y138.0 I-7.0 J0.0
G1 X133.6445
G1 X132.1445 Z2.0
G1 X130.1445
G1 X128.6445 Z0.0
G1 X127.3333
G2 X120.3333 Y145.0 I0.0 J7.0
G1 Y157.0
G2 X120.4489 Y158.2669 I7.0 J0.0
G2 X120.7124 Y159.2722 Z1.3856 I6.8844 J-1.2669
G0 Z20.0
G0 X126.0536 Y130.5487
G0 Z10.0
G1 F300.0 Z6.0
G2 F800.0 X127.3333 Y130.6667 I1.2797 J-6.882
G1 X139.3333
G2 X146.3333 Y123.6667 I0.0 J-7.0
G1 Y111.6667
G2 X139.3333 Y104.6667 I-7.0 J0.0
G1 X127.3333
G2 X120.3333 Y111.6667 I0.0 J7.0
G1 Y123.6667
G2 X126.0536 Y130.5487 I7.0 J0.0
G1 F300.0 Z3.0
G2 F800.0 X127.3333 Y130.6667 I1.2797 J-6.882
G1 X139.3333
G2 X146.3333 Y123.6667 I0.0 J-7.0
G1 Y111.6667
G2 X139.3333 Y104.6667 I-7.0 J0.0
G1 X127.3333
G2 X120.3333 Y111.6667 I0.0 J7.0
G1 Y123.6667
G2 X126.0536 Y130.5487 I7.0 J0.0
G1 F300.0 Z0.0
G2 F800.0 X127.3333 Y130.6667 I1.2797 J-6.882
G1 X139.3333
G2 X145.8717 Y126.1667 I0.0 J-7.0
G2 X146.2615 Y124.6667 Z2.0 I-6.5383 J-2.5
G2 X146.3333 Y123.6667 I-6.9282 J-1.0
G1 Y122.6667
G1 Y121.1667 Z0.0
G1 Y111.6667
G2 X139.3333 Y104.6667 I-7.0 J0.0
G1 X133.6445
G1 X132.1445 Z2.0
G1 X130.1445
G1 X128.6445 Z0.0
G1 X127.3333
G2 X120.3333 Y111.6667 I0.0 J7.0
G1 Y123.6667
G2 X120.4489 Y124.9336 I7.0 J0.0
G2 X120.8964 Y126.4174 Z2.0 I6.8844 J-1.2669
G2 X121.937 Y128.1254 I6.4369 J-2.7507
G2 X123.0504 Y129.2035 Z0.0 I5.3963 J-4.4587
G2 X126.0536 Y130.5487 I4.2829 J-5.5368
G0 Z20.0
G0 X112.621 Y125.9389
G0 Z10.0
G1 F300.0 Z6.0
G2 F800.0 X113.0 Y123.6667 I-6.621 J-2.2722
G1 Y111.6667
G2 X106.0 Y104.6667 I-7.0 J0.0
G1 X94.0
G2 X87.0 Y111.6667 I0.0 J7.0
G1 Y123.6667
G2 X94.0 Y130.6667 I7.0 J0.0
G1 X106.0
G2 X112.621 Y125.9389 I0.0 J-7.0
G1 F300.0 Z3.0
G2 F800.0 X113.0 Y123.6667 I-6.621 J-2.2722
G1 Y111.6667
G2 X106.0 Y104.6667 I-7.0 J0.0
G1 X94.0
G2 X87.0 Y111.6667 I0.0 J7.0
G1 Y123.6667
G2 X94.0 Y130.6667 I7.0 J0.0
G1 X106.0
G2 X112.621 Y125.9389 I0.0 J-7.0
G1 F300.0 Z0.0
G2 F800.0 X113.0 Y123.6667 I-6.621 J-2.2722
G1 Y114.1667
G1 Y112.6667 Z2.0
G1 Y111.6667
G2 X112.9282 Y110.6667 I-7.0 J0.0
G2 X112.5383 Y109.1667 Z0.0 I-6.9282 J1.0
G2 X106.0 Y104.6667 I-6.5383 J2.5
G1 X94.0
G2 X89.7171 Y106.1298 I0.0 J7.0
G2 X88.6037 Y107.208 Z2.0 I4.2829 J5.5368
G2 X87.5631 Y108.9159 I5.3963 J4.4587
G2 X87.1156 Y110.3998 Z0.0 I6.4369 J2.7507
G2 X87.0 Y111.6667 I6.8844 J1.2669
G1 Y123.6667
G2 X94.0 Y130.6667 I7.0 J0.0
G1 X95.3112
G1 X96.8112 Z2.0
G1 X98.8112
G1 X100.3112 Z0.0
G1 X106.0
G2 X112.621 Y125.9389 I0.0 J-7.0
G0 Z20.0
G0 X107.2797 Y97.2154
G0 Z10.0
G1 F300.0 Z6.0
G2 F800.0 X113.0 Y90.3333 I-1.2797 J-6.882
G1 Y78.3333
G2 X106.0 Y71.3333 I-7.0 J0.0
G1 X94.0
G2 X87.0 Y78.3333 I0.0 J7.0
G1 Y90.3333
G2 X94.0 Y97.3333 I7.0 J0.0
G1 X106.0
G2 X107.2797 Y97.2154 I0.0 J-7.0
G1 F300.0 Z3.0
G2 F800.0 X113.0 Y90.3333 I-1.2797 J-6.882
G1 Y78.3333
G2 X106.0 Y71.3333 I-7.0 J0.0
G1 X94.0
G2 X87.0 Y78.3333 I0.0 J7.0
G1 Y90.3333
G2 X94.0 Y97.3333 I7.0 J0.0
G1 X106.0
G2 X107.2797 Y97.2154 I0.0 J-7.0
G1 F300.0 Z0.0
G2 F800.0 X112.5383 Y92.8333 I-1.2797 J-6.882
G2 X112.9282 Y91.3333 Z2.0 I-6.5383 J-2.5
G2 X113.0 Y90.3333 I-6.9282 J-1.0
G1 Y89.3333
G1 Y87.8333 Z0.0
G1 Y78.3333
G2 X106.0 Y71.3333 I-7.0 J0.0
G1 X100.3112
G1 X98.8112 Z2.0
G1 X96.8112
G1 X95.3112 Z0.0
G1 X94.0
G2 X87.0 Y78.3333 I0.0 J7.0
G1 Y90.3333
G2 X87.1156 Y91.6002 I7.0 J0.0
G2 X87.5631 Y93.0841 Z2.0 I6.8844 J-1.2669
G2 X88.6037 Y94.792 I6.4369 J-2.7507
G2 X89.7171 Y95.8702 Z0.0 I5.3963 J-4.4587
G2 X94.0 Y97.3333 I4.2829 J-5.5368
G1 X106.0
G2 X107.2797 Y97.2154 I0.0 J-7.0
G0 Z20.0
G0 X120.7124 Y92.6055
G0 Z10.0
G1 F300.0 Z6.0
G2 F800.0 X127.3333 Y97.3333 I6.621 J-2.2722
G1 X139.3333
G2 X146.3333 Y90.3333 I0.0 J-7.0
G1 Y78.3333
G2 X139.3333 Y71.3333 I-7.0 J0.0
G1 X127.3333
G2 X120.3333 Y78.3333 I0.0 J7.0
G1 Y90.3333
G2 X120.7124 Y92.6055 I7.0 J0.0
G1 F300.0 Z3.0
G2 F800.0 X127.3333 Y97.3333 I6.621 J-2.2722
G1 X139.3333
G2 X146.3333 Y90.3333 I0.0 J-7.0
G1 Y78.3333
G2 X139.3333 Y71.3333 I-7.0 J0.0
G1 X127.3333
G2 X120.3333 Y78.3333 I0.0 J7.0
G1 Y90.3333
G2 X120.7124 Y92.6055 I7.0 J0.0
G1 F300.0 Z1.3856
G2 F800.0 X120.8964 Y93.0841 Z2.0 I6.621 J-2.2722
G2 X121.937 Y94.792 I6.4369 J-2.7507
G2 X123.0504 Y95.8702 Z0.0 I5.3963 J-4.4587
G2 X127.3333 Y97.3333 I4.2829 J-5.5368
G1 X139.3333
G2 X145.8717 Y92.8333 I0.0 J-7.0
G2 X146.2615 Y91.3333 Z2.0 I-6.5383 J-2.5
G2 X146.3333 Y90.3333 I-6.9282 J-1.0
G1 Y89.3333
G1 Y87.8333 Z0.0
G1 Y78.3333
G2 X139.3333 Y71.3333 I-7.0 J0.0
G1 X133.6445
G1 X132.1445 Z2.0
G1 X130.1445
G1 X128.6445 Z0.0
G1 X127.3333
G2 X120.3333 Y78.3333 I0.0 J7.0
G1 Y90.3333
G2 X120.4489 Y91.6002 I7.0 J0.0
G2 X120.7124 Y92.6055 Z1.3856 I6.8844 J-1.2669
G0 Z20.0
G0 X126.0536 Y63.882
G0 Z10.0
G1 F300.0 Z6.0
G2 F800.0 X127.3333 Y64.0 I1.2797 J-6.882
G1 X139.3333
G2 X146.3333 Y57.0 I0.0 J-7.0
G1 Y45.0
G2 X139.3333 Y38.0 I-7.0 J0.0
G1 X127.3333
G2 X120.3333 Y45.0 I0.0 J7.0
G1 Y57.0
G2 X126.0536 Y63.882 I7.0 J0.0
G1 F300.0 Z3.0
G2 F800.0 X127.3333 Y64.0 I1.2797 J-6.882
G1 X139.3333
G2 X146.3333 Y57.0 I0.0 J-7.0
G1 Y45.0
G2 X139.3333 Y38.0 I-7.0 J0.0
G1 X127.3333
G2 X120.3333 Y45.0 I0.0 J7.0
G1 Y57.0
G2 X126.0536 Y63.882 I7.0 J0.0
G1 F300.0 Z0.0
G2 F800.0 X127.3333 Y64.0 I1.2797 J-6.882
G1 X139.3333
G2 X145.8717 Y59.5 I0.0 J-7.0
G2 X146.2615 Y58.0 Z2.0 I-6.5383 J-2.5
G2 X146.3333 Y57.0 I-6.9282 J-1.0
G1 Y56.0
G1 Y54.5 Z0.0
G1 Y45.0
G2 X139.3333 Y38.0 I-7.0 J0.0
G1 X133.6445
G1 X132.1445 Z2.0
G1 X130.1445
G1 X128.6445 Z0.0
G1 X127.3333
G2 X120.3333 Y45.0 I0.0 J7.0
G1 Y57.0
G2 X120.4489 Y58.2669 I7.0 J0.0
G2 X120.8964 Y59.7507 Z2.0 I6.8844 J-1.2669
G2 X121.937 Y61.4587 I6.4369 J-2.7507
G2 X123.0504 Y62.5368 Z0.0 I5.3963 J-4.4587
G2 X126.0536 Y63.882 I4.2829 J-5.5368
G0 Z20.0
G0 X112.621 Y59.2722
G0 Z10.0
G1 F300.0 Z6.0
G2 F800.0 X113.0 Y57.0 I-6.621 J-2.2722
G1 Y45.0
G2 X106.0 Y38.0 I-7.0 J0.0
G1 X94.0
G2 X87.0 Y45.0 I0.0 J7.0
G1 Y57.0
G2 X94.0 Y64.0 I7.0 J0.0
G1 X106.0
G2 X112.621 Y59.2722 I0.0 J-7.0
G1 F300.0 Z3.0
G2 F800.0 X113.0 Y57.0 I-6.621 J-2.2722
G1 Y45.0
G2 X106.0 Y38.0 I-7.0 J0.0
G1 X94.0
G2 X87.0 Y45.0 I0.0 J7.0
G1 Y57.0
G2 X94.0 Y64.0 I7.0 J0.0
G1 X106.0
G2 X112.621 Y59.2722 I0.0 J-7.0
G1 F300.0 Z0.3231
G2 F800.0 X112.9282 Y58.0 Z2.0 I-6.621 J-2.2722
G2 X113.0 Y57.0 I-6.9282 J-1.0
G1 Y56.0
G1 Y54.5 Z0.0
G1 Y45.0
G2 X106.0 Y38.0 I-7.0 J0.0
G1 X100.3112
G1 X98.8112 Z2.0
G1 X96.8112
G1 X95.3112 Z0.0
G1 X94.0
G2 X87.0 Y45.0 I0.0 J7.0
G1 Y57.0
G2 X87.1156 Y58.2669 I7.0 J0.0
G2 X87.5631 Y59.7507 Z2.0 I6.8844 J-1.2669
G2 X88.6037 Y61.4587 I6.4369 J-2.7507
G2 X89.7171 Y62.5368 Z0.0 I5.3963 J-4.4587
G2 X94.0 Y64.0 I4.2829 J-5.5368
G1 X106.0
G2 X112.5383 Y59.5 I0.0 J-7.0
G2 X112.621 Y59.2722 Z0.3231 I-6.5383 J-2.5
G0 Z20.0
G0 X79.6554 Y57.3974
G0 Z10.0
G1 F300.0 Z6.0
G2 F800.0 X79.6667 Y57.0 I-6.9887 J-0.3974
G1 Y45.0
G2 X72.6667 Y38.0 I-7.0 J0.0
G1 X60.6667
G2 X53.6667 Y45.0 I0.0 J7.0
G1 Y57.0
G2 X60.6667 Y64.0 I7.0 J0.0
G1 X72.6667
G2 X79.6554 Y57.3974 I0.0 J-7.0
G1 F300.0 Z3.0
G2 F800.0 X79.6667 Y57.0 I-6.9887 J-0.3974
G1 Y45.0
G2 X72.6667 Y38.0 I-7.0 J0.0
G1 X60.6667
G2 X53.6667 Y45.0 I0.0 J7.0
G1 Y57.0
G2 X60.6667 Y64.0 I7.0 J0.0
G1 X72.6667
G2 X79.6554 Y57.3974 I0.0 J-7.0
G1 F300.0 Z0.0
G2 F800.0 X79.6667 Y57.0 I-6.9887 J-0.3974
G1 Y47.5
G1 Y46.0 Z2.0
G1 Y45.0
G2 X79.5949 Y44.0 I-7.0 J0.0
G2 X79.205 Y42.5 Z0.0 I-6.9282 J1.0
G2 X72.6667 Y38.0 I-6.5383 J2.5
G1 X60.6667
G2 X56.3837 Y39.4632 I0.0 J7.0
G2 X55.2704 Y40.5413 Z2.0 I4.2829 J5.5368
G2 X54.2298 Y42.2493 I5.3963 J4.4587
G2 X53.7823 Y43.7331 Z0.0 I6.4369 J2.7507
G2 X53.6667 Y45.0 I6.8844 J1.2669
G1 Y57.0
G2 X60.6667 Y64.0 I7.0 J0.0
G1 X61.9779
G1 X63.4779 Z2.0
G1 X65.4779
G1 X66.9779 Z0.0
G1 X72.6667
G2 X79.6554 Y57.3974 I0.0 J-7.0
G0 Z20.0
G0 X74.8831 Y71.6935
G0 Z10.0
G1 F300.0 Z6.0
G2 F800.0 X72.6667 Y71.3333 I-2.2165 J6.6398
G1 X60.6667
G2 X53.6667 Y78.3333 I0.0 J7.0
G1 Y90.3333
G2 X60.6667 Y97.3333 I7.0 J0.0
G1 X72.6667
G2 X79.6667 Y90.3333 I0.0 J-7.0
G1 Y78.3333
G2 X74.8831 Y71.6935 I-7.0 J0.0
G1 F300.0 Z3.0
G2 F800.0 X72.6667 Y71.3333 I-2.2165 J6.6398
G1 X60.6667
G2 X53.6667 Y78.3333 I0.0 J7.0
G1 Y90.3333
G2 X60.6667 Y97.3333 I7.0 J0.0
G1 X72.6667
G2 X79.6667 Y90.3333 I0.0 J-7.0
G1 Y78.3333
G2 X74.8831 Y71.6935 I-7.0 J0.0
G1 F300.0 Z0.0
G2 F800.0 X72.6667 Y71.3333 I-2.2165 J6.6398
G1 X66.9779
G1 X65.4779 Z2.0
G1 X63.4779
G1 X61.9779 Z0.0
G1 X60.6667
G2 X53.6667 Y78.3333 I0.0 J7.0
G1 Y90.3333
G2 X53.7823 Y91.6002 I7.0 J0.0
G2 X54.2298 Y93.0841 Z2.0 I6.8844 J-1.2669
G2 X55.2704 Y94.792 I6.4369 J-2.7507
G2 X56.3837 Y95.8702 Z0.0 I5.3963 J-4.4587
G2 X60.6667 Y97.3333 I4.2829 J-5.5368
G1 X72.6667
G2 X79.205 Y92.8333 I0.0 J-7.0
G2 X79.5949 Y91.3333 Z2.0 I-6.5383 J-2.5
G2 X79.6667 Y90.3333 I-6.9282 J-1.0
G1 Y89.3333
G1 Y87.8333 Z0.0
G1 Y78.3333
G2 X74.8831 Y71.6935 I-7.0 J0.0
G0 Z20.0
G0 X46.2143 Y77.0481
G0 Z10.0
G1 F300.0 Z6.0
G2 F800.0 X39.3333 Y71.3333 I-6.881 J1.2852
G1 X27.3333
G2 X20.3333 Y78.3333 I0.0 J7.0
G1 Y90.3333
G2 X27.3333 Y97.3333 I7.0 J0.0
G1 X39.3333
G2 X46.3333 Y90.3333 I0.0 J-7.0
G1 Y78.3333
G2 X46.2143 Y77.0481 I-7.0 J0.0
G1 F300.0 Z3.0
G2 F800.0 X39.3333 Y71.3333 I-6.881 J1.2852
G1 X27.3333
G2 X20.3333 Y78.3333 I0.0 J7.0
G1 Y90.3333
G2 X27.3333 Y97.3333 I7.0 J0.0
G1 X39.3333
G2 X46.3333 Y90.3333 I0.0 J-7.0
G1 Y78.3333
G2 X46.2143 Y77.0481 I-7.0 J0.0
G1 F300.0 Z0.0
G2 F800.0 X44.8702 Y74.0504 I-6.881 J1.2852
G2 X43.792 Y72.937 Z2.0 I-5.5368 J4.2829
G2 X42.0841 Y71.8964 I-4.4587 J5.3963
G2 X40.6002 Y71.4489 Z0.0 I-2.7507 J6.4369
G2 X39.3333 Y71.3333 I-1.2669 J6.8844
G1 X27.3333
G2 X20.3333 Y78.3333 I0.0 J7.0
G1 Y79.6445
G1 Y81.1445 Z2.0
G1 Y83.1445
G1 Y84.6445 Z0.0
G1 Y90.3333
G2 X27.3333 Y97.3333 I7.0 J0.0
G1 X36.8333
G1 X38.3333 Z2.0
G1 X39.3333
G2 X40.3333 Y97.2615 I0.0 J-7.0
G2 X41.8333 Y96.8717 Z0.0 I-1.0 J-6.9282
G2 X46.3333 Y90.3333 I-2.5 J-6.5383
G1 Y78.3333
G2 X46.2143 Y77.0481 I-7.0 J0.0
G0 Z20.0
G0 X41.6058 Y63.6209
G0 Z10.0
G1 F300.0 Z6.0
G2 F800.0 X46.3333 Y57.0 I-2.2724 J-6.6209
G1 Y45.0
G2 X39.3333 Y38.0 I-7.0 J0.0
G1 X27.3333
G2 X20.3333 Y45.0 I0.0 J7.0
G1 Y57.0
G2 X27.3333 Y64.0 I7.0 J0.0
G1 X39.3333
G2 X41.6058 Y63.6209 I0.0 J-7.0
G1 F300.0 Z3.0
G2 F800.0 X46.3333 Y57.0 I-2.2724 J-6.6209
G1 Y45.0
G2 X39.3333 Y38.0 I-7.0 J0.0
G1 X27.3333
G2 X20.3333 Y45.0 I0.0 J7.0
G1 Y57.0
G2 X27.3333 Y64.0 I7.0 J0.0
G1 X39.3333
G2 X41.6058 Y63.6209 I0.0 J-7.0
G1 F300.0 Z0.0
G2 F800.0 X45.8717 Y59.5 I-2.2724 J-6.6209
G2 X46.2615 Y58.0 Z2.0 I-6.5383 J-2.5
G2 X46.3333 Y57.0 I-6.9282 J-1.0
G1 Y56.0
G1 Y54.5 Z0.0
G1 Y45.0
G2 X39.3333 Y38.0 I-7.0 J0.0
G1 X33.6445
G1 X32.1445 Z2.0
G1 X30.1445
G1 X28.6445 Z0.0
G1 X27.3333
G2 X20.3333 Y45.0 I0.0 J7.0
G1 Y57.0
G2 X20.4489 Y58.2669 I7.0 J0.0
G2 X20.8964 Y59.7507 Z2.0 I6.8844 J-1.2669
G2 X21.937 Y61.4587 I6.4369 J-2.7507
G2 X23.0504 Y62.5368 Z0.0 I5.3963 J-4.4587
G2 X27.3333 Y64.0 I4.2829 J-5.5368
G1 X39.3333
G2 X41.6058 Y63.6209 I0.0 J-7.0
G0 Z20.0
G0 X39.664 Y104.6745
G0 Z10.0
G1 F300.0 Z6.0
G2 F800.0 X39.3333 Y104.6667 I-0.3307 J6.9922
G1 X27.3333
G2 X20.3333 Y111.6667 I0.0 J7.0
G1 Y123.6667
G2 X27.3333 Y130.6667 I7.0 J0.0
G1 X39.3333
G2 X46.3333 Y123.6667 I0.0 J-7.0
G1 Y111.6667
G2 X39.664 Y104.6745 I-7.0 J0.0
G1 F300.0 Z3.0
G2 F800.0 X39.3333 Y104.6667 I-0.3307 J6.9922
G1 X27.3333
G2 X20.3333 Y111.6667 I0.0 J7.0
G1 Y123.6667
G2 X27.3333 Y130.6667 I7.0 J0.0
G1 X39.3333
G2 X46.3333 Y123.6667 I0.0 J-7.0
G1 Y111.6667
G2 X39.664 Y104.6745 I-7.0 J0.0
G1 F300.0 Z0.0
G2 F800.0 X39.3333 Y104.6667 I-0.3307 J6.9922
G1 X27.3333
G2 X23.0504 Y106.1298 I0.0 J7.0
G2 X21.937 Y107.208 Z2.0 I4.2829 J5.5368
G2 X20.8964 Y108.9159 I5.3963 J4.4587
G2 X20.4489 Y110.3998 Z0.0 I6.4369 J2.7507
G2 X20.3333 Y111.6667 I6.8844 J1.2669
G1 Y123.6667
G2 X27.3333 Y130.6667 I7.0 J0.0
G1 X28.6445
G1 X30.1445 Z2.0
G1 X32.1445
G1 X33.6445 Z0.0
G1 X39.3333
G2 X46.3333 Y123.6667 I0.0 J-7.0
G1 Y114.1667
G1 Y112.6667 Z2.0
G1 Y111.6667
G2 X46.2615 Y110.6667 I-7.0 J0.0
G2 X45.8717 Y109.1667 Z0.0 I-6.9282 J1.0
G2 X39.664 Y104.6745 I-6.5383 J2.5
G0 Z20.0
G0 X54.0251 Y109.4555
G0 Z10.0
G1 F300.0 Z6.0
G2 F800.0 X53.6667 Y111.6667 I6.6416 J2.2111
G1 Y123.6667
G2 X60.6667 Y130.6667 I7.0 J0.0
G1 X72.6667
G2 X79.6667 Y123.6667 I0.0 J-7.0
G1 Y111.6667
G2 X72.6667 Y104.6667 I-7.0 J0.0
G1 X60.6667
G2 X54.0251 Y109.4555 I0.0 J7.0
G1 F300.0 Z3.0
G2 F800.0 X53.6667 Y111.6667 I6.6416 J2.2111
G1 Y123.6667
G2 X60.6667 Y130.6667 I7.0 J0.0
G1 X72.6667
G2 X79.6667 Y123.6667 I0.0 J-7.0
G1 Y111.6667
G2 X72.6667 Y104.6667 I-7.0 J0.0
G1 X60.6667
G2 X54.0251 Y109.4555 I0.0 J7.0
G1 F300.0 Z0.0
G2 F800.0 X53.6667 Y111.6667 I6.6416 J2.2111
G1 Y123.6667
G2 X53.7823 Y124.9336 I7.0 J0.0
G2 X54.2298 Y126.4174 Z2.0 I6.8844 J-1.2669
G2 X55.2704 Y128.1254 I6.4369 J-2.7507
G2 X56.3837 Y129.2035 Z0.0 I5.3963 J-4.4587
G2 X60.6667 Y130.6667 I4.2829 J-5.5368
G1 X72.6667
G2 X79.205 Y126.1667 I0.0 J-7.0
G2 X79.5949 Y124.6667 Z2.0 I-6.5383 J-2.5
G2 X79.6667 Y123.6667 I-6.9282 J-1.0
G1 Y122.6667
G1 Y121.1667 Z0.0
G1 Y111.6667
G2 X72.6667 Y104.6667 I-7.0 J0.0
G1 X66.9779
G1 X65.4779 Z2.0
G1 X63.4779
G1 X61.9779 Z0.0
G1 X60.6667
G2 X54.0251 Y109.4555 I0.0 J7.0
G0 Z20.0
G0 X59.3809 Y138.1191
G0 Z10.0
G1 F300.0 Z6.0
G2 F800.0 X53.6667 Y145.0 I1.2857 J6.8809
G1 Y157.0
G2 X60.6667 Y164.0 I7.0 J0.0
G1 X72.6667
G2 X79.6667 Y157.0 I0.0 J-7.0
G1 Y145.0
G2 X72.6667 Y138.0 I-7.0 J0.0
G1 X60.6667
G2 X59.3809 Y138.1191 I0.0 J7.0
G1 F300.0 Z3.0
G2 F800.0 X53.6667 Y145.0 I1.2857 J6.8809
G1 Y157.0
G2 X60.6667 Y164.0 I7.0 J0.0
G1 X72.6667
G2 X79.6667 Y157.0 I0.0 J-7.0
G1 Y145.0
G2 X72.6667 Y138.0 I-7.0 J0.0
G1 X60.6667
G2 X59.3809 Y138.1191 I0.0 J7.0
G1 F300.0 Z0.0
G2 F800.0 X53.6667 Y145.0 I1.2857 J6.8809
G1 Y157.0
G2 X53.7823 Y158.2669 I7.0 J0.0
G2 X54.2298 Y159.7507 Z2.0 I6.8844 J-1.2669
G2 X55.2704 Y161.4587 I6.4369 J-2.7507
G2 X56.3837 Y162.5368 Z0.0 I5.3963 J-4.4587
G2 X60.6667 Y164.0 I4.2829 J-5.5368
G1 X72.6667
G2 X79.205 Y159.5 I0.0 J-7.0
G2 X79.5949 Y158.0 Z2.0 I-6.5383 J-2.5
G2 X79.6667 Y157.0 I-6.9282 J-1.0
G1 Y156.0
G1 Y154.5 Z0.0
G1 Y145.0
G2 X72.6667 Y138.0 I-7.0 J0.0
G1 X66.9779
G1 X65.4779 Z2.0
G1 X63.4779
G1 X61.9779 Z0.0
G1 X60.6667
G2 X59.3809 Y138.1191 I0.0 J7.0
G0 Z20.0
G0 X45.9542 Y142.7275
G0 Z10.0
G1 F300.0 Z6.0
G2 F800.0 X39.3333 Y138.0 I-6.6209 J2.2725
G1 X27.3333
G2 X20.3333 Y145.0 I0.0 J7.0
G1 Y157.0
G2 X27.3333 Y164.0 I7.0 J0.0
G1 X39.3333
G2 X46.3333 Y157.0 I0.0 J-7.0
G1 Y145.0
G2 X45.9542 Y142.7275 I-7.0 J0.0
G1 F300.0 Z3.0
G2 F800.0 X39.3333 Y138.0 I-6.6209 J2.2725
G1 X27.3333
G2 X20.3333 Y145.0 I0.0 J7.0
G1 Y157.0
G2 X27.3333 Y164.0 I7.0 J0.0
G1 X39.3333
G2 X46.3333 Y157.0 I0.0 J-7.0
G1 Y145.0
G2 X45.9542 Y142.7275 I-7.0 J0.0
G1 F300.0 Z0.0
G2 F800.0 X39.3333 Y138.0 I-6.6209 J2.2725
G1 X33.6445
G1 X32.1445 Z2.0
G1 X30.1445
G1 X28.6445 Z0.0
G1 X27.3333
G2 X20.3333 Y145.0 I0.0 J7.0
G1 Y157.0
G2 X20.4489 Y158.2669 I7.0 J0.0
G2 X20.8964 Y159.7507 Z2.0 I6.8844 J-1.2669
G2 X21.937 Y161.4587 I6.4369 J-2.7507
G2 X23.0504 Y162.5368 Z0.0 I5.3963 J-4.4587
G2 X27.3333 Y164.0 I4.2829 J-5.5368
G1 X39.3333
G2 X45.8717 Y159.5 I0.0 J-7.0
G2 X46.2615 Y158.0 Z2.0 I-6.5383 J-2.5
G2 X46.3333 Y157.0 I-6.9282 J-1.0
G1 Y156.0
G1 Y154.5 Z0.0
G1 Y145.0
G2 X45.9542 Y142.7275 I-7.0 J0.0
G0 Z20.0
G0 X40.613 Y171.4513
G0 Z10.0
G1 F300.0 Z6.0
G2 F800.0 X39.3333 Y171.3333 I-1.2797 J6.882
G1 X27.3333
G2 X20.3333 Y178.3333 I0.0 J7.0
G1 Y190.3333
G2 X27.3333 Y197.3333 I7.0 J0.0
G1 X39.3333
G2 X46.3333 Y190.3333 I0.0 J-7.0
G1 Y178.3333
G2 X40.613 Y171.4513 I-7.0 J0.0
G1 F300.0 Z3.0
G2 F800.0 X39.3333 Y171.3333 I-1.2797 J6.882
G1 X27.3333
G2 X20.3333 Y178.3333 I0.0 J7.0
G1 Y190.3333
G2 X27.3333 Y197.3333 I7.0 J0.0
G1 X39.3333
G2 X46.3333 Y190.3333 I0.0 J-7.0
G1 Y178.3333
G2 X40.613 Y171.4513 I-7.0 J0.0
G1 F300.0 Z0.0
G2 F800.0 X39.3333 Y171.3333 I-1.2797 J6.882
G1 X33.6445
G1 X32.1445 Z2.0
G1 X30.1445
G1 X28.6445 Z0.0
G1 X27.3333
G2 X20.3333 Y178.3333 I0.0 J7.0
G1 Y190.3333
G2 X20.4489 Y191.6002 I7.0 J0.0
G2 X20.8964 Y193.0841 Z2.0 I6.8844 J-1.2669
G2 X21.937 Y194.792 I6.4369 J-2.7507
G2 X23.0504 Y195.8702 Z0.0 I5.3963 J-4.4587
G2 X27.3333 Y197.3333 I4.2829 J-5.5368
G1 X39.3333
G2 X45.8717 Y192.8333 I0.0 J-7.0
G2 X46.2615 Y191.3333 Z2.0 I-6.5383 J-2.5
G2 X46.3333 Y190.3333 I-6.9282 J-1.0
G1 Y189.3333
G1 Y187.8333 Z0.0
G1 Y178.3333
G2 X40.613 Y171.4513 I-7.0 J0.0
G0 Z20.0
G0 X54.0457 Y176.0611
G0 Z10.0
G1 F300.0 Z6.0
G2 F800.0 X53.6667 Y178.3333 I6.621 J2.2722
G1 Y190.3333
G2 X60.6667 Y197.3333 I7.0 J0.0
G1 X72.6667
G2 X79.6667 Y190.3333 I0.0 J-7.0
G1 Y178.3333
G2 X72.6667 Y171.3333 I-7.0 J0.0
G1 X60.6667
G2 X54.0457 Y176.0611 I0.0 J7.0
G1 F300.0 Z3.0
G2 F800.0 X53.6667 Y178.3333 I6.621 J2.2722
G1 Y190.3333
G2 X60.6667 Y197.3333 I7.0 J0.0
G1 X72.6667
G2 X79.6667 Y190.3333 I0.0 J-7.0
G1 Y178.3333
G2 X72.6667 Y171.3333 I-7.0 J0.0
G1 X60.6667
G2 X54.0457 Y176.0611 I0.0 J7.0
G1 F300.0 Z0.0
G2 F800.0 X53.6667 Y178.3333 I6.621 J2.2722
G1 Y190.3333
G2 X53.7823 Y191.6002 I7.0 J0.0
G2 X54.2298 Y193.0841 Z2.0 I6.8844 J-1.2669
G2 X55.2704 Y194.792 I6.4369 J-2.7507
G2 X56.3837 Y195.8702 Z0.0 I5.3963 J-4.4587
G2 X60.6667 Y197.3333 I4.2829 J-5.5368
G1 X72.6667
G2 X79.205 Y192.8333 I0.0 J-7.0
G2 X79.5949 Y191.3333 Z2.0 I-6.5383 J-2.5
G2 X79.6667 Y190.3333 I-6.9282 J-1.0
G1 Y189.3333
G1 Y187.8333 Z0.0
G1 Y178.3333
G2 X72.6667 Y171.3333 I-7.0 J0.0
G1 X66.9779
G1 X65.4779 Z2.0
G1 X63.4779
G1 X61.9779 Z0.0
G1 X60.6667
G2 X54.0457 Y176.0611 I0.0 J7.0
G0 Z20.0
G0 X59.3869 Y204.7846
G0 Z10.0
G1 F300.0 Z6.0
G2 F800.0 X53.6667 Y211.6667 I1.2797 J6.882
G1 Y223.6667
G2 X60.6667 Y230.6667 I7.0 J0.0
G1 X72.6667
G2 X79.6667 Y223.6667 I0.0 J-7.0
G1 Y211.6667
G2 X72.6667 Y204.6667 I-7.0 J0.0
G1 X60.6667
G2 X59.3869 Y204.7846 I0.0 J7.0
G1 F300.0 Z3.0
G2 F800.0 X53.6667 Y211.6667 I1.2797 J6.882
G1 Y223.6667
G2 X60.6667 Y230.6667 I7.0 J0.0
G1 X72.6667
G2 X79.6667 Y223.6667 I0.0 J-7.0
G1 Y211.6667
G2 X72.6667 Y204.6667 I-7.0 J0.0
G1 X60.6667
G2 X59.3869 Y204.7846 I0.0 J7.0
G1 F300.0 Z0.0
G2 F800.0 X53.6667 Y211.6667 I1.2797 J6.882
G1 Y223.6667
G2 X53.7823 Y224.9336 I7.0 J0.0
G2 X54.2298 Y226.4174 Z2.0 I6.8844 J-1.2669
G2 X55.2704 Y228.1254 I6.4369 J-2.7507
G2 X56.3837 Y229.2035 Z0.0 I5.3963 J-4.4587
G2 X60.6667 Y230.6667 I4.2829 J-5.5368
G1 X72.6667
G2 X79.205 Y226.1667 I0.0 J-7.0
G2 X79.5949 Y224.6667 Z2.0 I-6.5383 J-2.5
G2 X79.6667 Y223.6667 I-6.9282 J-1.0
G1 Y222.6667
G1 Y221.1667 Z0.0
G1 Y211.6667
G2 X72.6667 Y204.6667 I-7.0 J0.0
G1 X66.9779
G1 X65.4779 Z2.0
G1 X63.4779
G1 X61.9779 Z0.0
G1 X60.6667
G2 X59.3869 Y204.7846 I0.0 J7.0
G0 Z20.0
G0 X45.9543 Y209.3945
G0 Z10.0
G1 F300.0 Z6.0
G2 F800.0 X39.3333 Y204.6667 I-6.621 J2.2722
G1 X27.3333
G2 X20.3333 Y211.6667 I0.0 J7.0
G1 Y223.6667
G2 X27.3333 Y230.6667 I7.0 J0.0
G1 X39.3333
G2 X46.3333 Y223.6667 I0.0 J-7.0
G1 Y211.6667
G2 X45.9543 Y209.3945 I-7.0 J0.0
G1 F300.0 Z3.0
G2 F800.0 X39.3333 Y204.6667 I-6.621 J2.2722
G1 X27.3333
G2 X20.3333 Y211.6667 I0.0 J7.0
G1 Y223.6667
G2 X27.3333 Y230.6667 I7.0 J0.0
G1 X39.3333
G2 X46.3333 Y223.6667 I0.0 J-7.0
G1 Y211.6667
G2 X45.9543 Y209.3945 I-7.0 J0.0
G1 F300.0 Z0.0
G2 F800.0 X39.3333 Y204.6667 I-6.621 J2.2722
G1 X33.6445
G1 X32.1445 Z2.0
G1 X30.1445
G1 X28.6445 Z0.0
G1 X27.3333
G2 X20.3333 Y211.6667 I0.0 J7.0
G1 Y223.6667
G2 X20.4489 Y224.9336 I7.0 J0.0
G2 X20.8964 Y226.4174 Z2.0 I6.8844 J-1.2669
G2 X21.937 Y228.1254 I6.4369 J-2.7507
G2 X23.0504 Y229.2035 Z0.0 I5.3963 J-4.4587
G2 X27.3333 Y230.6667 I4.2829 J-5.5368
G1 X39.3333
G2 X45.8717 Y226.1667 I0.0 J-7.0
G2 X46.2615 Y224.6667 Z2.0 I-6.5383 J-2.5
G2 X46.3333 Y223.6667 I-6.9282 J-1.0
G1 Y222.6667
G1 Y221.1667 Z0.0
G1 Y211.6667
G2 X45.9543 Y209.3945 I-7.0 J0.0
G0 Z20.0
G0 X40.6131 Y238.118
G0 Z10.0
G1 F300.0 Z6.0
G2 F800.0 X39.3333 Y238.0 I-1.2797 J6.882
G1 X27.3333
G2 X20.3333 Y245.0 I0.0 J7.0
G1 Y257.0
G2 X27.3333 Y264.0 I7.0 J0.0
G1 X39.3333
G2 X46.3333 Y257.0 I0.0 J-7.0
G1 Y245.0
G2 X40.6131 Y238.118 I-7.0 J0.0
G1 F300.0 Z3.0
G2 F800.0 X39.3333 Y238.0 I-1.2797 J6.882
G1 X27.3333
G2 X20.3333 Y245.0 I0.0 J7.0
G1 Y257.0
G2 X27.3333 Y264.0 I7.0 J0.0
G1 X39.3333
G2 X46.3333 Y257.0 I0.0 J-7.0
G1 Y245.0
G2 X40.6131 Y238.118 I-7.0 J0.0
G1 F300.0 Z0.0
G2 F800.0 X39.3333 Y238.0 I-1.2797 J6.882
G1 X33.6445
G1 X32.1445 Z2.0
G1 X30.1445
G1 X28.6445 Z0.0
G1 X27.3333
G2 X20.3333 Y245.0 I0.0 J7.0
G1 Y257.0
G2 X20.4489 Y258.2669 I7.0 J0.0
G2 X20.8964 Y259.7507 Z2.0 I6.8844 J-1.2669
G2 X21.937 Y261.4587 I6.4369 J-2.7507
G2 X23.0504 Y262.5368 Z0.0 I5.3963 J-4.4587
G2 X27.3333 Y264.0 I4.2829 J-5.5368
G1 X39.3333
G2 X45.8717 Y259.5 I0.0 J-7.0
G2 X46.2615 Y258.0 Z2.0 I-6.5383 J-2.5
G2 X46.3333 Y257.0 I-6.9282 J-1.0
G1 Y256.0
G1 Y254.5 Z0.0
G1 Y245.0
G2 X40.6131 Y238.118 I-7.0 J0.0
G0 Z20.0
G0 X54.0457 Y242.7278
G0 Z10.0
G1 F300.0 Z6.0
G2 F800.0 X53.6667 Y245.0 I6.621 J2.2722
G1 Y257.0
G2 X60.6667 Y264.0 I7.0 J0.0
G1 X72.6667
G2 X79.6667 Y257.0 I0.0 J-7.0
G1 Y245.0
G2 X72.6667 Y238.0 I-7.0 J0.0
G1 X60.6667
G2 X54.0457 Y242.7278 I0.0 J7.0
G1 F300.0 Z3.0
G2 F800.0 X53.6667 Y245.0 I6.621 J2.2722
G1 Y257.0
G2 X60.6667 Y264.0 I7.0 J0.0
G1 X72.6667
G2 X79.6667 Y257.0 I0.0 J-7.0
G1 Y245.0
G2 X72.6667 Y238.0 I-7.0 J0.0
G1 X60.6667
G2 X54.0457 Y242.7278 I0.0 J7.0
G1 F300.0 Z0.0
G2 F800.0 X53.6667 Y245.0 I6.621 J2.2722
G1 Y257.0
G2 X53.7823 Y258.2669 I7.0 J0.0
G2 X54.2298 Y259.7507 Z2.0 I6.8844 J-1.2669
G2 X55.2704 Y261.4587 I6.4369 J-2.7507
G2 X56.3837 Y262.5368 Z0.0 I5.3963 J-4.4587
G2 X60.6667 Y264.0 I4.2829 J-5.5368
G1 X72.6667
G2 X79.205 Y259.5 I0.0 J-7.0
G2 X79.5949 Y258.0 Z2.0 I-6.5383 J-2.5
G2 X79.6667 Y257.0 I-6.9282 J-1.0
G1 Y256.0
G1 Y254.5 Z0.0
G1 Y245.0
G2 X72.6667 Y238.0 I-7.0 J0.0
G1 X66.9779
G1 X65.4779 Z2.0
G1 X63.4779
G1 X61.9779 Z0.0
G1 X60.6667
G2 X54.0457 Y242.7278 I0.0 J7.0
G0 Z20.0
G0 X153.6683 Y244.8509
G0 Z10.0
G1 F300.0 Z6.0
G2 F800.0 X153.6667 Y245.0 I6.9984 J0.1491
G1 Y257.0
G2 X160.6667 Y264.0 I7.0 J0.0
G1 X172.6667
G2 X179.6667 Y257.0 I0.0 J-7.0
G1 Y245.0
G2 X172.6667 Y238.0 I-7.0 J0.0
G1 X160.6667
G2 X153.6683 Y244.8509 I0.0 J7.0
G1 F300.0 Z3.0
G2 F800.0 X153.6667 Y245.0 I6.9984 J0.1491
G1 Y257.0
G2 X160.6667 Y264.0 I7.0 J0.0
G1 X172.6667
G2 X179.6667 Y257.0 I0.0 J-7.0
G1 Y245.0
G2 X172.6667 Y238.0 I-7.0 J0.0
G1 X160.6667
G2 X153.6683 Y244.8509 I0.0 J7.0
G1 F300.0 Z0.0
G2 F800.0 X153.6667 Y245.0 I6.9984 J0.1491
G1 Y257.0
G2 X153.7823 Y258.2669 I7.0 J0.0
G2 X154.2298 Y259.7507 Z2.0 I6.8844 J-1.2669
G2 X155.2704 Y261.4587 I6.4369 J-2.7507
G2 X156.3837 Y262.5368 Z0.0 I5.3963 J-4.4587
G2 X160.6667 Y264.0 I4.2829 J-5.5368
G1 X172.6667
G2 X179.205 Y259.5 I0.0 J-7.0
G2 X179.5949 Y258.0 Z2.0 I-6.5383 J-2.5
G2 X179.6667 Y257.0 I-6.9282 J-1.0
G1 Y256.0
G1 Y254.5 Z0.0
G1 Y245.0
G2 X172.6667 Y238.0 I-7.0 J0.0
G1 X166.9779
G1 X165.4779 Z2.0
G1 X163.4779
G1 X161.9779 Z0.0
G1 X160.6667
G2 X153.6683 Y244.8509 I0.0 J7.0
G0 Z20.0
G0 X158.4709 Y230.3134
G0 Z10.0
G1 F300.0 Z6.0
G2 F800.0 X160.6667 Y230.6667 I2.1958 J-6.6467
G1 X172.6667
G2 X179.6667 Y223.6667 I0.0 J-7.0
G1 Y211.6667
G2 X172.6667 Y204.6667 I-7.0 J0.0
G1 X160.6667
G2 X153.6667 Y211.6667 I0.0 J7.0
G1 Y223.6667
G2 X158.4709 Y230.3134 I7.0 J0.0
G1 F300.0 Z3.0
G2 F800.0 X160.6667 Y230.6667 I2.1958 J-6.6467
G1 X172.6667
G2 X179.6667 Y223.6667 I0.0 J-7.0
G1 Y211.6667
G2 X172.6667 Y204.6667 I-7.0 J0.0
G1 X160.6667
G2 X153.6667 Y211.6667 I0.0 J7.0
G1 Y223.6667
G2 X158.4709 Y230.3134 I7.0 J0.0
G1 F300.0 Z0.0
G2 F800.0 X160.6667 Y230.6667 I2.1958 J-6.6467
G1 X172.6667
G2 X179.205 Y226.1667 I0.0 J-7.0
G2 X179.5949 Y224.6667 Z2.0 I-6.5383 J-2.5
G2 X179.6667 Y223.6667 I-6.9282 J-1.0
G1 Y222.6667
G1 Y221.1667 Z0.0
G1 Y211.6667
G2 X172.6667 Y204.6667 I-7.0 J0.0
G1 X166.9779
G1 X165.4779 Z2.0
G1 X163.4779
G1 X161.9779 Z0.0
G1 X160.6667
G2 X153.6667 Y211.6667 I0.0 J7.0
G1 Y223.6667
G2 X153.7823 Y224.9336 I7.0 J0.0
G2 X154.2298 Y226.4174 Z2.0 I6.8844 J-1.2669
G2 X155.2704 Y228.1254 I6.4369 J-2.7507
G2 X156.3837 Y229.2035 Z0.0 I5.3963 J-4.4587
G2 X158.4709 Y230.3134 I4.2829 J-5.5368
G0 Z20.0
G0 X187.1194 Y224.9539
G0 Z10.0
G1 F300.0 Z6.0
G2 F800.0 X194.0 Y230.6667 I6.8806 J-1.2872
G1 X206.0
G2 X213.0 Y223.6667 I0.0 J-7.0
G1 Y211.6667
G2 X206.0 Y204.6667 I-7.0 J0.0
G1 X194.0
G2 X187.0 Y211.6667 I0.0 J7.0
G1 Y223.6667
G2 X187.1194 Y224.9539 I7.0 J0.0
G1 F300.0 Z3.0
G2 F800.0 X194.0 Y230.6667 I6.8806 J-1.2872
G1 X206.0
G2 X213.0 Y223.6667 I0.0 J-7.0
G1 Y211.6667
G2 X206.0 Y204.6667 I-7.0 J0.0
G1 X194.0
G2 X187.0 Y211.6667 I0.0 J7.0
G1 Y223.6667
G2 X187.1194 Y224.9539 I7.0 J0.0
G1 F300.0 Z0.0275
G2 F800.0 X187.5631 Y226.4174 Z2.0 I6.8806 J-1.2872
G2 X188.6037 Y228.1254 I6.4369 J-2.7507
G2 X189.7171 Y229.2035 Z0.0 I5.3963 J-4.4587
G2 X194.0 Y230.6667 I4.2829 J-5.5368
G1 X206.0
G2 X212.5383 Y226.1667 I0.0 J-7.0
G2 X212.9282 Y224.6667 Z2.0 I-6.5383 J-2.5
G2 X213.0 Y223.6667 I-6.9282 J-1.0
G1 Y222.6667
G1 Y221.1667 Z0.0
G1 Y211.6667
G2 X206.0 Y204.6667 I-7.0 J0.0
G1 X200.3112
G1 X198.8112 Z2.0
G1 X196.8112
G1 X195.3112 Z0.0
G1 X194.0
G2 X187.0 Y211.6667 I0.0 J7.0
G1 Y223.6667
G2 X187.1156 Y224.9336 I7.0 J0.0
G1 X187.1194 Y224.9539 Z0.0275
G0 Z20.0
G0 X191.7275 Y238.3792
G0 Z10.0
G1 F300.0 Z6.0
G2 F800.0 X187.0 Y245.0 I2.2725 J6.6208
G1 Y257.0
G2 X194.0 Y264.0 I7.0 J0.0
G1 X206.0
G2 X213.0 Y257.0 I0.0 J-7.0
G1 Y245.0
G2 X206.0 Y238.0 I-7.0 J0.0
G1 X194.0
G2 X191.7275 Y238.3792 I0.0 J7.0
G1 F300.0 Z3.0
G2 F800.0 X187.0 Y245.0 I2.2725 J6.6208
G1 Y257.0
G2 X194.0 Y264.0 I7.0 J0.0
G1 X206.0
G2 X213.0 Y257.0 I0.0 J-7.0
G1 Y245.0
G2 X206.0 Y238.0 I-7.0 J0.0
G1 X194.0
G2 X191.7275 Y238.3792 I0.0 J7.0
G1 F300.0 Z0.0
G2 F800.0 X187.0 Y245.0 I2.2725 J6.6208
G1 Y257.0
G2 X187.1156 Y258.2669 I7.0 J0.0
G2 X187.5631 Y259.7507 Z2.0 I6.8844 J-1.2669
G2 X188.6037 Y261.4587 I6.4369 J-2.7507
G2 X189.7171 Y262.5368 Z0.0 I5.3963 J-4.4587
G2 X194.0 Y264.0 I4.2829 J-5.5368
G1 X206.0
G2 X212.5383 Y259.5 I0.0 J-7.0
G2 X212.9282 Y258.0 Z2.0 I-6.5383 J-2.5
G2 X213.0 Y257.0 I-6.9282 J-1.0
G1 Y256.0
G1 Y254.5 Z0.0
G1 Y245.0
G2 X206.0 Y238.0 I-7.0 J0.0
G1 X200.3112
G1 X198.8112 Z2.0
G1 X196.8112
G1 X195.3112 Z0.0
G1 X194.0
G2 X191.7275 Y238.3792 I0.0 J7.0
G0 Z20.0
G0 X193.6693 Y197.3255
G0 Z10.0
G1 F300.0 Z6.0
G2 F800.0 X194.0 Y197.3333 I0.3307 J-6.9922
G1 X206.0
G2 X213.0 Y190.3333 I0.0 J-7.0
G1 Y178.3333
G2 X206.0 Y171.3333 I-7.0 J0.0
G1 X194.0
G2 X187.0 Y178.3333 I0.0 J7.0
G1 Y190.3333
G2 X193.6693 Y197.3255 I7.0 J0.0
G1 F300.0 Z3.0
G2 F800.0 X194.0 Y197.3333 I0.3307 J-6.9922
G1 X206.0
G2 X213.0 Y190.3333 I0.0 J-7.0
G1 Y178.3333
G2 X206.0 Y171.3333 I-7.0 J0.0
G1 X194.0
G2 X187.0 Y178.3333 I0.0 J7.0
G1 Y190.3333
G2 X193.6693 Y197.3255 I7.0 J0.0
G1 F300.0 Z0.0
G2 F800.0 X194.0 Y197.3333 I0.3307 J-6.9922
G1 X206.0
G2 X212.5383 Y192.8333 I0.0 J-7.0
G2 X212.9282 Y191.3333 Z2.0 I-6.5383 J-2.5
G2 X213.0 Y190.3333 I-6.9282 J-1.0
G1 Y189.3333
G1 Y187.8333 Z0.0
G1 Y178.3333
G2 X206.0 Y171.3333 I-7.0 J0.0
G1 X200.3112
G1 X198.8112 Z2.0
G1 X196.8112
G1 X195.3112 Z0.0
G1 X194.0
G2 X187.0 Y178.3333 I0.0 J7.0
G1 Y190.3333
G2 X187.1156 Y191.6002 I7.0 J0.0
G2 X187.5631 Y193.0841 Z2.0 I6.8844 J-1.2669
G2 X188.6037 Y194.792 I6.4369 J-2.7507
G2 X189.7171 Y195.8702 Z0.0 I5.3963 J-4.4587
G2 X193.6693 Y197.3255 I4.2829 J-5.5368
G0 Z20.0
G0 X179.3083 Y192.5445
G0 Z10.0
G1 F300.0 Z6.0
G2 F800.0 X179.6667 Y190.3333 I-6.6416 J-2.2111
G1 Y178.3333
G2 X172.6667 Y171.3333 I-7.0 J0.0
G1 X160.6667
G2 X153.6667 Y178.3333 I0.0 J7.0
G1 Y190.3333
G2 X160.6667 Y197.3333 I7.0 J0.0
G1 X172.6667
G2 X179.3083 Y192.5445 I0.0 J-7.0
G1 F300.0 Z3.0
G2 F800.0 X179.6667 Y190.3333 I-6.6416 J-2.2111
G1 Y178.3333
G2 X172.6667 Y171.3333 I-7.0 J0.0
G1 X160.6667
G2 X153.6667 Y178.3333 I0.0 J7.0
G1 Y190.3333
G2 X160.6667 Y197.3333 I7.0 J0.0
G1 X172.6667
G2 X179.3083 Y192.5445 I0.0 J-7.0
G1 F300.0 Z0.409
G2 F800.0 X179.5949 Y191.3333 Z2.0 I-6.6416 J-2.2111
G2 X179.6667 Y190.3333 I-6.9282 J-1.0
G1 Y189.3333
G1 Y187.8333 Z0.0
G1 Y178.3333
G2 X172.6667 Y171.3333 I-7.0 J0.0
G1 X166.9779
G1 X165.4779 Z2.0
G1 X163.4779
G1 X161.9779 Z0.0
G1 X160.6667
G2 X153.6667 Y178.3333 I0.0 J7.0
G1 Y190.3333
G2 X153.7823 Y191.6002 I7.0 J0.0
G2 X154.2298 Y193.0841 Z2.0 I6.8844 J-1.2669
G2 X155.2704 Y194.792 I6.4369 J-2.7507
G2 X156.3837 Y195.8702 Z0.0 I5.3963 J-4.4587
G2 X160.6667 Y197.3333 I4.2829 J-5.5368
G1 X172.6667
G2 X179.205 Y192.8333 I0.0 J-7.0
G2 X179.3083 Y192.5445 Z0.409 I-6.5383 J-2.5
G0 Z20.0
G0 X173.9524 Y163.8809
G0 Z10.0
G1 F300.0 Z6.0
G2 F800.0 X179.6667 Y157.0 I-1.2857 J-6.8809
G1 Y145.0
G2 X172.6667 Y138.0 I-7.0 J0.0
G1 X160.6667
G2 X153.6667 Y145.0 I0.0 J7.0
G1 Y157.0
G2 X160.6667 Y164.0 I7.0 J0.0
G1 X172.6667
G2 X173.9524 Y163.8809 I0.0 J-7.0
G1 F300.0 Z3.0
G2 F800.0 X179.6667 Y157.0 I-1.2857 J-6.8809
G1 Y145.0
G2 X172.6667 Y138.0 I-7.0 J0.0
G1 X160.6667
G2 X153.6667 Y145.0 I0.0 J7.0
G1 Y157.0
G2 X160.6667 Y164.0 I7.0 J0.0
G1 X172.6667
G2 X173.9524 Y163.8809 I0.0 J-7.0
G1 F300.0 Z0.0
G2 F800.0 X179.205 Y159.5 I-1.2857 J-6.8809
G2 X179.5949 Y158.0 Z2.0 I-6.5383 J-2.5
G2 X179.6667 Y157.0 I-6.9282 J-1.0
G1 Y156.0
G1 Y154.5 Z0.0
G1 Y145.0
G2 X172.6667 Y138.0 I-7.0 J0.0
G1 X166.9779
G1 X165.4779 Z2.0
G1 X163.4779
G1 X161.9779 Z0.0
G1 X160.6667
G2 X153.6667 Y145.0 I0.0 J7.0
G1 Y157.0
G2 X153.7823 Y158.2669 I7.0 J0.0
G2 X154.2298 Y159.7507 Z2.0 I6.8844 J-1.2669
G2 X155.2704 Y161.4587 I6.4369 J-2.7507
G2 X156.3837 Y162.5368 Z0.0 I5.3963 J-4.4587
G2 X160.6667 Y164.0 I4.2829 J-5.5368
G1 X172.6667
G2 X173.9524 Y163.8809 I0.0 J-7.0
G0 Z20.0
G0 X187.3791 Y159.2725
G0 Z10.0
G1 F300.0 Z6.0
G2 F800.0 X194.0 Y164.0 I6.6209 J-2.2725
G1 X206.0
G2 X213.0 Y157.0 I0.0 J-7.0
G1 Y145.0
G2 X206.0 Y138.0 I-7.0 J0.0
G1 X194.0
G2 X187.0 Y145.0 I0.0 J7.0
G1 Y157.0
G2 X187.3791 Y159.2725 I7.0 J0.0
G1 F300.0 Z3.0
G2 F800.0 X194.0 Y164.0 I6.6209 J-2.2725
G1 X206.0
G2 X213.0 Y157.0 I0.0 J-7.0
G1 Y145.0
G2 X206.0 Y138.0 I-7.0 J0.0
G1 X194.0
G2 X187.0 Y145.0 I0.0 J7.0
G1 Y157.0
G2 X187.3791 Y159.2725 I7.0 J0.0
G1 F300.0 Z1.386
G2 F800.0 X187.5631 Y159.7507 Z2.0 I6.6209 J-2.2725
G2 X188.6037 Y161.4587 I6.4369 J-2.7507
G2 X189.7171 Y162.5368 Z0.0 I5.3963 J-4.4587
G2 X194.0 Y164.0 I4.2829 J-5.5368
G1 X206.0
G2 X212.5383 Y159.5 I0.0 J-7.0
G2 X212.9282 Y158.0 Z2.0 I-6.5383 J-2.5
G2 X213.0 Y157.0 I-6.9282 J-1.0
G1 Y156.0
G1 Y154.5 Z0.0
G1 Y145.0
G2 X206.0 Y138.0 I-7.0 J0.0
G1 X200.3112
G1 X198.8112 Z2.0
G1 X196.8112
G1 X195.3112 Z0.0
G1 X194.0
G2 X187.0 Y145.0 I0.0 J7.0
G1 Y157.0
G2 X187.1156 Y158.2669 I7.0 J0.0
G2 X187.3791 Y159.2725 Z1.386 I6.8844 J-1.2669
G0 Z20.0
G0 X192.7203 Y130.5487
G0 Z10.0
G1 F300.0 Z6.0
G2 F800.0 X194.0 Y130.6667 I1.2797 J-6.882
G1 X206.0
G2 X213.0 Y123.6667 I0.0 J-7.0
G1 Y111.6667
G2 X206.0 Y104.6667 I-7.0 J0.0
G1 X194.0
G2 X187.0 Y111.6667 I0.0 J7.0
G1 Y123.6667
G2 X192.7203 Y130.5487 I7.0 J0.0
G1 F300.0 Z3.0
G2 F800.0 X194.0 Y130.6667 I1.2797 J-6.882
G1 X206.0
G2 X213.0 Y123.6667 I0.0 J-7.0
G1 Y111.6667
G2 X206.0 Y104.6667 I-7.0 J0.0
G1 X194.0
G2 X187.0 Y111.6667 I0.0 J7.0
G1 Y123.6667
G2 X192.7203 Y130.5487 I7.0 J0.0
G1 F300.0 Z0.0
G2 F800.0 X194.0 Y130.6667 I1.2797 J-6.882
G1 X195.3112
G1 X196.8112 Z2.0
G1 X198.8112
G1 X200.3112 Z0.0
G1 X206.0
G2 X213.0 Y123.6667 I0.0 J-7.0
G1 Y114.1667
G1 Y112.6667 Z2.0
G1 Y111.6667
G2 X212.9282 Y110.6667 I-7.0 J0.0
G2 X212.5383 Y109.1667 Z0.0 I-6.9282 J1.0
G2 X206.0 Y104.6667 I-6.5383 J2.5
G1 X194.0
G2 X189.7171 Y106.1298 I0.0 J7.0
G2 X188.6037 Y107.208 Z2.0 I4.2829 J5.5368
G2 X187.5631 Y108.9159 I5.3963 J4.4587
G2 X187.1156 Y110.3998 Z0.0 I6.4369 J2.7507
G2 X187.0 Y111.6667 I6.8844 J1.2669
G1 Y123.6667
G2 X192.7203 Y130.5487 I7.0 J0.0
G0 Z20.0
G0 X179.2876 Y125.9389
G0 Z10.0
G1 F300.0 Z6.0
G2 F800.0 X179.6667 Y123.6667 I-6.621 J-2.2722
G1 Y111.6667
G2 X172.6667 Y104.6667 I-7.0 J0.0
G1 X160.6667
G2 X153.6667 Y111.6667 I0.0 J7.0
G1 Y123.6667
G2 X160.6667 Y130.6667 I7.0 J0.0
G1 X172.6667
G2 X179.2876 Y125.9389 I0.0 J-7.0
G1 F300.0 Z3.0
G2 F800.0 X179.6667 Y123.6667 I-6.621 J-2.2722
G1 Y111.6667
G2 X172.6667 Y104.6667 I-7.0 J0.0
G1 X160.6667
G2 X153.6667 Y111.6667 I0.0 J7.0
G1 Y123.6667
G2 X160.6667 Y130.6667 I7.0 J0.0
G1 X172.6667
G2 X179.2876 Y125.9389 I0.0 J-7.0
G1 F300.0 Z0.0
G2 F800.0 X179.6667 Y123.6667 I-6.621 J-2.2722
G1 Y114.1667
G1 Y112.6667 Z2.0
G1 Y111.6667
G2 X179.5949 Y110.6667 I-7.0 J0.0
G2 X179.205 Y109.1667 Z0.0 I-6.9282 J1.0
G2 X172.6667 Y104.6667 I-6.5383 J2.5
G1 X160.6667
G2 X156.3837 Y106.1298 I0.0 J7.0
G2 X155.2704 Y107.208 Z2.0 I4.2829 J5.5368
G2 X154.2298 Y108.9159 I5.3963 J4.4587
G2 X153.7823 Y110.3998 Z0.0 I6.4369 J2.7507
G2 X153.6667 Y111.6667 I6.8844 J1.2669
G1 Y123.6667
G2 X160.6667 Y130.6667 I7.0 J0.0
G1 X161.9779
G1 X163.4779 Z2.0
G1 X165.4779
G1 X166.9779 Z0.0
G1 X172.6667
G2 X179.2876 Y125.9389 I0.0 J-7.0
G0 Z20.0
G0 X173.9464 Y97.2154
G0 Z10.0
G1 F300.0 Z6.0
G2 F800.0 X179.6667 Y90.3333 I-1.2797 J-6.882
G1 Y78.3333
G2 X172.6667 Y71.3333 I-7.0 J0.0
G1 X160.6667
G2 X153.6667 Y78.3333 I0.0 J7.0
G1 Y90.3333
G2 X160.6667 Y97.3333 I7.0 J0.0
G1 X172.6667
G2 X173.9464 Y97.2154 I0.0 J-7.0
G1 F300.0 Z3.0
G2 F800.0 X179.6667 Y90.3333 I-1.2797 J-6.882
G1 Y78.3333
G2 X172.6667 Y71.3333 I-7.0 J0.0
G1 X160.6667
G2 X153.6667 Y78.3333 I0.0 J7.0
G1 Y90.3333
G2 X160.6667 Y97.3333 I7.0 J0.0
G1 X172.6667
G2 X173.9464 Y97.2154 I0.0 J-7.0
G1 F300.0 Z0.0
G2 F800.0 X179.205 Y92.8333 I-1.2797 J-6.882
G2 X179.5949 Y91.3333 Z2.0 I-6.5383 J-2.5
G2 X179.6667 Y90.3333 I-6.9282 J-1.0
G1 Y89.3333
G1 Y87.8333 Z0.0
G1 Y78.3333
G2 X172.6667 Y71.3333 I-7.0 J0.0
G1 X166.9779
G1 X165.4779 Z2.0
G1 X163.4779
G1 X161.9779 Z0.0
G1 X160.6667
G2 X153.6667 Y78.3333 I0.0 J7.0
G1 Y90.3333
G2 X153.7823 Y91.6002 I7.0 J0.0
G2 X154.2298 Y93.0841 Z2.0 I6.8844 J-1.2669
G2 X155.2704 Y94.792 I6.4369 J-2.7507
G2 X156.3837 Y95.8702 Z0.0 I5.3963 J-4.4587
G2 X160.6667 Y97.3333 I4.2829 J-5.5368
G1 X172.6667
G2 X173.9464 Y97.2154 I0.0 J-7.0
G0 Z20.0
G0 X187.379 Y92.6055
G0 Z10.0
G1 F300.0 Z6.0
G2 F800.0 X194.0 Y97.3333 I6.621 J-2.2722
G1 X206.0
G2 X213.0 Y90.3333 I0.0 J-7.0
G1 Y78.3333
G2 X206.0 Y71.3333 I-7.0 J0.0
G1 X194.0
G2 X187.0 Y78.3333 I0.0 J7.0
G1 Y90.3333
G2 X187.379 Y92.6055 I7.0 J0.0
G1 F300.0 Z3.0
G2 F800.0 X194.0 Y97.3333 I6.621 J-2.2722
G1 X206.0
G2 X213.0 Y90.3333 I0.0 J-7.0
G1 Y78.3333
G2 X206.0 Y71.3333 I-7.0 J0.0
G1 X194.0
G2 X187.0 Y78.3333 I0.0 J7.0
G1 Y90.3333
G2 X187.379 Y92.6055 I7.0 J0.0
G1 F300.0 Z1.3856
G2 F800.0 X187.5631 Y93.0841 Z2.0 I6.621 J-2.2722
G2 X188.6037 Y94.792 I6.4369 J-2.7507
G2 X189.7171 Y95.8702 Z0.0 I5.3963 J-4.4587
G2 X194.0 Y97.3333 I4.2829 J-5.5368
G1 X206.0
G2 X212.5383 Y92.8333 I0.0 J-7.0
G2 X212.9282 Y91.3333 Z2.0 I-6.5383 J-2.5
G2 X213.0 Y90.3333 I-6.9282 J-1.0
G1 Y89.3333
G1 Y87.8333 Z0.0
G1 Y78.3333
G2 X206.0 Y71.3333 I-7.0 J0.0
G1 X200.3112
G1 X198.8112 Z2.0
G1 X196.8112
G1 X195.3112 Z0.0
G1 X194.0
G2 X187.0 Y78.3333 I0.0 J7.0
G1 Y90.3333
G2 X187.1156 Y91.6002 I7.0 J0.0
G2 X187.379 Y92.6055 Z1.3856 I6.8844 J-1.2669
G0 Z20.0
G0 X192.7203 Y63.882
G0 Z10.0
G1 F300.0 Z6.0
G2 F800.0 X194.0 Y64.0 I1.2797 J-6.882
G1 X206.0
G2 X213.0 Y57.0 I0.0 J-7.0
G1 Y45.0
G2 X206.0 Y38.0 I-7.0 J0.0
G1 X194.0
G2 X187.0 Y45.0 I0.0 J7.0
G1 Y57.0
G2 X192.7203 Y63.882 I7.0 J0.0
G1 F300.0 Z3.0
G2 F800.0 X194.0 Y64.0 I1.2797 J-6.882
G1 X206.0
G2 X213.0 Y57.0 I0.0 J-7.0
G1 Y45.0
G2 X206.0 Y38.0 I-7.0 J0.0
G1 X194.0
G2 X187.0 Y45.0 I0.0 J7.0
G1 Y57.0
G2 X192.7203 Y63.882 I7.0 J0.0
G1 F300.0 Z0.0
G2 F800.0 X194.0 Y64.0 I1.2797 J-6.882
G1 X206.0
G2 X212.5383 Y59.5 I0.0 J-7.0
G2 X212.9282 Y58.0 Z2.0 I-6.5383 J-2.5
G2 X213.0 Y57.0 I-6.9282 J-1.0
G1 Y56.0
G1 Y54.5 Z0.0
G1 Y45.0
G2 X206.0 Y38.0 I-7.0 J0.0
G1 X200.3112
G1 X198.8112 Z2.0
G1 X196.8112
G1 X195.3112 Z0.0
G1 X194.0
G2 X187.0 Y45.0 I0.0 J7.0
G1 Y57.0
G2 X187.1156 Y58.2669 I7.0 J0.0
G2 X187.5631 Y59.7507 Z2.0 I6.8844 J-1.2669
G2 X188.6037 Y61.4587 I6.4369 J-2.7507
G2 X189.7171 Y62.5368 Z0.0 I5.3963 J-4.4587
G2 X192.7203 Y63.882 I4.2829 J-5.5368
G0 Z20.0
G0 X179.2876 Y59.2722
G0 Z10.0
G1 F300.0 Z6.0
G2 F800.0 X179.6667 Y57.0 I-6.621 J-2.2722
G1 Y45.0
G2 X172.6667 Y38.0 I-7.0 J0.0
G1 X160.6667
G2 X153.6667 Y45.0 I0.0 J7.0
G1 Y57.0
G2 X160.6667 Y64.0 I7.0 J0.0
G1 X172.6667
G2 X179.2876 Y59.2722 I0.0 J-7.0
G1 F300.0 Z3.0
G2 F800.0 X179.6667 Y57.0 I-6.621 J-2.2722
G1 Y45.0
G2 X172.6667 Y38.0 I-7.0 J0.0
G1 X160.6667
G2 X153.6667 Y45.0 I0.0 J7.0
G1 Y57.0
G2 X160.6667 Y64.0 I7.0 J0.0
G1 X172.6667
G2 X179.2876 Y59.2722 I0.0 J-7.0
G1 F300.0 Z0.3231
G2 F800.0 X179.5949 Y58.0 Z2.0 I-6.621 J-2.2722
G2 X179.6667 Y57.0 I-6.9282 J-1.0
G1 Y56.0
G1 Y54.5 Z0.0
G1 Y45.0
G2 X172.6667 Y38.0 I-7.0 J0.0
G1 X166.9779
G1 X165.4779 Z2.0
G1 X163.4779
G1 X161.9779 Z0.0
G1 X160.6667
G2 X153.6667 Y45.0 I0.0 J7.0
G1 Y57.0
G2 X153.7823 Y58.2669 I7.0 J0.0
G2 X154.2298 Y59.7507 Z2.0 I6.8844 J-1.2669
G2 X155.2704 Y61.4587 I6.4369 J-2.7507
G2 X156.3837 Y62.5368 Z0.0 I5.3963 J-4.4587
G2 X160.6667 Y64.0 I4.2829 J-5.5368
G1 X172.6667
G2 X179.205 Y59.5 I0.0 J-7.0
G2 X179.2876 Y59.2722 Z0.3231 I-6.5383 J-2.5
( omtrek )
S1000
G0 Z20.0
G0 X32.0 Y0.0
G0 Z10.0
G1 F300.0 Z6.0
G1 F800.0 Y15.6667
G1 X210.0
G1 Y0.0
G0 Z20.0
G0 X251.0 Y41.0
G0 Z10.0
G1 F300.0 Z6.0
G1 F800.0 X235.3333
G1 Y461.0
G1 X251.0
G0 Z20.0
G0 X210.0 Y502.0
G0 Z10.0
G1 F300.0 Z6.0
G1 F800.0 Y486.3333
G1 X32.0
G1 Y502.0
G0 Z20.0
G0 X210.0
G0 Z7.0
G1 F300.0 Z3.0
G1 F800.0 Y486.3333
G1 X32.0
G1 Y502.0
G0 Z20.0
G0 X210.0
G0 Z4.0
G1 F300.0 Z0.0
G1 F800.0 Y486.3333
G1 X196.8333
G1 X195.3333 Z2.0
G1 X193.3333
G1 X191.8333 Z0.0
G1 X156.8333
G1 X155.3333 Z2.0
G1 X153.3333
G1 X151.8333 Z0.0
G1 X116.8333
G1 X115.3333 Z2.0
G1 X113.3333
G1 X111.8333 Z0.0
G1 X76.8333
G1 X75.3333 Z2.0
G1 X73.3333
G1 X71.8333 Z0.0
G1 X32.0
G1 Y502.0
G0 Z20.0
G0 Y0.0
G0 Z7.0
G1 F300.0 Z3.0
G1 F800.0 Y15.6667
G1 X210.0
G1 Y0.0
G0 Z20.0
G0 X251.0 Y41.0
G0 Z7.0
G1 F300.0 Z3.0
G1 F800.0 X235.3333
G1 Y461.0
G1 X251.0
G0 Z20.0
G0 Y41.0
G0 Z4.0
G1 F300.0 Z0.0
G1 F800.0 X235.3333
G1 Y58.7778
G1 Y60.2778 Z2.0
G1 Y62.2778
G1 Y63.7778 Z0.0
G1 Y134.6667
G1 Y136.1667 Z2.0
G1 Y138.1667
G1 Y139.6667 Z0.0
G1 Y210.5556
G1 Y212.0556 Z2.0
G1 Y214.0556
G1 Y215.5556 Z0.0
G1 Y286.4444
G1 Y287.9444 Z2.0
G1 Y289.9444
G1 Y291.4444 Z0.0
G1 Y362.3333
G1 Y363.8333 Z2.0
G1 Y365.8333
G1 Y367.3333 Z0.0
G1 Y438.2222
G1 Y439.7222 Z2.0
G1 Y441.7222
G1 Y443.2222 Z0.0
G1 Y461.0
G1 X251.0
G0 Z20.0
G0 X32.0 Y0.0
G0 Z4.0
G1 F300.0 Z0.0
G1 F800.0 Y15.6667
G1 X45.1667
G1 X46.6667 Z2.0
G1 X48.6667
G1 X50.1667 Z0.0
G1 X85.1667
G1 X86.6667 Z2.0
G1 X88.6667
G1 X90.1667 Z0.0
G1 X125.1667
G1 X126.6667 Z2.0
G1 X128.6667
G1 X130.1667 Z0.0
G1 X165.1667
G1 X166.6667 Z2.0
G1 X168.6667
G1 X170.1667 Z0.0
G1 X210.0
G1 Y0.0
( rand-gaten )
S1000
G0 Z20.0
G0 X-1.0 Y502.0
G0 Z10.0
G1 F300.0 Z6.0
G1 F800.0 Y465.0
G3 X0.0 Y464.0 I1.0 J0.0
G1 X6.0
G2 X13.0 Y457.0 I0.0 J-7.0
G1 Y445.0
G2 X6.0 Y438.0 I-7.0 J0.0
G1 X0.0
G3 X-1.0 Y437.0 I0.0 J-1.0
G1 Y431.6667
G3 X0.0 Y430.6667 I1.0 J0.0
G1 X6.0
G2 X13.0 Y423.6667 I0.0 J-7.0
G1 Y411.6667
G2 X6.0 Y404.6667 I-7.0 J0.0
G1 X0.0
G3 X-1.0 Y403.6667 I0.0 J-1.0
G1 Y398.3333
G3 X0.0 Y397.3333 I1.0 J0.0
G1 X6.0
G2 X13.0 Y390.3333 I0.0 J-7.0
G1 Y378.3333
G2 X6.0 Y371.3333 I-7.0 J0.0
G1 X0.0
G3 X-1.0 Y370.3333 I0.0 J-1.0
G1 Y365.0
G3 X0.0 Y364.0 I1.0 J0.0
G1 X6.0
G2 X13.0 Y357.0 I0.0 J-7.0
G1 Y345.0
G2 X6.0 Y338.0 I-7.0 J0.0
G1 X0.0
G3 X-1.0 Y337.0 I0.0 J-1.0
G1 Y331.6667
G3 X0.0 Y330.6667 I1.0 J0.0
G1 X6.0
G2 X13.0 Y323.6667 I0.0 J-7.0
G1 Y311.6667
G2 X6.0 Y304.6667 I-7.0 J0.0
G1 X0.0
G3 X-1.0 Y303.6667 I0.0 J-1.0
G1 Y298.3333
G3 X0.0 Y297.3333 I1.0 J0.0
G1 X6.0
G2 X13.0 Y290.3333 I0.0 J-7.0
G1 Y278.3333
G2 X6.0 Y271.3333 I-7.0 J0.0
G1 X0.0
G3 X-1.0 Y270.3333 I0.0 J-1.0
G1 Y265.0
G3 X0.0 Y264.0 I1.0 J0.0
G1 X6.0
G2 X13.0 Y257.0 I0.0 J-7.0
G1 Y245.0
G2 X6.0 Y238.0 I-7.0 J0.0
G1 X0.0
G3 X-1.0 Y237.0 I0.0 J-1.0
G1 Y231.6667
G3 X0.0 Y230.6667 I1.0 J0.0
G1 X6.0
G2 X13.0 Y223.6667 I0.0 J-7.0
G1 Y211.6667
G2 X6.0 Y204.6667 I-7.0 J0.0
G1 X0.0
G3 X-1.0 Y203.6667 I0.0 J-1.0
G1 Y198.3333
G3 X0.0 Y197.3333 I1.0 J0.0
G1 X6.0
G2 X13.0 Y190.3333 I0.0 J-7.0
G1 Y178.3333
G2 X6.0 Y171.3333 I-7.0 J0.0
G1 X0.0
G3 X-1.0 Y170.3333 I0.0 J-1.0
G1 Y165.0
G3 X0.0 Y164.0 I1.0 J0.0
G1 X6.0
G2 X13.0 Y157.0 I0.0 J-7.0
G1 Y145.0
G2 X6.0 Y138.0 I-7.0 J0.0
G1 X0.0
G3 X-1.0 Y137.0 I0.0 J-1.0
G1 Y131.6667
G3 X0.0 Y130.6667 I1.0 J0.0
G1 X6.0
G2 X13.0 Y123.6667 I0.0 J-7.0
G1 Y111.6667
G2 X6.0 Y104.6667 I-7.0 J0.0
G1 X0.0
G3 X-1.0 Y103.6667 I0.0 J-1.0
G1 Y98.3333
G3 X0.0 Y97.3333 I1.0 J0.0
G1 X6.0
G2 X13.0 Y90.3333 I0.0 J-7.0
G1 Y78.3333
G2 X6.0 Y71.3333 I-7.0 J0.0
G1 X0.0
G3 X-1.0 Y70.3333 I0.0 J-1.0
G1 Y65.0
G3 X0.0 Y64.0 I1.0 J0.0
G1 X6.0
G2 X13.0 Y57.0 I0.0 J-7.0
G1 Y45.0
G2 X6.0 Y38.0 I-7.0 J0.0
G1 X0.0
G3 X-1.0 Y37.0 I0.0 J-1.0
G1 Y0.0
G0 Z20.0
G0 Y502.0
G0 Z7.0
G1 F300.0 Z3.0
G1 F800.0 Y465.0
G3 X0.0 Y464.0 I1.0 J0.0
G1 X6.0
G2 X13.0 Y457.0 I0.0 J-7.0
G1 Y445.0
G2 X6.0 Y438.0 I-7.0 J0.0
G1 X0.0
G3 X-1.0 Y437.0 I0.0 J-1.0
G1 Y431.6667
G3 X0.0 Y430.6667 I1.0 J0.0
G1 X6.0
G2 X13.0 Y423.6667 I0.0 J-7.0
G1 Y411.6667
G2 X6.0 Y404.6667 I-7.0 J0.0
G1 X0.0
G3 X-1.0 Y403.6667 I0.0 J-1.0
G1 Y398.3333
G3 X0.0 Y397.3333 I1.0 J0.0
G1 X6.0
G2 X13.0 Y390.3333 I0.0 J-7.0
G1 Y378.3333
G2 X6.0 Y371.3333 I-7.0 J0.0
G1 X0.0
G3 X-1.0 Y370.3333 I0.0 J-1.0
G1 Y365.0
G3 X0.0 Y364.0 I1.0 J0.0
G1 X6.0
G2 X13.0 Y357.0 I0.0 J-7.0
G1 Y345.0
G2 X6.0 Y338.0 I-7.0 J0.0
G1 X0.0
G3 X-1.0 Y337.0 I0.0 J-1.0
G1 Y331.6667
G3 X0.0 Y330.6667 I1.0 J0.0
G1 X6.0
G2 X13.0 Y323.6667 I0.0 J-7.0
G1 Y311.6667
G2 X6.0 Y304.6667 I-7.0 J0.0
G1 X0.0
G3 X-1.0 Y303.6667 I0.0 J-1.0
G1 Y298.3333
G3 X0.0 Y297.3333 I1.0 J0.0
G1 X6.0
G2 X13.0 Y290.3333 I0.0 J-7.0
G1 Y278.3333
G2 X6.0 Y271.3333 I-7.0 J0.0
G1 X0.0
G3 X-1.0 Y270.3333 I0.0 J-1.0
G1 Y265.0
G3 X0.0 Y264.0 I1.0 J0.0
G1 X6.0
G2 X13.0 Y257.0 I0.0 J-7.0
G1 Y245.0
G2 X6.0 Y238.0 I-7.0 J0.0
G1 X0.0
G3 X-1.0 Y237.0 I0.0 J-1.0
G1 Y231.6667
G3 X0.0 Y230.6667 I1.0 J0.0
G1 X6.0
G2 X13.0 Y223.6667 I0.0 J-7.0
G1 Y211.6667
G2 X6.0 Y204.6667 I-7.0 J0.0
G1 X0.0
G3 X-1.0 Y203.6667 I0.0 J-1.0
G1 Y198.3333
G3 X0.0 Y197.3333 I1.0 J0.0
G1 X6.0
G2 X13.0 Y190.3333 I0.0 J-7.0
G1 Y178.3333
G2 X6.0 Y171.3333 I-7.0 J0.0
G1 X0.0
G3 X-1.0 Y170.3333 I0.0 J-1.0
G1 Y165.0
G3 X0.0 Y164.0 I1.0 J0.0
G1 X6.0
G2 X13.0 Y157.0 I0.0 J-7.0
G1 Y145.0
G2 X6.0 Y138.0 I-7.0 J0.0
G1 X0.0
G3 X-1.0 Y137.0 I0.0 J-1.0
G1 Y131.6667
G3 X0.0 Y130.6667 I1.0 J0.0
G1 X6.0
G2 X13.0 Y123.6667 I0.0 J-7.0
G1 Y111.6667
G2 X6.0 Y104.6667 I-7.0 J0.0
G1 X0.0
G3 X-1.0 Y103.6667 I0.0 J-1.0
G1 Y98.3333
G3 X0.0 Y97.3333 I1.0 J0.0
G1 X6.0
G2 X13.0 Y90.3333 I0.0 J-7.0
G1 Y78.3333
G2 X6.0 Y71.3333 I-7.0 J0.0
G1 X0.0
G3 X-1.0 Y70.3333 I0.0 J-1.0
G1 Y65.0
G3 X0.0 Y64.0 I1.0 J0.0
G1 X6.0
G2 X13.0 Y57.0 I0.0 J-7.0
G1 Y45.0
G2 X6.0 Y38.0 I-7.0 J0.0
G1 X0.0
G3 X-1.0 Y37.0 I0.0 J-1.0
G1 Y0.0
G0 Z20.0
G0 Y502.0
G0 Z4.0
G1 F300.0 Z0.0
G1 F800.0 Y465.0
G3 X0.0 Y464.0 I1.0 J0.0
G1 X6.0
G2 X13.0 Y457.0 I0.0 J-7.0
G1 Y445.0
G2 X10.9779 Y440.0785 I-7.0 J0.0
G2 X9.7729 Y439.1038 Z2.0 I-4.9779 J4.9215
G2 X7.9516 Y438.2775 I-3.7729 J5.8962
G2 X6.4245 Y438.0129 Z0.0 I-1.9516 J6.7225
G2 X6.0 Y438.0 I-0.4245 J6.9871
G1 X0.0
G3 X-1.0 Y437.0 I0.0 J-1.0
G1 Y431.6667
G3 X0.0 Y430.6667 I1.0 J0.0
G1 X6.0
G2 X13.0 Y423.6667 I0.0 J-7.0
G1 Y419.4735
G1 Y417.9735 Z2.0
G1 Y415.9735
G1 Y414.4735 Z0.0
G1 Y411.6667
G2 X6.0 Y404.6667 I-7.0 J0.0
G1 X0.0
G3 X-1.0 Y403.6667 I0.0 J-1.0
G1 Y398.3333
G3 X0.0 Y397.3333 I1.0 J0.0
G1 X6.0
G2 X7.623 Y397.1426 I0.0 J-7.0
G2 X9.0815 Y396.6186 Z2.0 I-1.623 J-6.8093
G2 X10.7331 Y395.4906 I-3.0815 J-6.2852
G2 X11.7519 Y394.3227 Z0.0 I-4.7331 J-5.1573
G2 X13.0 Y390.3333 I-5.7519 J-3.9894
G1 Y378.3333
G2 X6.0 Y371.3333 I-7.0 J0.0
G1 X0.0
G3 X-0.5438 Y371.1726 I0.0 J-1.0
G3 X-1.0 Y370.3333 Z1.2736 I0.5438 J-0.8392
G1 Y369.6726 Z2.0
G1 Y367.6726
G1 Y366.1726 Z0.0
G1 Y365.0
G3 X0.0 Y364.0 I1.0 J0.0
G1 X6.0
G2 X13.0 Y357.0 I0.0 J-7.0
G1 Y345.0
G2 X12.5637 Y342.5674 I-7.0 J0.0
G2 X11.8675 Y341.1827 Z2.0 I-6.5637 J2.4326
G2 X10.5486 Y339.6792 I-5.8675 J3.8173
G2 X9.2663 Y338.8088 Z0.0 I-4.5486 J5.3208
G2 X6.0 Y338.0 I-3.2663 J6.1912
G1 X0.0
G3 X-1.0 Y337.0 I0.0 J-1.0
G1 Y331.6667
G3 X0.0 Y330.6667 I1.0 J0.0
G1 X6.0
G2 X13.0 Y323.6667 I0.0 J-7.0
G1 Y322.8717
G1 Y321.3717 Z2.0
G1 Y319.3717
G1 Y317.8717 Z0.0
G1 Y311.6667
G2 X6.0 Y304.6667 I-7.0 J0.0
G1 X0.0
G3 X-1.0 Y303.6667 I0.0 J-1.0
G1 Y298.3333
G3 X0.0 Y297.3333 I1.0 J0.0
G1 X4.6949
G1 X6.0 Z1.7401
G2 X6.2174 Y297.33 Z2.0 I0.0 J-7.0
G2 X8.1871 Y296.9829 I-0.2174 J-6.9966
G2 X9.5967 Y296.3387 Z0.0 I-2.1871 J-6.6496
G2 X13.0 Y290.3333 I-3.5967 J-6.0053
G1 Y278.3333
G2 X6.0 Y271.3333 I-7.0 J0.0
G1 X4.2375
G1 X2.7375 Z2.0
G1 X0.7375
G1 X0.0 Z1.0167
G3 X-0.7625 Y270.9803 Z0.0 I0.0 J-1.0
G3 X-1.0 Y270.3333 I0.7625 J-0.6469
G1 Y265.0
G3 X0.0 Y264.0 I1.0 J0.0
G1 X6.0
G2 X13.0 Y257.0 I0.0 J-7.0
G1 Y245.4834
G1 Y245.0 Z0.6445
G2 X12.9193 Y243.94 Z2.0 I-7.0 J0.0
G2 X12.3371 Y242.0266 I-6.9193 J1.06
G2 X11.5275 Y240.7051 Z0.0 I-6.3371 J2.9734
G2 X6.0 Y238.0 I-5.5275 J4.2949
G1 X0.0
G3 X-1.0 Y237.0 I0.0 J-1.0
G1 Y231.6667
G3 X0.0 Y230.6667 I1.0 J0.0
G1 X6.0
G2 X12.5055 Y226.2508 I0.0 J-7.0
G2 X12.9147 Y224.756 Z2.0 I-6.5055 J-2.5842
G2 X13.0 Y223.6667 I-6.9147 J-1.0893
G1 Y222.7569
G1 Y221.2568 Z0.0
G1 Y211.6667
G2 X6.0 Y204.6667 I-7.0 J0.0
G1 X0.0
G3 X-1.0 Y203.6667 I0.0 J-1.0
G1 Y198.3333
G3 X0.0 Y197.3333 I1.0 J0.0
G1 X1.4971
G1 X2.9971 Z2.0
G1 X4.9971
G1 X6.0 Z0.6627
G2 X6.4971 Y197.3157 Z0.0 I0.0 J-7.0
G2 X13.0 Y190.3333 I-0.4971 J-6.9823
G1 Y178.3333
G2 X7.6357 Y171.5271 I-7.0 J0.0
G2 X6.1357 Y171.3347 Z2.0 I-1.6357 J6.8062
G2 X6.0 Y171.3333 I-0.1357 J6.9987
G1 X4.1357
G1 X2.6357 Z0.0
G1 X0.0
G3 X-1.0 Y170.3333 I0.0 J-1.0
G1 Y165.0
G3 X0.0 Y164.0 I1.0 J0.0
G1 X6.0
G2 X13.0 Y157.0 I0.0 J-7.0
G1 Y148.5354
G1 Y147.0354 Z2.0
G1 Y145.0354
G1 Y145.0 Z1.9528
G2 X12.8451 Y143.5354 Z0.0 I-7.0 J0.0
G2 X6.0 Y138.0 I-6.8451 J1.4646
G1 X0.0
G3 X-1.0 Y137.0 I0.0 J-1.0
G1 Y131.6667
G3 X0.0 Y130.6667 I1.0 J0.0
G1 X6.0
G2 X10.8624 Y128.7022 I0.0 J-7.0
G2 X11.8513 Y127.5089 Z2.0 I-4.8624 J-5.0356
G2 X12.699 Y125.6974 I-5.8513 J-3.8422
G2 X12.9816 Y124.1736 Z0.0 I-6.699 J-2.0307
G2 X13.0 Y123.6667 I-6.9816 J-0.5069
G1 Y111.6667
G2 X6.0 Y104.6667 I-7.0 J0.0
G1 X0.0
G3 X-1.0 Y103.6667 I0.0 J-1.0
G1 Y98.3333
G3 X0.0 Y97.3333 I1.0 J0.0
G1 X6.0
G2 X13.0 Y90.3333 I0.0 J-7.0
G1 Y78.3333
G2 X10.4121 Y72.8989 I-7.0 J0.0
G2 X9.1082 Y72.0612 Z2.0 I-4.4121 J5.4344
G2 X7.2077 Y71.4383 I-3.1082 J6.2721
G2 X6.0 Y71.3333 Z0.3837 I-1.2077 J6.895
G1 X5.6636 Z0.0
G1 X0.0
G3 X-1.0 Y70.3333 I0.0 J-1.0
G1 Y65.0
G3 X0.0 Y64.0 I1.0 J0.0
G1 X6.0
G2 X13.0 Y57.0 I0.0 J-7.0
G1 Y51.9336
G1 Y50.4336 Z2.0
G1 Y48.4336
G1 Y46.9336 Z0.0
G1 Y45.0
G2 X6.0 Y38.0 I-7.0 J0.0
G1 X0.0
G3 X-1.0 Y37.0 I0.0 J-1.0
G1 Y22.5
G1 Y21.0 Z2.0
G1 Y19.0
G1 Y17.5 Z0.0
G1 Y0.0
G0 Z20.0
M5
M30
